DSAA
361 181
-180 180
-90 90
-2.297303e-08 1.936580e-08
-1.875701e-08 -1.713014e-08 -1.953206e-08 -2.091894e-08 -1.950784e-08 -1.972742e-08 -1.867345e-08 -1.686975e-08 -1.866718e-08 -1.872967e-08
-1.937190e-08 -1.915652e-08 -1.747392e-08 -1.965364e-08 -1.983423e-08 -1.946809e-08 -1.928245e-08 -1.921988e-08 -1.864216e-08 -1.850995e-08
-1.739255e-08 -1.803785e-08 -1.843475e-08 -1.852498e-08 -1.860841e-08 -2.046703e-08 -1.948251e-08 -1.794490e-08 -2.034202e-08 -2.034103e-08
-1.915080e-08 -1.817727e-08 -1.974722e-08 -1.922474e-08 -1.791525e-08 -1.789895e-08 -1.724982e-08 -1.895973e-08 -1.884506e-08 -1.778636e-08
-1.914042e-08 -1.831848e-08 -1.864984e-08 -1.888920e-08 -1.856986e-08 -1.962754e-08 -2.059670e-08 -2.050506e-08 -2.108984e-08 -1.854763e-08
-1.772548e-08 -1.937724e-08 -1.952957e-08 -1.653862e-08 -1.880206e-08 -1.888770e-08 -1.850850e-08 -1.849384e-08 -1.884262e-08 -1.896929e-08
-2.077639e-08 -1.707403e-08 -1.834426e-08 -1.822591e-08 -1.653638e-08 -1.774047e-08 -1.934779e-08 -1.949613e-08 -1.832156e-08 -1.906797e-08
-1.899703e-08 -1.924732e-08 -1.758060e-08 -1.886888e-08 -1.933511e-08 -1.785006e-08 -1.962255e-08 -1.761126e-08 -1.707100e-08 -1.841945e-08
-1.960707e-08 -2.150468e-08 -1.861143e-08 -1.672489e-08 -1.777292e-08 -1.844773e-08 -1.742036e-08 -1.917847e-08 -1.953412e-08 -1.771693e-08
-1.784688e-08 -1.969945e-08 -1.682294e-08 -1.832461e-08 -1.904369e-08 -2.046467e-08 -1.828927e-08 -1.596280e-08 -1.941920e-08 -1.873946e-08
-1.653879e-08 -1.728228e-08 -1.833205e-08 -1.810754e-08 -1.859688e-08 -2.050948e-08 -1.892678e-08 -1.760586e-08 -1.803886e-08 -1.864261e-08
-1.667020e-08 -1.957265e-08 -1.792546e-08 -1.933564e-08 -2.037737e-08 -1.807307e-08 -1.861792e-08 -1.781052e-08 -1.904617e-08 -1.826541e-08
-1.916990e-08 -1.734882e-08 -1.831232e-08 -1.857003e-08 -1.846031e-08 -1.845438e-08 -1.904130e-08 -1.989088e-08 -1.763656e-08 -1.846331e-08
-2.096344e-08 -2.034038e-08 -1.711588e-08 -1.881127e-08 -1.877156e-08 -1.833727e-08 -1.965857e-08 -1.914356e-08 -1.852569e-08 -1.914991e-08
-1.742100e-08 -1.952223e-08 -1.815295e-08 -1.890553e-08 -1.896774e-08 -1.908612e-08 -1.921724e-08 -1.878344e-08 -1.869818e-08 -2.015748e-08
-1.832009e-08 -1.919555e-08 -1.884227e-08 -1.897226e-08 -1.803466e-08 -1.924552e-08 -1.806170e-08 -1.904063e-08 -1.942858e-08 -1.860002e-08
-1.905970e-08 -1.831207e-08 -1.993901e-08 -1.839419e-08 -1.821758e-08 -1.895655e-08 -1.958741e-08 -1.829087e-08 -1.974125e-08 -1.947911e-08
-1.909213e-08 -1.981622e-08 -2.042130e-08 -1.626406e-08 -1.798615e-08 -1.722849e-08 -1.797536e-08 -1.986577e-08 -1.864581e-08 -1.918343e-08
-2.081481e-08 -1.928164e-08 -1.831511e-08 -1.893657e-08 -1.783717e-08 -2.061071e-08 -1.754074e-08 -1.883553e-08 -1.734706e-08 -1.906991e-08
-1.788921e-08 -1.758136e-08 -1.847133e-08 -1.873971e-08 -1.858409e-08 -1.979864e-08 -1.885556e-08 -2.080786e-08 -1.810117e-08 -1.776720e-08
-1.720322e-08 -1.780650e-08 -1.813306e-08 -1.789703e-08 -1.731637e-08 -1.835582e-08 -2.071321e-08 -2.002488e-08 -1.846323e-08 -1.985629e-08
-1.899087e-08 -1.799859e-08 -1.821517e-08 -1.891843e-08 -1.964734e-08 -1.961443e-08 -1.816280e-08 -1.852688e-08 -1.946216e-08 -1.887695e-08
-1.874340e-08 -1.963188e-08 -1.920191e-08 -1.744512e-08 -1.769487e-08 -1.905470e-08 -1.970545e-08 -1.805582e-08 -1.794180e-08 -1.778213e-08
-1.938417e-08 -1.947425e-08 -1.920310e-08 -1.904510e-08 -1.802304e-08 -1.852549e-08 -1.688812e-08 -1.853384e-08 -1.875140e-08 -1.939980e-08
-1.953773e-08 -1.986961e-08 -1.896116e-08 -2.059673e-08 -1.825153e-08 -1.719182e-08 -1.949738e-08 -1.806057e-08 -1.717074e-08 -1.902022e-08
-1.995509e-08 -1.985496e-08 -1.850321e-08 -1.735711e-08 -1.959984e-08 -1.969685e-08 -1.942006e-08 -1.758205e-08 -1.911766e-08 -1.869506e-08
-1.831675e-08 -1.901293e-08 -1.878287e-08 -1.974978e-08 -1.820923e-08 -1.746651e-08 -1.958844e-08 -1.862851e-08 -1.913173e-08 -1.818220e-08
-1.959415e-08 -1.823905e-08 -1.825559e-08 -1.778658e-08 -2.114811e-08 -1.716628e-08 -1.862139e-08 -1.912361e-08 -1.970024e-08 -1.819044e-08
-1.778212e-08 -1.861422e-08 -1.909287e-08 -1.935654e-08 -1.825872e-08 -1.742514e-08 -1.995811e-08 -1.944329e-08 -1.974333e-08 -1.815510e-08
-1.948869e-08 -1.688659e-08 -1.832642e-08 -1.851181e-08 -2.039783e-08 -1.908808e-08 -1.980209e-08 -1.861490e-08 -1.943717e-08 -1.815313e-08
-1.869986e-08 -2.045290e-08 -1.903102e-08 -1.643723e-08 -1.960893e-08 -1.928893e-08 -1.937904e-08 -1.730428e-08 -2.057322e-08 -1.805360e-08
-1.991166e-08 -1.969086e-08 -2.003888e-08 -1.866795e-08 -2.027193e-08 -1.944331e-08 -1.859649e-08 -1.823408e-08 -1.933328e-08 -1.803649e-08
-1.812283e-08 -1.889615e-08 -1.809859e-08 -1.952670e-08 -1.921987e-08 -1.941311e-08 -1.880511e-08 -1.942695e-08 -1.899415e-08 -1.789756e-08
-1.983822e-08 -1.743386e-08 -1.852315e-08 -1.850162e-08 -1.727023e-08 -1.979363e-08 -1.925867e-08 -1.922864e-08 -1.835428e-08 -1.780685e-08
-1.738316e-08 -1.963176e-08 -1.909045e-08 -1.774451e-08 -1.633081e-08 -1.753570e-08 -1.806839e-08 -1.870515e-08 -1.945773e-08 -1.916272e-08
-1.977581e-08 -1.809127e-08 -1.925088e-08 -1.786257e-08 -1.927692e-08 -1.820687e-08 -1.985515e-08 -1.907235e-08 -1.873407e-08 -1.874834e-08
-1.875701e-08
-1.761665e-08 -1.955488e-08 -1.918461e-08 -1.805542e-08 -1.855176e-08 -1.926562e-08 -1.935435e-08 -1.908126e-08 -1.927074e-08 -1.783592e-08
-1.829608e-08 -1.897144e-08 -1.858722e-08 -1.923856e-08 -1.916413e-08 -1.936245e-08 -1.773183e-08 -1.827914e-08 -1.735744e-08 -1.796601e-08
-1.969393e-08 -1.860605e-08 -1.701040e-08 -1.827971e-08 -1.949341e-08 -1.743286e-08 -2.067502e-08 -1.984122e-08 -1.975405e-08 -2.085523e-08
-1.859354e-08 -1.869130e-08 -1.746051e-08 -1.847751e-08 -1.899358e-08 -1.917626e-08 -1.766265e-08 -1.814922e-08 -1.951396e-08 -2.007937e-08
-1.696287e-08 -1.810199e-08 -1.712473e-08 -1.959096e-08 -1.877749e-08 -1.837356e-08 -1.866132e-08 -1.911207e-08 -1.816793e-08 -1.824377e-08
-1.995672e-08 -1.943065e-08 -1.912875e-08 -1.802199e-08 -1.911340e-08 -1.793266e-08 -1.915075e-08 -1.860167e-08 -1.949516e-08 -2.056927e-08
-1.825395e-08 -1.780952e-08 -1.932443e-08 -2.019710e-08 -1.906805e-08 -1.846485e-08 -1.987618e-08 -1.893050e-08 -1.729137e-08 -2.030810e-08
-1.719808e-08 -2.038932e-08 -1.845119e-08 -1.845668e-08 -1.898209e-08 -1.927628e-08 -1.929820e-08 -1.762594e-08 -1.775567e-08 -1.928489e-08
-1.949345e-08 -1.780522e-08 -1.845444e-08 -1.912613e-08 -1.784135e-08 -1.934061e-08 -1.954392e-08 -1.968319e-08 -1.955964e-08 -2.003763e-08
-1.861201e-08 -1.851017e-08 -1.816584e-08 -1.941558e-08 -1.845036e-08 -1.896831e-08 -1.872539e-08 -1.702647e-08 -1.877288e-08 -2.044803e-08
-1.961299e-08 -1.992072e-08 -1.732140e-08 -1.919558e-08 -1.970207e-08 -1.870618e-08 -1.939254e-08 -1.985915e-08 -2.092512e-08 -1.891918e-08
-1.824911e-08 -1.958704e-08 -1.963684e-08 -2.065851e-08 -1.796140e-08 -1.932513e-08 -1.804947e-08 -1.888433e-08 -2.048883e-08 -1.968673e-08
-1.834590e-08 -1.856504e-08 -1.806927e-08 -1.828038e-08 -1.690682e-08 -1.988751e-08 -1.763141e-08 -1.964141e-08 -1.923168e-08 -1.878022e-08
-1.935426e-08 -1.810209e-08 -1.949124e-08 -1.893261e-08 -2.092805e-08 -1.926209e-08 -1.847658e-08 -1.917168e-08 -1.878152e-08 -1.966720e-08
-1.745168e-08 -1.687857e-08 -2.019011e-08 -1.843352e-08 -1.887671e-08 -1.728845e-08 -1.922440e-08 -1.917941e-08 -1.917057e-08 -1.865298e-08
-1.791073e-08 -2.027416e-08 -2.146613e-08 -1.808621e-08 -1.992729e-08 -1.868227e-08 -1.786716e-08 -1.798525e-08 -1.816063e-08 -1.892350e-08
-1.860876e-08 -1.782914e-08 -1.922428e-08 -1.942663e-08 -2.028565e-08 -1.856858e-08 -1.729159e-08 -1.745761e-08 -1.825064e-08 -1.798382e-08
-1.719317e-08 -1.939350e-08 -1.990575e-08 -1.821184e-08 -1.847660e-08 -1.865805e-08 -1.872847e-08 -2.049776e-08 -1.811046e-08 -1.982891e-08
-1.729672e-08 -1.802120e-08 -1.854668e-08 -2.050750e-08 -1.884316e-08 -1.850311e-08 -1.863087e-08 -1.871739e-08 -1.908990e-08 -1.875789e-08
-1.650435e-08 -1.830653e-08 -1.877851e-08 -1.802472e-08 -1.961734e-08 -1.973438e-08 -1.944413e-08 -1.872144e-08 -2.058614e-08 -1.999375e-08
-1.906837e-08 -1.795422e-08 -1.980886e-08 -1.879106e-08 -1.833783e-08 -1.933028e-08 -1.864844e-08 -1.905780e-08 -1.915754e-08 -1.906540e-08
-1.927901e-08 -1.921259e-08 -1.871547e-08 -1.735098e-08 -1.863799e-08 -1.892811e-08 -1.820687e-08 -1.767345e-08 -1.973622e-08 -1.770514e-08
-1.906034e-08 -1.871946e-08 -1.911836e-08 -1.945839e-08 -1.850597e-08 -1.909339e-08 -1.783891e-08 -1.950625e-08 -1.738840e-08 -1.828786e-08
-1.779964e-08 -1.844410e-08 -2.023729e-08 -1.938752e-08 -1.942450e-08 -1.827278e-08 -1.998656e-08 -1.851081e-08 -1.989239e-08 -1.910504e-08
-1.902156e-08 -1.984968e-08 -1.757052e-08 -1.914904e-08 -2.054968e-08 -1.880363e-08 -1.875513e-08 -1.754883e-08 -1.962222e-08 -1.981467e-08
-1.993669e-08 -1.949382e-08 -1.867822e-08 -1.733472e-08 -2.030954e-08 -1.956174e-08 -1.845758e-08 -1.946746e-08 -1.825382e-08 -1.912377e-08
-1.988614e-08 -1.967361e-08 -1.925481e-08 -1.796331e-08 -1.952977e-08 -1.746779e-08 -1.968725e-08 -1.973733e-08 -1.786933e-08 -1.919133e-08
-1.798545e-08 -1.886538e-08 -1.797022e-08 -2.004759e-08 -2.043723e-08 -1.806442e-08 -1.993509e-08 -1.926921e-08 -1.904094e-08 -1.950052e-08
-1.878643e-08 -1.843274e-08 -1.801382e-08 -1.923124e-08 -1.731551e-08 -2.124853e-08 -1.899686e-08 -1.940628e-08 -1.956951e-08 -2.000714e-08
-1.855030e-08 -1.751226e-08 -1.937654e-08 -1.880620e-08 -1.921310e-08 -1.824872e-08 -1.814805e-08 -1.860869e-08 -1.977116e-08 -1.814445e-08
-1.835706e-08 -1.868912e-08 -1.862015e-08 -1.955433e-08 -2.120178e-08 -1.929378e-08 -2.015152e-08 -1.793860e-08 -1.819078e-08 -1.863413e-08
-1.796195e-08 -1.922974e-08 -1.759065e-08 -1.778676e-08 -1.790230e-08 -1.981995e-08 -1.850874e-08 -1.854155e-08 -1.748425e-08 -1.935887e-08
-1.832746e-08 -1.872886e-08 -2.002620e-08 -1.961206e-08 -1.996886e-08 -2.000087e-08 -1.815395e-08 -1.934904e-08 -1.906655e-08 -1.912113e-08
-1.998136e-08 -1.964729e-08 -1.939043e-08 -1.901174e-08 -2.016321e-08 -1.855249e-08 -1.953425e-08 -1.986135e-08 -1.844399e-08 -1.783071e-08
-1.946773e-08 -1.925264e-08 -1.871395e-08 -2.055629e-08 -1.909611e-08 -1.975129e-08 -1.847206e-08 -2.069137e-08 -1.859584e-08 -2.023125e-08
-1.998822e-08 -1.964044e-08 -1.954590e-08 -1.805809e-08 -1.848802e-08 -2.004350e-08 -1.767304e-08 -1.943290e-08 -1.871061e-08 -2.061059e-08
-1.761665e-08
-1.955385e-08 -1.903092e-08 -1.817324e-08 -1.950440e-08 -1.900587e-08 -1.780435e-08 -1.819459e-08 -1.975913e-08 -1.934360e-08 -1.843076e-08
-2.096252e-08 -1.920197e-08 -1.858462e-08 -1.865181e-08 -1.865822e-08 -1.905843e-08 -2.038843e-08 -1.873625e-08 -1.879350e-08 -1.915074e-08
-1.864587e-08 -1.831648e-08 -2.022610e-08 -1.921919e-08 -1.855489e-08 -1.996410e-08 -2.060825e-08 -1.840382e-08 -1.769576e-08 -1.698500e-08
-2.068517e-08 -1.937323e-08 -1.891624e-08 -1.904482e-08 -2.008159e-08 -1.936034e-08 -1.948952e-08 -1.773387e-08 -2.027192e-08 -1.911852e-08
-1.857068e-08 -2.005046e-08 -1.961399e-08 -2.064885e-08 -1.879353e-08 -1.884295e-08 -1.744981e-08 -1.883311e-08 -1.945153e-08 -1.721929e-08
-1.842295e-08 -1.938519e-08 -1.860015e-08 -1.844793e-08 -1.918903e-08 -1.679249e-08 -1.837545e-08 -1.900720e-08 -1.871310e-08 -1.918041e-08
-1.760433e-08 -1.932464e-08 -1.848922e-08 -2.129000e-08 -1.784279e-08 -1.987782e-08 -1.845765e-08 -1.723024e-08 -1.962498e-08 -2.012053e-08
-2.026360e-08 -1.933642e-08 -1.938380e-08 -1.923395e-08 -1.905472e-08 -1.899144e-08 -1.870612e-08 -1.918317e-08 -2.063945e-08 -2.017516e-08
-1.969921e-08 -1.819610e-08 -1.892671e-08 -1.888788e-08 -2.099053e-08 -1.993082e-08 -1.722743e-08 -1.971025e-08 -1.765104e-08 -1.860126e-08
-1.934693e-08 -1.955977e-08 -1.950073e-08 -1.922932e-08 -1.909759e-08 -1.968031e-08 -1.886652e-08 -1.889483e-08 -1.990429e-08 -1.825182e-08
-2.021479e-08 -2.016455e-08 -1.752917e-08 -1.870552e-08 -1.879710e-08 -1.989489e-08 -1.939110e-08 -1.890045e-08 -1.960777e-08 -1.903429e-08
-1.830920e-08 -1.939803e-08 -1.937712e-08 -1.935149e-08 -1.842032e-08 -1.912554e-08 -1.780447e-08 -1.818915e-08 -1.957146e-08 -1.851223e-08
-1.892988e-08 -1.830506e-08 -1.920480e-08 -1.917671e-08 -1.859802e-08 -1.943807e-08 -1.955182e-08 -1.799364e-08 -1.833790e-08 -1.933371e-08
-1.957202e-08 -1.916712e-08 -1.891314e-08 -1.746231e-08 -1.879164e-08 -1.881212e-08 -1.954670e-08 -1.987016e-08 -1.878723e-08 -1.910334e-08
-1.902390e-08 -1.854825e-08 -1.902099e-08 -1.865899e-08 -1.929330e-08 -1.867228e-08 -2.004046e-08 -2.121317e-08 -1.883325e-08 -1.805293e-08
-1.936120e-08 -1.847520e-08 -2.073988e-08 -1.975455e-08 -1.986835e-08 -1.774638e-08 -1.896319e-08 -2.008234e-08 -1.887467e-08 -1.971360e-08
-1.865386e-08 -1.979655e-08 -1.937637e-08 -1.942963e-08 -1.886620e-08 -1.861489e-08 -1.821179e-08 -1.866935e-08 -1.884047e-08 -1.873142e-08
-1.925966e-08 -2.106395e-08 -1.790220e-08 -1.789279e-08 -1.896681e-08 -2.041421e-08 -1.948488e-08 -1.795635e-08 -1.928902e-08 -2.016783e-08
-1.874060e-08 -1.918661e-08 -1.929094e-08 -2.012850e-08 -1.749304e-08 -1.873899e-08 -1.886644e-08 -1.789028e-08 -1.794281e-08 -1.882914e-08
-1.969556e-08 -1.853668e-08 -2.006176e-08 -1.791194e-08 -1.868800e-08 -1.813393e-08 -2.053959e-08 -1.942078e-08 -1.935492e-08 -1.940342e-08
-1.972980e-08 -1.964754e-08 -1.663582e-08 -1.950103e-08 -1.809062e-08 -1.989304e-08 -1.767897e-08 -1.832342e-08 -1.965481e-08 -1.859109e-08
-1.837681e-08 -2.095387e-08 -1.989552e-08 -1.843338e-08 -1.865076e-08 -1.932827e-08 -1.977375e-08 -2.018909e-08 -1.954812e-08 -1.825942e-08
-1.996961e-08 -1.810324e-08 -1.921015e-08 -1.862438e-08 -1.939351e-08 -1.853012e-08 -1.836198e-08 -1.934610e-08 -1.902334e-08 -1.798788e-08
-1.790188e-08 -1.912192e-08 -2.128173e-08 -1.942689e-08 -2.006728e-08 -1.870880e-08 -1.999828e-08 -1.859877e-08 -1.918329e-08 -2.004770e-08
-1.883536e-08 -1.929177e-08 -1.811348e-08 -1.968094e-08 -1.946326e-08 -1.976120e-08 -1.934071e-08 -2.098322e-08 -1.958413e-08 -1.769213e-08
-1.865804e-08 -1.718509e-08 -1.906187e-08 -1.785727e-08 -1.979523e-08 -1.907601e-08 -1.933757e-08 -1.934216e-08 -2.010275e-08 -1.871384e-08
-1.946904e-08 -1.880807e-08 -1.884104e-08 -1.851065e-08 -1.859034e-08 -1.811203e-08 -2.074457e-08 -2.064194e-08 -1.959467e-08 -2.069856e-08
-1.834845e-08 -1.999941e-08 -1.877694e-08 -1.917916e-08 -1.996406e-08 -2.000796e-08 -1.808070e-08 -1.811267e-08 -1.837633e-08 -1.978259e-08
-1.789790e-08 -1.868982e-08 -1.874344e-08 -1.902736e-08 -1.994244e-08 -2.024505e-08 -1.858449e-08 -1.820679e-08 -1.974141e-08 -1.848019e-08
-1.947236e-08 -1.859261e-08 -1.942946e-08 -2.136612e-08 -1.955054e-08 -1.858580e-08 -1.795596e-08 -1.925639e-08 -1.743208e-08 -1.899409e-08
-1.939496e-08 -1.900501e-08 -2.102152e-08 -2.018307e-08 -1.981078e-08 -1.833586e-08 -1.962368e-08 -1.974372e-08 -1.842666e-08 -1.863746e-08
-1.971159e-08 -1.981756e-08 -1.890838e-08 -2.037677e-08 -1.819777e-08 -1.823188e-08 -1.843638e-08 -1.968206e-08 -1.944975e-08 -2.032052e-08
-1.919392e-08 -1.793168e-08 -1.744171e-08 -1.916437e-08 -1.989318e-08 -1.872229e-08 -1.845724e-08 -1.919845e-08 -1.781468e-08 -1.871427e-08
-1.962303e-08 -1.886127e-08 -2.101434e-08 -1.964322e-08 -1.963385e-08 -1.967717e-08 -2.054586e-08 -2.005825e-08 -2.000154e-08 -1.844448e-08
-1.993892e-08 -1.951895e-08 -1.831472e-08 -1.916514e-08 -1.797014e-08 -1.811828e-08 -1.757348e-08 -1.854936e-08 -1.818096e-08 -1.825334e-08
-1.975928e-08 -1.843394e-08 -1.730083e-08 -1.960771e-08 -1.922660e-08 -1.898171e-08 -2.000061e-08 -1.888715e-08 -1.848855e-08 -1.948286e-08
-1.955385e-08
-1.907375e-08 -1.787276e-08 -1.913712e-08 -1.849481e-08 -1.928493e-08 -1.879135e-08 -1.904293e-08 -1.770690e-08 -1.918733e-08 -1.842551e-08
-1.850025e-08 -1.950146e-08 -1.897892e-08 -1.882105e-08 -2.066234e-08 -1.940472e-08 -1.885577e-08 -1.889583e-08 -1.933796e-08 -1.920132e-08
-1.962750e-08 -1.855489e-08 -1.879139e-08 -1.874986e-08 -1.839124e-08 -1.887991e-08 -1.764860e-08 -1.945676e-08 -2.024093e-08 -1.934158e-08
-1.910335e-08 -1.939699e-08 -1.928182e-08 -1.825699e-08 -1.926712e-08 -2.107944e-08 -1.881889e-08 -1.917351e-08 -2.004652e-08 -1.957199e-08
-1.888155e-08 -1.946855e-08 -1.819617e-08 -1.813966e-08 -1.960256e-08 -2.080154e-08 -1.813519e-08 -1.866728e-08 -1.960716e-08 -1.961196e-08
-1.918726e-08 -2.126578e-08 -2.028183e-08 -1.955414e-08 -1.920547e-08 -2.118284e-08 -1.887146e-08 -1.924848e-08 -1.841661e-08 -1.942659e-08
-2.007272e-08 -1.715269e-08 -1.864601e-08 -1.824268e-08 -1.886486e-08 -1.943329e-08 -2.080192e-08 -1.816108e-08 -2.036090e-08 -1.913370e-08
-2.079125e-08 -2.026916e-08 -1.799973e-08 -1.950789e-08 -1.895877e-08 -1.943464e-08 -1.878672e-08 -1.929451e-08 -1.955691e-08 -1.890383e-08
-1.983668e-08 -1.883539e-08 -2.010022e-08 -1.913978e-08 -2.081777e-08 -2.050399e-08 -1.854794e-08 -1.750888e-08 -1.828646e-08 -1.876536e-08
-1.920606e-08 -1.817756e-08 -1.872234e-08 -1.904495e-08 -1.916490e-08 -1.895964e-08 -2.038487e-08 -2.066928e-08 -1.797915e-08 -1.853691e-08
-1.804959e-08 -1.935281e-08 -1.887438e-08 -1.942961e-08 -1.929153e-08 -1.914108e-08 -1.861363e-08 -1.984940e-08 -1.952478e-08 -1.876851e-08
-1.922014e-08 -2.052623e-08 -1.921233e-08 -2.031624e-08 -1.796215e-08 -2.063758e-08 -1.905885e-08 -1.886754e-08 -2.034077e-08 -1.825883e-08
-1.942494e-08 -1.966417e-08 -1.987023e-08 -1.838767e-08 -2.011279e-08 -1.839863e-08 -1.973082e-08 -1.917729e-08 -1.923273e-08 -1.931978e-08
-1.743523e-08 -1.859333e-08 -1.898300e-08 -1.888540e-08 -1.910549e-08 -2.003335e-08 -1.883349e-08 -1.939563e-08 -1.856220e-08 -1.947518e-08
-1.785747e-08 -2.048738e-08 -1.975782e-08 -1.991604e-08 -2.005961e-08 -1.849651e-08 -1.991124e-08 -1.974091e-08 -1.958897e-08 -1.957932e-08
-1.903549e-08 -1.855103e-08 -1.922979e-08 -1.854695e-08 -1.875469e-08 -1.870566e-08 -1.936713e-08 -1.850429e-08 -1.844375e-08 -1.881566e-08
-2.004252e-08 -1.796273e-08 -1.701883e-08 -1.903172e-08 -1.795477e-08 -1.964930e-08 -1.988521e-08 -1.970806e-08 -1.865734e-08 -1.803082e-08
-1.958313e-08 -1.868364e-08 -1.967788e-08 -1.864803e-08 -1.968786e-08 -2.049580e-08 -1.793827e-08 -2.047280e-08 -1.895930e-08 -1.882641e-08
-1.811109e-08 -2.010159e-08 -1.914332e-08 -1.912172e-08 -1.875060e-08 -1.850929e-08 -1.870704e-08 -2.073792e-08 -1.853770e-08 -2.035888e-08
-1.930678e-08 -2.074917e-08 -1.894924e-08 -1.816505e-08 -1.928330e-08 -1.737791e-08 -1.994184e-08 -2.038104e-08 -1.822879e-08 -1.836468e-08
-1.995986e-08 -1.874739e-08 -2.006192e-08 -1.869815e-08 -1.810538e-08 -1.989237e-08 -2.104535e-08 -1.956032e-08 -1.823425e-08 -1.974942e-08
-1.938268e-08 -1.741633e-08 -1.833172e-08 -2.116690e-08 -1.936461e-08 -2.082048e-08 -1.822636e-08 -1.934261e-08 -2.053780e-08 -1.906809e-08
-1.904486e-08 -1.970120e-08 -1.979049e-08 -2.032947e-08 -1.950966e-08 -1.906331e-08 -1.939788e-08 -2.194305e-08 -1.898454e-08 -1.729344e-08
-2.089653e-08 -1.945169e-08 -1.964214e-08 -1.953819e-08 -2.116092e-08 -2.026606e-08 -1.819678e-08 -1.939583e-08 -2.080662e-08 -2.006014e-08
-1.985035e-08 -1.950222e-08 -1.924834e-08 -1.966868e-08 -1.833858e-08 -1.894553e-08 -2.045330e-08 -1.875048e-08 -1.976560e-08 -1.862851e-08
-2.054057e-08 -1.885984e-08 -1.864037e-08 -1.933264e-08 -2.019261e-08 -1.856331e-08 -2.024405e-08 -1.802781e-08 -1.916484e-08 -1.969399e-08
-1.996956e-08 -2.003604e-08 -2.003715e-08 -1.882019e-08 -1.906976e-08 -2.005041e-08 -2.036774e-08 -1.798638e-08 -1.875792e-08 -1.919342e-08
-1.907997e-08 -1.835960e-08 -1.991696e-08 -1.794460e-08 -2.053373e-08 -1.834965e-08 -1.700185e-08 -1.842430e-08 -1.786339e-08 -1.840711e-08
-1.970944e-08 -1.783339e-08 -2.019052e-08 -1.927423e-08 -1.920485e-08 -1.853337e-08 -1.939011e-08 -1.884333e-08 -2.015240e-08 -1.791130e-08
-1.778123e-08 -2.027167e-08 -1.728721e-08 -1.905411e-08 -1.986538e-08 -2.044069e-08 -1.836661e-08 -1.904463e-08 -1.880723e-08 -1.921993e-08
-1.927319e-08 -1.820067e-08 -1.778507e-08 -1.828712e-08 -1.981869e-08 -1.969884e-08 -1.758294e-08 -1.865616e-08 -1.834262e-08 -2.180427e-08
-2.031097e-08 -2.025856e-08 -1.877675e-08 -1.970476e-08 -1.952407e-08 -1.995875e-08 -1.890763e-08 -1.869790e-08 -1.955399e-08 -1.967712e-08
-1.851433e-08 -1.795660e-08 -1.848964e-08 -1.833614e-08 -1.852767e-08 -1.873785e-08 -1.916030e-08 -1.839344e-08 -2.035231e-08 -1.934127e-08
-1.922178e-08 -1.925789e-08 -1.939717e-08 -1.964614e-08 -1.786582e-08 -1.967192e-08 -2.114138e-08 -1.940944e-08 -2.115038e-08 -1.840420e-08
-1.927040e-08 -1.969374e-08 -1.816193e-08 -2.082504e-08 -1.959190e-08 -1.734578e-08 -1.850670e-08 -1.779668e-08 -1.762512e-08 -1.974951e-08
-1.933755e-08 -1.960590e-08 -2.067352e-08 -1.989218e-08 -1.855858e-08 -1.951417e-08 -1.945395e-08 -1.948977e-08 -1.876357e-08 -1.992219e-08
-1.907375e-08
-2.049430e-08 -1.858855e-08 -1.932969e-08 -2.076207e-08 -2.029229e-08 -1.959558e-08 -1.834757e-08 -2.044141e-08 -1.934102e-08 -2.086398e-08
-1.984680e-08 -1.740000e-08 -1.986132e-08 -1.733309e-08 -1.797354e-08 -1.898492e-08 -1.810979e-08 -1.935617e-08 -1.989596e-08 -2.075194e-08
-1.841294e-08 -1.953622e-08 -1.862365e-08 -1.983887e-08 -2.051534e-08 -2.009010e-08 -1.823657e-08 -2.002104e-08 -1.832306e-08 -1.943908e-08
-2.052949e-08 -1.804263e-08 -2.069262e-08 -1.870099e-08 -1.925311e-08 -2.167324e-08 -1.980936e-08 -2.095849e-08 -2.096662e-08 -1.887872e-08
-1.996554e-08 -1.901999e-08 -1.904638e-08 -1.998517e-08 -2.156471e-08 -1.869115e-08 -2.027981e-08 -1.867034e-08 -1.886566e-08 -1.823097e-08
-2.066388e-08 -1.888405e-08 -1.766411e-08 -1.959555e-08 -1.950351e-08 -1.909497e-08 -1.964519e-08 -2.075132e-08 -1.820478e-08 -1.971700e-08
-2.030370e-08 -1.955351e-08 -1.927173e-08 -1.830488e-08 -1.838075e-08 -1.954565e-08 -1.970682e-08 -1.920276e-08 -1.893172e-08 -1.825965e-08
-2.021678e-08 -1.925028e-08 -1.834720e-08 -1.913909e-08 -1.876729e-08 -1.959218e-08 -1.704572e-08 -1.853091e-08 -1.917316e-08 -1.901940e-08
-1.994528e-08 -2.206570e-08 -1.839239e-08 -2.008806e-08 -1.788075e-08 -2.041774e-08 -1.982219e-08 -2.052500e-08 -1.940234e-08 -1.958310e-08
-1.944592e-08 -1.944832e-08 -1.795087e-08 -1.791600e-08 -1.948878e-08 -1.866164e-08 -2.069856e-08 -2.056179e-08 -2.105782e-08 -1.964645e-08
-1.932148e-08 -1.918004e-08 -1.962645e-08 -1.896951e-08 -2.020676e-08 -1.816500e-08 -2.138551e-08 -1.954939e-08 -2.112296e-08 -1.946823e-08
-1.932005e-08 -1.852890e-08 -1.913109e-08 -1.928114e-08 -2.015923e-08 -1.829175e-08 -1.845563e-08 -1.963193e-08 -1.889611e-08 -1.940953e-08
-2.018507e-08 -1.893832e-08 -2.048355e-08 -2.103503e-08 -1.826634e-08 -1.956623e-08 -2.000919e-08 -1.904423e-08 -1.888109e-08 -1.842918e-08
-1.850113e-08 -2.050822e-08 -1.752450e-08 -1.853834e-08 -2.029287e-08 -2.042105e-08 -1.903483e-08 -1.934111e-08 -1.967909e-08 -1.898103e-08
-1.862125e-08 -1.932226e-08 -1.846753e-08 -1.868621e-08 -1.816317e-08 -1.937371e-08 -1.969796e-08 -1.895187e-08 -2.003920e-08 -1.932099e-08
-1.872693e-08 -2.041810e-08 -1.896616e-08 -2.014100e-08 -1.930245e-08 -1.850899e-08 -1.878805e-08 -1.906775e-08 -1.968396e-08 -2.040755e-08
-1.927235e-08 -1.973179e-08 -1.818299e-08 -1.815936e-08 -2.057585e-08 -1.887563e-08 -1.944069e-08 -1.861324e-08 -1.877537e-08 -1.857382e-08
-1.838239e-08 -1.945650e-08 -2.067363e-08 -1.936181e-08 -1.894728e-08 -1.849525e-08 -2.119645e-08 -2.026644e-08 -1.794134e-08 -1.869206e-08
-1.933490e-08 -1.964606e-08 -1.917165e-08 -1.837587e-08 -1.919793e-08 -1.917467e-08 -1.941519e-08 -1.885365e-08 -1.981610e-08 -1.786231e-08
-2.015839e-08 -1.824550e-08 -1.915775e-08 -2.029559e-08 -2.025677e-08 -1.977732e-08 -1.894909e-08 -2.052106e-08 -1.896197e-08 -1.837132e-08
-1.963095e-08 -1.887292e-08 -1.945661e-08 -1.977259e-08 -2.052597e-08 -1.972951e-08 -1.751693e-08 -1.906542e-08 -1.824558e-08 -1.959551e-08
-1.985605e-08 -2.031013e-08 -1.878967e-08 -1.979818e-08 -1.966502e-08 -1.825931e-08 -1.912538e-08 -1.826122e-08 -2.011343e-08 -1.911209e-08
-1.981557e-08 -1.821726e-08 -2.097349e-08 -1.886387e-08 -1.919818e-08 -1.854383e-08 -2.055177e-08 -2.006839e-08 -1.936441e-08 -1.756996e-08
-1.972105e-08 -1.953232e-08 -1.882832e-08 -1.907499e-08 -1.744294e-08 -2.011923e-08 -1.836157e-08 -1.932730e-08 -2.071933e-08 -1.870742e-08
-1.792554e-08 -1.709741e-08 -2.006117e-08 -1.924620e-08 -1.870189e-08 -1.871918e-08 -1.869894e-08 -1.891007e-08 -1.870041e-08 -1.872852e-08
-1.957140e-08 -1.830929e-08 -1.905298e-08 -1.854761e-08 -2.022187e-08 -1.934201e-08 -2.085839e-08 -1.933356e-08 -1.935309e-08 -1.893512e-08
-2.079496e-08 -1.745819e-08 -2.010045e-08 -1.833136e-08 -2.031394e-08 -1.971975e-08 -1.973490e-08 -1.833874e-08 -1.946125e-08 -1.995210e-08
-1.947023e-08 -1.854360e-08 -1.945537e-08 -2.004586e-08 -1.750044e-08 -2.014734e-08 -1.911175e-08 -1.931975e-08 -1.835974e-08 -1.813835e-08
-1.728303e-08 -1.927727e-08 -1.863273e-08 -2.013979e-08 -1.967442e-08 -1.983443e-08 -1.910164e-08 -1.994290e-08 -1.882296e-08 -1.944566e-08
-1.906563e-08 -1.876273e-08 -1.920175e-08 -2.050480e-08 -2.044764e-08 -2.012267e-08 -1.740421e-08 -1.952673e-08 -1.881279e-08 -1.985993e-08
-1.890027e-08 -2.024079e-08 -1.875005e-08 -1.849981e-08 -2.011199e-08 -1.987639e-08 -1.753160e-08 -2.090300e-08 -1.867641e-08 -1.914680e-08
-1.951612e-08 -1.929314e-08 -1.900476e-08 -1.962177e-08 -2.024372e-08 -2.016672e-08 -1.942450e-08 -1.906304e-08 -2.017868e-08 -1.925112e-08
-1.825246e-08 -1.957765e-08 -1.964582e-08 -1.882804e-08 -1.972471e-08 -1.944233e-08 -2.070904e-08 -1.846878e-08 -1.927435e-08 -2.033748e-08
-1.979743e-08 -1.983932e-08 -1.820258e-08 -1.829618e-08 -2.021017e-08 -1.838646e-08 -2.014156e-08 -1.938674e-08 -2.088656e-08 -1.960841e-08
-1.989419e-08 -1.868679e-08 -1.844452e-08 -2.021325e-08 -1.938701e-08 -1.838534e-08 -1.879149e-08 -1.920660e-08 -1.852526e-08 -1.818435e-08
-1.998689e-08 -1.967665e-08 -1.895609e-08 -1.861866e-08 -1.792251e-08 -1.872871e-08 -1.886944e-08 -1.794044e-08 -1.829518e-08 -2.050588e-08
-2.049430e-08
-2.010950e-08 -2.051057e-08 -1.883775e-08 -1.980007e-08 -1.984187e-08 -2.102281e-08 -1.685337e-08 -1.872021e-08 -1.946644e-08 -1.868568e-08
-1.899688e-08 -1.930045e-08 -1.980233e-08 -2.046226e-08 -1.836784e-08 -1.941149e-08 -1.872596e-08 -2.025322e-08 -1.967692e-08 -1.921151e-08
-1.924640e-08 -1.900711e-08 -1.974790e-08 -1.956390e-08 -1.845804e-08 -2.063520e-08 -2.008219e-08 -2.057552e-08 -1.928401e-08 -1.972423e-08
-2.056271e-08 -2.010347e-08 -2.027316e-08 -1.994021e-08 -2.052528e-08 -1.914855e-08 -1.978819e-08 -1.909454e-08 -1.935545e-08 -1.992145e-08
-2.064776e-08 -2.065539e-08 -2.059561e-08 -2.059410e-08 -2.112720e-08 -2.080661e-08 -1.802726e-08 -2.129981e-08 -2.116574e-08 -1.984961e-08
-1.988961e-08 -2.099610e-08 -1.909319e-08 -1.997954e-08 -2.011828e-08 -1.970487e-08 -2.006770e-08 -1.995318e-08 -1.845144e-08 -1.959811e-08
-1.982093e-08 -1.949287e-08 -1.808729e-08 -1.808070e-08 -1.906771e-08 -2.094430e-08 -1.945963e-08 -2.048774e-08 -1.956572e-08 -1.837383e-08
-2.003724e-08 -1.769254e-08 -2.045359e-08 -1.873311e-08 -2.020465e-08 -1.940054e-08 -1.899851e-08 -1.848168e-08 -1.839401e-08 -1.785131e-08
-1.815365e-08 -1.853798e-08 -1.821645e-08 -1.937470e-08 -1.729459e-08 -2.078220e-08 -1.919719e-08 -1.853072e-08 -2.016808e-08 -1.941340e-08
-1.886131e-08 -1.895506e-08 -2.193901e-08 -1.864179e-08 -1.970651e-08 -1.918556e-08 -1.979434e-08 -1.968766e-08 -1.989250e-08 -1.909880e-08
-2.034715e-08 -2.028712e-08 -2.123868e-08 -1.893087e-08 -2.054408e-08 -1.826543e-08 -1.881329e-08 -1.957508e-08 -1.976697e-08 -1.921559e-08
-1.884934e-08 -1.994997e-08 -1.827156e-08 -1.917719e-08 -1.977034e-08 -1.853387e-08 -1.840038e-08 -1.988855e-08 -1.823525e-08 -2.129134e-08
-1.932184e-08 -2.056858e-08 -1.996248e-08 -2.049612e-08 -1.998356e-08 -2.079480e-08 -2.128547e-08 -2.091028e-08 -1.762534e-08 -1.996474e-08
-2.010125e-08 -1.838542e-08 -2.012274e-08 -1.972732e-08 -1.827066e-08 -2.112161e-08 -1.865903e-08 -1.841483e-08 -1.926400e-08 -1.887893e-08
-1.875836e-08 -1.888880e-08 -1.943632e-08 -1.934233e-08 -2.088141e-08 -1.952326e-08 -2.036277e-08 -1.935771e-08 -1.964806e-08 -1.940020e-08
-1.982464e-08 -1.923716e-08 -1.951881e-08 -2.012236e-08 -1.919582e-08 -1.948442e-08 -1.952018e-08 -1.788229e-08 -2.016344e-08 -1.931340e-08
-1.876977e-08 -1.973834e-08 -2.128133e-08 -1.933662e-08 -2.046431e-08 -2.085145e-08 -1.869471e-08 -1.929229e-08 -1.732216e-08 -1.960737e-08
-1.962253e-08 -1.932517e-08 -1.866438e-08 -1.959833e-08 -2.046441e-08 -1.849546e-08 -1.820293e-08 -1.889582e-08 -1.908915e-08 -2.036856e-08
-1.931461e-08 -1.951303e-08 -1.885692e-08 -1.965518e-08 -1.936902e-08 -2.021243e-08 -1.946249e-08 -1.911415e-08 -1.819749e-08 -1.846140e-08
-1.918907e-08 -1.843397e-08 -1.829268e-08 -2.017164e-08 -1.776732e-08 -1.876774e-08 -1.966533e-08 -1.781610e-08 -1.873534e-08 -1.947637e-08
-2.008534e-08 -1.923827e-08 -1.973638e-08 -1.887970e-08 -2.012116e-08 -1.846666e-08 -1.950214e-08 -2.056984e-08 -2.015187e-08 -1.826154e-08
-1.957230e-08 -2.023349e-08 -1.961771e-08 -2.007120e-08 -1.783003e-08 -2.151389e-08 -2.002758e-08 -2.044325e-08 -1.975866e-08 -2.018270e-08
-2.009344e-08 -2.033917e-08 -1.959842e-08 -2.068308e-08 -1.830125e-08 -1.860037e-08 -1.930702e-08 -1.988503e-08 -1.899227e-08 -2.000281e-08
-1.979187e-08 -1.777903e-08 -2.012776e-08 -2.041028e-08 -1.961989e-08 -1.871073e-08 -1.959711e-08 -1.895276e-08 -1.890077e-08 -1.882631e-08
-1.879544e-08 -2.006580e-08 -1.854382e-08 -1.881715e-08 -2.077450e-08 -2.097203e-08 -1.786422e-08 -1.875975e-08 -2.045449e-08 -1.857692e-08
-2.048419e-08 -1.856706e-08 -1.994817e-08 -1.863592e-08 -1.917350e-08 -1.709073e-08 -1.967607e-08 -1.978772e-08 -1.978480e-08 -1.905731e-08
-1.992053e-08 -2.046087e-08 -2.028080e-08 -1.983171e-08 -1.928944e-08 -1.742288e-08 -2.038437e-08 -1.917056e-08 -1.895303e-08 -2.051642e-08
-1.974954e-08 -1.830282e-08 -1.742008e-08 -2.037351e-08 -1.896353e-08 -1.963237e-08 -2.009325e-08 -1.888049e-08 -1.846096e-08 -1.937235e-08
-2.035605e-08 -2.035964e-08 -2.001066e-08 -2.010793e-08 -2.141768e-08 -2.072325e-08 -1.907632e-08 -1.972631e-08 -2.040865e-08 -1.994488e-08
-1.884937e-08 -1.939872e-08 -1.881082e-08 -1.818571e-08 -1.931729e-08 -1.906907e-08 -1.957893e-08 -2.018824e-08 -1.958707e-08 -1.995702e-08
-1.896763e-08 -1.870088e-08 -1.964161e-08 -2.006326e-08 -2.035659e-08 -2.008550e-08 -1.998662e-08 -1.966352e-08 -1.974836e-08 -2.163231e-08
-2.010711e-08 -2.069520e-08 -1.942744e-08 -2.000611e-08 -1.974254e-08 -1.954326e-08 -1.953321e-08 -2.035844e-08 -2.087054e-08 -1.872203e-08
-2.037220e-08 -1.844253e-08 -1.756744e-08 -1.942267e-08 -2.075249e-08 -1.949399e-08 -2.078412e-08 -2.005840e-08 -2.206460e-08 -1.841306e-08
-1.949922e-08 -1.963354e-08 -2.077230e-08 -1.924595e-08 -2.118456e-08 -2.011877e-08 -2.028800e-08 -2.020702e-08 -2.097981e-08 -1.839905e-08
-1.917220e-08 -2.012625e-08 -1.889724e-08 -1.984825e-08 -2.026900e-08 -2.016893e-08 -2.029137e-08 -1.949488e-08 -1.853411e-08 -1.804581e-08
-1.956552e-08 -1.828813e-08 -1.885107e-08 -1.884109e-08 -2.061013e-08 -2.040214e-08 -1.963266e-08 -1.899456e-08 -1.965468e-08 -2.111482e-08
-2.010950e-08
-2.046948e-08 -1.773785e-08 -2.067586e-08 -2.046544e-08 -1.804695e-08 -1.894872e-08 -1.985299e-08 -2.063080e-08 -1.941921e-08 -2.054362e-08
-1.837224e-08 -1.970840e-08 -1.933804e-08 -1.993380e-08 -1.758116e-08 -2.017953e-08 -2.041530e-08 -1.959244e-08 -1.851330e-08 -2.014459e-08
-1.962303e-08 -1.927073e-08 -1.991997e-08 -1.994236e-08 -1.993689e-08 -1.834702e-08 -1.970586e-08 -2.094998e-08 -2.064669e-08 -1.908595e-08
-2.089797e-08 -1.790816e-08 -1.896397e-08 -1.887784e-08 -1.900451e-08 -1.893954e-08 -1.968242e-08 -1.861080e-08 -1.903347e-08 -1.958652e-08
-2.111021e-08 -2.067336e-08 -1.859905e-08 -1.989100e-08 -2.100921e-08 -2.056183e-08 -2.157195e-08 -2.134312e-08 -2.055098e-08 -1.864172e-08
-1.935774e-08 -1.978374e-08 -1.979015e-08 -2.114949e-08 -1.986495e-08 -1.993384e-08 -1.897838e-08 -1.978445e-08 -1.937913e-08 -1.864607e-08
-1.907894e-08 -2.042669e-08 -2.038242e-08 -1.966010e-08 -1.936857e-08 -2.014843e-08 -1.984264e-08 -1.909203e-08 -1.940611e-08 -1.833950e-08
-1.808515e-08 -2.012687e-08 -1.840865e-08 -2.003840e-08 -1.898836e-08 -1.881403e-08 -1.956534e-08 -1.945056e-08 -2.037914e-08 -1.826604e-08
-1.992075e-08 -1.896512e-08 -2.005961e-08 -1.961071e-08 -1.971321e-08 -1.925463e-08 -2.035087e-08 -1.953791e-08 -1.901158e-08 -2.076865e-08
-1.958588e-08 -1.838429e-08 -2.071881e-08 -1.953752e-08 -1.982783e-08 -2.179829e-08 -2.001526e-08 -2.031329e-08 -1.891039e-08 -2.056825e-08
-1.837187e-08 -1.845590e-08 -2.019505e-08 -1.812103e-08 -1.991160e-08 -1.873209e-08 -1.849699e-08 -2.001278e-08 -1.882104e-08 -1.928853e-08
-2.071472e-08 -2.162559e-08 -1.804005e-08 -1.892235e-08 -1.951707e-08 -2.104315e-08 -2.072079e-08 -1.944257e-08 -1.964954e-08 -2.022281e-08
-2.048942e-08 -2.021158e-08 -2.067172e-08 -2.189889e-08 -2.157347e-08 -2.030884e-08 -2.009490e-08 -2.044235e-08 -1.997852e-08 -2.142983e-08
-1.962350e-08 -2.136979e-08 -1.852598e-08 -2.020605e-08 -2.003379e-08 -1.897664e-08 -1.861392e-08 -1.985406e-08 -2.015486e-08 -1.901256e-08
-1.952712e-08 -2.050264e-08 -1.840381e-08 -1.951634e-08 -1.875472e-08 -1.920943e-08 -1.894769e-08 -1.970053e-08 -2.123308e-08 -2.012560e-08
-1.886443e-08 -1.932057e-08 -1.928279e-08 -1.855323e-08 -1.852084e-08 -1.975610e-08 -1.899463e-08 -1.895721e-08 -2.050720e-08 -1.955023e-08
-1.867854e-08 -1.867808e-08 -1.917243e-08 -1.993182e-08 -1.832536e-08 -1.859790e-08 -2.156441e-08 -1.954330e-08 -1.775040e-08 -1.812970e-08
-1.930381e-08 -1.977721e-08 -1.922152e-08 -1.993821e-08 -1.849509e-08 -1.909012e-08 -2.039248e-08 -2.154763e-08 -1.831249e-08 -1.825878e-08
-1.839069e-08 -2.039739e-08 -1.988099e-08 -2.070560e-08 -1.974133e-08 -1.838274e-08 -1.714587e-08 -1.956244e-08 -1.926963e-08 -1.788998e-08
-1.840004e-08 -2.039717e-08 -1.959878e-08 -2.002373e-08 -1.841108e-08 -1.971772e-08 -1.715426e-08 -1.876126e-08 -1.953020e-08 -2.034167e-08
-1.985746e-08 -1.977340e-08 -1.852927e-08 -1.893360e-08 -1.871426e-08 -1.964147e-08 -2.014121e-08 -2.015158e-08 -2.003890e-08 -2.044072e-08
-1.941351e-08 -2.169476e-08 -1.984020e-08 -2.011135e-08 -2.119964e-08 -2.067577e-08 -1.933707e-08 -1.982838e-08 -1.972304e-08 -1.997619e-08
-2.030800e-08 -1.935370e-08 -2.028394e-08 -1.997726e-08 -1.903073e-08 -2.003589e-08 -1.978096e-08 -2.013627e-08 -1.995541e-08 -1.853890e-08
-1.957663e-08 -2.012700e-08 -1.851329e-08 -1.864591e-08 -1.852764e-08 -2.114709e-08 -2.020692e-08 -1.989078e-08 -1.941977e-08 -1.875521e-08
-1.899378e-08 -2.076673e-08 -1.842229e-08 -1.973213e-08 -2.010602e-08 -1.871553e-08 -1.966351e-08 -1.911701e-08 -1.857609e-08 -1.940320e-08
-1.835262e-08 -1.835960e-08 -1.901370e-08 -1.933822e-08 -1.972314e-08 -2.056249e-08 -1.951803e-08 -2.024324e-08 -1.882718e-08 -1.869961e-08
-1.954270e-08 -1.960847e-08 -1.896788e-08 -2.037110e-08 -1.913490e-08 -1.884577e-08 -1.993812e-08 -1.874031e-08 -2.104568e-08 -1.870425e-08
-1.915246e-08 -1.802833e-08 -1.911659e-08 -1.954200e-08 -2.157763e-08 -2.011609e-08 -1.990048e-08 -2.042078e-08 -2.007706e-08 -1.987924e-08
-2.032254e-08 -2.127123e-08 -1.984275e-08 -1.994199e-08 -2.014195e-08 -1.925444e-08 -2.031854e-08 -1.927231e-08 -1.869464e-08 -1.956912e-08
-1.933190e-08 -1.914004e-08 -1.923983e-08 -2.103012e-08 -2.148459e-08 -1.872080e-08 -1.935460e-08 -1.997021e-08 -1.991518e-08 -2.055651e-08
-1.968531e-08 -1.868484e-08 -2.000088e-08 -1.991062e-08 -1.990360e-08 -1.839906e-08 -1.948652e-08 -2.156943e-08 -2.072700e-08 -1.916280e-08
-1.877279e-08 -2.108656e-08 -1.871153e-08 -1.959506e-08 -1.908266e-08 -2.030123e-08 -1.967740e-08 -1.971787e-08 -2.051621e-08 -1.861050e-08
-1.826346e-08 -2.068573e-08 -2.007627e-08 -1.886399e-08 -1.835780e-08 -1.961712e-08 -2.005247e-08 -1.969722e-08 -2.132191e-08 -1.818366e-08
-2.048942e-08 -1.916613e-08 -1.881627e-08 -1.950779e-08 -1.987504e-08 -1.987156e-08 -1.917983e-08 -2.167577e-08 -2.095985e-08 -1.681552e-08
-1.970450e-08 -1.962017e-08 -1.806034e-08 -1.853692e-08 -1.981715e-08 -2.019476e-08 -1.957006e-08 -1.954328e-08 -2.018594e-08 -1.972567e-08
-2.031273e-08 -2.032766e-08 -1.846302e-08 -1.815944e-08 -2.096756e-08 -1.871486e-08 -2.003747e-08 -1.897318e-08 -1.930998e-08 -1.879889e-08
-2.046948e-08
-1.954079e-08 -1.913697e-08 -1.806845e-08 -1.894421e-08 -2.083647e-08 -1.986788e-08 -1.931777e-08 -1.968431e-08 -2.062208e-08 -2.035631e-08
-2.005535e-08 -1.915961e-08 -1.946074e-08 -1.842871e-08 -2.130032e-08 -1.913354e-08 -1.944736e-08 -2.033754e-08 -2.059263e-08 -1.981351e-08
-1.976776e-08 -2.096984e-08 -2.088186e-08 -1.998187e-08 -1.909611e-08 -1.869145e-08 -1.849257e-08 -2.089427e-08 -1.905331e-08 -2.099082e-08
-1.899831e-08 -1.928550e-08 -1.800414e-08 -2.025075e-08 -1.904328e-08 -2.030789e-08 -1.929651e-08 -2.042866e-08 -1.817252e-08 -1.929295e-08
-2.030197e-08 -1.943070e-08 -2.005505e-08 -1.964908e-08 -1.964108e-08 -1.992896e-08 -2.194351e-08 -1.897413e-08 -1.946151e-08 -2.141422e-08
-1.949412e-08 -1.912053e-08 -1.885429e-08 -2.009379e-08 -2.125462e-08 -1.892834e-08 -1.872313e-08 -2.053658e-08 -2.101891e-08 -1.888183e-08
-1.964859e-08 -1.954098e-08 -1.975083e-08 -1.886127e-08 -2.040927e-08 -2.233713e-08 -1.978067e-08 -1.828208e-08 -2.007099e-08 -2.148745e-08
-1.954423e-08 -1.992056e-08 -2.039308e-08 -1.997088e-08 -1.935108e-08 -2.190512e-08 -2.018795e-08 -1.954352e-08 -1.998641e-08 -1.816816e-08
-1.807317e-08 -1.939385e-08 -1.980720e-08 -1.957467e-08 -2.050967e-08 -2.077666e-08 -1.938982e-08 -1.885695e-08 -1.859168e-08 -1.815935e-08
-2.084108e-08 -1.890510e-08 -1.908416e-08 -2.112475e-08 -1.881259e-08 -2.010088e-08 -1.930860e-08 -1.906731e-08 -2.115263e-08 -2.037382e-08
-2.008721e-08 -1.999862e-08 -1.886615e-08 -1.920803e-08 -2.154901e-08 -1.994547e-08 -1.967522e-08 -1.946488e-08 -2.048964e-08 -2.007714e-08
-1.898633e-08 -2.021148e-08 -1.908690e-08 -2.077434e-08 -1.971394e-08 -2.004295e-08 -2.005033e-08 -2.043486e-08 -2.030880e-08 -2.068512e-08
-2.082848e-08 -2.076816e-08 -1.978868e-08 -1.929519e-08 -1.818174e-08 -1.957322e-08 -2.124500e-08 -2.034361e-08 -1.942774e-08 -2.067981e-08
-1.883595e-08 -1.937902e-08 -1.986836e-08 -1.991811e-08 -1.887986e-08 -2.047132e-08 -2.003014e-08 -1.987584e-08 -2.170031e-08 -1.893216e-08
-1.986768e-08 -1.913304e-08 -1.983004e-08 -2.056814e-08 -2.034800e-08 -1.995348e-08 -2.069911e-08 -1.873692e-08 -2.002577e-08 -1.934289e-08
-1.946223e-08 -1.985896e-08 -1.917184e-08 -2.078262e-08 -1.742836e-08 -2.078254e-08 -1.898754e-08 -1.903065e-08 -2.123376e-08 -1.999519e-08
-1.833802e-08 -2.017110e-08 -1.855975e-08 -2.193730e-08 -1.969986e-08 -1.859988e-08 -1.906205e-08 -1.941951e-08 -2.004793e-08 -1.899875e-08
-1.840655e-08 -1.820292e-08 -1.981321e-08 -1.852884e-08 -1.985154e-08 -1.752063e-08 -1.988239e-08 -1.938261e-08 -1.816630e-08 -1.842632e-08
-1.784367e-08 -2.076545e-08 -2.101168e-08 -1.844046e-08 -1.923072e-08 -2.013837e-08 -2.090721e-08 -1.973055e-08 -1.979913e-08 -1.969625e-08
-1.930677e-08 -2.050891e-08 -1.995797e-08 -2.005878e-08 -1.937486e-08 -1.906341e-08 -1.982368e-08 -1.940574e-08 -1.953489e-08 -2.003422e-08
-2.043327e-08 -1.942667e-08 -2.031216e-08 -1.930127e-08 -2.082574e-08 -1.915227e-08 -2.089779e-08 -1.813009e-08 -2.014994e-08 -1.862649e-08
-1.871343e-08 -1.948458e-08 -2.027033e-08 -2.002794e-08 -2.111633e-08 -1.982323e-08 -2.102344e-08 -2.062874e-08 -1.921030e-08 -2.183360e-08
-1.917279e-08 -1.937581e-08 -1.951919e-08 -1.863893e-08 -1.880461e-08 -1.878907e-08 -1.935295e-08 -2.118296e-08 -1.955490e-08 -2.086515e-08
-1.981091e-08 -2.066334e-08 -2.050945e-08 -1.882620e-08 -1.980389e-08 -2.045278e-08 -2.078320e-08 -1.987841e-08 -1.983948e-08 -2.207292e-08
-2.082915e-08 -2.082391e-08 -1.930742e-08 -1.831711e-08 -1.903141e-08 -1.747908e-08 -2.036562e-08 -2.057583e-08 -2.029706e-08 -1.967149e-08
-1.916580e-08 -1.892850e-08 -1.872739e-08 -2.204499e-08 -1.901965e-08 -1.983333e-08 -2.035999e-08 -1.939591e-08 -2.001075e-08 -1.877581e-08
-1.918666e-08 -2.027198e-08 -1.970464e-08 -1.997833e-08 -1.985211e-08 -1.924532e-08 -2.105074e-08 -1.892308e-08 -1.987604e-08 -1.999358e-08
-1.982434e-08 -2.008866e-08 -1.863512e-08 -1.999052e-08 -1.986224e-08 -1.821595e-08 -2.022638e-08 -1.933827e-08 -1.852757e-08 -1.878361e-08
-1.961071e-08 -1.843231e-08 -2.070963e-08 -1.857763e-08 -1.898436e-08 -2.038469e-08 -1.856187e-08 -1.986884e-08 -1.980394e-08 -2.028560e-08
-2.004627e-08 -2.049745e-08 -2.066760e-08 -1.937886e-08 -1.927221e-08 -2.102701e-08 -1.856120e-08 -1.915682e-08 -1.817888e-08 -2.019380e-08
-2.129918e-08 -2.008987e-08 -2.155342e-08 -2.043604e-08 -2.010276e-08 -1.990639e-08 -2.103118e-08 -1.962761e-08 -1.963126e-08 -1.871043e-08
-1.929300e-08 -1.941913e-08 -2.092837e-08 -2.187406e-08 -2.044246e-08 -1.851533e-08 -2.003637e-08 -1.873346e-08 -2.144623e-08 -2.024751e-08
-1.995551e-08 -2.019338e-08 -1.907491e-08 -2.017080e-08 -1.933619e-08 -2.083997e-08 -2.112139e-08 -1.953731e-08 -1.983700e-08 -2.038663e-08
-2.096130e-08 -2.003916e-08 -1.915246e-08 -2.071774e-08 -2.086384e-08 -2.001517e-08 -2.033200e-08 -1.895408e-08 -1.936967e-08 -1.894831e-08
-2.063141e-08 -1.908842e-08 -1.931980e-08 -2.044693e-08 -1.931840e-08 -2.082657e-08 -2.022218e-08 -1.961162e-08 -1.960049e-08 -1.800206e-08
-1.957356e-08 -1.857104e-08 -1.892032e-08 -1.778588e-08 -1.949637e-08 -2.069675e-08 -1.822756e-08 -1.924026e-08 -1.933072e-08 -1.878288e-08
-1.954079e-08
-1.947461e-08 -1.973867e-08 -2.121504e-08 -1.904832e-08 -1.889179e-08 -2.010136e-08 -2.066743e-08 -1.850242e-08 -1.851553e-08 -2.004234e-08
-1.840640e-08 -1.941455e-08 -1.980971e-08 -1.899969e-08 -1.991670e-08 -1.881434e-08 -1.948065e-08 -2.026451e-08 -2.112346e-08 -2.011267e-08
-1.824442e-08 -1.962536e-08 -1.856572e-08 -1.958588e-08 -2.130674e-08 -2.106354e-08 -1.917432e-08 -1.909664e-08 -1.965368e-08 -1.959537e-08
-1.867899e-08 -1.958813e-08 -1.914640e-08 -2.123860e-08 -1.989654e-08 -2.089956e-08 -1.969584e-08 -1.945362e-08 -1.964268e-08 -1.980389e-08
-1.998228e-08 -1.881988e-08 -2.044847e-08 -2.040463e-08 -1.847721e-08 -1.989509e-08 -1.994324e-08 -1.851304e-08 -1.966625e-08 -2.034261e-08
-2.015993e-08 -2.124688e-08 -1.902196e-08 -1.945079e-08 -1.941422e-08 -2.038565e-08 -2.115964e-08 -2.138512e-08 -1.897666e-08 -2.209861e-08
-2.001291e-08 -1.874714e-08 -1.865592e-08 -2.062326e-08 -2.075666e-08 -1.927057e-08 -1.965544e-08 -2.002088e-08 -1.934323e-08 -1.873742e-08
-2.101289e-08 -2.029344e-08 -1.974704e-08 -1.859748e-08 -1.945821e-08 -1.862269e-08 -2.070541e-08 -1.842660e-08 -2.028080e-08 -1.829664e-08
-1.896615e-08 -2.022588e-08 -1.995183e-08 -1.861743e-08 -2.076190e-08 -2.013844e-08 -1.904649e-08 -1.910495e-08 -2.038341e-08 -1.845561e-08
-2.008217e-08 -2.084771e-08 -2.089556e-08 -2.171952e-08 -1.912000e-08 -2.063518e-08 -2.055789e-08 -1.909630e-08 -2.120038e-08 -1.942829e-08
-2.086021e-08 -1.786845e-08 -1.992036e-08 -2.133084e-08 -2.092082e-08 -2.044980e-08 -1.972522e-08 -2.091346e-08 -2.036050e-08 -1.888722e-08
-1.883068e-08 -1.974854e-08 -1.786809e-08 -1.897929e-08 -2.000706e-08 -2.108688e-08 -1.952396e-08 -1.907557e-08 -1.992559e-08 -1.995944e-08
-1.995792e-08 -2.185710e-08 -1.988158e-08 -2.137302e-08 -2.099933e-08 -2.076486e-08 -2.044302e-08 -1.937747e-08 -1.928257e-08 -1.979418e-08
-2.009021e-08 -1.922337e-08 -1.996567e-08 -2.020327e-08 -2.093252e-08 -1.894257e-08 -1.952863e-08 -2.031123e-08 -2.000423e-08 -1.940372e-08
-2.163575e-08 -2.075579e-08 -2.122071e-08 -2.112692e-08 -2.075880e-08 -1.770457e-08 -1.946356e-08 -1.834367e-08 -2.094911e-08 -2.011507e-08
-1.993357e-08 -2.022252e-08 -1.898709e-08 -1.938829e-08 -1.824612e-08 -2.010110e-08 -1.973161e-08 -1.962866e-08 -1.888867e-08 -2.009283e-08
-1.972352e-08 -1.988108e-08 -2.114242e-08 -1.972195e-08 -1.965136e-08 -2.055824e-08 -1.864302e-08 -1.846078e-08 -1.832800e-08 -2.040366e-08
-1.842476e-08 -1.811514e-08 -1.984511e-08 -1.878931e-08 -1.955989e-08 -1.977615e-08 -1.934555e-08 -1.933042e-08 -1.917173e-08 -1.873208e-08
-1.987452e-08 -2.124600e-08 -1.927617e-08 -2.133630e-08 -2.059274e-08 -2.005496e-08 -1.957119e-08 -1.789162e-08 -1.898850e-08 -2.020501e-08
-2.188691e-08 -1.977198e-08 -1.916265e-08 -1.979714e-08 -2.012423e-08 -1.882232e-08 -2.101898e-08 -2.062527e-08 -2.168433e-08 -1.975356e-08
-2.152965e-08 -1.999358e-08 -1.980767e-08 -2.072145e-08 -2.043198e-08 -1.941118e-08 -1.859834e-08 -1.986676e-08 -1.942353e-08 -1.964128e-08
-2.057972e-08 -1.903104e-08 -2.151612e-08 -1.953755e-08 -1.937472e-08 -1.944755e-08 -1.943363e-08 -1.877407e-08 -1.951473e-08 -2.185941e-08
-2.055761e-08 -2.046062e-08 -1.885785e-08 -2.053058e-08 -1.848469e-08 -1.938834e-08 -1.996277e-08 -1.994069e-08 -2.078939e-08 -1.948283e-08
-2.101157e-08 -1.874511e-08 -1.990715e-08 -1.911815e-08 -1.843897e-08 -2.082120e-08 -1.818533e-08 -2.112469e-08 -2.068838e-08 -2.130120e-08
-1.906586e-08 -1.945853e-08 -1.926738e-08 -1.898556e-08 -2.116968e-08 -1.917784e-08 -2.154140e-08 -1.968097e-08 -2.070760e-08 -1.993779e-08
-2.034254e-08 -2.097575e-08 -2.112369e-08 -1.981201e-08 -1.870317e-08 -1.975498e-08 -2.088556e-08 -2.030685e-08 -2.002337e-08 -1.992471e-08
-1.934078e-08 -1.991817e-08 -2.030635e-08 -1.912680e-08 -1.935499e-08 -2.087731e-08 -1.937252e-08 -1.952579e-08 -2.042959e-08 -1.893527e-08
-2.001838e-08 -2.141992e-08 -1.912742e-08 -1.850116e-08 -1.949994e-08 -1.904924e-08 -2.175599e-08 -1.994916e-08 -1.996719e-08 -2.055205e-08
-2.071374e-08 -2.103856e-08 -1.987562e-08 -1.948104e-08 -1.971159e-08 -2.196517e-08 -2.090194e-08 -1.840517e-08 -2.183801e-08 -1.760413e-08
-2.076870e-08 -2.108444e-08 -2.057358e-08 -1.956598e-08 -1.933044e-08 -1.942210e-08 -2.072554e-08 -2.010611e-08 -2.090202e-08 -1.874157e-08
-1.981499e-08 -2.052277e-08 -2.026950e-08 -1.894425e-08 -2.011041e-08 -2.067243e-08 -1.952694e-08 -2.025921e-08 -1.922592e-08 -2.034212e-08
-1.991826e-08 -2.084260e-08 -1.973034e-08 -2.023365e-08 -2.001155e-08 -2.017656e-08 -1.932291e-08 -1.905401e-08 -1.931055e-08 -2.023136e-08
-2.009381e-08 -2.088385e-08 -2.109381e-08 -1.997152e-08 -2.083350e-08 -1.882387e-08 -2.015089e-08 -2.102744e-08 -2.073113e-08 -2.054071e-08
-1.987492e-08 -2.057180e-08 -1.982678e-08 -1.840892e-08 -2.097449e-08 -2.101057e-08 -2.161544e-08 -2.148797e-08 -1.975736e-08 -2.119131e-08
-1.993107e-08 -2.010369e-08 -1.982761e-08 -1.816939e-08 -1.771940e-08 -1.964024e-08 -1.989538e-08 -1.821977e-08 -2.136582e-08 -2.078176e-08
-2.146166e-08 -1.949942e-08 -2.015416e-08 -1.795647e-08 -1.937797e-08 -2.041910e-08 -1.993212e-08 -2.012171e-08 -2.067466e-08 -1.769196e-08
-1.947461e-08
-2.003538e-08 -1.953541e-08 -1.958023e-08 -1.917544e-08 -1.874800e-08 -1.888295e-08 -1.965030e-08 -1.898339e-08 -1.967576e-08 -1.962228e-08
-1.984055e-08 -2.049275e-08 -1.907243e-08 -1.929768e-08 -1.933166e-08 -1.901081e-08 -2.022105e-08 -2.038753e-08 -2.012618e-08 -1.898148e-08
-1.952807e-08 -1.988946e-08 -1.833175e-08 -1.972426e-08 -2.020701e-08 -2.017891e-08 -2.079380e-08 -2.022696e-08 -1.945385e-08 -1.965646e-08
-2.090742e-08 -2.063040e-08 -1.852012e-08 -1.898956e-08 -1.885767e-08 -2.019818e-08 -2.068918e-08 -2.128657e-08 -2.077590e-08 -1.953711e-08
-2.002695e-08 -2.089627e-08 -2.019974e-08 -2.073968e-08 -2.073609e-08 -2.048358e-08 -2.105970e-08 -2.086539e-08 -1.910997e-08 -2.034890e-08
-2.176259e-08 -2.125172e-08 -1.945890e-08 -2.089639e-08 -2.169779e-08 -1.940864e-08 -2.040410e-08 -1.854306e-08 -1.985517e-08 -1.830699e-08
-2.109255e-08 -1.878395e-08 -1.933926e-08 -1.998505e-08 -2.117093e-08 -2.000772e-08 -2.048805e-08 -1.950839e-08 -1.938118e-08 -2.030084e-08
-1.868741e-08 -2.065865e-08 -1.934360e-08 -1.982421e-08 -1.973546e-08 -1.852450e-08 -1.944093e-08 -2.068120e-08 -2.120829e-08 -1.943591e-08
-1.991894e-08 -2.080529e-08 -1.945857e-08 -1.938365e-08 -1.960722e-08 -1.820336e-08 -1.930353e-08 -1.905512e-08 -2.025439e-08 -2.206260e-08
-1.768168e-08 -2.086324e-08 -1.949321e-08 -1.988701e-08 -2.046702e-08 -1.997543e-08 -2.100915e-08 -1.944657e-08 -2.095185e-08 -2.139378e-08
-1.964755e-08 -1.876353e-08 -2.031046e-08 -2.094575e-08 -1.966636e-08 -2.105396e-08 -1.915933e-08 -2.129435e-08 -1.890803e-08 -1.942859e-08
-1.918217e-08 -2.030724e-08 -2.045618e-08 -1.936549e-08 -2.061753e-08 -1.993862e-08 -2.084755e-08 -1.975697e-08 -1.988014e-08 -2.085061e-08
-2.069986e-08 -1.966353e-08 -1.980102e-08 -2.010413e-08 -1.849613e-08 -1.950930e-08 -2.003732e-08 -2.068967e-08 -1.943099e-08 -1.881483e-08
-2.019915e-08 -1.947942e-08 -1.974086e-08 -2.005269e-08 -1.961786e-08 -1.899485e-08 -1.901048e-08 -1.953008e-08 -2.043233e-08 -2.016867e-08
-1.975631e-08 -1.884381e-08 -1.951095e-08 -1.990208e-08 -2.028019e-08 -1.971228e-08 -2.023968e-08 -1.892186e-08 -1.895372e-08 -2.028858e-08
-1.997816e-08 -1.899766e-08 -1.955502e-08 -2.235556e-08 -2.027723e-08 -2.137606e-08 -1.875966e-08 -1.796205e-08 -2.040922e-08 -1.975251e-08
-2.132512e-08 -1.921385e-08 -2.008743e-08 -2.098590e-08 -2.026331e-08 -2.117212e-08 -1.930833e-08 -2.000878e-08 -2.266665e-08 -1.935558e-08
-1.880673e-08 -1.966486e-08 -1.933886e-08 -1.923438e-08 -1.938376e-08 -1.958507e-08 -1.843627e-08 -1.924710e-08 -1.992316e-08 -1.966203e-08
-2.015260e-08 -1.939800e-08 -1.886724e-08 -1.985465e-08 -1.947780e-08 -1.803099e-08 -2.049553e-08 -1.868099e-08 -1.883071e-08 -1.826039e-08
-2.025454e-08 -2.013474e-08 -2.064170e-08 -1.899073e-08 -1.979331e-08 -1.910856e-08 -1.895046e-08 -2.109105e-08 -2.117576e-08 -1.976912e-08
-2.091703e-08 -2.136079e-08 -1.900275e-08 -2.063656e-08 -1.957781e-08 -2.070425e-08 -2.034852e-08 -2.054584e-08 -1.988049e-08 -1.851618e-08
-1.970211e-08 -1.935438e-08 -1.953727e-08 -1.834021e-08 -1.918496e-08 -1.964020e-08 -1.778339e-08 -2.068733e-08 -2.083329e-08 -1.908545e-08
-2.012625e-08 -2.060889e-08 -1.975507e-08 -2.096687e-08 -1.919966e-08 -1.986800e-08 -1.907885e-08 -2.128888e-08 -2.152471e-08 -2.040794e-08
-2.011581e-08 -2.068959e-08 -2.175137e-08 -1.930258e-08 -2.044583e-08 -1.997119e-08 -1.980990e-08 -1.994790e-08 -2.060475e-08 -2.015667e-08
-2.015892e-08 -2.014968e-08 -1.903453e-08 -1.891226e-08 -2.073300e-08 -2.117986e-08 -2.008038e-08 -2.059928e-08 -1.944961e-08 -1.873052e-08
-2.009877e-08 -1.998854e-08 -2.134742e-08 -1.975448e-08 -1.949120e-08 -1.978786e-08 -1.948585e-08 -1.968740e-08 -2.121884e-08 -2.051762e-08
-1.939488e-08 -2.058532e-08 -1.953018e-08 -1.996551e-08 -2.098067e-08 -1.958083e-08 -1.943239e-08 -2.108258e-08 -1.999249e-08 -2.098822e-08
-2.042596e-08 -2.016687e-08 -2.011214e-08 -2.069957e-08 -1.988932e-08 -2.102013e-08 -2.099539e-08 -1.864843e-08 -2.042356e-08 -1.867154e-08
-2.010015e-08 -1.910553e-08 -1.999801e-08 -1.841915e-08 -1.964453e-08 -2.003176e-08 -2.018040e-08 -2.098539e-08 -1.922291e-08 -2.100881e-08
-1.997240e-08 -2.105281e-08 -1.921934e-08 -1.902304e-08 -1.976328e-08 -2.153249e-08 -1.882586e-08 -2.014208e-08 -2.119298e-08 -2.047066e-08
-1.857775e-08 -2.024895e-08 -2.014029e-08 -2.148471e-08 -1.990763e-08 -2.006686e-08 -2.064375e-08 -1.962278e-08 -1.957039e-08 -1.863566e-08
-2.058292e-08 -2.069418e-08 -2.169599e-08 -2.042678e-08 -1.986458e-08 -1.931778e-08 -2.160896e-08 -2.111204e-08 -2.118811e-08 -2.094840e-08
-2.099219e-08 -2.027409e-08 -1.825241e-08 -2.020952e-08 -2.071952e-08 -1.966846e-08 -1.857455e-08 -1.956007e-08 -1.904130e-08 -1.876364e-08
-2.001742e-08 -2.010281e-08 -2.031351e-08 -1.847610e-08 -1.994619e-08 -2.076964e-08 -2.016974e-08 -2.028978e-08 -2.041449e-08 -1.961932e-08
-1.901700e-08 -1.837224e-08 -2.191345e-08 -2.105400e-08 -1.928152e-08 -2.009091e-08 -2.000641e-08 -1.840296e-08 -1.938975e-08 -1.909568e-08
-2.027157e-08 -1.923364e-08 -2.113678e-08 -1.920507e-08 -2.078450e-08 -1.820395e-08 -2.113426e-08 -1.991977e-08 -1.922301e-08 -2.007851e-08
-2.003538e-08
-1.881718e-08 -1.834942e-08 -2.060853e-08 -1.873414e-08 -1.890342e-08 -2.190651e-08 -1.932567e-08 -1.921051e-08 -2.038955e-08 -2.145312e-08
-1.970967e-08 -1.928135e-08 -1.847187e-08 -1.996386e-08 -2.055450e-08 -2.079999e-08 -1.909035e-08 -1.899400e-08 -2.007780e-08 -2.019120e-08
-1.960716e-08 -1.980347e-08 -1.994715e-08 -1.977798e-08 -1.931325e-08 -1.949212e-08 -1.894027e-08 -1.945095e-08 -2.115512e-08 -1.958171e-08
-2.156253e-08 -1.800928e-08 -2.010032e-08 -2.038015e-08 -1.994876e-08 -1.931952e-08 -2.047649e-08 -2.037035e-08 -2.061348e-08 -1.988067e-08
-2.019305e-08 -1.964068e-08 -2.025745e-08 -2.030750e-08 -1.918575e-08 -1.994565e-08 -2.077447e-08 -2.051741e-08 -2.205366e-08 -2.036884e-08
-1.960870e-08 -1.879575e-08 -2.067651e-08 -1.881831e-08 -1.910551e-08 -1.910341e-08 -1.932426e-08 -2.080183e-08 -2.112027e-08 -1.945009e-08
-1.913400e-08 -2.132941e-08 -2.072508e-08 -1.869347e-08 -2.030989e-08 -2.114006e-08 -1.917850e-08 -1.904484e-08 -1.960823e-08 -1.918629e-08
-2.067186e-08 -2.016190e-08 -1.985826e-08 -1.868049e-08 -2.049315e-08 -2.187448e-08 -2.075114e-08 -1.931154e-08 -1.880762e-08 -2.037898e-08
-2.077465e-08 -2.001790e-08 -2.085689e-08 -1.929382e-08 -2.078692e-08 -1.909171e-08 -2.031956e-08 -2.115676e-08 -1.921218e-08 -1.988946e-08
-2.004025e-08 -2.000376e-08 -2.109949e-08 -2.056834e-08 -1.987338e-08 -1.891822e-08 -1.955450e-08 -1.998350e-08 -2.056641e-08 -2.094282e-08
-2.051940e-08 -2.099596e-08 -2.046573e-08 -2.064157e-08 -2.028752e-08 -2.004688e-08 -1.965701e-08 -2.123687e-08 -1.955709e-08 -1.917062e-08
-1.962041e-08 -2.010868e-08 -1.931594e-08 -2.085381e-08 -2.065246e-08 -2.142245e-08 -2.022320e-08 -1.903711e-08 -1.864721e-08 -1.924095e-08
-2.035173e-08 -1.986035e-08 -2.101243e-08 -1.951653e-08 -1.948836e-08 -1.894303e-08 -2.288452e-08 -1.925982e-08 -1.923357e-08 -2.013227e-08
-1.914557e-08 -1.896687e-08 -1.910981e-08 -2.005685e-08 -2.012722e-08 -1.820982e-08 -1.900880e-08 -1.907638e-08 -2.029193e-08 -2.161335e-08
-2.034246e-08 -2.115856e-08 -2.083935e-08 -2.020547e-08 -2.088556e-08 -1.908857e-08 -1.958275e-08 -1.885586e-08 -1.973655e-08 -1.958362e-08
-1.973750e-08 -1.925723e-08 -2.070659e-08 -2.149158e-08 -2.052416e-08 -2.098969e-08 -1.902418e-08 -2.014089e-08 -2.036283e-08 -1.991005e-08
-1.927049e-08 -1.978434e-08 -1.780448e-08 -1.960141e-08 -1.951266e-08 -1.945379e-08 -2.040105e-08 -2.000335e-08 -2.108546e-08 -1.917240e-08
-1.966211e-08 -2.109529e-08 -1.948297e-08 -2.015681e-08 -2.007336e-08 -2.073777e-08 -1.965309e-08 -1.935693e-08 -1.950004e-08 -1.839069e-08
-2.013573e-08 -1.867917e-08 -1.979555e-08 -2.000989e-08 -1.987135e-08 -1.888210e-08 -2.076386e-08 -1.841878e-08 -2.084258e-08 -1.973579e-08
-1.942467e-08 -1.989120e-08 -2.003686e-08 -2.025596e-08 -2.061921e-08 -2.145782e-08 -2.051502e-08 -2.098059e-08 -2.103444e-08 -2.082122e-08
-1.991684e-08 -2.060887e-08 -1.879238e-08 -2.136891e-08 -1.989329e-08 -2.024862e-08 -1.921430e-08 -2.017381e-08 -1.917797e-08 -2.109503e-08
-2.008927e-08 -2.165775e-08 -1.923881e-08 -1.976669e-08 -1.984785e-08 -1.940283e-08 -1.982193e-08 -1.965290e-08 -2.058493e-08 -1.948991e-08
-2.031391e-08 -1.939264e-08 -1.808496e-08 -1.989284e-08 -2.095388e-08 -2.043155e-08 -2.053460e-08 -2.083505e-08 -2.005198e-08 -1.980072e-08
-2.132721e-08 -1.960429e-08 -2.008715e-08 -2.030382e-08 -1.868518e-08 -1.995474e-08 -2.086288e-08 -2.113543e-08 -2.024479e-08 -1.938476e-08
-1.869586e-08 -2.026850e-08 -1.765149e-08 -2.048961e-08 -1.942874e-08 -1.930228e-08 -2.040555e-08 -2.010970e-08 -2.153697e-08 -1.987721e-08
-1.977151e-08 -2.002427e-08 -1.970424e-08 -1.962502e-08 -1.845214e-08 -2.125385e-08 -2.023484e-08 -2.164660e-08 -1.845783e-08 -1.890487e-08
-1.842784e-08 -1.787450e-08 -1.860653e-08 -1.874592e-08 -1.973509e-08 -1.946725e-08 -2.125390e-08 -2.041564e-08 -1.959301e-08 -2.085009e-08
-1.912766e-08 -1.970291e-08 -1.955841e-08 -2.098823e-08 -1.964903e-08 -1.956567e-08 -1.979922e-08 -1.935563e-08 -1.978497e-08 -1.946026e-08
-1.931601e-08 -1.952425e-08 -2.025939e-08 -2.010795e-08 -2.108404e-08 -2.015166e-08 -1.961051e-08 -1.985590e-08 -1.991725e-08 -2.092253e-08
-2.068587e-08 -2.056765e-08 -2.040506e-08 -1.913059e-08 -2.000143e-08 -1.993124e-08 -1.974539e-08 -2.028139e-08 -1.923754e-08 -2.069567e-08
-1.849109e-08 -2.087012e-08 -1.963623e-08 -2.120596e-08 -2.157193e-08 -1.913716e-08 -1.907019e-08 -2.018678e-08 -1.965009e-08 -2.064909e-08
-2.012228e-08 -1.992447e-08 -1.931092e-08 -1.989419e-08 -1.902296e-08 -2.095491e-08 -1.913619e-08 -2.115420e-08 -2.089479e-08 -1.892830e-08
-2.011476e-08 -2.140067e-08 -1.874058e-08 -1.916897e-08 -2.158148e-08 -2.132091e-08 -1.992816e-08 -1.996599e-08 -1.972078e-08 -1.943357e-08
-1.976370e-08 -2.089027e-08 -2.077779e-08 -1.875014e-08 -1.764602e-08 -2.067363e-08 -1.989731e-08 -1.813867e-08 -1.915133e-08 -2.028604e-08
-1.843033e-08 -1.980207e-08 -2.085963e-08 -2.191514e-08 -2.082223e-08 -2.072954e-08 -1.916775e-08 -2.130207e-08 -1.969429e-08 -1.923975e-08
-2.120709e-08 -2.013501e-08 -2.116312e-08 -2.019702e-08 -1.831547e-08 -1.888217e-08 -2.092320e-08 -1.819736e-08 -1.955577e-08 -1.961958e-08
-1.881718e-08
-1.945439e-08 -2.018028e-08 -2.024174e-08 -2.035777e-08 -2.104263e-08 -2.002982e-08 -1.958711e-08 -1.996924e-08 -1.910337e-08 -2.126919e-08
-2.037532e-08 -2.032001e-08 -2.030471e-08 -1.973209e-08 -2.016092e-08 -1.958442e-08 -1.919189e-08 -2.038975e-08 -1.852230e-08 -1.837238e-08
-1.995144e-08 -1.998036e-08 -2.120052e-08 -2.012153e-08 -1.891871e-08 -1.949743e-08 -2.035134e-08 -2.045835e-08 -2.067080e-08 -2.100103e-08
-1.982517e-08 -1.982484e-08 -2.005436e-08 -2.186467e-08 -2.051062e-08 -2.019542e-08 -1.995353e-08 -1.883711e-08 -1.950802e-08 -1.874314e-08
-1.894773e-08 -2.019875e-08 -1.968098e-08 -1.880959e-08 -1.944081e-08 -2.012810e-08 -1.922558e-08 -2.077485e-08 -1.941365e-08 -1.993082e-08
-1.895211e-08 -2.116923e-08 -1.952631e-08 -1.874464e-08 -1.939502e-08 -1.980353e-08 -1.949662e-08 -1.885159e-08 -1.980071e-08 -1.977497e-08
-2.066623e-08 -2.078520e-08 -2.098710e-08 -2.002812e-08 -2.086199e-08 -2.010163e-08 -1.927594e-08 -1.978164e-08 -1.985751e-08 -2.039959e-08
-2.133028e-08 -2.117857e-08 -2.091540e-08 -2.046678e-08 -2.074474e-08 -2.063175e-08 -2.057922e-08 -2.055888e-08 -2.061010e-08 -2.060404e-08
-1.963393e-08 -2.177764e-08 -1.985402e-08 -2.088015e-08 -1.996626e-08 -2.004726e-08 -2.027329e-08 -1.994341e-08 -2.032172e-08 -1.882814e-08
-2.005798e-08 -2.074223e-08 -2.056761e-08 -1.830282e-08 -2.047989e-08 -2.002944e-08 -2.046298e-08 -2.072088e-08 -1.951459e-08 -2.086454e-08
-1.950564e-08 -2.017222e-08 -2.076885e-08 -2.138889e-08 -1.936290e-08 -2.000079e-08 -2.155218e-08 -2.006697e-08 -2.095851e-08 -1.979089e-08
-2.059917e-08 -1.989158e-08 -1.865642e-08 -2.026384e-08 -2.173550e-08 -2.066391e-08 -1.920881e-08 -2.060879e-08 -1.973729e-08 -2.018295e-08
-2.042778e-08 -2.086246e-08 -2.045352e-08 -2.019441e-08 -2.126189e-08 -1.942113e-08 -1.898996e-08 -1.971518e-08 -2.112399e-08 -1.960832e-08
-2.114961e-08 -1.940855e-08 -1.994091e-08 -2.118107e-08 -1.948031e-08 -1.966342e-08 -2.138088e-08 -1.952306e-08 -2.043826e-08 -1.865950e-08
-1.948067e-08 -1.961227e-08 -1.941256e-08 -1.921584e-08 -2.006645e-08 -2.062412e-08 -1.937087e-08 -1.933255e-08 -1.910958e-08 -2.120067e-08
-2.024687e-08 -1.947928e-08 -2.056696e-08 -1.862391e-08 -2.092683e-08 -1.991597e-08 -1.914391e-08 -1.829284e-08 -2.057659e-08 -2.064327e-08
-2.061050e-08 -1.902099e-08 -2.072570e-08 -1.933063e-08 -1.961969e-08 -1.977533e-08 -1.898949e-08 -2.038917e-08 -1.869317e-08 -1.921491e-08
-2.035184e-08 -1.884955e-08 -1.902798e-08 -2.074336e-08 -2.082695e-08 -1.848822e-08 -2.047742e-08 -1.975742e-08 -1.816279e-08 -1.931122e-08
-2.071070e-08 -1.892741e-08 -1.940994e-08 -1.902991e-08 -1.976397e-08 -1.887683e-08 -1.873408e-08 -1.945717e-08 -1.919124e-08 -2.006498e-08
-1.847428e-08 -1.939295e-08 -2.145391e-08 -1.945471e-08 -2.010086e-08 -1.887957e-08 -2.005545e-08 -2.089825e-08 -1.906670e-08 -1.910839e-08
-2.018247e-08 -1.984992e-08 -1.992871e-08 -2.132094e-08 -1.945230e-08 -2.055333e-08 -2.009756e-08 -2.041370e-08 -2.043306e-08 -2.035158e-08
-2.027691e-08 -2.010358e-08 -1.862990e-08 -1.950731e-08 -1.956100e-08 -2.078877e-08 -2.063405e-08 -1.889675e-08 -2.013428e-08 -1.945590e-08
-1.957657e-08 -2.168177e-08 -1.975181e-08 -1.903931e-08 -1.944080e-08 -2.059033e-08 -1.919489e-08 -1.969693e-08 -2.145159e-08 -1.892917e-08
-1.858122e-08 -1.937643e-08 -1.984530e-08 -1.955679e-08 -2.003311e-08 -2.099981e-08 -2.025557e-08 -2.036363e-08 -2.064236e-08 -2.087005e-08
-1.916682e-08 -2.046342e-08 -1.950052e-08 -1.959488e-08 -2.114121e-08 -1.963596e-08 -1.946430e-08 -1.984654e-08 -1.986204e-08 -1.979393e-08
-2.068416e-08 -2.028983e-08 -2.023679e-08 -1.924169e-08 -1.951108e-08 -1.899281e-08 -1.839524e-08 -1.943410e-08 -2.152356e-08 -1.993514e-08
-2.048627e-08 -2.008369e-08 -1.884693e-08 -1.927990e-08 -2.061910e-08 -1.953971e-08 -1.916016e-08 -1.980432e-08 -2.042006e-08 -2.017482e-08
-1.919750e-08 -1.926480e-08 -2.030890e-08 -1.889886e-08 -2.157130e-08 -2.044694e-08 -2.085711e-08 -2.015390e-08 -1.918958e-08 -1.884655e-08
-2.181740e-08 -2.125886e-08 -2.079836e-08 -1.884917e-08 -2.023399e-08 -1.883844e-08 -2.197460e-08 -1.972287e-08 -2.051054e-08 -2.090718e-08
-1.927725e-08 -1.848377e-08 -1.990847e-08 -2.004610e-08 -2.045604e-08 -1.920957e-08 -2.047725e-08 -1.971371e-08 -1.925835e-08 -1.973534e-08
-1.985377e-08 -2.031040e-08 -1.959791e-08 -1.954943e-08 -2.189674e-08 -2.155326e-08 -2.052556e-08 -2.050422e-08 -1.995600e-08 -2.129161e-08
-2.086273e-08 -1.963235e-08 -1.987434e-08 -1.979276e-08 -1.889620e-08 -2.204180e-08 -2.010575e-08 -1.950013e-08 -1.998077e-08 -1.955286e-08
-1.972595e-08 -1.965546e-08 -1.992692e-08 -2.124391e-08 -2.078757e-08 -2.096387e-08 -1.884797e-08 -1.902949e-08 -2.072225e-08 -2.193596e-08
-1.995940e-08 -2.026744e-08 -2.024271e-08 -1.927979e-08 -2.145711e-08 -1.867736e-08 -2.072383e-08 -1.896454e-08 -2.046231e-08 -2.074226e-08
-2.116583e-08 -1.995596e-08 -1.875707e-08 -2.107089e-08 -2.024989e-08 -1.922289e-08 -2.025879e-08 -1.993173e-08 -1.953473e-08 -2.050059e-08
-1.921631e-08 -1.893590e-08 -2.000588e-08 -1.825330e-08 -2.018333e-08 -1.888571e-08 -1.995505e-08 -1.817743e-08 -2.038563e-08 -1.966778e-08
-1.945439e-08
-1.816885e-08 -2.042677e-08 -2.085329e-08 -1.887195e-08 -1.964338e-08 -1.878831e-08 -2.011729e-08 -2.129585e-08 -1.993965e-08 -1.844510e-08
-2.104226e-08 -1.840785e-08 -1.965400e-08 -2.071936e-08 -2.000553e-08 -2.250569e-08 -1.885370e-08 -2.100265e-08 -2.043912e-08 -2.062734e-08
-1.926311e-08 -1.874345e-08 -1.973102e-08 -1.982107e-08 -2.033524e-08 -2.069691e-08 -2.066284e-08 -1.912292e-08 -2.016237e-08 -2.100800e-08
-1.956518e-08 -2.109545e-08 -1.956962e-08 -2.072044e-08 -1.967172e-08 -1.976487e-08 -1.987414e-08 -2.041344e-08 -1.987392e-08 -1.861180e-08
-2.012786e-08 -2.049352e-08 -2.010869e-08 -1.977547e-08 -1.995147e-08 -2.094891e-08 -1.942279e-08 -2.076106e-08 -2.112071e-08 -1.929377e-08
-1.949316e-08 -1.896003e-08 -2.064502e-08 -1.981835e-08 -1.844271e-08 -1.911793e-08 -2.003635e-08 -1.935793e-08 -2.230237e-08 -1.894219e-08
-1.805640e-08 -1.949717e-08 -1.925744e-08 -1.987222e-08 -2.075282e-08 -2.188714e-08 -2.027795e-08 -1.911346e-08 -2.007503e-08 -1.845596e-08
-2.175095e-08 -2.068003e-08 -1.933388e-08 -2.015261e-08 -2.008380e-08 -2.054174e-08 -1.851420e-08 -2.133283e-08 -1.802259e-08 -2.099897e-08
-2.100838e-08 -2.115303e-08 -2.098859e-08 -1.956598e-08 -2.053737e-08 -2.081264e-08 -2.076949e-08 -2.041176e-08 -1.985779e-08 -2.046704e-08
-2.043744e-08 -2.034678e-08 -2.030495e-08 -2.259088e-08 -1.984685e-08 -2.030287e-08 -1.932101e-08 -1.994076e-08 -1.953937e-08 -2.093296e-08
-2.102738e-08 -2.079849e-08 -1.901289e-08 -2.184859e-08 -2.048582e-08 -2.164623e-08 -2.003038e-08 -1.959264e-08 -2.049682e-08 -2.287239e-08
-1.857805e-08 -1.982644e-08 -1.933763e-08 -2.130060e-08 -2.172774e-08 -2.185625e-08 -1.949055e-08 -2.074380e-08 -1.988962e-08 -2.062797e-08
-1.841804e-08 -2.028361e-08 -2.160284e-08 -2.059695e-08 -2.051132e-08 -2.139571e-08 -1.915646e-08 -2.009599e-08 -2.208986e-08 -1.945662e-08
-1.987894e-08 -2.027147e-08 -1.974961e-08 -1.965519e-08 -2.133608e-08 -2.086499e-08 -2.141751e-08 -2.060509e-08 -1.964688e-08 -2.046263e-08
-1.938676e-08 -1.968990e-08 -1.925026e-08 -2.070343e-08 -2.137081e-08 -2.098220e-08 -1.998671e-08 -2.121359e-08 -2.086675e-08 -2.017774e-08
-1.890856e-08 -1.985285e-08 -1.966917e-08 -2.200689e-08 -2.025214e-08 -1.936871e-08 -2.086297e-08 -1.893374e-08 -2.091880e-08 -1.864047e-08
-2.046924e-08 -2.020218e-08 -1.883663e-08 -2.058636e-08 -1.959034e-08 -1.872158e-08 -1.854290e-08 -2.011124e-08 -1.977781e-08 -2.005943e-08
-2.090649e-08 -1.954598e-08 -2.095014e-08 -1.984552e-08 -2.069260e-08 -1.971720e-08 -1.898971e-08 -1.862397e-08 -2.017828e-08 -1.947681e-08
-1.926046e-08 -1.957109e-08 -1.857283e-08 -2.099233e-08 -1.940237e-08 -1.860439e-08 -2.033824e-08 -1.919052e-08 -2.016844e-08 -2.157228e-08
-1.831580e-08 -1.994155e-08 -2.065014e-08 -1.873533e-08 -1.822795e-08 -1.888695e-08 -2.101178e-08 -1.913500e-08 -2.154176e-08 -2.018674e-08
-1.811227e-08 -2.112871e-08 -2.112712e-08 -2.018355e-08 -1.880311e-08 -2.083596e-08 -1.930061e-08 -2.102263e-08 -1.935438e-08 -2.078379e-08
-2.046818e-08 -2.048189e-08 -2.111877e-08 -2.109568e-08 -2.028090e-08 -1.856757e-08 -2.019762e-08 -2.050235e-08 -1.979097e-08 -2.203681e-08
-1.952847e-08 -1.994535e-08 -1.973229e-08 -2.089464e-08 -2.046304e-08 -1.988407e-08 -1.934182e-08 -1.985217e-08 -1.876553e-08 -1.924863e-08
-2.224093e-08 -1.935216e-08 -1.978437e-08 -1.870283e-08 -2.119060e-08 -1.976631e-08 -2.114051e-08 -2.028721e-08 -2.025843e-08 -1.877594e-08
-1.960706e-08 -2.024178e-08 -2.010231e-08 -1.891646e-08 -1.821278e-08 -2.038041e-08 -2.091781e-08 -2.135429e-08 -2.047917e-08 -2.041496e-08
-2.011917e-08 -2.040971e-08 -1.855208e-08 -1.941565e-08 -1.952808e-08 -2.000638e-08 -2.050089e-08 -1.977966e-08 -2.049692e-08 -2.204943e-08
-2.003433e-08 -1.980209e-08 -1.974909e-08 -2.122757e-08 -1.899075e-08 -2.031583e-08 -1.949637e-08 -1.921249e-08 -1.925001e-08 -2.121818e-08
-1.941861e-08 -2.000412e-08 -1.993909e-08 -2.073523e-08 -1.993332e-08 -1.926387e-08 -1.939843e-08 -2.151423e-08 -2.062220e-08 -2.074707e-08
-1.986104e-08 -2.057341e-08 -1.978734e-08 -2.112176e-08 -2.066617e-08 -2.137360e-08 -2.058837e-08 -2.164238e-08 -2.068738e-08 -2.108195e-08
-2.052698e-08 -2.154719e-08 -2.031088e-08 -1.997524e-08 -1.962031e-08 -2.060708e-08 -2.059372e-08 -1.981941e-08 -2.073839e-08 -2.092042e-08
-2.147915e-08 -1.947676e-08 -1.777574e-08 -2.005066e-08 -2.058066e-08 -2.082970e-08 -2.038911e-08 -2.098522e-08 -2.219480e-08 -1.899519e-08
-1.889537e-08 -2.082704e-08 -2.060218e-08 -2.096994e-08 -2.041599e-08 -2.009025e-08 -2.106904e-08 -2.048762e-08 -1.978796e-08 -2.108179e-08
-2.116723e-08 -2.133980e-08 -2.015134e-08 -2.131743e-08 -2.142246e-08 -2.073279e-08 -1.971383e-08 -1.988601e-08 -1.895368e-08 -1.907517e-08
-1.917770e-08 -2.254271e-08 -2.116317e-08 -1.929358e-08 -2.154657e-08 -2.173577e-08 -2.078029e-08 -1.978826e-08 -2.034234e-08 -1.869851e-08
-2.067032e-08 -2.248549e-08 -2.072149e-08 -2.121552e-08 -1.902516e-08 -2.014490e-08 -2.094328e-08 -1.965179e-08 -2.018428e-08 -2.026512e-08
-2.150445e-08 -2.192962e-08 -1.953605e-08 -1.942445e-08 -2.017665e-08 -2.015315e-08 -2.094790e-08 -1.990001e-08 -2.190291e-08 -2.081783e-08
-1.816885e-08
-2.009277e-08 -2.057610e-08 -1.991032e-08 -2.034445e-08 -2.012331e-08 -2.041676e-08 -2.077002e-08 -2.065797e-08 -2.149572e-08 -2.069160e-08
-2.004838e-08 -2.011554e-08 -1.977629e-08 -1.961503e-08 -1.917946e-08 -1.963587e-08 -1.842860e-08 -2.019088e-08 -2.139794e-08 -2.010858e-08
-1.911263e-08 -2.085105e-08 -2.132538e-08 -1.988334e-08 -1.928396e-08 -1.907010e-08 -1.939693e-08 -1.997963e-08 -1.931321e-08 -2.013299e-08
-1.878089e-08 -2.057580e-08 -1.870205e-08 -1.915761e-08 -1.956989e-08 -1.881503e-08 -2.053866e-08 -2.069789e-08 -2.070488e-08 -2.109618e-08
-1.907591e-08 -2.001407e-08 -1.994221e-08 -1.850287e-08 -1.917759e-08 -2.033478e-08 -2.020367e-08 -2.003845e-08 -1.973140e-08 -2.147215e-08
-1.979777e-08 -2.076661e-08 -1.964778e-08 -1.927236e-08 -2.030928e-08 -1.903366e-08 -1.917562e-08 -1.999965e-08 -2.004568e-08 -1.909300e-08
-2.076514e-08 -1.941555e-08 -1.917944e-08 -2.056139e-08 -2.135362e-08 -2.127693e-08 -2.093726e-08 -2.174537e-08 -1.954253e-08 -1.901464e-08
-1.949232e-08 -1.884469e-08 -2.000911e-08 -1.883376e-08 -1.992555e-08 -2.035216e-08 -2.066372e-08 -2.123627e-08 -1.960511e-08 -2.247363e-08
-1.876868e-08 -2.012634e-08 -2.108658e-08 -2.092725e-08 -2.059665e-08 -2.063846e-08 -2.138717e-08 -2.025753e-08 -1.927730e-08 -2.024104e-08
-2.025186e-08 -2.050512e-08 -1.971351e-08 -1.980858e-08 -2.111876e-08 -1.987840e-08 -2.047787e-08 -1.978920e-08 -2.078623e-08 -1.850042e-08
-2.030175e-08 -2.129445e-08 -1.981626e-08 -2.012484e-08 -1.916577e-08 -1.938766e-08 -2.012237e-08 -1.999664e-08 -2.030146e-08 -2.090424e-08
-1.945043e-08 -1.955953e-08 -2.101476e-08 -1.987381e-08 -1.969494e-08 -2.081372e-08 -2.010798e-08 -1.925211e-08 -2.033821e-08 -2.050771e-08
-1.901154e-08 -2.123585e-08 -2.008791e-08 -1.940092e-08 -1.871212e-08 -2.085783e-08 -1.967874e-08 -2.029953e-08 -2.105708e-08 -1.937040e-08
-1.884998e-08 -2.047274e-08 -1.977081e-08 -2.109785e-08 -2.047268e-08 -2.165304e-08 -1.956302e-08 -1.929495e-08 -1.948508e-08 -1.885125e-08
-2.025018e-08 -1.907303e-08 -1.842165e-08 -1.932326e-08 -2.009762e-08 -1.993294e-08 -1.961355e-08 -2.171200e-08 -2.117661e-08 -2.122275e-08
-1.898136e-08 -1.946174e-08 -1.944648e-08 -1.978909e-08 -1.994233e-08 -1.959579e-08 -2.094247e-08 -2.006868e-08 -1.946887e-08 -1.999154e-08
-2.066376e-08 -2.179160e-08 -1.961313e-08 -2.009323e-08 -1.867627e-08 -2.013191e-08 -2.237705e-08 -1.963872e-08 -1.989512e-08 -1.809397e-08
-2.111039e-08 -2.004715e-08 -1.995173e-08 -1.943831e-08 -1.946235e-08 -2.052266e-08 -1.968950e-08 -1.856217e-08 -1.904272e-08 -1.976102e-08
-1.949594e-08 -1.883556e-08 -1.943420e-08 -1.942949e-08 -2.116250e-08 -1.937264e-08 -1.804862e-08 -2.093032e-08 -1.998222e-08 -1.934269e-08
-1.847819e-08 -1.980263e-08 -2.040003e-08 -1.956426e-08 -2.118918e-08 -2.091917e-08 -1.849341e-08 -2.093888e-08 -2.070762e-08 -1.974764e-08
-2.216650e-08 -2.039902e-08 -1.993726e-08 -1.987199e-08 -1.946224e-08 -2.093810e-08 -1.954335e-08 -1.998685e-08 -2.042197e-08 -2.222332e-08
-2.040819e-08 -1.932544e-08 -2.140567e-08 -2.125449e-08 -2.006802e-08 -2.084873e-08 -2.009874e-08 -2.054188e-08 -1.942974e-08 -2.109559e-08
-2.296582e-08 -2.040890e-08 -2.060771e-08 -2.213694e-08 -2.059173e-08 -1.979474e-08 -2.039818e-08 -2.144988e-08 -1.971940e-08 -2.111251e-08
-2.044265e-08 -1.832248e-08 -2.081477e-08 -1.960019e-08 -1.981208e-08 -1.969417e-08 -2.205951e-08 -1.993594e-08 -2.086720e-08 -2.104616e-08
-1.904325e-08 -2.112260e-08 -1.962828e-08 -2.006914e-08 -2.049776e-08 -2.091513e-08 -1.915412e-08 -2.044200e-08 -1.980070e-08 -1.988375e-08
-1.844267e-08 -2.111379e-08 -2.045693e-08 -1.947689e-08 -2.147665e-08 -2.145010e-08 -1.876801e-08 -1.924884e-08 -1.926064e-08 -1.952238e-08
-1.996112e-08 -1.985658e-08 -1.857351e-08 -2.049193e-08 -2.162037e-08 -1.921702e-08 -2.062504e-08 -2.136459e-08 -1.968251e-08 -1.970949e-08
-2.083997e-08 -2.116225e-08 -1.935814e-08 -2.077092e-08 -1.968737e-08 -2.147862e-08 -2.163812e-08 -1.956334e-08 -2.091704e-08 -1.904637e-08
-2.015992e-08 -2.119936e-08 -2.029612e-08 -2.201478e-08 -1.998592e-08 -2.086311e-08 -2.111159e-08 -1.969857e-08 -2.061457e-08 -1.945060e-08
-1.964020e-08 -2.051057e-08 -1.952369e-08 -1.837403e-08 -2.088752e-08 -2.078322e-08 -1.993680e-08 -1.912986e-08 -2.089503e-08 -1.886553e-08
-1.981395e-08 -1.854691e-08 -2.134308e-08 -2.055152e-08 -2.105546e-08 -1.995724e-08 -1.956370e-08 -1.946674e-08 -1.987744e-08 -2.087876e-08
-1.948826e-08 -2.184197e-08 -1.941064e-08 -1.976540e-08 -1.953292e-08 -1.885350e-08 -2.059468e-08 -2.073717e-08 -2.038685e-08 -2.006955e-08
-2.042525e-08 -2.116771e-08 -1.867615e-08 -2.037336e-08 -2.116734e-08 -2.042637e-08 -1.909316e-08 -1.992252e-08 -2.175742e-08 -2.062760e-08
-2.061162e-08 -2.025902e-08 -2.088546e-08 -2.036531e-08 -2.065825e-08 -1.932407e-08 -2.063817e-08 -2.036427e-08 -1.977400e-08 -2.133389e-08
-1.956265e-08 -2.130953e-08 -2.009180e-08 -2.063616e-08 -1.903898e-08 -1.958711e-08 -2.217089e-08 -2.069869e-08 -2.008771e-08 -1.951179e-08
-2.081169e-08 -1.996362e-08 -2.017484e-08 -1.842969e-08 -1.898117e-08 -1.892909e-08 -1.898151e-08 -1.999060e-08 -1.927632e-08 -1.939125e-08
-2.009277e-08
-1.918125e-08 -1.935752e-08 -2.082994e-08 -1.903667e-08 -1.937058e-08 -2.013660e-08 -1.950130e-08 -1.963211e-08 -1.927318e-08 -2.015545e-08
-1.917635e-08 -1.957405e-08 -1.943910e-08 -2.123117e-08 -2.024059e-08 -1.992857e-08 -1.988938e-08 -1.920166e-08 -1.893306e-08 -1.981391e-08
-1.909889e-08 -2.019805e-08 -1.974714e-08 -2.041659e-08 -1.939689e-08 -2.090638e-08 -2.036843e-08 -1.940356e-08 -2.055594e-08 -1.956747e-08
-1.970198e-08 -1.935771e-08 -1.816935e-08 -1.971469e-08 -2.117930e-08 -2.036368e-08 -2.013582e-08 -1.903630e-08 -2.044235e-08 -1.959802e-08
-1.922499e-08 -2.038722e-08 -2.105788e-08 -1.982179e-08 -2.040220e-08 -2.157248e-08 -2.085353e-08 -1.941839e-08 -2.200458e-08 -1.892463e-08
-1.924261e-08 -2.051204e-08 -2.153485e-08 -1.958151e-08 -2.233513e-08 -2.123176e-08 -1.922807e-08 -2.253328e-08 -2.024722e-08 -2.104378e-08
-1.930301e-08 -1.979117e-08 -1.996401e-08 -1.979650e-08 -2.214871e-08 -2.083950e-08 -2.012157e-08 -2.073001e-08 -1.880284e-08 -2.089899e-08
-2.080177e-08 -1.996662e-08 -1.982523e-08 -1.990085e-08 -2.054845e-08 -2.011232e-08 -1.931906e-08 -2.072039e-08 -1.932896e-08 -1.976058e-08
-1.955554e-08 -2.007982e-08 -2.149613e-08 -2.081035e-08 -1.949931e-08 -2.093716e-08 -2.038394e-08 -2.071813e-08 -1.841585e-08 -2.001191e-08
-2.013507e-08 -1.988677e-08 -1.963975e-08 -2.030027e-08 -2.226212e-08 -2.123705e-08 -2.037599e-08 -1.874150e-08 -1.994648e-08 -1.946247e-08
-2.024603e-08 -2.125594e-08 -1.965863e-08 -1.989961e-08 -2.022325e-08 -2.074026e-08 -1.883123e-08 -1.957162e-08 -2.026024e-08 -2.060967e-08
-2.040717e-08 -1.984590e-08 -2.001124e-08 -2.198190e-08 -1.992325e-08 -2.011853e-08 -2.188955e-08 -2.057970e-08 -2.029373e-08 -2.142500e-08
-2.050533e-08 -2.171802e-08 -2.170034e-08 -1.966662e-08 -2.045552e-08 -2.147879e-08 -2.025732e-08 -2.142720e-08 -2.036329e-08 -1.976730e-08
-2.107055e-08 -2.117101e-08 -2.077292e-08 -1.935680e-08 -2.040313e-08 -2.080601e-08 -2.071871e-08 -1.864982e-08 -1.994997e-08 -1.881364e-08
-2.112109e-08 -1.868440e-08 -2.064348e-08 -1.961414e-08 -2.028575e-08 -1.915244e-08 -1.959723e-08 -2.148061e-08 -1.893624e-08 -2.075919e-08
-1.934079e-08 -2.099188e-08 -2.233421e-08 -2.081610e-08 -1.938490e-08 -2.161097e-08 -2.023698e-08 -2.052872e-08 -2.059112e-08 -1.869985e-08
-2.124702e-08 -2.112187e-08 -1.976885e-08 -2.070433e-08 -1.954395e-08 -2.102127e-08 -1.898897e-08 -2.058343e-08 -1.954705e-08 -2.043054e-08
-1.948347e-08 -2.040150e-08 -2.050090e-08 -2.052588e-08 -2.121473e-08 -1.954174e-08 -2.014047e-08 -1.928793e-08 -2.001624e-08 -2.026533e-08
-1.885760e-08 -1.982294e-08 -1.870467e-08 -1.879098e-08 -2.041875e-08 -1.859198e-08 -2.102991e-08 -1.917921e-08 -2.170897e-08 -1.967754e-08
-2.147318e-08 -1.910681e-08 -2.077149e-08 -1.995080e-08 -1.938886e-08 -2.032341e-08 -2.037426e-08 -1.849292e-08 -1.955917e-08 -2.096490e-08
-2.093583e-08 -1.946037e-08 -2.091990e-08 -2.146721e-08 -2.079420e-08 -2.041098e-08 -1.944887e-08 -2.085254e-08 -2.111226e-08 -2.083929e-08
-2.060916e-08 -1.945272e-08 -2.066726e-08 -2.021325e-08 -2.075396e-08 -2.095707e-08 -2.030994e-08 -1.911353e-08 -2.026644e-08 -1.946065e-08
-2.110640e-08 -1.986672e-08 -2.016854e-08 -2.048102e-08 -2.076022e-08 -2.051288e-08 -2.019268e-08 -1.997921e-08 -1.959148e-08 -2.032084e-08
-2.005095e-08 -1.957709e-08 -1.974963e-08 -2.089173e-08 -1.969577e-08 -2.024753e-08 -1.884248e-08 -2.047125e-08 -2.015828e-08 -1.946170e-08
-2.126279e-08 -2.099932e-08 -2.081939e-08 -1.940724e-08 -2.047965e-08 -2.043368e-08 -1.913683e-08 -2.125432e-08 -2.152862e-08 -1.916685e-08
-2.084961e-08 -1.988237e-08 -1.975766e-08 -2.116346e-08 -1.940859e-08 -2.006893e-08 -2.113061e-08 -2.127251e-08 -1.942850e-08 -2.000061e-08
-2.030383e-08 -2.000226e-08 -1.925875e-08 -2.111497e-08 -2.068291e-08 -2.123073e-08 -1.954809e-08 -2.000172e-08 -2.010234e-08 -1.998023e-08
-2.063618e-08 -2.024170e-08 -1.995423e-08 -2.046065e-08 -1.989125e-08 -2.041250e-08 -1.861261e-08 -1.967667e-08 -1.969630e-08 -2.018705e-08
-2.141232e-08 -2.101198e-08 -2.133507e-08 -2.027475e-08 -2.094370e-08 -2.001256e-08 -1.993631e-08 -2.139016e-08 -2.053520e-08 -2.028963e-08
-2.037837e-08 -1.929799e-08 -1.962166e-08 -2.045925e-08 -1.937204e-08 -2.129642e-08 -2.104920e-08 -2.195593e-08 -1.953214e-08 -1.896047e-08
-1.915955e-08 -2.185829e-08 -2.225176e-08 -2.050646e-08 -1.899282e-08 -1.950387e-08 -1.869889e-08 -2.049457e-08 -2.102385e-08 -1.979695e-08
-1.920612e-08 -1.825700e-08 -2.055330e-08 -2.109211e-08 -2.096203e-08 -1.997681e-08 -1.978631e-08 -2.108396e-08 -1.994077e-08 -1.937239e-08
-1.981142e-08 -1.969744e-08 -2.025084e-08 -1.939066e-08 -2.165153e-08 -2.006688e-08 -2.006402e-08 -1.929545e-08 -2.030670e-08 -2.056362e-08
-2.020131e-08 -2.132811e-08 -1.901664e-08 -1.992730e-08 -2.054852e-08 -2.056979e-08 -2.034157e-08 -2.000192e-08 -2.158498e-08 -2.028971e-08
-1.989122e-08 -1.995951e-08 -1.997783e-08 -1.933645e-08 -2.023296e-08 -2.040613e-08 -2.031805e-08 -2.272652e-08 -1.978577e-08 -1.945151e-08
-1.998167e-08 -1.992248e-08 -2.010776e-08 -1.929771e-08 -2.031838e-08 -2.113304e-08 -2.171800e-08 -1.966045e-08 -2.100176e-08 -2.017659e-08
-1.918125e-08
-1.917796e-08 -1.985335e-08 -2.136045e-08 -1.919549e-08 -1.882998e-08 -2.145007e-08 -1.844476e-08 -1.978639e-08 -2.074611e-08 -1.925106e-08
-1.968162e-08 -1.954166e-08 -2.255767e-08 -2.042029e-08 -2.111868e-08 -1.822502e-08 -2.070353e-08 -2.030977e-08 -1.939027e-08 -1.947284e-08
-1.859797e-08 -1.954378e-08 -2.155504e-08 -1.998672e-08 -1.980145e-08 -1.969225e-08 -2.024126e-08 -2.011818e-08 -2.069669e-08 -2.030315e-08
-2.001058e-08 -2.104597e-08 -1.981425e-08 -2.080736e-08 -2.077992e-08 -2.071043e-08 -2.123545e-08 -1.997891e-08 -2.171673e-08 -2.099919e-08
-2.111003e-08 -2.037016e-08 -2.122349e-08 -2.018639e-08 -2.144845e-08 -2.064682e-08 -2.039497e-08 -1.977918e-08 -2.064861e-08 -2.066255e-08
-2.001442e-08 -2.242683e-08 -2.136009e-08 -2.084780e-08 -1.930570e-08 -1.954845e-08 -1.922482e-08 -2.090648e-08 -2.003982e-08 -1.907677e-08
-1.981026e-08 -2.117989e-08 -2.110717e-08 -1.962138e-08 -1.884542e-08 -2.171978e-08 -2.004620e-08 -2.030975e-08 -2.056741e-08 -1.963779e-08
-1.961031e-08 -2.141244e-08 -1.985020e-08 -2.071864e-08 -1.929764e-08 -2.023851e-08 -2.050588e-08 -2.107450e-08 -2.101124e-08 -1.898576e-08
-2.090111e-08 -2.065874e-08 -2.034429e-08 -2.083056e-08 -2.141931e-08 -1.997879e-08 -2.024237e-08 -1.900606e-08 -1.955813e-08 -1.788664e-08
-1.975005e-08 -2.086101e-08 -2.082863e-08 -1.997900e-08 -2.070784e-08 -1.947116e-08 -2.101126e-08 -1.863272e-08 -2.072228e-08 -2.053173e-08
-2.165077e-08 -2.049102e-08 -2.047239e-08 -1.923425e-08 -2.121711e-08 -1.972605e-08 -2.181514e-08 -2.045839e-08 -2.056469e-08 -2.135275e-08
-1.924554e-08 -1.971064e-08 -1.959113e-08 -1.863046e-08 -2.091537e-08 -2.047926e-08 -2.060186e-08 -2.091717e-08 -2.014514e-08 -2.083958e-08
-1.985666e-08 -2.121156e-08 -2.027627e-08 -2.017860e-08 -2.082060e-08 -2.093440e-08 -1.967372e-08 -2.173565e-08 -2.045611e-08 -2.013623e-08
-1.968498e-08 -2.047585e-08 -2.030569e-08 -2.018017e-08 -2.054279e-08 -2.095302e-08 -2.061144e-08 -2.065575e-08 -1.920579e-08 -2.043440e-08
-1.965403e-08 -2.138528e-08 -2.034840e-08 -2.016283e-08 -2.011641e-08 -2.077355e-08 -1.994116e-08 -1.988717e-08 -2.060685e-08 -1.914638e-08
-2.020572e-08 -2.090052e-08 -2.130921e-08 -2.215109e-08 -2.197165e-08 -1.962585e-08 -1.948921e-08 -1.942540e-08 -2.203959e-08 -1.976588e-08
-2.107478e-08 -2.014933e-08 -2.005376e-08 -2.026122e-08 -2.146871e-08 -2.100025e-08 -2.144767e-08 -2.091056e-08 -1.974765e-08 -1.950728e-08
-2.070446e-08 -2.052864e-08 -2.116368e-08 -2.013336e-08 -1.967135e-08 -1.955056e-08 -1.984896e-08 -2.009211e-08 -1.982580e-08 -2.065990e-08
-1.991887e-08 -1.942720e-08 -1.874191e-08 -1.920272e-08 -1.882611e-08 -1.866274e-08 -2.083149e-08 -2.062343e-08 -2.112307e-08 -1.903696e-08
-2.091096e-08 -1.989918e-08 -2.002415e-08 -2.029668e-08 -1.882090e-08 -1.949074e-08 -2.033036e-08 -2.111529e-08 -2.042125e-08 -2.017676e-08
-2.065968e-08 -1.951261e-08 -2.150463e-08 -2.232979e-08 -1.896942e-08 -1.975954e-08 -2.067440e-08 -2.131543e-08 -2.092399e-08 -2.039400e-08
-1.952556e-08 -2.106706e-08 -2.016606e-08 -2.024841e-08 -1.902775e-08 -2.060884e-08 -2.189338e-08 -1.886120e-08 -1.906287e-08 -1.938248e-08
-2.136822e-08 -2.107006e-08 -2.038746e-08 -2.006949e-08 -1.903633e-08 -1.974775e-08 -2.142343e-08 -2.125264e-08 -2.065324e-08 -1.881323e-08
-1.888174e-08 -2.115256e-08 -2.021467e-08 -2.055507e-08 -1.948501e-08 -2.119683e-08 -2.092032e-08 -1.982813e-08 -2.010606e-08 -1.966514e-08
-2.093262e-08 -2.182420e-08 -1.987556e-08 -1.955443e-08 -2.041926e-08 -1.931242e-08 -2.116158e-08 -1.933800e-08 -1.963464e-08 -2.024517e-08
-2.007012e-08 -2.056517e-08 -2.081457e-08 -2.043861e-08 -1.987525e-08 -1.871445e-08 -2.035405e-08 -2.110608e-08 -2.206801e-08 -1.970281e-08
-1.982135e-08 -2.030246e-08 -2.020680e-08 -2.218843e-08 -2.014346e-08 -2.127096e-08 -2.033963e-08 -2.034906e-08 -2.097557e-08 -2.016060e-08
-1.960215e-08 -2.158694e-08 -2.088758e-08 -2.071913e-08 -2.061876e-08 -1.904465e-08 -1.969954e-08 -1.894955e-08 -2.042659e-08 -1.921709e-08
-1.949628e-08 -2.081568e-08 -2.107039e-08 -2.015866e-08 -2.090981e-08 -2.094445e-08 -2.065610e-08 -2.067797e-08 -2.053551e-08 -2.023690e-08
-2.058716e-08 -2.143643e-08 -1.888711e-08 -2.136754e-08 -2.202284e-08 -1.910822e-08 -2.079755e-08 -2.002171e-08 -2.033313e-08 -2.131224e-08
-2.028068e-08 -2.095729e-08 -2.217369e-08 -1.949359e-08 -2.100947e-08 -2.174928e-08 -1.989101e-08 -1.851410e-08 -2.026196e-08 -1.918449e-08
-2.175514e-08 -2.038981e-08 -2.064438e-08 -2.121083e-08 -1.965658e-08 -2.089995e-08 -1.912551e-08 -2.069206e-08 -1.973219e-08 -2.002342e-08
-1.988777e-08 -1.959583e-08 -1.962911e-08 -2.142194e-08 -2.058788e-08 -1.977728e-08 -1.951310e-08 -1.943753e-08 -1.983223e-08 -1.952833e-08
-2.202871e-08 -1.959676e-08 -2.095253e-08 -2.026072e-08 -1.986878e-08 -2.055452e-08 -1.901998e-08 -1.808456e-08 -2.050242e-08 -2.080585e-08
-1.976932e-08 -1.882734e-08 -1.952733e-08 -2.021887e-08 -2.038021e-08 -2.190666e-08 -2.059011e-08 -2.143813e-08 -2.163539e-08 -1.948235e-08
-2.163948e-08 -2.144227e-08 -2.031146e-08 -2.173022e-08 -2.023343e-08 -1.935531e-08 -2.040874e-08 -2.024210e-08 -2.024258e-08 -2.139701e-08
-1.917796e-08
-1.916409e-08 -2.030571e-08 -1.987210e-08 -2.016991e-08 -2.073164e-08 -2.003011e-08 -2.024624e-08 -2.104428e-08 -2.001111e-08 -2.158392e-08
-2.022503e-08 -1.930075e-08 -2.047583e-08 -2.009541e-08 -2.079302e-08 -2.083513e-08 -2.239909e-08 -2.156713e-08 -1.993222e-08 -2.099996e-08
-1.905483e-08 -2.055313e-08 -2.170464e-08 -2.001811e-08 -1.923419e-08 -2.022021e-08 -2.106405e-08 -1.973689e-08 -1.960412e-08 -1.973500e-08
-2.008436e-08 -2.073661e-08 -1.941368e-08 -1.864093e-08 -2.104339e-08 -2.114738e-08 -2.155770e-08 -2.143206e-08 -2.037624e-08 -2.014914e-08
-1.907950e-08 -2.040066e-08 -2.082238e-08 -2.011681e-08 -2.119713e-08 -2.010141e-08 -2.149894e-08 -1.987799e-08 -2.033661e-08 -1.973540e-08
-1.967393e-08 -2.129941e-08 -2.186339e-08 -2.062177e-08 -1.912778e-08 -1.973011e-08 -2.072132e-08 -2.022915e-08 -2.131650e-08 -1.966647e-08
-1.876214e-08 -1.946560e-08 -1.986479e-08 -1.846065e-08 -2.006884e-08 -2.048086e-08 -2.109186e-08 -1.989456e-08 -2.049507e-08 -2.095941e-08
-1.938954e-08 -2.070781e-08 -2.065264e-08 -2.031826e-08 -2.005312e-08 -2.121571e-08 -2.081417e-08 -2.018583e-08 -2.012708e-08 -2.032108e-08
-2.015708e-08 -2.031279e-08 -2.020713e-08 -1.972428e-08 -2.073467e-08 -2.041694e-08 -2.039178e-08 -1.960059e-08 -1.945879e-08 -1.851026e-08
-1.916419e-08 -2.056925e-08 -2.102444e-08 -1.918263e-08 -1.979415e-08 -1.988135e-08 -2.113427e-08 -1.917818e-08 -2.049841e-08 -1.946025e-08
-2.015412e-08 -2.241087e-08 -1.960574e-08 -2.028865e-08 -1.987441e-08 -2.044537e-08 -2.053302e-08 -1.955634e-08 -2.037143e-08 -2.082749e-08
-1.870220e-08 -2.154361e-08 -2.009835e-08 -2.031104e-08 -1.994800e-08 -2.007109e-08 -2.159339e-08 -2.012171e-08 -2.048998e-08 -1.996075e-08
-2.014320e-08 -1.902331e-08 -2.058475e-08 -2.063560e-08 -1.995380e-08 -2.056030e-08 -1.903949e-08 -1.935926e-08 -2.063163e-08 -2.098665e-08
-2.235650e-08 -2.071253e-08 -2.055910e-08 -2.113486e-08 -2.087502e-08 -2.052624e-08 -2.004179e-08 -2.193454e-08 -2.152428e-08 -2.047303e-08
-2.047449e-08 -2.002590e-08 -1.943084e-08 -1.991949e-08 -2.168280e-08 -1.893934e-08 -2.088160e-08 -2.065679e-08 -2.061200e-08 -2.081219e-08
-2.207943e-08 -2.012900e-08 -2.009168e-08 -1.878113e-08 -1.907908e-08 -1.880039e-08 -2.054199e-08 -2.115838e-08 -2.101534e-08 -1.996886e-08
-2.093497e-08 -2.137146e-08 -2.116082e-08 -2.119992e-08 -2.068263e-08 -2.093676e-08 -2.026334e-08 -2.032951e-08 -1.948679e-08 -1.962392e-08
-2.032366e-08 -1.880097e-08 -2.033843e-08 -1.901754e-08 -1.952900e-08 -2.015515e-08 -2.012565e-08 -2.147905e-08 -1.981633e-08 -2.027655e-08
-1.923810e-08 -2.004764e-08 -2.111178e-08 -2.045310e-08 -1.892916e-08 -2.066260e-08 -2.096421e-08 -1.783097e-08 -2.011980e-08 -2.040650e-08
-2.137545e-08 -1.937847e-08 -1.903741e-08 -1.949660e-08 -1.903914e-08 -2.030249e-08 -2.192627e-08 -1.995892e-08 -1.892749e-08 -2.106619e-08
-1.952534e-08 -2.008727e-08 -1.887165e-08 -2.101061e-08 -2.077518e-08 -1.970257e-08 -1.893249e-08 -2.082217e-08 -2.118136e-08 -1.992199e-08
-1.925300e-08 -2.199554e-08 -2.102611e-08 -1.948623e-08 -2.036292e-08 -1.966153e-08 -1.960012e-08 -2.089326e-08 -2.050515e-08 -2.159123e-08
-2.031777e-08 -2.034908e-08 -2.099630e-08 -2.078492e-08 -1.941451e-08 -1.940974e-08 -2.180695e-08 -2.070588e-08 -2.114509e-08 -1.971173e-08
-2.059160e-08 -2.124092e-08 -1.987930e-08 -2.144625e-08 -2.024109e-08 -1.923460e-08 -2.084036e-08 -2.141270e-08 -2.092817e-08 -2.038794e-08
-2.044732e-08 -1.950128e-08 -1.964845e-08 -2.021187e-08 -2.117505e-08 -1.997411e-08 -2.033624e-08 -2.031906e-08 -2.047996e-08 -2.154409e-08
-2.163417e-08 -2.029643e-08 -1.980145e-08 -1.974545e-08 -1.818040e-08 -2.004962e-08 -1.891317e-08 -2.006328e-08 -2.140397e-08 -2.164637e-08
-2.060884e-08 -2.003332e-08 -1.985113e-08 -1.936838e-08 -2.021390e-08 -2.022749e-08 -2.030334e-08 -1.859487e-08 -2.023648e-08 -2.017923e-08
-2.142614e-08 -2.037018e-08 -1.892939e-08 -2.017165e-08 -2.093837e-08 -1.944434e-08 -2.124355e-08 -2.114863e-08 -1.954391e-08 -2.036108e-08
-2.068970e-08 -2.025731e-08 -1.957588e-08 -1.990615e-08 -2.041297e-08 -2.020879e-08 -1.876956e-08 -1.916368e-08 -2.114407e-08 -1.999116e-08
-2.031457e-08 -2.047542e-08 -1.965224e-08 -2.120820e-08 -2.065811e-08 -2.174973e-08 -1.953258e-08 -2.056498e-08 -2.105957e-08 -2.014832e-08
-1.991948e-08 -2.055718e-08 -2.025328e-08 -1.982097e-08 -2.114973e-08 -1.960634e-08 -1.975301e-08 -2.030746e-08 -1.981729e-08 -2.007407e-08
-2.165345e-08 -2.089599e-08 -2.153149e-08 -2.074871e-08 -2.013060e-08 -2.009688e-08 -2.078153e-08 -1.993325e-08 -2.091996e-08 -2.181232e-08
-2.132686e-08 -2.015049e-08 -2.093167e-08 -2.074308e-08 -2.029233e-08 -1.918114e-08 -1.975960e-08 -2.234424e-08 -1.894011e-08 -2.049036e-08
-2.123167e-08 -1.979036e-08 -1.952962e-08 -1.988807e-08 -1.918104e-08 -2.003798e-08 -2.009797e-08 -1.999256e-08 -1.921830e-08 -2.030347e-08
-2.100757e-08 -2.126504e-08 -2.078437e-08 -1.985335e-08 -1.939016e-08 -1.986887e-08 -2.156410e-08 -2.147893e-08 -1.910148e-08 -2.156713e-08
-1.956968e-08 -1.884364e-08 -2.097427e-08 -2.115944e-08 -1.990366e-08 -1.942981e-08 -1.861052e-08 -2.073970e-08 -1.863026e-08 -1.993745e-08
-1.916409e-08
-1.956207e-08 -1.955133e-08 -2.031266e-08 -2.044721e-08 -1.991223e-08 -1.899523e-08 -1.890719e-08 -2.119635e-08 -2.051104e-08 -1.983809e-08
-2.138232e-08 -2.187368e-08 -2.039106e-08 -1.923038e-08 -2.151750e-08 -2.060966e-08 -2.001211e-08 -1.976124e-08 -2.022735e-08 -1.945792e-08
-2.127043e-08 -2.112920e-08 -2.113538e-08 -1.882501e-08 -1.994405e-08 -2.113150e-08 -2.086795e-08 -2.178424e-08 -2.115983e-08 -1.993519e-08
-2.153099e-08 -2.104458e-08 -2.086725e-08 -2.011063e-08 -1.997997e-08 -2.001183e-08 -2.051799e-08 -2.031645e-08 -2.064692e-08 -2.116542e-08
-2.176637e-08 -1.931534e-08 -2.141091e-08 -1.972038e-08 -2.062580e-08 -2.061140e-08 -2.058813e-08 -1.972026e-08 -1.933728e-08 -1.865997e-08
-2.089731e-08 -1.996589e-08 -1.971341e-08 -2.138504e-08 -1.983460e-08 -2.128473e-08 -1.949979e-08 -1.835217e-08 -2.050273e-08 -1.957047e-08
-1.952860e-08 -1.928375e-08 -2.084743e-08 -1.937181e-08 -2.005619e-08 -2.031291e-08 -2.069086e-08 -2.036842e-08 -1.955400e-08 -2.005627e-08
-2.183588e-08 -1.946778e-08 -2.268472e-08 -1.944272e-08 -1.985130e-08 -1.903052e-08 -2.044212e-08 -2.130597e-08 -1.986784e-08 -2.040372e-08
-2.043749e-08 -1.909716e-08 -2.005894e-08 -1.876116e-08 -2.048946e-08 -2.054296e-08 -2.026619e-08 -2.059824e-08 -2.086636e-08 -2.184611e-08
-2.002166e-08 -2.029314e-08 -1.982903e-08 -2.009432e-08 -2.100007e-08 -2.032759e-08 -2.205847e-08 -1.867089e-08 -1.914508e-08 -2.000888e-08
-2.089860e-08 -1.945748e-08 -1.867602e-08 -2.028631e-08 -2.071490e-08 -1.995303e-08 -2.052936e-08 -1.930996e-08 -2.090567e-08 -1.902336e-08
-1.985183e-08 -1.897399e-08 -2.094805e-08 -2.141609e-08 -1.966617e-08 -1.932355e-08 -2.046516e-08 -2.063851e-08 -1.995041e-08 -2.082808e-08
-2.079477e-08 -2.051173e-08 -1.991232e-08 -2.196798e-08 -2.087287e-08 -2.007353e-08 -1.988711e-08 -2.148991e-08 -1.981980e-08 -2.024569e-08
-2.166487e-08 -2.057804e-08 -2.044231e-08 -2.076619e-08 -2.044286e-08 -1.890513e-08 -1.983321e-08 -2.133330e-08 -2.138217e-08 -1.928934e-08
-2.027038e-08 -2.149309e-08 -1.924595e-08 -2.060703e-08 -1.996427e-08 -1.952940e-08 -2.116244e-08 -1.979547e-08 -1.874174e-08 -1.991056e-08
-2.084723e-08 -1.999549e-08 -1.978884e-08 -1.743898e-08 -2.117626e-08 -2.125961e-08 -2.260738e-08 -1.865818e-08 -2.107805e-08 -2.059345e-08
-2.113111e-08 -2.012474e-08 -1.911997e-08 -1.911296e-08 -2.194285e-08 -2.099653e-08 -2.048843e-08 -2.129806e-08 -1.969073e-08 -2.136751e-08
-1.952949e-08 -2.151052e-08 -1.994893e-08 -2.135858e-08 -2.271356e-08 -2.112789e-08 -1.984216e-08 -2.025311e-08 -2.112297e-08 -2.058553e-08
-2.031666e-08 -1.944862e-08 -2.008175e-08 -1.994202e-08 -1.964950e-08 -1.917031e-08 -1.954105e-08 -2.114768e-08 -1.940428e-08 -1.913076e-08
-2.091735e-08 -2.089138e-08 -2.111971e-08 -2.083343e-08 -1.793460e-08 -1.923959e-08 -2.148583e-08 -2.062224e-08 -1.836386e-08 -2.048422e-08
-1.938406e-08 -1.901787e-08 -2.117515e-08 -2.134621e-08 -2.237482e-08 -1.902408e-08 -1.906199e-08 -1.972015e-08 -2.054368e-08 -2.019099e-08
-2.008108e-08 -1.864403e-08 -1.924319e-08 -2.127531e-08 -1.987156e-08 -2.007379e-08 -1.891825e-08 -2.022036e-08 -1.958881e-08 -2.024249e-08
-1.978715e-08 -2.148733e-08 -2.039972e-08 -2.008847e-08 -2.090702e-08 -2.027045e-08 -2.110287e-08 -1.874959e-08 -1.894514e-08 -2.002822e-08
-2.131218e-08 -1.965035e-08 -2.110117e-08 -1.891524e-08 -1.953938e-08 -2.108576e-08 -2.141663e-08 -2.131037e-08 -1.894298e-08 -2.103258e-08
-2.020569e-08 -1.984641e-08 -2.018958e-08 -1.912958e-08 -2.042977e-08 -2.047851e-08 -2.091014e-08 -2.114346e-08 -2.058545e-08 -2.035524e-08
-1.992932e-08 -2.029980e-08 -1.962325e-08 -2.043051e-08 -1.952194e-08 -1.868745e-08 -2.070661e-08 -2.100907e-08 -1.941832e-08 -1.919371e-08
-2.183729e-08 -2.002245e-08 -2.064495e-08 -2.028184e-08 -2.136449e-08 -1.921348e-08 -2.094441e-08 -2.020762e-08 -1.936100e-08 -1.853792e-08
-2.014273e-08 -2.125995e-08 -1.930691e-08 -2.046432e-08 -1.975252e-08 -2.021675e-08 -2.076461e-08 -1.936237e-08 -2.074877e-08 -1.900205e-08
-1.960123e-08 -1.911478e-08 -2.132966e-08 -1.970525e-08 -2.039376e-08 -1.989091e-08 -1.969561e-08 -2.141782e-08 -1.904143e-08 -2.110519e-08
-2.167759e-08 -2.024913e-08 -1.882856e-08 -1.990492e-08 -1.958258e-08 -2.008572e-08 -1.938381e-08 -2.135936e-08 -1.998783e-08 -2.062725e-08
-2.185720e-08 -2.027213e-08 -1.896316e-08 -2.195295e-08 -2.163733e-08 -2.089422e-08 -1.974862e-08 -2.030465e-08 -2.084128e-08 -2.075925e-08
-1.947107e-08 -1.927348e-08 -1.989479e-08 -1.959531e-08 -2.133039e-08 -2.048107e-08 -1.947716e-08 -2.013945e-08 -1.942436e-08 -1.937219e-08
-2.210997e-08 -1.986503e-08 -2.094367e-08 -1.983641e-08 -2.014631e-08 -1.991746e-08 -2.019256e-08 -1.960466e-08 -1.997568e-08 -2.018363e-08
-2.215521e-08 -2.023399e-08 -2.105113e-08 -2.030042e-08 -2.003827e-08 -2.074776e-08 -2.027592e-08 -2.104072e-08 -2.071812e-08 -2.022196e-08
-1.922241e-08 -1.972215e-08 -1.969799e-08 -2.012956e-08 -2.147939e-08 -1.998847e-08 -2.086151e-08 -1.958237e-08 -1.992557e-08 -2.098452e-08
-1.956104e-08 -2.107939e-08 -2.099889e-08 -2.016878e-08 -1.969241e-08 -2.089655e-08 -2.032588e-08 -2.121538e-08 -2.071924e-08 -2.135341e-08
-1.956207e-08
-2.111375e-08 -2.135607e-08 -2.058295e-08 -1.914597e-08 -2.058710e-08 -1.887608e-08 -1.930130e-08 -1.972967e-08 -2.183137e-08 -2.037846e-08
-1.996774e-08 -2.003625e-08 -2.042217e-08 -1.995011e-08 -2.151697e-08 -2.096964e-08 -1.956601e-08 -2.016169e-08 -2.055642e-08 -2.092121e-08
-2.125412e-08 -1.943583e-08 -2.033226e-08 -1.883202e-08 -2.117195e-08 -2.046305e-08 -2.038228e-08 -2.031720e-08 -2.114546e-08 -2.095901e-08
-1.875901e-08 -2.011321e-08 -2.095477e-08 -2.018597e-08 -1.884683e-08 -1.954395e-08 -1.998219e-08 -2.135192e-08 -2.148410e-08 -1.992142e-08
-1.986984e-08 -1.954710e-08 -2.126300e-08 -2.164275e-08 -2.091534e-08 -1.850217e-08 -2.113369e-08 -2.173053e-08 -1.911082e-08 -2.070031e-08
-2.101425e-08 -2.026867e-08 -2.090579e-08 -1.929926e-08 -2.077643e-08 -1.989262e-08 -2.185182e-08 -2.126609e-08 -1.917508e-08 -2.091013e-08
-1.990593e-08 -1.890745e-08 -1.889128e-08 -1.898131e-08 -2.079494e-08 -2.003513e-08 -1.966170e-08 -1.859486e-08 -2.017486e-08 -2.175251e-08
-1.988369e-08 -2.100356e-08 -2.100591e-08 -1.954954e-08 -2.035874e-08 -2.074307e-08 -1.944000e-08 -2.079000e-08 -1.937624e-08 -2.092290e-08
-2.033292e-08 -2.063072e-08 -2.067747e-08 -1.879676e-08 -2.046881e-08 -1.955610e-08 -1.933941e-08 -1.910214e-08 -2.096871e-08 -1.979658e-08
-2.021477e-08 -2.118521e-08 -1.974555e-08 -2.027806e-08 -1.972603e-08 -1.973363e-08 -2.073935e-08 -2.043833e-08 -1.963638e-08 -2.035113e-08
-2.048657e-08 -2.007252e-08 -1.952910e-08 -1.916285e-08 -1.962069e-08 -1.970318e-08 -1.922311e-08 -2.176831e-08 -2.241761e-08 -1.880943e-08
-2.071363e-08 -1.993378e-08 -2.081522e-08 -2.060691e-08 -2.087078e-08 -2.076945e-08 -2.037874e-08 -2.104395e-08 -2.080643e-08 -2.035919e-08
-1.942868e-08 -2.124249e-08 -1.964277e-08 -1.963443e-08 -2.066484e-08 -2.019105e-08 -2.024948e-08 -2.051130e-08 -1.903153e-08 -2.121617e-08
-2.015761e-08 -2.031958e-08 -2.149895e-08 -2.024655e-08 -1.943532e-08 -2.135534e-08 -2.032110e-08 -1.987469e-08 -1.991034e-08 -2.056607e-08
-2.124259e-08 -2.037758e-08 -2.128703e-08 -2.049404e-08 -2.096679e-08 -2.006632e-08 -2.039837e-08 -2.118313e-08 -2.081425e-08 -2.218895e-08
-2.010869e-08 -1.969802e-08 -2.017897e-08 -2.172662e-08 -2.099912e-08 -2.131026e-08 -2.012121e-08 -1.916543e-08 -1.981556e-08 -2.128462e-08
-2.017757e-08 -2.068377e-08 -1.961366e-08 -2.018336e-08 -2.148500e-08 -2.043931e-08 -1.934915e-08 -1.939886e-08 -2.115878e-08 -2.165900e-08
-2.168514e-08 -2.129500e-08 -2.003383e-08 -2.013088e-08 -1.954203e-08 -2.063822e-08 -2.050976e-08 -2.129416e-08 -2.033469e-08 -1.899604e-08
-1.855359e-08 -2.165715e-08 -1.963740e-08 -2.049780e-08 -2.085835e-08 -2.047705e-08 -2.128721e-08 -1.981338e-08 -2.025106e-08 -1.987655e-08
-2.106661e-08 -2.052471e-08 -2.135860e-08 -2.090538e-08 -2.031288e-08 -1.875457e-08 -1.989747e-08 -2.180446e-08 -2.071226e-08 -2.137931e-08
-2.086323e-08 -1.994415e-08 -2.080454e-08 -2.062870e-08 -2.049999e-08 -2.026223e-08 -2.019766e-08 -2.138294e-08 -2.052288e-08 -2.042177e-08
-2.056845e-08 -2.079773e-08 -2.094943e-08 -2.137222e-08 -2.000201e-08 -2.297303e-08 -2.062678e-08 -2.137308e-08 -1.997222e-08 -1.879225e-08
-2.100277e-08 -2.077030e-08 -2.158409e-08 -2.145840e-08 -1.980388e-08 -1.878086e-08 -2.158421e-08 -2.111591e-08 -2.014040e-08 -2.108456e-08
-1.981241e-08 -1.869663e-08 -2.135102e-08 -1.982807e-08 -1.935490e-08 -2.055735e-08 -1.953489e-08 -2.068691e-08 -1.905582e-08 -2.156006e-08
-2.099419e-08 -2.048259e-08 -2.014027e-08 -2.043826e-08 -1.914012e-08 -2.064589e-08 -2.008895e-08 -1.981000e-08 -1.952457e-08 -2.205064e-08
-2.067328e-08 -2.005921e-08 -1.993519e-08 -2.028145e-08 -1.953655e-08 -1.974192e-08 -1.968930e-08 -2.157859e-08 -2.095360e-08 -1.869580e-08
-2.070764e-08 -1.951702e-08 -2.008082e-08 -1.894225e-08 -1.957380e-08 -2.066372e-08 -2.073568e-08 -1.937194e-08 -2.016936e-08 -1.884454e-08
-2.048057e-08 -2.204400e-08 -1.922547e-08 -2.001875e-08 -2.074140e-08 -2.067184e-08 -2.093895e-08 -1.967820e-08 -2.024368e-08 -2.048278e-08
-2.112731e-08 -2.047086e-08 -2.000772e-08 -2.056077e-08 -2.020800e-08 -2.022873e-08 -2.135535e-08 -2.089596e-08 -2.038160e-08 -2.027624e-08
-2.103597e-08 -1.945532e-08 -2.042546e-08 -2.112255e-08 -1.995039e-08 -2.074975e-08 -2.071060e-08 -1.917038e-08 -2.091025e-08 -1.998077e-08
-2.015304e-08 -2.072998e-08 -1.989184e-08 -1.880191e-08 -2.064692e-08 -2.055420e-08 -2.057987e-08 -2.019535e-08 -2.122478e-08 -2.200817e-08
-2.096903e-08 -2.030942e-08 -2.043016e-08 -2.008353e-08 -2.154026e-08 -2.019228e-08 -2.037017e-08 -2.129182e-08 -2.123893e-08 -1.991834e-08
-2.033148e-08 -2.052591e-08 -2.086803e-08 -1.888142e-08 -2.024844e-08 -2.058217e-08 -2.146813e-08 -1.857546e-08 -2.023122e-08 -1.895593e-08
-2.147441e-08 -1.894369e-08 -2.097122e-08 -1.896671e-08 -2.219822e-08 -2.110945e-08 -2.128503e-08 -1.933121e-08 -2.003177e-08 -2.024942e-08
-2.017028e-08 -2.087715e-08 -2.165685e-08 -2.153294e-08 -2.044109e-08 -2.037247e-08 -2.019700e-08 -1.946412e-08 -2.062666e-08 -2.128007e-08
-2.163017e-08 -1.925292e-08 -2.081722e-08 -2.046390e-08 -2.134070e-08 -1.947565e-08 -1.993292e-08 -2.122038e-08 -1.974647e-08 -2.052998e-08
-2.111375e-08
-2.047037e-08 -1.922322e-08 -2.035607e-08 -2.029180e-08 -2.071529e-08 -2.179390e-08 -2.113278e-08 -1.970210e-08 -2.135872e-08 -2.244444e-08
-1.933699e-08 -2.073251e-08 -2.024218e-08 -1.913169e-08 -1.932968e-08 -2.103464e-08 -2.099922e-08 -1.954076e-08 -2.033524e-08 -2.086520e-08
-2.059176e-08 -1.974326e-08 -2.024673e-08 -2.024807e-08 -2.032866e-08 -1.975876e-08 -1.952005e-08 -2.111633e-08 -2.022615e-08 -1.925822e-08
-2.042498e-08 -1.956211e-08 -2.087558e-08 -1.991943e-08 -2.158816e-08 -1.999729e-08 -2.079557e-08 -1.979310e-08 -1.960374e-08 -1.990141e-08
-2.123888e-08 -1.952886e-08 -2.171929e-08 -2.157647e-08 -2.072763e-08 -2.083916e-08 -2.035012e-08 -1.930067e-08 -2.079219e-08 -2.055850e-08
-1.884708e-08 -2.077306e-08 -2.111806e-08 -2.087707e-08 -2.161589e-08 -1.990539e-08 -1.968762e-08 -2.099748e-08 -1.966691e-08 -2.090809e-08
-2.156137e-08 -1.909651e-08 -2.013188e-08 -1.950433e-08 -2.079089e-08 -2.072115e-08 -2.064809e-08 -2.008532e-08 -1.989903e-08 -2.080743e-08
-2.078531e-08 -2.012775e-08 -1.965886e-08 -2.002298e-08 -2.008584e-08 -2.056599e-08 -2.016605e-08 -2.103277e-08 -2.079198e-08 -2.186535e-08
-1.927169e-08 -2.023727e-08 -2.093031e-08 -2.103602e-08 -2.011146e-08 -2.008241e-08 -1.974389e-08 -2.079212e-08 -2.087774e-08 -2.032711e-08
-2.087794e-08 -2.068843e-08 -2.008134e-08 -2.000881e-08 -1.958362e-08 -2.159466e-08 -1.870458e-08 -1.950390e-08 -1.955710e-08 -1.987192e-08
-2.066252e-08 -2.142501e-08 -2.028869e-08 -1.909229e-08 -2.023358e-08 -2.034127e-08 -2.042421e-08 -2.007542e-08 -2.089217e-08 -1.992488e-08
-1.962007e-08 -2.123430e-08 -1.994578e-08 -2.126429e-08 -2.037149e-08 -2.128494e-08 -2.005961e-08 -2.020651e-08 -2.060566e-08 -2.059231e-08
-1.971429e-08 -2.066258e-08 -2.062755e-08 -1.940420e-08 -1.883805e-08 -2.068872e-08 -2.027683e-08 -2.034422e-08 -1.840675e-08 -2.063248e-08
-2.115124e-08 -2.097119e-08 -2.009937e-08 -2.128285e-08 -2.100201e-08 -1.994348e-08 -1.951138e-08 -2.151813e-08 -2.013949e-08 -2.051244e-08
-2.233597e-08 -2.072467e-08 -2.027279e-08 -2.227652e-08 -2.166095e-08 -2.134737e-08 -1.887330e-08 -1.999851e-08 -2.237007e-08 -2.132104e-08
-2.225433e-08 -1.964354e-08 -2.128328e-08 -2.155660e-08 -2.007753e-08 -2.007096e-08 -2.047126e-08 -2.074752e-08 -1.959216e-08 -2.181107e-08
-2.037475e-08 -2.228218e-08 -2.000001e-08 -1.995587e-08 -2.085294e-08 -1.842621e-08 -1.946318e-08 -2.149923e-08 -2.219291e-08 -2.048213e-08
-2.114803e-08 -2.094203e-08 -2.057548e-08 -1.971887e-08 -1.932618e-08 -2.024073e-08 -1.935605e-08 -2.165741e-08 -1.998847e-08 -1.956128e-08
-2.043037e-08 -1.974148e-08 -2.032473e-08 -1.802182e-08 -1.967802e-08 -2.064659e-08 -2.005407e-08 -2.117863e-08 -1.982350e-08 -2.189843e-08
-1.893155e-08 -1.974672e-08 -1.998013e-08 -1.908742e-08 -2.070482e-08 -2.004558e-08 -1.990328e-08 -1.997780e-08 -2.075770e-08 -2.066728e-08
-1.948193e-08 -2.094393e-08 -2.048797e-08 -2.190704e-08 -2.038578e-08 -2.161569e-08 -2.073124e-08 -2.046909e-08 -2.026064e-08 -1.996144e-08
-2.067038e-08 -2.132502e-08 -1.949523e-08 -2.055211e-08 -2.150457e-08 -2.115169e-08 -1.967812e-08 -2.023645e-08 -2.067186e-08 -2.185383e-08
-2.011830e-08 -2.078309e-08 -1.984798e-08 -1.945596e-08 -1.854182e-08 -2.038030e-08 -2.272009e-08 -2.079380e-08 -2.076450e-08 -1.871641e-08
-1.944858e-08 -2.027067e-08 -1.949422e-08 -1.933071e-08 -1.939348e-08 -1.935546e-08 -1.966469e-08 -2.035371e-08 -2.058341e-08 -2.024237e-08
-2.066955e-08 -2.108401e-08 -2.149806e-08 -1.995656e-08 -2.101292e-08 -2.192049e-08 -2.076641e-08 -1.959692e-08 -2.017068e-08 -1.898773e-08
-1.970681e-08 -2.036095e-08 -2.094490e-08 -1.876441e-08 -2.028513e-08 -2.100146e-08 -2.039441e-08 -1.870500e-08 -2.056668e-08 -1.945283e-08
-1.906303e-08 -2.130871e-08 -1.927429e-08 -1.975131e-08 -1.978257e-08 -1.928757e-08 -2.054645e-08 -2.101611e-08 -1.876241e-08 -2.062174e-08
-2.154918e-08 -2.043527e-08 -1.978671e-08 -2.141716e-08 -1.998441e-08 -1.894036e-08 -1.980369e-08 -2.070277e-08 -1.823997e-08 -1.995298e-08
-1.997891e-08 -1.991635e-08 -1.991228e-08 -1.932350e-08 -1.894785e-08 -2.124158e-08 -2.150959e-08 -2.058392e-08 -1.974959e-08 -2.073424e-08
-1.910857e-08 -2.038768e-08 -1.946835e-08 -2.000261e-08 -2.115859e-08 -2.044290e-08 -1.994079e-08 -1.987005e-08 -2.041699e-08 -1.849359e-08
-2.020857e-08 -2.073251e-08 -2.246173e-08 -1.959900e-08 -2.027705e-08 -2.049168e-08 -1.946393e-08 -2.106413e-08 -2.110875e-08 -1.953740e-08
-2.050723e-08 -2.011882e-08 -2.166577e-08 -2.060831e-08 -2.207191e-08 -1.940885e-08 -2.179770e-08 -2.164189e-08 -1.955588e-08 -2.048574e-08
-2.118844e-08 -2.133205e-08 -1.997961e-08 -2.204777e-08 -1.970650e-08 -2.119736e-08 -2.157919e-08 -2.032466e-08 -2.076910e-08 -2.094241e-08
-2.188485e-08 -2.032529e-08 -2.154511e-08 -2.087794e-08 -2.022260e-08 -2.059415e-08 -2.063838e-08 -2.025395e-08 -2.064375e-08 -1.983838e-08
-2.091460e-08 -2.102419e-08 -2.128613e-08 -2.049806e-08 -2.084870e-08 -1.921982e-08 -2.074449e-08 -1.973466e-08 -2.213780e-08 -2.022090e-08
-2.130091e-08 -1.958031e-08 -2.114278e-08 -2.144420e-08 -2.016316e-08 -2.067379e-08 -2.102124e-08 -2.104884e-08 -1.969447e-08 -2.279710e-08
-2.047037e-08
-2.123431e-08 -2.043280e-08 -2.017127e-08 -2.108517e-08 -2.040878e-08 -2.114731e-08 -2.122960e-08 -1.974484e-08 -1.937299e-08 -1.977867e-08
-2.138337e-08 -2.066642e-08 -2.069951e-08 -1.992809e-08 -2.131498e-08 -2.051843e-08 -2.025486e-08 -2.189022e-08 -1.932059e-08 -2.124738e-08
-1.931140e-08 -1.964742e-08 -2.022521e-08 -2.020863e-08 -2.045867e-08 -1.927998e-08 -2.172214e-08 -2.118702e-08 -1.872689e-08 -2.077219e-08
-2.090297e-08 -2.104292e-08 -2.104265e-08 -1.916795e-08 -2.070111e-08 -2.007352e-08 -2.001640e-08 -1.921093e-08 -2.032812e-08 -2.100083e-08
-2.096221e-08 -1.963820e-08 -1.936272e-08 -1.982252e-08 -1.985468e-08 -2.142065e-08 -1.976485e-08 -2.090064e-08 -2.005896e-08 -1.938525e-08
-2.084302e-08 -1.978445e-08 -1.987947e-08 -2.007606e-08 -2.110016e-08 -2.107119e-08 -1.922837e-08 -1.929688e-08 -2.183918e-08 -2.088292e-08
-2.189524e-08 -1.956068e-08 -2.038751e-08 -2.013768e-08 -2.062354e-08 -2.029877e-08 -2.037494e-08 -2.104309e-08 -1.927485e-08 -2.148359e-08
-1.939966e-08 -2.051277e-08 -1.839686e-08 -2.063548e-08 -1.911935e-08 -1.941691e-08 -2.150030e-08 -1.968777e-08 -2.090877e-08 -2.046725e-08
-2.069564e-08 -2.023777e-08 -2.056513e-08 -1.942247e-08 -1.971785e-08 -2.123228e-08 -2.151401e-08 -1.999950e-08 -2.070518e-08 -1.973372e-08
-1.986638e-08 -2.052923e-08 -2.074467e-08 -2.017231e-08 -2.026485e-08 -1.912472e-08 -2.034987e-08 -2.017539e-08 -2.145951e-08 -2.047409e-08
-2.003745e-08 -1.950489e-08 -2.126839e-08 -2.003249e-08 -2.013655e-08 -2.010883e-08 -2.004213e-08 -2.076106e-08 -1.899497e-08 -2.210285e-08
-1.980537e-08 -2.125222e-08 -2.082560e-08 -2.120347e-08 -1.899863e-08 -2.069968e-08 -2.015580e-08 -2.048485e-08 -2.141629e-08 -2.164356e-08
-2.155756e-08 -2.021521e-08 -2.029928e-08 -2.001577e-08 -2.034448e-08 -2.170329e-08 -1.978511e-08 -2.142674e-08 -2.080713e-08 -2.015414e-08
-1.999537e-08 -1.944942e-08 -2.219853e-08 -2.056099e-08 -1.896107e-08 -2.047649e-08 -2.082545e-08 -2.104127e-08 -2.015437e-08 -1.870502e-08
-2.099824e-08 -2.108401e-08 -2.131045e-08 -1.877872e-08 -2.177898e-08 -1.997964e-08 -2.154163e-08 -2.072353e-08 -2.154773e-08 -2.132996e-08
-2.016464e-08 -2.155268e-08 -1.975670e-08 -1.972505e-08 -2.093427e-08 -1.918227e-08 -2.179345e-08 -2.019346e-08 -2.095555e-08 -2.114117e-08
-2.233396e-08 -2.078006e-08 -2.055629e-08 -2.025405e-08 -2.209159e-08 -1.979851e-08 -2.197393e-08 -2.292455e-08 -1.969289e-08 -1.932359e-08
-1.949178e-08 -1.994483e-08 -1.819237e-08 -2.092897e-08 -2.041972e-08 -1.995522e-08 -1.989611e-08 -2.058250e-08 -2.158858e-08 -2.106239e-08
-1.982202e-08 -1.935804e-08 -1.949119e-08 -1.963525e-08 -2.032463e-08 -2.071903e-08 -1.858983e-08 -2.266220e-08 -2.074671e-08 -2.065607e-08
-1.922148e-08 -1.984837e-08 -2.067038e-08 -1.896819e-08 -2.006166e-08 -1.978641e-08 -2.158153e-08 -2.107742e-08 -1.968438e-08 -1.954161e-08
-2.025196e-08 -2.129256e-08 -2.081759e-08 -2.125125e-08 -2.144647e-08 -1.966455e-08 -2.011138e-08 -2.150734e-08 -2.104498e-08 -2.026615e-08
-2.092244e-08 -2.037270e-08 -2.040456e-08 -2.124845e-08 -2.122030e-08 -2.082893e-08 -2.150860e-08 -1.940666e-08 -2.007176e-08 -1.862513e-08
-2.044166e-08 -2.092212e-08 -2.039127e-08 -2.088065e-08 -2.030847e-08 -1.980336e-08 -2.154978e-08 -2.073197e-08 -2.025534e-08 -2.011375e-08
-2.188112e-08 -1.966879e-08 -2.049152e-08 -2.078380e-08 -1.987460e-08 -2.083656e-08 -2.134122e-08 -2.021299e-08 -2.029249e-08 -2.057917e-08
-1.918451e-08 -2.016416e-08 -1.902634e-08 -2.014674e-08 -2.172501e-08 -2.071188e-08 -1.953386e-08 -1.999186e-08 -2.046986e-08 -2.055624e-08
-2.051904e-08 -1.949965e-08 -1.903790e-08 -1.924518e-08 -2.041497e-08 -1.770820e-08 -1.960739e-08 -2.040046e-08 -2.018609e-08 -1.970318e-08
-1.926447e-08 -1.948879e-08 -1.962737e-08 -1.977856e-08 -2.021164e-08 -2.099596e-08 -2.052563e-08 -1.973265e-08 -2.073348e-08 -2.054023e-08
-1.833446e-08 -2.075357e-08 -1.994926e-08 -1.868969e-08 -1.917835e-08 -2.171638e-08 -2.003409e-08 -1.967322e-08 -2.032581e-08 -1.888411e-08
-2.077016e-08 -2.015373e-08 -2.014775e-08 -2.081587e-08 -1.965464e-08 -1.890692e-08 -2.175300e-08 -2.122318e-08 -2.045423e-08 -1.894043e-08
-1.925371e-08 -1.928372e-08 -1.992344e-08 -2.070149e-08 -1.940871e-08 -2.002127e-08 -2.208823e-08 -2.016655e-08 -2.013330e-08 -1.923502e-08
-2.029692e-08 -2.059040e-08 -1.994814e-08 -1.990377e-08 -1.988905e-08 -2.046657e-08 -2.011682e-08 -2.095195e-08 -2.096847e-08 -2.113884e-08
-1.933870e-08 -2.089887e-08 -1.993810e-08 -1.988354e-08 -2.099213e-08 -2.027571e-08 -2.204269e-08 -2.076931e-08 -2.052755e-08 -2.012170e-08
-1.963952e-08 -1.880476e-08 -1.963060e-08 -2.070005e-08 -2.139782e-08 -2.073734e-08 -1.931513e-08 -2.105697e-08 -2.044745e-08 -2.154173e-08
-1.980226e-08 -2.060195e-08 -2.068363e-08 -1.919046e-08 -1.943123e-08 -2.184045e-08 -2.196031e-08 -2.003890e-08 -2.268114e-08 -1.982251e-08
-2.083801e-08 -2.078335e-08 -2.011518e-08 -1.877025e-08 -2.037010e-08 -1.979016e-08 -2.094854e-08 -2.011302e-08 -1.982046e-08 -1.936974e-08
-2.177578e-08 -1.968871e-08 -1.960717e-08 -2.151457e-08 -2.063762e-08 -1.962313e-08 -2.097981e-08 -2.028239e-08 -2.051499e-08 -2.045441e-08
-2.123431e-08
-1.953397e-08 -1.860094e-08 -1.969105e-08 -2.032792e-08 -2.056734e-08 -1.993158e-08 -2.101202e-08 -2.029456e-08 -2.109357e-08 -2.038027e-08
-2.029436e-08 -2.112415e-08 -1.974117e-08 -2.033127e-08 -2.025087e-08 -1.999800e-08 -1.965325e-08 -2.173757e-08 -2.021710e-08 -2.107106e-08
-2.149936e-08 -2.112937e-08 -2.085978e-08 -1.920391e-08 -2.096795e-08 -2.099967e-08 -2.072938e-08 -1.973248e-08 -2.007352e-08 -2.148105e-08
-1.879417e-08 -2.007551e-08 -2.005049e-08 -2.038211e-08 -2.050447e-08 -1.970624e-08 -2.030212e-08 -2.113895e-08 -1.952986e-08 -2.126884e-08
-2.038003e-08 -2.003113e-08 -1.864184e-08 -2.162402e-08 -2.109521e-08 -1.950844e-08 -2.036367e-08 -2.139117e-08 -2.006689e-08 -2.017791e-08
-2.032940e-08 -2.190443e-08 -1.957365e-08 -2.134703e-08 -2.070161e-08 -1.991564e-08 -2.022672e-08 -2.091318e-08 -1.907623e-08 -2.088544e-08
-2.040366e-08 -1.862474e-08 -2.024403e-08 -2.047724e-08 -2.027052e-08 -2.067961e-08 -2.036818e-08 -2.169262e-08 -2.035075e-08 -2.131895e-08
-1.998350e-08 -1.874774e-08 -2.072143e-08 -1.945918e-08 -1.918702e-08 -2.038007e-08 -2.047833e-08 -1.944296e-08 -1.925573e-08 -1.893539e-08
-2.075480e-08 -1.977271e-08 -2.073420e-08 -2.037510e-08 -2.087488e-08 -1.900653e-08 -1.930679e-08 -1.962432e-08 -2.002106e-08 -2.042894e-08
-1.859058e-08 -2.096590e-08 -1.991910e-08 -2.003183e-08 -1.982530e-08 -2.158026e-08 -2.105536e-08 -2.006526e-08 -2.054875e-08 -2.033206e-08
-2.103255e-08 -2.015142e-08 -1.912072e-08 -1.918165e-08 -2.084256e-08 -1.933017e-08 -1.926636e-08 -2.008861e-08 -2.014757e-08 -2.113900e-08
-2.080272e-08 -1.988276e-08 -2.144719e-08 -2.022283e-08 -2.137783e-08 -2.145540e-08 -1.978117e-08 -2.048193e-08 -2.096429e-08 -1.934343e-08
-1.947723e-08 -2.161492e-08 -2.025718e-08 -2.223291e-08 -2.057682e-08 -2.130918e-08 -1.985624e-08 -2.052064e-08 -2.051004e-08 -2.163451e-08
-2.066306e-08 -2.025934e-08 -2.042147e-08 -2.114886e-08 -1.928501e-08 -2.293420e-08 -1.992890e-08 -1.996646e-08 -2.083180e-08 -2.234278e-08
-2.183579e-08 -2.086306e-08 -2.095993e-08 -1.987394e-08 -2.057136e-08 -1.968891e-08 -1.917292e-08 -2.012701e-08 -2.013187e-08 -2.073331e-08
-2.173580e-08 -2.049872e-08 -2.014907e-08 -2.035256e-08 -1.956457e-08 -2.026461e-08 -2.069871e-08 -2.128063e-08 -2.210653e-08 -2.078833e-08
-2.051482e-08 -1.841887e-08 -2.078732e-08 -1.936175e-08 -2.169332e-08 -2.006118e-08 -2.057425e-08 -1.999496e-08 -2.060263e-08 -2.082150e-08
-2.058579e-08 -2.063442e-08 -2.129221e-08 -2.154345e-08 -2.023415e-08 -2.097632e-08 -2.033168e-08 -2.111300e-08 -1.956070e-08 -2.029244e-08
-1.892346e-08 -2.086284e-08 -2.148098e-08 -2.131314e-08 -1.947144e-08 -2.153610e-08 -1.995385e-08 -1.958785e-08 -1.996760e-08 -1.947965e-08
-2.006195e-08 -2.019469e-08 -2.053358e-08 -2.215845e-08 -2.070277e-08 -1.960512e-08 -1.945477e-08 -2.039623e-08 -2.029865e-08 -2.047365e-08
-1.987452e-08 -2.020742e-08 -1.972790e-08 -2.064603e-08 -2.022292e-08 -1.964533e-08 -1.949195e-08 -2.021530e-08 -2.100781e-08 -2.023410e-08
-2.151240e-08 -1.897995e-08 -1.973110e-08 -1.937001e-08 -2.021664e-08 -2.105743e-08 -1.926135e-08 -1.944396e-08 -1.996016e-08 -2.083637e-08
-2.247772e-08 -1.968412e-08 -2.039857e-08 -2.079811e-08 -2.038192e-08 -1.935290e-08 -2.175998e-08 -2.109896e-08 -1.879992e-08 -2.137139e-08
-2.084333e-08 -1.976130e-08 -2.062108e-08 -2.028013e-08 -2.006712e-08 -2.056302e-08 -2.005660e-08 -2.107126e-08 -2.011689e-08 -2.002154e-08
-2.012276e-08 -2.043553e-08 -1.968537e-08 -1.946256e-08 -2.034493e-08 -2.162272e-08 -2.112235e-08 -1.934016e-08 -2.068963e-08 -2.105595e-08
-2.001896e-08 -2.032529e-08 -1.986913e-08 -1.945674e-08 -2.050785e-08 -1.955853e-08 -2.045599e-08 -2.031191e-08 -1.910461e-08 -2.272449e-08
-1.878391e-08 -1.909836e-08 -1.998513e-08 -1.951742e-08 -1.977757e-08 -2.095983e-08 -2.049729e-08 -1.839097e-08 -2.170948e-08 -1.987453e-08
-1.976826e-08 -1.916746e-08 -1.959887e-08 -2.056228e-08 -2.072205e-08 -2.031362e-08 -1.940649e-08 -2.076309e-08 -2.085419e-08 -2.106792e-08
-1.974047e-08 -2.041377e-08 -1.998833e-08 -2.028521e-08 -2.095122e-08 -1.871935e-08 -2.060421e-08 -1.930012e-08 -2.043026e-08 -1.921931e-08
-1.983234e-08 -2.033313e-08 -1.999818e-08 -1.953465e-08 -1.973461e-08 -1.985446e-08 -1.977531e-08 -2.062310e-08 -1.919475e-08 -1.914668e-08
-1.950885e-08 -2.065402e-08 -2.097111e-08 -2.077191e-08 -2.042520e-08 -2.063778e-08 -1.960015e-08 -1.972932e-08 -2.154727e-08 -2.138043e-08
-2.032346e-08 -2.083056e-08 -2.083391e-08 -2.130426e-08 -2.234268e-08 -1.986121e-08 -2.105170e-08 -2.175370e-08 -2.133611e-08 -2.023874e-08
-2.034841e-08 -1.874728e-08 -2.075858e-08 -2.100724e-08 -2.206873e-08 -2.109645e-08 -1.986277e-08 -2.121407e-08 -2.100214e-08 -2.112399e-08
-2.159595e-08 -2.144672e-08 -2.040334e-08 -2.028380e-08 -1.997079e-08 -2.059810e-08 -2.189149e-08 -2.159597e-08 -1.973191e-08 -1.977048e-08
-2.203332e-08 -2.042567e-08 -2.064015e-08 -1.935079e-08 -1.931384e-08 -2.047691e-08 -2.058889e-08 -2.043017e-08 -2.000800e-08 -2.177578e-08
-2.083807e-08 -2.076789e-08 -1.986760e-08 -2.047339e-08 -1.975551e-08 -2.054166e-08 -2.084016e-08 -2.075451e-08 -2.062361e-08 -2.035655e-08
-1.953397e-08
-2.103962e-08 -1.932480e-08 -2.055413e-08 -2.039312e-08 -1.975373e-08 -2.213160e-08 -1.905158e-08 -1.887979e-08 -1.907198e-08 -2.064862e-08
-1.926979e-08 -2.086154e-08 -2.176884e-08 -1.927698e-08 -2.029466e-08 -2.014446e-08 -2.100166e-08 -2.060671e-08 -2.062707e-08 -2.096948e-08
-2.042840e-08 -2.098282e-08 -2.104228e-08 -1.942388e-08 -2.001384e-08 -2.070113e-08 -1.897669e-08 -2.138141e-08 -2.065839e-08 -2.184439e-08
-2.026779e-08 -2.097654e-08 -2.127840e-08 -1.936248e-08 -2.060256e-08 -1.947420e-08 -2.122976e-08 -1.916647e-08 -2.173484e-08 -2.061486e-08
-2.102753e-08 -2.136025e-08 -2.040758e-08 -1.874358e-08 -2.016345e-08 -2.059701e-08 -2.004167e-08 -2.080706e-08 -1.986289e-08 -2.172470e-08
-1.965637e-08 -1.937970e-08 -1.981516e-08 -2.005706e-08 -1.992806e-08 -1.936693e-08 -2.053249e-08 -1.938357e-08 -2.049812e-08 -2.076699e-08
-2.083127e-08 -2.047499e-08 -2.040666e-08 -1.984897e-08 -2.135415e-08 -1.961028e-08 -2.027004e-08 -1.967939e-08 -1.995803e-08 -1.959839e-08
-2.029346e-08 -2.078384e-08 -2.016157e-08 -2.060844e-08 -2.077518e-08 -2.005343e-08 -1.998396e-08 -1.993499e-08 -2.034736e-08 -2.054638e-08
-2.026312e-08 -1.860164e-08 -1.954218e-08 -2.000259e-08 -1.909642e-08 -2.036920e-08 -1.959187e-08 -1.946937e-08 -1.933069e-08 -1.933456e-08
-1.984688e-08 -1.959767e-08 -2.112890e-08 -2.054526e-08 -2.002490e-08 -1.969803e-08 -2.001920e-08 -2.041910e-08 -2.049806e-08 -1.997283e-08
-2.111164e-08 -2.013540e-08 -2.086026e-08 -2.074870e-08 -1.975225e-08 -2.115039e-08 -2.106782e-08 -1.982644e-08 -2.046389e-08 -2.020964e-08
-2.075692e-08 -2.045104e-08 -2.060188e-08 -1.899395e-08 -2.066650e-08 -1.978314e-08 -1.961434e-08 -2.040768e-08 -1.973698e-08 -2.089028e-08
-2.077549e-08 -1.923372e-08 -2.116468e-08 -1.994914e-08 -1.948727e-08 -2.051588e-08 -2.042258e-08 -2.166599e-08 -2.058312e-08 -2.017474e-08
-2.092928e-08 -2.122696e-08 -1.854798e-08 -2.006841e-08 -1.902601e-08 -2.032760e-08 -2.112648e-08 -2.256562e-08 -2.095024e-08 -2.023310e-08
-2.127367e-08 -1.984847e-08 -2.045035e-08 -1.935261e-08 -2.103258e-08 -2.011847e-08 -2.115617e-08 -1.981432e-08 -2.238829e-08 -1.925375e-08
-1.992797e-08 -2.138080e-08 -2.126942e-08 -2.057495e-08 -1.990216e-08 -2.015059e-08 -2.145563e-08 -2.072544e-08 -2.084585e-08 -2.108888e-08
-1.963769e-08 -2.232572e-08 -2.044270e-08 -2.062318e-08 -1.950141e-08 -1.972913e-08 -2.026797e-08 -2.064038e-08 -2.063052e-08 -2.005895e-08
-1.977369e-08 -1.960579e-08 -2.117308e-08 -2.041950e-08 -1.907999e-08 -2.105735e-08 -2.047596e-08 -2.029476e-08 -1.916816e-08 -2.046152e-08
-2.045741e-08 -2.012643e-08 -1.946883e-08 -1.913934e-08 -2.154822e-08 -2.031223e-08 -2.006122e-08 -2.113326e-08 -2.030300e-08 -2.066894e-08
-2.165152e-08 -2.195360e-08 -2.007715e-08 -2.000250e-08 -2.041741e-08 -2.130894e-08 -2.104517e-08 -2.202808e-08 -2.021242e-08 -1.973807e-08
-2.014095e-08 -2.075864e-08 -1.892975e-08 -2.041188e-08 -1.952015e-08 -2.029896e-08 -2.162778e-08 -1.996845e-08 -2.058085e-08 -1.995032e-08
-2.101765e-08 -1.972148e-08 -2.061865e-08 -1.970753e-08 -2.045839e-08 -2.000940e-08 -1.991529e-08 -2.002941e-08 -2.000495e-08 -1.928405e-08
-2.097229e-08 -2.116855e-08 -1.949603e-08 -1.929256e-08 -2.064260e-08 -2.066254e-08 -1.994426e-08 -2.137566e-08 -1.824795e-08 -2.064739e-08
-2.039750e-08 -1.991926e-08 -1.974241e-08 -1.965315e-08 -2.155055e-08 -2.009043e-08 -1.946313e-08 -2.119157e-08 -2.060331e-08 -1.921715e-08
-2.076983e-08 -2.030528e-08 -2.093529e-08 -2.104730e-08 -2.113722e-08 -2.122745e-08 -2.129552e-08 -1.933508e-08 -1.949530e-08 -1.836730e-08
-1.983670e-08 -1.992172e-08 -1.852634e-08 -1.975378e-08 -2.023639e-08 -1.910455e-08 -1.914710e-08 -1.967968e-08 -1.942547e-08 -2.005178e-08
-1.952122e-08 -1.991269e-08 -1.936134e-08 -1.885240e-08 -2.039736e-08 -1.967332e-08 -2.046646e-08 -2.030117e-08 -1.885777e-08 -1.980706e-08
-1.999947e-08 -1.914926e-08 -1.986669e-08 -1.964063e-08 -1.984923e-08 -1.940117e-08 -2.102499e-08 -1.973247e-08 -1.991115e-08 -1.968872e-08
-2.014578e-08 -2.065195e-08 -2.036538e-08 -1.884472e-08 -2.004609e-08 -2.022681e-08 -1.862145e-08 -1.972784e-08 -2.025538e-08 -1.980842e-08
-1.963112e-08 -1.939560e-08 -2.074155e-08 -2.116927e-08 -2.159424e-08 -1.947505e-08 -1.981145e-08 -2.038793e-08 -2.067388e-08 -2.052636e-08
-2.062665e-08 -2.162129e-08 -1.937672e-08 -2.028840e-08 -2.108198e-08 -1.941306e-08 -2.135195e-08 -1.970660e-08 -2.152933e-08 -2.060045e-08
-1.985555e-08 -1.963118e-08 -2.157893e-08 -2.005175e-08 -2.078831e-08 -2.122192e-08 -2.131481e-08 -2.142910e-08 -2.093790e-08 -1.978597e-08
-2.097578e-08 -2.021227e-08 -1.996498e-08 -1.972710e-08 -2.184199e-08 -2.099791e-08 -2.138191e-08 -1.968195e-08 -2.143632e-08 -2.037950e-08
-1.957941e-08 -2.075307e-08 -2.068450e-08 -2.089742e-08 -2.196073e-08 -2.164277e-08 -2.105146e-08 -1.941340e-08 -2.071303e-08 -2.229419e-08
-2.122362e-08 -2.037586e-08 -2.064256e-08 -1.959837e-08 -1.976655e-08 -2.030483e-08 -2.025757e-08 -2.008757e-08 -2.062331e-08 -2.109508e-08
-1.968267e-08 -2.111115e-08 -2.112002e-08 -2.062778e-08 -2.071496e-08 -2.075599e-08 -2.038122e-08 -1.924337e-08 -2.013380e-08 -2.201129e-08
-2.103962e-08
-2.066469e-08 -2.147772e-08 -1.939310e-08 -2.129888e-08 -2.055079e-08 -2.175396e-08 -2.001637e-08 -1.998632e-08 -2.080368e-08 -2.130082e-08
-1.903111e-08 -2.045550e-08 -2.060241e-08 -1.984131e-08 -1.976942e-08 -2.073745e-08 -1.915024e-08 -2.001481e-08 -2.200428e-08 -2.014705e-08
-2.082444e-08 -1.974602e-08 -2.063668e-08 -1.986230e-08 -2.008323e-08 -2.141833e-08 -1.990491e-08 -2.024532e-08 -1.935102e-08 -2.079388e-08
-2.114587e-08 -1.995867e-08 -2.120414e-08 -2.073205e-08 -2.049165e-08 -2.054164e-08 -2.092428e-08 -1.970765e-08 -2.047056e-08 -1.902688e-08
-2.167524e-08 -1.905759e-08 -2.071065e-08 -2.165936e-08 -2.081289e-08 -2.029291e-08 -2.178823e-08 -2.013184e-08 -2.021369e-08 -1.955564e-08
-2.061406e-08 -1.968338e-08 -1.939646e-08 -2.044139e-08 -2.094192e-08 -2.076825e-08 -1.973692e-08 -1.970014e-08 -2.147586e-08 -2.113573e-08
-2.060955e-08 -1.947207e-08 -1.907696e-08 -2.161493e-08 -1.967969e-08 -2.072656e-08 -1.978086e-08 -2.130691e-08 -2.133224e-08 -2.049421e-08
-2.069038e-08 -2.112929e-08 -1.996083e-08 -1.935197e-08 -1.913835e-08 -2.016052e-08 -1.976588e-08 -1.945074e-08 -1.968604e-08 -2.019972e-08
-1.938685e-08 -1.901322e-08 -2.169848e-08 -1.973944e-08 -2.034191e-08 -2.048013e-08 -2.011286e-08 -2.060395e-08 -2.047812e-08 -1.967081e-08
-1.967177e-08 -1.964777e-08 -2.049054e-08 -2.085990e-08 -2.024301e-08 -1.958107e-08 -1.974988e-08 -2.069778e-08 -1.947525e-08 -2.007916e-08
-1.862134e-08 -1.912180e-08 -1.983000e-08 -2.027809e-08 -1.963015e-08 -2.046590e-08 -1.924016e-08 -2.075163e-08 -1.951037e-08 -2.015300e-08
-2.017611e-08 -1.826623e-08 -2.101988e-08 -2.004043e-08 -1.997325e-08 -1.900334e-08 -1.963090e-08 -2.117799e-08 -2.025537e-08 -2.056744e-08
-2.107527e-08 -2.009026e-08 -2.014689e-08 -2.053612e-08 -2.077236e-08 -1.959235e-08 -2.033254e-08 -1.981862e-08 -2.146127e-08 -1.986901e-08
-1.986434e-08 -2.026347e-08 -2.039297e-08 -2.001443e-08 -2.088247e-08 -2.114949e-08 -2.004544e-08 -2.001814e-08 -2.004260e-08 -2.013816e-08
-1.988500e-08 -2.146345e-08 -2.110783e-08 -2.166439e-08 -1.899652e-08 -1.947353e-08 -2.034738e-08 -2.083202e-08 -2.077295e-08 -2.137843e-08
-2.062526e-08 -2.009650e-08 -1.953017e-08 -2.220703e-08 -2.030011e-08 -1.926846e-08 -2.060987e-08 -2.028686e-08 -2.034642e-08 -2.124467e-08
-2.133742e-08 -2.079126e-08 -2.022788e-08 -1.943002e-08 -2.056539e-08 -2.108036e-08 -2.073489e-08 -2.063103e-08 -2.126731e-08 -2.077663e-08
-2.072593e-08 -1.897936e-08 -1.977889e-08 -2.109574e-08 -1.985428e-08 -2.098720e-08 -2.051663e-08 -1.977128e-08 -2.043198e-08 -1.938461e-08
-2.068172e-08 -1.978199e-08 -2.024542e-08 -2.067791e-08 -2.180727e-08 -2.210027e-08 -1.987194e-08 -2.174279e-08 -2.007981e-08 -2.019696e-08
-2.012164e-08 -1.998581e-08 -2.003005e-08 -2.046869e-08 -2.259937e-08 -1.925243e-08 -2.178301e-08 -2.157701e-08 -2.152898e-08 -2.015190e-08
-1.896874e-08 -2.116038e-08 -2.128785e-08 -1.988569e-08 -2.205184e-08 -2.007364e-08 -2.037013e-08 -2.221805e-08 -2.112772e-08 -2.132743e-08
-2.041556e-08 -1.987291e-08 -2.076033e-08 -1.904603e-08 -1.902720e-08 -2.026820e-08 -2.147885e-08 -2.109701e-08 -2.077238e-08 -2.123438e-08
-2.075382e-08 -2.088593e-08 -2.130064e-08 -2.016726e-08 -1.873214e-08 -1.889376e-08 -1.935717e-08 -2.168394e-08 -2.131158e-08 -2.070104e-08
-2.105496e-08 -1.940281e-08 -2.050579e-08 -1.889470e-08 -1.988235e-08 -2.074876e-08 -1.941472e-08 -2.115407e-08 -2.110508e-08 -1.914704e-08
-2.068836e-08 -1.909670e-08 -1.967386e-08 -1.952046e-08 -1.975542e-08 -2.052288e-08 -2.073605e-08 -1.968324e-08 -2.023610e-08 -2.061235e-08
-2.020982e-08 -1.986784e-08 -2.098445e-08 -1.962632e-08 -2.112931e-08 -2.037727e-08 -1.896831e-08 -2.006025e-08 -2.015476e-08 -2.025419e-08
-2.157324e-08 -1.942949e-08 -2.018950e-08 -1.940966e-08 -2.050076e-08 -1.890871e-08 -1.946503e-08 -1.923303e-08 -1.981089e-08 -1.866310e-08
-1.981197e-08 -1.863029e-08 -2.128382e-08 -1.987549e-08 -2.055634e-08 -1.940826e-08 -2.132145e-08 -1.996036e-08 -1.878309e-08 -1.865916e-08
-1.950105e-08 -1.905852e-08 -2.054877e-08 -2.029990e-08 -1.981982e-08 -1.961556e-08 -2.002082e-08 -2.012609e-08 -2.028840e-08 -1.969970e-08
-2.004122e-08 -1.950884e-08 -2.089088e-08 -1.939168e-08 -1.940145e-08 -2.106235e-08 -2.093828e-08 -2.144371e-08 -2.083591e-08 -1.930337e-08
-2.129608e-08 -1.997952e-08 -2.121305e-08 -2.019462e-08 -2.187766e-08 -2.114182e-08 -2.110306e-08 -1.928580e-08 -1.955315e-08 -1.969448e-08
-2.084018e-08 -2.025222e-08 -2.112809e-08 -2.033887e-08 -2.061801e-08 -2.003977e-08 -2.102603e-08 -2.133150e-08 -2.079494e-08 -2.166846e-08
-2.035078e-08 -2.086146e-08 -2.144437e-08 -2.096873e-08 -2.136819e-08 -1.916665e-08 -2.127026e-08 -2.039424e-08 -2.231865e-08 -2.050515e-08
-2.081810e-08 -2.184050e-08 -2.099390e-08 -2.096821e-08 -2.094096e-08 -2.034858e-08 -2.007909e-08 -2.094764e-08 -2.133786e-08 -2.076107e-08
-2.066787e-08 -2.097212e-08 -1.963761e-08 -1.959656e-08 -2.103655e-08 -1.959034e-08 -1.926038e-08 -1.943349e-08 -1.994444e-08 -2.003834e-08
-2.017772e-08 -2.195261e-08 -2.150604e-08 -2.067993e-08 -1.931594e-08 -1.897479e-08 -2.106100e-08 -2.032320e-08 -2.035842e-08 -1.954856e-08
-2.066469e-08
-1.952558e-08 -2.038934e-08 -2.057291e-08 -1.877877e-08 -2.038024e-08 -1.956612e-08 -2.112191e-08 -1.977686e-08 -1.848824e-08 -1.995737e-08
-2.170148e-08 -1.969709e-08 -1.973558e-08 -1.867381e-08 -2.141338e-08 -2.094996e-08 -2.061451e-08 -2.057010e-08 -2.002177e-08 -1.925055e-08
-2.075837e-08 -2.083887e-08 -2.018132e-08 -2.112716e-08 -2.011992e-08 -2.085308e-08 -1.966513e-08 -1.966044e-08 -2.048046e-08 -2.031410e-08
-2.015937e-08 -1.931404e-08 -2.066043e-08 -2.050232e-08 -2.000830e-08 -2.069812e-08 -2.003612e-08 -2.047199e-08 -1.974389e-08 -2.028676e-08
-2.060677e-08 -2.019795e-08 -2.124618e-08 -2.068770e-08 -2.111235e-08 -2.019718e-08 -1.996058e-08 -1.945697e-08 -2.042290e-08 -2.142217e-08
-2.240475e-08 -2.133409e-08 -1.991677e-08 -2.085373e-08 -2.082497e-08 -1.978903e-08 -2.044097e-08 -2.051943e-08 -1.904050e-08 -2.028201e-08
-2.016815e-08 -2.108096e-08 -2.044133e-08 -2.072398e-08 -2.085237e-08 -1.947267e-08 -1.975584e-08 -2.001442e-08 -2.025845e-08 -1.981159e-08
-1.952444e-08 -2.027424e-08 -1.965378e-08 -1.930053e-08 -1.909362e-08 -2.151544e-08 -1.902541e-08 -1.983670e-08 -1.895904e-08 -2.005711e-08
-1.964041e-08 -1.880244e-08 -1.866777e-08 -2.007837e-08 -1.944987e-08 -1.860364e-08 -1.999099e-08 -1.927999e-08 -1.974753e-08 -1.837606e-08
-2.007233e-08 -1.913322e-08 -2.041944e-08 -1.971833e-08 -2.116758e-08 -1.962140e-08 -2.082188e-08 -2.062355e-08 -2.014543e-08 -1.981184e-08
-2.044855e-08 -1.983454e-08 -1.981232e-08 -2.043822e-08 -2.080151e-08 -2.024969e-08 -1.980694e-08 -2.049840e-08 -1.946059e-08 -2.015055e-08
-2.027183e-08 -2.095779e-08 -2.066869e-08 -2.011800e-08 -2.024505e-08 -2.215710e-08 -2.046177e-08 -2.010342e-08 -2.098680e-08 -1.934589e-08
-2.113654e-08 -2.156934e-08 -2.092774e-08 -1.949642e-08 -1.970124e-08 -2.112223e-08 -2.007975e-08 -1.999057e-08 -1.924565e-08 -2.165361e-08
-2.183601e-08 -2.027209e-08 -2.048268e-08 -2.066308e-08 -2.062476e-08 -1.930607e-08 -1.937275e-08 -2.047734e-08 -2.135045e-08 -2.136709e-08
-2.102745e-08 -1.993016e-08 -2.093365e-08 -1.991946e-08 -2.149388e-08 -2.117385e-08 -2.182941e-08 -2.135594e-08 -1.872756e-08 -1.924428e-08
-1.922835e-08 -1.989285e-08 -2.198206e-08 -2.083839e-08 -2.127706e-08 -1.983224e-08 -2.195652e-08 -2.160298e-08 -2.000119e-08 -2.021050e-08
-2.150628e-08 -2.116409e-08 -2.117390e-08 -1.958432e-08 -1.823409e-08 -2.016815e-08 -2.012596e-08 -1.931268e-08 -2.100831e-08 -2.072139e-08
-2.115165e-08 -1.927802e-08 -1.907037e-08 -1.949125e-08 -1.925762e-08 -1.988218e-08 -1.937834e-08 -1.964285e-08 -1.937305e-08 -1.795847e-08
-2.080778e-08 -1.984137e-08 -2.054940e-08 -1.934648e-08 -1.918938e-08 -2.045914e-08 -1.965557e-08 -2.001109e-08 -1.897363e-08 -2.014789e-08
-1.848876e-08 -1.959637e-08 -2.069331e-08 -1.972290e-08 -2.001383e-08 -1.862953e-08 -1.954683e-08 -1.945960e-08 -1.892756e-08 -2.074098e-08
-1.851823e-08 -1.953529e-08 -2.186549e-08 -2.025845e-08 -2.014469e-08 -1.917156e-08 -2.099933e-08 -2.085886e-08 -2.157073e-08 -1.980358e-08
-1.910308e-08 -2.073704e-08 -2.062369e-08 -2.032531e-08 -1.985995e-08 -1.979842e-08 -2.091607e-08 -2.034318e-08 -2.017713e-08 -2.064541e-08
-2.074045e-08 -2.070751e-08 -1.917350e-08 -2.069063e-08 -2.034641e-08 -2.062984e-08 -2.053226e-08 -2.108932e-08 -2.029708e-08 -1.992766e-08
-2.068845e-08 -2.041164e-08 -2.052019e-08 -1.974873e-08 -2.017440e-08 -1.987999e-08 -2.068447e-08 -2.060236e-08 -2.106151e-08 -2.064935e-08
-2.029928e-08 -1.866381e-08 -1.986868e-08 -1.871682e-08 -1.925268e-08 -1.900967e-08 -1.961503e-08 -1.979299e-08 -1.996422e-08 -2.046843e-08
-1.896876e-08 -1.960535e-08 -2.122868e-08 -2.017393e-08 -1.952040e-08 -1.819224e-08 -1.882700e-08 -1.874903e-08 -2.026645e-08 -1.878729e-08
-1.919410e-08 -2.084228e-08 -1.881005e-08 -2.004202e-08 -1.869095e-08 -1.962500e-08 -1.922186e-08 -1.971884e-08 -1.965987e-08 -1.998816e-08
-1.884816e-08 -1.945963e-08 -1.924596e-08 -2.072701e-08 -1.894277e-08 -2.022922e-08 -1.959117e-08 -2.146396e-08 -2.032338e-08 -1.844154e-08
-2.089682e-08 -1.911023e-08 -2.019423e-08 -2.176036e-08 -1.911342e-08 -2.006188e-08 -1.931193e-08 -2.014951e-08 -2.102231e-08 -1.970183e-08
-1.981816e-08 -2.207970e-08 -2.042989e-08 -1.975492e-08 -1.977410e-08 -2.154429e-08 -2.074575e-08 -1.935795e-08 -1.963024e-08 -2.131467e-08
-2.053368e-08 -2.026990e-08 -2.088047e-08 -1.972033e-08 -1.952383e-08 -1.970020e-08 -1.883410e-08 -1.895842e-08 -1.925424e-08 -1.980544e-08
-2.005671e-08 -1.950636e-08 -1.988353e-08 -2.127819e-08 -2.090630e-08 -2.039963e-08 -2.010874e-08 -2.036264e-08 -1.984882e-08 -2.111059e-08
-2.071018e-08 -1.944058e-08 -1.907286e-08 -2.036032e-08 -2.143521e-08 -2.188083e-08 -2.084324e-08 -2.045709e-08 -1.888722e-08 -2.183665e-08
-1.938320e-08 -2.097387e-08 -2.090069e-08 -2.132438e-08 -2.073887e-08 -2.097907e-08 -1.941215e-08 -2.062504e-08 -1.979042e-08 -2.034943e-08
-2.020770e-08 -1.909583e-08 -2.051778e-08 -2.041587e-08 -1.929224e-08 -2.196707e-08 -2.002305e-08 -1.974020e-08 -2.101065e-08 -2.076233e-08
-2.065039e-08 -1.907912e-08 -2.084528e-08 -1.860673e-08 -2.140803e-08 -2.001253e-08 -2.100976e-08 -1.976919e-08 -1.987372e-08 -1.953437e-08
-1.952558e-08
-2.017335e-08 -1.991772e-08 -1.924822e-08 -1.942090e-08 -1.917472e-08 -1.996452e-08 -2.135029e-08 -2.056974e-08 -1.994167e-08 -1.940185e-08
-2.049727e-08 -2.022884e-08 -2.150124e-08 -1.971012e-08 -1.947283e-08 -2.068778e-08 -1.976346e-08 -2.093719e-08 -2.002334e-08 -2.007850e-08
-2.038028e-08 -1.991014e-08 -1.993021e-08 -2.059564e-08 -2.021330e-08 -1.931857e-08 -1.968047e-08 -1.974628e-08 -1.997591e-08 -2.035154e-08
-2.115497e-08 -2.022012e-08 -1.955681e-08 -2.119093e-08 -1.953644e-08 -2.124567e-08 -2.033330e-08 -2.080290e-08 -1.913634e-08 -2.053284e-08
-2.032664e-08 -1.992728e-08 -2.120029e-08 -2.133915e-08 -2.050828e-08 -1.870073e-08 -2.041088e-08 -1.981827e-08 -2.191457e-08 -2.065383e-08
-1.994345e-08 -2.026698e-08 -2.020391e-08 -2.089857e-08 -2.068808e-08 -2.036282e-08 -2.098500e-08 -2.031611e-08 -1.973004e-08 -1.979611e-08
-2.016453e-08 -2.049258e-08 -1.958109e-08 -1.922049e-08 -1.973269e-08 -1.946953e-08 -1.959530e-08 -1.821844e-08 -2.028636e-08 -2.005148e-08
-2.025526e-08 -1.888606e-08 -1.927615e-08 -2.045201e-08 -1.904893e-08 -1.951268e-08 -1.926326e-08 -1.835937e-08 -1.927805e-08 -2.008127e-08
-2.078354e-08 -1.908355e-08 -1.904253e-08 -1.989946e-08 -1.737286e-08 -1.980537e-08 -1.901465e-08 -1.845985e-08 -2.176453e-08 -1.969266e-08
-1.967254e-08 -2.000163e-08 -1.935055e-08 -2.004693e-08 -1.886809e-08 -1.850671e-08 -1.966447e-08 -2.078154e-08 -1.968077e-08 -2.034264e-08
-1.960266e-08 -2.076336e-08 -2.046253e-08 -2.070066e-08 -1.921918e-08 -2.019034e-08 -1.879722e-08 -1.873429e-08 -1.908032e-08 -1.925552e-08
-1.942604e-08 -2.067575e-08 -1.912468e-08 -2.049992e-08 -2.087267e-08 -2.014532e-08 -1.966405e-08 -2.068550e-08 -2.042936e-08 -1.994876e-08
-2.053336e-08 -2.034976e-08 -2.074318e-08 -1.990831e-08 -2.036603e-08 -2.013304e-08 -2.027693e-08 -2.023415e-08 -2.178714e-08 -2.053940e-08
-1.957275e-08 -2.049882e-08 -2.034105e-08 -1.985325e-08 -2.027130e-08 -2.073333e-08 -2.039257e-08 -1.965606e-08 -1.945177e-08 -2.056481e-08
-2.135536e-08 -1.941286e-08 -2.157321e-08 -2.088639e-08 -1.936501e-08 -2.154404e-08 -1.918491e-08 -1.955104e-08 -2.086764e-08 -2.089352e-08
-2.149410e-08 -1.934180e-08 -1.990401e-08 -1.985115e-08 -2.084498e-08 -2.141177e-08 -2.220336e-08 -2.240071e-08 -2.051826e-08 -2.005661e-08
-2.059333e-08 -2.124136e-08 -1.983838e-08 -2.018036e-08 -2.149924e-08 -2.057251e-08 -2.047776e-08 -2.184994e-08 -2.128316e-08 -2.032599e-08
-2.001971e-08 -2.111771e-08 -1.975543e-08 -1.952739e-08 -1.909376e-08 -1.900234e-08 -2.072987e-08 -2.126151e-08 -1.907200e-08 -1.950321e-08
-1.945043e-08 -1.827467e-08 -2.074119e-08 -2.012708e-08 -1.948821e-08 -1.976547e-08 -1.911036e-08 -2.080957e-08 -1.895103e-08 -1.992540e-08
-2.009762e-08 -2.076012e-08 -2.008393e-08 -1.995148e-08 -1.930047e-08 -1.947140e-08 -1.975796e-08 -1.967961e-08 -1.985419e-08 -2.016446e-08
-1.929538e-08 -2.030070e-08 -2.159079e-08 -2.014753e-08 -1.967022e-08 -2.055274e-08 -1.966075e-08 -2.144248e-08 -2.013194e-08 -2.259459e-08
-2.106499e-08 -1.978305e-08 -2.134485e-08 -1.953861e-08 -2.099558e-08 -2.043150e-08 -2.026048e-08 -1.943592e-08 -1.988965e-08 -2.019600e-08
-1.965131e-08 -1.980955e-08 -1.990375e-08 -2.008477e-08 -2.080637e-08 -2.088248e-08 -1.847199e-08 -2.170015e-08 -2.002721e-08 -2.061639e-08
-2.020960e-08 -2.039097e-08 -2.073411e-08 -1.976809e-08 -1.939233e-08 -1.999815e-08 -2.087906e-08 -1.919746e-08 -2.069320e-08 -2.003497e-08
-2.041410e-08 -2.080860e-08 -1.990267e-08 -1.942458e-08 -1.967245e-08 -1.847279e-08 -1.844651e-08 -1.866363e-08 -2.034744e-08 -1.789609e-08
-1.867051e-08 -2.015263e-08 -2.075869e-08 -1.963325e-08 -1.891240e-08 -1.935631e-08 -1.909865e-08 -1.992688e-08 -1.899304e-08 -2.002984e-08
-1.927367e-08 -1.834518e-08 -1.868274e-08 -1.968728e-08 -1.989843e-08 -1.944155e-08 -1.910107e-08 -2.017539e-08 -1.954856e-08 -1.952880e-08
-1.941132e-08 -1.980265e-08 -2.039251e-08 -1.859998e-08 -2.008201e-08 -2.008950e-08 -2.056061e-08 -1.943961e-08 -1.846712e-08 -2.044444e-08
-1.979559e-08 -1.899196e-08 -1.964539e-08 -2.023190e-08 -2.058237e-08 -1.935582e-08 -1.981161e-08 -2.056443e-08 -1.862172e-08 -1.845883e-08
-1.928456e-08 -2.065141e-08 -1.933427e-08 -2.076028e-08 -1.994166e-08 -1.999572e-08 -2.036179e-08 -2.026768e-08 -1.883180e-08 -2.068399e-08
-1.974882e-08 -2.091480e-08 -2.174148e-08 -1.995321e-08 -1.967264e-08 -2.042854e-08 -1.886460e-08 -1.983950e-08 -1.900823e-08 -2.053100e-08
-1.961893e-08 -2.127319e-08 -2.082430e-08 -2.005614e-08 -1.917838e-08 -1.973913e-08 -1.941451e-08 -1.982938e-08 -1.981225e-08 -2.013372e-08
-1.972873e-08 -1.943747e-08 -2.148691e-08 -2.074159e-08 -2.022873e-08 -1.946675e-08 -2.079821e-08 -2.152961e-08 -2.025132e-08 -2.015377e-08
-1.975076e-08 -2.040405e-08 -2.225443e-08 -2.152547e-08 -2.064268e-08 -1.897536e-08 -2.041187e-08 -2.008757e-08 -1.975794e-08 -1.993207e-08
-2.007491e-08 -2.006142e-08 -2.009710e-08 -2.020396e-08 -2.085143e-08 -2.040687e-08 -2.026569e-08 -2.141221e-08 -2.037036e-08 -2.024622e-08
-2.086820e-08 -2.103494e-08 -2.047217e-08 -1.920082e-08 -1.941211e-08 -1.998942e-08 -1.873812e-08 -1.976029e-08 -2.058928e-08 -1.923167e-08
-2.017335e-08
-1.961208e-08 -2.154842e-08 -2.012630e-08 -1.980860e-08 -2.125131e-08 -1.977455e-08 -1.970131e-08 -2.038327e-08 -2.025957e-08 -1.962373e-08
-1.982098e-08 -1.968081e-08 -2.179649e-08 -2.063672e-08 -1.945536e-08 -1.939320e-08 -1.922551e-08 -1.947372e-08 -1.802505e-08 -2.100702e-08
-1.933464e-08 -1.916053e-08 -2.070626e-08 -1.977837e-08 -1.954268e-08 -2.136740e-08 -2.048758e-08 -1.911282e-08 -2.038623e-08 -2.056252e-08
-1.986426e-08 -2.137205e-08 -1.938299e-08 -2.131704e-08 -2.000093e-08 -2.019235e-08 -1.940703e-08 -2.048376e-08 -2.075008e-08 -2.037759e-08
-2.049863e-08 -1.967959e-08 -1.966701e-08 -2.105523e-08 -2.098135e-08 -2.055700e-08 -2.098617e-08 -1.972512e-08 -2.031231e-08 -2.073292e-08
-2.028780e-08 -2.022221e-08 -2.101230e-08 -1.979601e-08 -1.980100e-08 -2.073564e-08 -1.979235e-08 -2.009358e-08 -2.084830e-08 -1.919793e-08
-1.978025e-08 -1.926942e-08 -2.174584e-08 -2.054960e-08 -2.055008e-08 -1.976016e-08 -2.017189e-08 -1.817445e-08 -1.977912e-08 -2.086816e-08
-1.959264e-08 -1.923980e-08 -1.838245e-08 -1.974055e-08 -2.106195e-08 -1.957523e-08 -2.005807e-08 -2.016645e-08 -1.882387e-08 -1.878260e-08
-1.885322e-08 -1.829103e-08 -1.941220e-08 -2.064273e-08 -1.957799e-08 -1.863288e-08 -1.914249e-08 -1.915518e-08 -2.055012e-08 -1.820347e-08
-1.871399e-08 -1.840797e-08 -2.005503e-08 -1.857112e-08 -2.036507e-08 -1.956735e-08 -2.065907e-08 -1.873802e-08 -1.951953e-08 -1.951039e-08
-1.955145e-08 -2.040716e-08 -1.903931e-08 -1.984940e-08 -2.040658e-08 -2.037739e-08 -1.937575e-08 -2.086485e-08 -2.070178e-08 -1.919997e-08
-2.004231e-08 -1.835352e-08 -1.996823e-08 -2.019808e-08 -2.005659e-08 -2.055998e-08 -1.995825e-08 -2.014966e-08 -1.989741e-08 -2.086107e-08
-1.988109e-08 -1.935396e-08 -1.955402e-08 -2.069612e-08 -2.119531e-08 -2.092501e-08 -1.832477e-08 -2.135529e-08 -2.039993e-08 -1.962485e-08
-2.149478e-08 -1.925312e-08 -1.997514e-08 -2.085048e-08 -2.103154e-08 -2.096169e-08 -1.879500e-08 -2.106436e-08 -1.857268e-08 -2.039748e-08
-2.038036e-08 -2.072943e-08 -2.077944e-08 -2.097672e-08 -1.973718e-08 -2.055170e-08 -2.036690e-08 -1.995958e-08 -2.110680e-08 -2.045767e-08
-2.001941e-08 -2.137062e-08 -1.978758e-08 -2.174533e-08 -2.038353e-08 -1.968733e-08 -2.033863e-08 -2.048706e-08 -2.008032e-08 -2.058656e-08
-2.008944e-08 -2.061080e-08 -2.025319e-08 -2.048556e-08 -2.060062e-08 -2.155696e-08 -1.894585e-08 -2.113081e-08 -2.003105e-08 -1.981442e-08
-2.151276e-08 -1.878599e-08 -2.036520e-08 -2.098928e-08 -2.043281e-08 -2.074974e-08 -2.115595e-08 -1.985368e-08 -2.046921e-08 -2.033172e-08
-1.937930e-08 -2.030647e-08 -1.931715e-08 -2.083124e-08 -2.021151e-08 -1.912097e-08 -2.012323e-08 -2.146433e-08 -2.010381e-08 -2.025027e-08
-2.067996e-08 -1.995842e-08 -1.943777e-08 -1.965783e-08 -1.977370e-08 -1.948998e-08 -2.066626e-08 -1.954123e-08 -1.955411e-08 -2.075975e-08
-2.064819e-08 -2.030142e-08 -2.072879e-08 -1.958839e-08 -2.016089e-08 -2.021607e-08 -1.965895e-08 -2.102807e-08 -1.914760e-08 -2.016915e-08
-2.048377e-08 -2.033058e-08 -2.115150e-08 -2.112837e-08 -2.087664e-08 -2.022985e-08 -2.051073e-08 -2.210018e-08 -1.992903e-08 -2.017146e-08
-1.939773e-08 -1.990430e-08 -2.013516e-08 -2.016894e-08 -2.054884e-08 -1.992503e-08 -2.054721e-08 -1.956809e-08 -2.066736e-08 -2.071564e-08
-1.931642e-08 -2.046368e-08 -1.926383e-08 -1.934750e-08 -1.972650e-08 -1.933662e-08 -1.934203e-08 -1.975323e-08 -1.949154e-08 -2.030426e-08
-2.051904e-08 -1.905352e-08 -2.106596e-08 -2.000930e-08 -1.917979e-08 -1.890892e-08 -2.106445e-08 -1.980160e-08 -1.849154e-08 -1.853599e-08
-2.037445e-08 -2.050908e-08 -1.961515e-08 -1.983057e-08 -2.020055e-08 -2.067977e-08 -1.975516e-08 -2.058139e-08 -1.970412e-08 -1.991864e-08
-2.046617e-08 -1.854168e-08 -1.823775e-08 -2.019749e-08 -1.898132e-08 -1.973620e-08 -1.927605e-08 -2.019507e-08 -2.180356e-08 -1.932745e-08
-1.882254e-08 -1.918153e-08 -1.878905e-08 -1.792342e-08 -2.060736e-08 -1.842366e-08 -1.921511e-08 -1.897090e-08 -1.875677e-08 -1.978459e-08
-1.937209e-08 -1.820457e-08 -1.926847e-08 -1.950044e-08 -1.892421e-08 -1.929400e-08 -2.054325e-08 -1.903013e-08 -1.957633e-08 -1.953429e-08
-1.939836e-08 -1.985798e-08 -2.001355e-08 -1.943245e-08 -2.021306e-08 -1.985893e-08 -1.963614e-08 -1.955540e-08 -2.013829e-08 -1.967217e-08
-1.911039e-08 -2.039588e-08 -1.875197e-08 -1.912648e-08 -1.976035e-08 -2.042472e-08 -2.060331e-08 -1.988967e-08 -2.109046e-08 -2.143421e-08
-2.130680e-08 -2.184776e-08 -2.101618e-08 -1.995129e-08 -2.031985e-08 -2.014159e-08 -2.011782e-08 -1.969794e-08 -2.033941e-08 -2.124431e-08
-2.184597e-08 -2.056190e-08 -1.997833e-08 -2.008335e-08 -2.074332e-08 -1.922559e-08 -1.900204e-08 -2.099172e-08 -2.065748e-08 -1.970431e-08
-1.905650e-08 -2.090056e-08 -2.050200e-08 -2.035999e-08 -1.978720e-08 -2.038486e-08 -2.131202e-08 -2.018663e-08 -1.965346e-08 -1.980398e-08
-1.934352e-08 -1.910166e-08 -1.918772e-08 -1.879028e-08 -2.022952e-08 -2.017491e-08 -2.044087e-08 -1.991527e-08 -1.950463e-08 -2.065198e-08
-1.923012e-08 -1.922456e-08 -1.936263e-08 -2.089592e-08 -2.051891e-08 -2.084875e-08 -2.053143e-08 -1.842757e-08 -1.881808e-08 -2.013580e-08
-1.961208e-08
-2.055405e-08 -1.909561e-08 -1.912085e-08 -2.199605e-08 -2.008529e-08 -2.087939e-08 -2.185089e-08 -2.053732e-08 -1.963345e-08 -2.056557e-08
-1.905992e-08 -1.954138e-08 -1.935926e-08 -1.929244e-08 -1.960601e-08 -1.951381e-08 -2.042294e-08 -1.908493e-08 -2.094610e-08 -2.012842e-08
-1.905944e-08 -1.952477e-08 -1.993332e-08 -2.177704e-08 -1.948696e-08 -1.993675e-08 -1.947306e-08 -1.930383e-08 -2.077429e-08 -2.042817e-08
-2.138557e-08 -1.984716e-08 -1.994217e-08 -2.094726e-08 -2.053683e-08 -2.087997e-08 -1.939122e-08 -2.078224e-08 -2.071833e-08 -2.085805e-08
-2.005209e-08 -2.069602e-08 -1.975047e-08 -2.169008e-08 -2.042343e-08 -1.930466e-08 -1.924735e-08 -1.920844e-08 -2.036585e-08 -1.994654e-08
-2.051424e-08 -2.102301e-08 -1.990017e-08 -1.984299e-08 -1.956802e-08 -2.034845e-08 -1.983721e-08 -2.019194e-08 -2.047451e-08 -2.055572e-08
-2.080850e-08 -1.919482e-08 -2.027309e-08 -1.998509e-08 -1.918571e-08 -1.973295e-08 -2.014709e-08 -1.913225e-08 -1.938399e-08 -1.895423e-08
-2.039639e-08 -1.878509e-08 -2.015622e-08 -1.858101e-08 -1.955671e-08 -1.999729e-08 -1.883739e-08 -1.852878e-08 -1.983056e-08 -1.979269e-08
-1.946172e-08 -2.011758e-08 -1.964329e-08 -1.936344e-08 -1.855228e-08 -1.882094e-08 -1.913935e-08 -1.949059e-08 -1.939851e-08 -1.874489e-08
-1.914088e-08 -1.960905e-08 -1.872466e-08 -1.979176e-08 -2.052923e-08 -1.951459e-08 -2.069253e-08 -1.923849e-08 -2.059139e-08 -1.940539e-08
-1.927975e-08 -1.964010e-08 -2.010724e-08 -1.868913e-08 -1.904713e-08 -1.896048e-08 -2.028696e-08 -2.076665e-08 -1.989415e-08 -1.853603e-08
-2.000407e-08 -1.882467e-08 -1.964701e-08 -1.931397e-08 -2.096005e-08 -2.128913e-08 -1.912774e-08 -1.988736e-08 -1.921094e-08 -1.945460e-08
-2.066064e-08 -1.908041e-08 -1.872333e-08 -2.011949e-08 -2.024556e-08 -2.039032e-08 -1.935667e-08 -1.973015e-08 -2.090899e-08 -1.989557e-08
-1.854105e-08 -2.074696e-08 -2.212460e-08 -2.210664e-08 -1.940924e-08 -1.999710e-08 -2.111635e-08 -2.098890e-08 -2.104576e-08 -2.194627e-08
-2.093772e-08 -1.973176e-08 -2.175504e-08 -2.090034e-08 -2.064336e-08 -2.163020e-08 -2.147267e-08 -2.022897e-08 -2.001288e-08 -1.953312e-08
-2.022088e-08 -2.026334e-08 -2.041304e-08 -2.072819e-08 -2.041340e-08 -2.102560e-08 -1.989532e-08 -2.010989e-08 -2.055645e-08 -2.166333e-08
-1.938043e-08 -2.080249e-08 -2.086598e-08 -2.019354e-08 -1.965132e-08 -1.858732e-08 -1.974267e-08 -1.933143e-08 -2.204251e-08 -1.820973e-08
-2.026032e-08 -2.013067e-08 -1.960155e-08 -2.134181e-08 -2.072567e-08 -1.972567e-08 -1.941660e-08 -2.153537e-08 -1.987726e-08 -1.888960e-08
-2.093200e-08 -2.082790e-08 -2.043257e-08 -1.974052e-08 -2.009949e-08 -2.006722e-08 -1.882676e-08 -1.959709e-08 -2.062492e-08 -2.015573e-08
-1.853110e-08 -1.984498e-08 -1.992030e-08 -1.977262e-08 -1.835409e-08 -1.909281e-08 -2.002102e-08 -1.973563e-08 -1.910629e-08 -2.062166e-08
-2.013471e-08 -1.877673e-08 -2.011117e-08 -1.987733e-08 -1.989691e-08 -1.853017e-08 -2.128039e-08 -2.077287e-08 -1.932385e-08 -2.032219e-08
-2.148257e-08 -1.907247e-08 -2.046687e-08 -2.069947e-08 -1.961832e-08 -2.150077e-08 -2.034339e-08 -1.916548e-08 -2.206570e-08 -2.031330e-08
-1.937345e-08 -2.015443e-08 -1.971047e-08 -1.967155e-08 -2.104506e-08 -2.024917e-08 -1.976156e-08 -2.030239e-08 -1.995694e-08 -2.112102e-08
-1.971146e-08 -1.979798e-08 -1.973300e-08 -2.155037e-08 -1.996847e-08 -1.872275e-08 -2.066975e-08 -1.911609e-08 -1.812502e-08 -1.911630e-08
-1.991220e-08 -2.100565e-08 -1.952168e-08 -2.024061e-08 -1.973956e-08 -1.945131e-08 -1.888102e-08 -2.032711e-08 -1.879459e-08 -1.900878e-08
-1.973288e-08 -1.911229e-08 -1.921636e-08 -1.884500e-08 -1.883122e-08 -1.982383e-08 -1.911710e-08 -1.882780e-08 -2.012642e-08 -1.860279e-08
-2.049982e-08 -1.796964e-08 -1.981427e-08 -1.909422e-08 -2.015928e-08 -1.883343e-08 -1.853470e-08 -1.927655e-08 -1.805213e-08 -1.865452e-08
-2.067621e-08 -1.981016e-08 -1.983976e-08 -1.930055e-08 -2.199387e-08 -1.871695e-08 -1.964174e-08 -1.871293e-08 -1.987885e-08 -1.838912e-08
-2.042588e-08 -1.985262e-08 -1.978899e-08 -1.857681e-08 -1.935141e-08 -2.022941e-08 -2.137818e-08 -1.963107e-08 -2.039073e-08 -1.956660e-08
-1.888161e-08 -1.900101e-08 -1.820987e-08 -1.920488e-08 -1.977847e-08 -1.996611e-08 -1.930376e-08 -2.068804e-08 -2.097426e-08 -2.058862e-08
-2.065416e-08 -2.018952e-08 -1.928591e-08 -2.083317e-08 -2.010797e-08 -2.062490e-08 -1.907821e-08 -2.009342e-08 -2.006108e-08 -2.063133e-08
-1.929675e-08 -2.042407e-08 -2.022733e-08 -1.953462e-08 -1.863208e-08 -2.042626e-08 -2.121924e-08 -1.944026e-08 -2.059972e-08 -2.097959e-08
-2.141604e-08 -2.091451e-08 -2.016018e-08 -1.993759e-08 -1.965939e-08 -2.060954e-08 -2.104673e-08 -2.047192e-08 -1.981128e-08 -2.052460e-08
-1.927319e-08 -2.027043e-08 -2.014594e-08 -2.014489e-08 -1.998079e-08 -1.968605e-08 -2.182311e-08 -2.114451e-08 -2.249730e-08 -1.943701e-08
-2.101466e-08 -2.013991e-08 -2.000667e-08 -1.990259e-08 -1.905168e-08 -2.000142e-08 -2.115645e-08 -2.002151e-08 -2.007648e-08 -2.014078e-08
-1.913217e-08 -1.993919e-08 -2.123458e-08 -1.983363e-08 -1.991591e-08 -2.093687e-08 -2.018598e-08 -1.983806e-08 -1.972710e-08 -1.939925e-08
-2.055405e-08
-2.017790e-08 -2.046822e-08 -1.872784e-08 -1.974569e-08 -2.055488e-08 -1.826779e-08 -1.939091e-08 -2.056807e-08 -1.958374e-08 -1.833480e-08
-1.919482e-08 -1.922217e-08 -1.864519e-08 -2.105131e-08 -2.017353e-08 -1.899122e-08 -2.124868e-08 -1.896791e-08 -1.893777e-08 -1.981732e-08
-2.049936e-08 -1.978925e-08 -1.927863e-08 -1.979633e-08 -1.907464e-08 -1.981565e-08 -2.070911e-08 -2.047801e-08 -2.110247e-08 -2.050673e-08
-1.906498e-08 -1.934657e-08 -1.995296e-08 -1.970067e-08 -2.118673e-08 -2.149286e-08 -2.049434e-08 -2.153762e-08 -2.018392e-08 -2.043761e-08
-2.023068e-08 -2.057894e-08 -1.894004e-08 -2.113348e-08 -1.889728e-08 -2.061832e-08 -1.969345e-08 -1.936094e-08 -1.954931e-08 -2.127573e-08
-1.999765e-08 -2.005650e-08 -2.156112e-08 -2.085984e-08 -2.044239e-08 -1.988795e-08 -1.991943e-08 -2.055228e-08 -1.999977e-08 -2.017189e-08
-1.934978e-08 -1.866229e-08 -1.971018e-08 -1.896522e-08 -1.940616e-08 -1.948286e-08 -1.877556e-08 -2.011163e-08 -2.148156e-08 -1.877111e-08
-1.985620e-08 -2.008454e-08 -1.852860e-08 -1.861846e-08 -2.020356e-08 -1.726221e-08 -2.004401e-08 -1.886371e-08 -2.005877e-08 -1.933025e-08
-1.832596e-08 -1.977195e-08 -1.838327e-08 -1.908997e-08 -2.047948e-08 -1.816784e-08 -1.869284e-08 -1.927405e-08 -2.066549e-08 -1.894529e-08
-1.980540e-08 -1.948773e-08 -1.837640e-08 -1.895613e-08 -2.149029e-08 -2.012918e-08 -1.831512e-08 -2.015752e-08 -1.932401e-08 -1.817981e-08
-1.869404e-08 -1.900061e-08 -1.875319e-08 -1.889093e-08 -1.884599e-08 -1.946208e-08 -2.012851e-08 -1.984989e-08 -1.916718e-08 -1.880190e-08
-1.949141e-08 -1.997807e-08 -1.925076e-08 -2.095815e-08 -2.019584e-08 -1.923370e-08 -1.938937e-08 -2.037341e-08 -1.961551e-08 -1.960748e-08
-2.068885e-08 -2.173961e-08 -1.956730e-08 -1.973457e-08 -2.037491e-08 -2.119870e-08 -1.989425e-08 -2.006394e-08 -1.936119e-08 -2.013171e-08
-1.947313e-08 -1.970307e-08 -2.083305e-08 -1.967658e-08 -1.979179e-08 -2.162595e-08 -2.022457e-08 -1.978453e-08 -2.182211e-08 -2.059886e-08
-2.068226e-08 -2.034495e-08 -2.046723e-08 -2.164074e-08 -2.194849e-08 -2.001500e-08 -2.022130e-08 -2.044072e-08 -2.142770e-08 -1.959358e-08
-1.949344e-08 -1.963730e-08 -2.096748e-08 -1.955588e-08 -1.974464e-08 -2.073711e-08 -1.986539e-08 -2.001271e-08 -1.978853e-08 -2.060836e-08
-1.919040e-08 -1.958020e-08 -1.907729e-08 -2.065933e-08 -2.050432e-08 -2.040748e-08 -1.942207e-08 -2.067630e-08 -2.114579e-08 -1.993722e-08
-2.037157e-08 -1.824013e-08 -2.067897e-08 -2.035184e-08 -1.890633e-08 -1.840715e-08 -1.947604e-08 -1.901359e-08 -2.021471e-08 -2.000442e-08
-2.000936e-08 -2.000719e-08 -1.963588e-08 -2.023503e-08 -2.112228e-08 -1.879099e-08 -2.105163e-08 -1.877240e-08 -1.880549e-08 -2.102696e-08
-1.950585e-08 -1.848770e-08 -2.061650e-08 -1.912631e-08 -1.830780e-08 -2.016468e-08 -1.990012e-08 -2.051301e-08 -2.055385e-08 -1.882407e-08
-2.032566e-08 -2.053279e-08 -1.972393e-08 -1.994978e-08 -1.927894e-08 -2.081087e-08 -1.927971e-08 -2.059363e-08 -2.019209e-08 -2.120404e-08
-1.926490e-08 -2.074164e-08 -2.049154e-08 -2.169797e-08 -2.028367e-08 -2.066489e-08 -2.029014e-08 -2.020159e-08 -1.924307e-08 -2.088495e-08
-2.004955e-08 -2.011053e-08 -1.959042e-08 -1.991735e-08 -2.168491e-08 -1.934731e-08 -1.929440e-08 -1.945751e-08 -1.939357e-08 -1.953083e-08
-2.006558e-08 -1.932494e-08 -2.109386e-08 -2.098327e-08 -1.979607e-08 -1.947188e-08 -1.923405e-08 -1.957058e-08 -1.988282e-08 -1.991141e-08
-1.973444e-08 -1.933598e-08 -1.976100e-08 -1.933570e-08 -1.981270e-08 -2.072887e-08 -1.925981e-08 -1.966385e-08 -1.915423e-08 -1.855453e-08
-2.047359e-08 -1.880010e-08 -1.947467e-08 -1.848009e-08 -1.884757e-08 -1.968762e-08 -1.971027e-08 -1.953510e-08 -2.025096e-08 -1.905561e-08
-1.905017e-08 -1.927869e-08 -1.849151e-08 -1.766762e-08 -2.029642e-08 -1.872802e-08 -1.977600e-08 -1.998517e-08 -1.813493e-08 -1.885639e-08
-1.961157e-08 -1.880800e-08 -1.804445e-08 -1.982182e-08 -1.871502e-08 -2.041727e-08 -1.915735e-08 -1.860372e-08 -1.852056e-08 -1.944884e-08
-1.792137e-08 -1.907462e-08 -1.932396e-08 -1.914610e-08 -1.878185e-08 -1.889785e-08 -2.036209e-08 -1.923814e-08 -1.941566e-08 -1.886341e-08
-1.848378e-08 -2.001131e-08 -1.868526e-08 -1.915378e-08 -1.934946e-08 -2.025808e-08 -1.937780e-08 -2.141387e-08 -2.019843e-08 -2.036189e-08
-1.918310e-08 -1.923354e-08 -1.986403e-08 -1.963337e-08 -2.039733e-08 -1.987048e-08 -2.035605e-08 -1.989361e-08 -1.931150e-08 -1.926801e-08
-1.901910e-08 -2.071677e-08 -2.013142e-08 -2.052241e-08 -2.103134e-08 -2.065801e-08 -1.933781e-08 -2.033076e-08 -2.006126e-08 -2.038216e-08
-2.100598e-08 -2.039550e-08 -2.027407e-08 -2.006614e-08 -1.892267e-08 -2.110156e-08 -2.028700e-08 -1.884578e-08 -2.030582e-08 -1.990595e-08
-2.087049e-08 -2.004996e-08 -1.984589e-08 -2.100257e-08 -2.138216e-08 -2.150735e-08 -2.126879e-08 -2.021490e-08 -1.970745e-08 -2.111648e-08
-1.993695e-08 -1.940837e-08 -1.999730e-08 -2.093807e-08 -2.075374e-08 -2.017312e-08 -2.068816e-08 -1.920060e-08 -2.002575e-08 -1.948596e-08
-1.925815e-08 -1.956751e-08 -1.969603e-08 -1.922901e-08 -1.919607e-08 -1.950031e-08 -2.050869e-08 -2.040673e-08 -1.884007e-08 -1.909935e-08
-2.017790e-08
-1.963573e-08 -2.010324e-08 -1.876187e-08 -1.916118e-08 -1.985198e-08 -1.930516e-08 -2.060127e-08 -1.827424e-08 -1.865198e-08 -2.006901e-08
-1.933673e-08 -1.959642e-08 -2.045532e-08 -1.988278e-08 -2.016740e-08 -1.982209e-08 -1.953809e-08 -1.915696e-08 -1.895275e-08 -2.098221e-08
-1.938660e-08 -2.032908e-08 -2.059796e-08 -2.029615e-08 -1.967631e-08 -2.020528e-08 -2.179572e-08 -2.089775e-08 -1.965491e-08 -1.894456e-08
-1.991616e-08 -2.170392e-08 -1.949205e-08 -1.962525e-08 -2.021329e-08 -2.051321e-08 -2.032820e-08 -1.901316e-08 -1.999386e-08 -1.984227e-08
-2.005113e-08 -1.949197e-08 -1.975944e-08 -2.040864e-08 -2.088291e-08 -1.866446e-08 -1.977813e-08 -1.937588e-08 -1.932779e-08 -2.021740e-08
-2.024758e-08 -1.944627e-08 -1.925233e-08 -1.873867e-08 -1.865348e-08 -1.978135e-08 -2.033772e-08 -2.007217e-08 -2.071305e-08 -1.983320e-08
-2.136418e-08 -2.049637e-08 -1.928455e-08 -1.957009e-08 -2.054487e-08 -1.983736e-08 -1.896846e-08 -1.993250e-08 -1.979016e-08 -1.960016e-08
-1.900200e-08 -1.998805e-08 -1.849319e-08 -1.908109e-08 -1.879718e-08 -2.023934e-08 -1.832061e-08 -1.937158e-08 -1.946603e-08 -2.048425e-08
-1.825956e-08 -1.851111e-08 -1.840277e-08 -1.918520e-08 -1.901046e-08 -1.837434e-08 -1.870831e-08 -1.847195e-08 -1.890347e-08 -1.856330e-08
-1.934589e-08 -1.877168e-08 -1.880310e-08 -1.958676e-08 -1.884486e-08 -1.913663e-08 -1.845716e-08 -1.819356e-08 -1.869348e-08 -1.862506e-08
-1.932686e-08 -2.064289e-08 -2.005389e-08 -1.872968e-08 -1.873587e-08 -1.962086e-08 -1.872841e-08 -1.830849e-08 -1.890440e-08 -1.896044e-08
-1.877407e-08 -1.954695e-08 -1.838645e-08 -1.960950e-08 -1.949432e-08 -2.025789e-08 -1.954478e-08 -1.999120e-08 -2.009795e-08 -1.845641e-08
-1.917421e-08 -1.929892e-08 -1.907595e-08 -2.056109e-08 -2.081178e-08 -1.944973e-08 -1.905499e-08 -2.144492e-08 -1.887507e-08 -2.045559e-08
-2.114452e-08 -2.070596e-08 -2.013792e-08 -2.178852e-08 -2.057338e-08 -2.049749e-08 -2.089882e-08 -2.062785e-08 -1.984959e-08 -2.024492e-08
-1.929334e-08 -2.103075e-08 -1.990247e-08 -1.981799e-08 -2.001146e-08 -2.022672e-08 -2.069895e-08 -2.091640e-08 -2.118745e-08 -2.026852e-08
-1.897885e-08 -2.052574e-08 -2.007516e-08 -1.995027e-08 -1.879987e-08 -2.101041e-08 -1.981831e-08 -2.181973e-08 -2.038784e-08 -1.948037e-08
-2.050300e-08 -1.910813e-08 -2.076153e-08 -2.003569e-08 -1.826320e-08 -1.982158e-08 -2.016932e-08 -1.982945e-08 -1.925040e-08 -2.117356e-08
-2.198753e-08 -2.065793e-08 -1.859066e-08 -2.018069e-08 -1.967184e-08 -2.071256e-08 -1.954388e-08 -1.947454e-08 -2.019638e-08 -1.995753e-08
-1.917511e-08 -1.829862e-08 -1.943874e-08 -2.054742e-08 -1.931274e-08 -1.948335e-08 -1.869076e-08 -2.032791e-08 -2.006128e-08 -2.004577e-08
-1.845233e-08 -2.160306e-08 -1.985281e-08 -1.954173e-08 -1.954743e-08 -1.997000e-08 -2.089123e-08 -2.008261e-08 -1.928244e-08 -1.924548e-08
-2.063404e-08 -2.017775e-08 -2.033597e-08 -2.163661e-08 -1.950443e-08 -1.987489e-08 -2.005523e-08 -2.040670e-08 -1.998746e-08 -1.906990e-08
-2.017208e-08 -2.010601e-08 -2.003846e-08 -1.984231e-08 -1.945554e-08 -2.025810e-08 -2.000615e-08 -2.167559e-08 -2.046806e-08 -1.980511e-08
-2.063974e-08 -1.988947e-08 -2.042246e-08 -1.986714e-08 -2.035065e-08 -2.098498e-08 -1.991540e-08 -2.008455e-08 -2.032201e-08 -2.071022e-08
-1.993011e-08 -2.048845e-08 -2.137905e-08 -2.020590e-08 -1.939188e-08 -1.920883e-08 -1.938042e-08 -1.970266e-08 -1.951514e-08 -1.840518e-08
-2.118947e-08 -1.852404e-08 -1.964580e-08 -1.873098e-08 -1.876754e-08 -1.879936e-08 -1.932737e-08 -1.983135e-08 -1.933865e-08 -1.963094e-08
-1.910234e-08 -1.940410e-08 -1.928477e-08 -1.895514e-08 -1.858908e-08 -1.832633e-08 -1.879780e-08 -1.874779e-08 -1.813693e-08 -1.815874e-08
-1.926844e-08 -1.860668e-08 -2.082476e-08 -1.816188e-08 -1.910460e-08 -1.893827e-08 -1.852190e-08 -1.881493e-08 -1.961324e-08 -1.789986e-08
-1.828446e-08 -2.024996e-08 -1.858887e-08 -1.912590e-08 -1.985240e-08 -1.885149e-08 -1.960158e-08 -1.909671e-08 -1.864352e-08 -2.010512e-08
-1.902267e-08 -1.849504e-08 -1.891652e-08 -1.837047e-08 -1.976879e-08 -1.967041e-08 -1.972761e-08 -1.862407e-08 -1.938632e-08 -1.980507e-08
-2.021658e-08 -1.938371e-08 -2.047086e-08 -1.974151e-08 -1.950155e-08 -1.880608e-08 -1.822817e-08 -1.948017e-08 -1.916239e-08 -1.929428e-08
-1.951658e-08 -1.942629e-08 -2.021584e-08 -1.935224e-08 -2.070584e-08 -2.060631e-08 -1.888904e-08 -2.015392e-08 -1.936909e-08 -2.143842e-08
-2.057909e-08 -2.116004e-08 -1.949842e-08 -2.073398e-08 -1.926732e-08 -2.141977e-08 -2.032886e-08 -1.985195e-08 -1.974215e-08 -1.939475e-08
-2.088083e-08 -2.242046e-08 -1.941671e-08 -2.094556e-08 -2.011905e-08 -1.951208e-08 -1.916822e-08 -2.022696e-08 -2.040539e-08 -1.878134e-08
-1.975086e-08 -2.039503e-08 -1.941384e-08 -2.119945e-08 -1.919014e-08 -2.089617e-08 -1.955581e-08 -1.959215e-08 -2.102998e-08 -2.190921e-08
-2.086566e-08 -2.032221e-08 -1.949161e-08 -2.036979e-08 -2.012362e-08 -2.133078e-08 -2.183509e-08 -1.942358e-08 -2.091957e-08 -2.013007e-08
-1.893620e-08 -1.884112e-08 -1.984425e-08 -2.115462e-08 -2.056032e-08 -1.892620e-08 -2.025368e-08 -2.017175e-08 -2.068039e-08 -1.988131e-08
-1.963573e-08
-1.973471e-08 -1.912449e-08 -2.039285e-08 -1.859227e-08 -1.895589e-08 -1.845160e-08 -1.879033e-08 -2.043532e-08 -1.897789e-08 -1.871226e-08
-1.913255e-08 -2.077878e-08 -1.962307e-08 -1.911297e-08 -1.967185e-08 -2.112500e-08 -1.891914e-08 -1.957172e-08 -1.877067e-08 -1.931439e-08
-2.019085e-08 -2.086370e-08 -2.187731e-08 -2.055735e-08 -2.135326e-08 -2.032928e-08 -2.017274e-08 -1.884538e-08 -2.101477e-08 -2.085741e-08
-2.023747e-08 -1.929582e-08 -2.076258e-08 -2.038659e-08 -1.963088e-08 -2.139893e-08 -2.042771e-08 -1.890425e-08 -1.899372e-08 -2.081481e-08
-2.085172e-08 -2.104295e-08 -2.135257e-08 -2.054233e-08 -2.112799e-08 -2.143778e-08 -1.998407e-08 -2.109999e-08 -1.869588e-08 -1.912245e-08
-1.945153e-08 -2.008688e-08 -1.979739e-08 -1.964630e-08 -2.113754e-08 -1.848890e-08 -1.937413e-08 -2.002995e-08 -1.951975e-08 -2.035200e-08
-1.993923e-08 -1.924816e-08 -1.969789e-08 -2.039319e-08 -1.868552e-08 -2.032233e-08 -1.993535e-08 -2.044356e-08 -1.916779e-08 -1.844999e-08
-2.017765e-08 -1.943275e-08 -1.951699e-08 -1.862798e-08 -1.968837e-08 -2.015600e-08 -1.904360e-08 -1.848313e-08 -1.926464e-08 -1.880199e-08
-1.817426e-08 -1.915847e-08 -2.015803e-08 -1.818514e-08 -2.002207e-08 -1.877535e-08 -1.942375e-08 -1.882132e-08 -1.950828e-08 -1.975757e-08
-1.816936e-08 -2.006468e-08 -1.924952e-08 -1.750388e-08 -1.929529e-08 -2.014093e-08 -1.885744e-08 -1.928886e-08 -1.844046e-08 -2.043678e-08
-1.799868e-08 -1.836609e-08 -1.906677e-08 -1.878445e-08 -1.968843e-08 -1.947460e-08 -1.948685e-08 -1.843926e-08 -1.834460e-08 -1.857704e-08
-1.930228e-08 -1.980435e-08 -1.923721e-08 -1.930314e-08 -2.200098e-08 -2.083168e-08 -2.085389e-08 -1.869540e-08 -1.984487e-08 -1.902709e-08
-1.891758e-08 -2.010093e-08 -2.065384e-08 -2.053557e-08 -1.846848e-08 -2.022348e-08 -1.925672e-08 -1.956964e-08 -2.003859e-08 -2.056880e-08
-1.912887e-08 -1.943206e-08 -2.063054e-08 -2.052810e-08 -1.992582e-08 -2.133953e-08 -2.023227e-08 -1.902035e-08 -2.002400e-08 -2.194991e-08
-1.953948e-08 -2.004817e-08 -1.935135e-08 -2.040378e-08 -1.941679e-08 -2.120391e-08 -1.962353e-08 -2.087948e-08 -2.003310e-08 -2.063282e-08
-1.894109e-08 -1.942611e-08 -1.984471e-08 -2.132984e-08 -1.948853e-08 -2.007707e-08 -2.018847e-08 -1.884871e-08 -2.117910e-08 -1.953653e-08
-1.944792e-08 -1.983820e-08 -1.925706e-08 -1.959106e-08 -1.898429e-08 -1.994034e-08 -1.859269e-08 -1.978843e-08 -1.980337e-08 -1.968140e-08
-2.057412e-08 -2.039330e-08 -2.122832e-08 -2.014748e-08 -2.015073e-08 -2.020624e-08 -1.923206e-08 -2.047551e-08 -1.957628e-08 -1.840042e-08
-2.038716e-08 -1.979906e-08 -1.992148e-08 -1.945887e-08 -1.922217e-08 -1.937321e-08 -2.045496e-08 -2.107637e-08 -2.060600e-08 -2.001648e-08
-1.986608e-08 -2.010193e-08 -1.856984e-08 -2.042689e-08 -1.994997e-08 -2.053650e-08 -1.882715e-08 -1.843016e-08 -1.954006e-08 -1.984120e-08
-1.982345e-08 -1.919036e-08 -1.990858e-08 -1.953582e-08 -1.919754e-08 -2.002000e-08 -2.031039e-08 -1.928245e-08 -1.973009e-08 -1.952771e-08
-2.004364e-08 -2.108131e-08 -2.070873e-08 -1.973671e-08 -2.063093e-08 -2.029549e-08 -1.890022e-08 -2.038778e-08 -1.971497e-08 -2.082513e-08
-2.028008e-08 -1.863388e-08 -1.990949e-08 -1.996123e-08 -1.965266e-08 -1.925663e-08 -1.994407e-08 -2.234638e-08 -2.119615e-08 -2.018459e-08
-2.024761e-08 -1.933616e-08 -1.948036e-08 -1.978289e-08 -1.903545e-08 -2.099218e-08 -1.939961e-08 -1.870262e-08 -2.048368e-08 -1.941227e-08
-1.923899e-08 -1.899637e-08 -1.905372e-08 -1.867753e-08 -2.022727e-08 -1.929070e-08 -1.913271e-08 -1.916607e-08 -1.886866e-08 -2.020509e-08
-1.983414e-08 -1.879923e-08 -1.866194e-08 -1.929267e-08 -1.880274e-08 -1.959455e-08 -1.881253e-08 -1.816482e-08 -1.835324e-08 -1.878464e-08
-1.918674e-08 -1.880538e-08 -1.920533e-08 -1.864437e-08 -1.932235e-08 -1.727927e-08 -1.831225e-08 -2.012777e-08 -1.937099e-08 -1.929341e-08
-1.951230e-08 -1.968621e-08 -1.950416e-08 -1.727614e-08 -1.849818e-08 -1.871390e-08 -1.972480e-08 -1.879264e-08 -1.791022e-08 -1.942895e-08
-1.913508e-08 -1.916977e-08 -2.017695e-08 -1.895952e-08 -1.822453e-08 -2.031486e-08 -1.992824e-08 -1.944117e-08 -1.868579e-08 -1.907281e-08
-1.954035e-08 -1.868097e-08 -1.965358e-08 -1.891525e-08 -1.924092e-08 -2.010307e-08 -1.875621e-08 -2.076881e-08 -1.897286e-08 -2.061683e-08
-1.916966e-08 -2.045593e-08 -2.072731e-08 -2.043203e-08 -1.929296e-08 -1.993042e-08 -1.903209e-08 -1.949300e-08 -1.902322e-08 -1.910549e-08
-2.110194e-08 -1.975139e-08 -1.938466e-08 -1.976487e-08 -1.994997e-08 -1.983427e-08 -1.948481e-08 -1.935366e-08 -2.055401e-08 -2.010193e-08
-2.019305e-08 -1.994247e-08 -1.908444e-08 -1.999435e-08 -2.048958e-08 -1.979651e-08 -1.958947e-08 -1.898628e-08 -1.985498e-08 -2.042224e-08
-1.869089e-08 -2.133940e-08 -2.015670e-08 -2.034484e-08 -2.074736e-08 -1.974149e-08 -2.124668e-08 -2.029238e-08 -1.944739e-08 -2.046472e-08
-2.050671e-08 -1.875927e-08 -2.013162e-08 -1.879980e-08 -1.977046e-08 -2.018160e-08 -1.865210e-08 -2.118457e-08 -2.004689e-08 -1.852639e-08
-1.966359e-08 -1.760495e-08 -1.883173e-08 -1.950242e-08 -1.957132e-08 -1.956717e-08 -1.891638e-08 -1.982383e-08 -1.905579e-08 -2.016002e-08
-1.973471e-08
-1.966060e-08 -1.914737e-08 -2.032116e-08 -1.884386e-08 -1.934962e-08 -2.040877e-08 -1.799262e-08 -1.981771e-08 -1.986402e-08 -1.886211e-08
-1.970975e-08 -1.948185e-08 -1.986775e-08 -2.027644e-08 -1.899189e-08 -1.892292e-08 -1.894542e-08 -1.930647e-08 -1.890438e-08 -1.964343e-08
-1.923078e-08 -2.059242e-08 -2.021319e-08 -1.940970e-08 -1.923503e-08 -2.027714e-08 -1.960652e-08 -2.035195e-08 -2.069474e-08 -2.067628e-08
-2.034909e-08 -1.874845e-08 -2.061254e-08 -2.045852e-08 -1.959158e-08 -1.891866e-08 -1.907767e-08 -2.006542e-08 -1.989991e-08 -2.029351e-08
-2.010069e-08 -1.915208e-08 -2.082256e-08 -2.093583e-08 -1.914689e-08 -1.905781e-08 -1.866678e-08 -2.086634e-08 -1.862899e-08 -1.937226e-08
-2.042788e-08 -1.899246e-08 -1.872789e-08 -1.983672e-08 -1.917884e-08 -1.930871e-08 -2.037904e-08 -1.926709e-08 -1.890423e-08 -2.042587e-08
-1.982957e-08 -1.997144e-08 -1.957615e-08 -1.911006e-08 -1.951839e-08 -1.941191e-08 -2.017610e-08 -1.905659e-08 -1.906987e-08 -1.891737e-08
-1.814964e-08 -1.910228e-08 -1.930244e-08 -1.828166e-08 -1.862683e-08 -2.029890e-08 -1.948769e-08 -2.111658e-08 -1.873365e-08 -1.906036e-08
-1.778223e-08 -1.983440e-08 -1.788303e-08 -1.836914e-08 -1.741564e-08 -1.870163e-08 -1.755108e-08 -1.730760e-08 -1.931171e-08 -1.773595e-08
-1.789093e-08 -1.944155e-08 -1.985632e-08 -1.826838e-08 -1.825160e-08 -1.865391e-08 -1.894843e-08 -1.884569e-08 -1.729491e-08 -1.800190e-08
-1.908741e-08 -1.972921e-08 -1.869824e-08 -1.868670e-08 -1.968219e-08 -1.945333e-08 -1.900416e-08 -2.022575e-08 -1.863681e-08 -1.987827e-08
-1.898762e-08 -1.968287e-08 -1.946915e-08 -1.919251e-08 -1.934925e-08 -1.934179e-08 -1.906394e-08 -2.006297e-08 -1.910376e-08 -2.003402e-08
-1.908009e-08 -1.958306e-08 -2.015588e-08 -2.062421e-08 -1.986425e-08 -1.977511e-08 -1.930199e-08 -1.985629e-08 -2.004688e-08 -1.944158e-08
-2.066385e-08 -2.164453e-08 -1.972599e-08 -1.972296e-08 -1.998473e-08 -1.863034e-08 -1.939428e-08 -2.021031e-08 -1.926711e-08 -1.848451e-08
-1.938539e-08 -1.985861e-08 -1.976289e-08 -2.080543e-08 -2.045775e-08 -1.922245e-08 -2.033145e-08 -1.953899e-08 -2.043494e-08 -2.006996e-08
-2.018053e-08 -2.180327e-08 -1.950329e-08 -1.884204e-08 -2.131681e-08 -1.884063e-08 -1.913963e-08 -1.938379e-08 -2.023721e-08 -2.116954e-08
-1.890203e-08 -1.984637e-08 -2.084984e-08 -1.897638e-08 -2.045881e-08 -1.792062e-08 -1.950659e-08 -1.952354e-08 -1.973913e-08 -1.958723e-08
-2.069162e-08 -1.911140e-08 -1.843899e-08 -1.903181e-08 -1.850089e-08 -1.944098e-08 -2.051510e-08 -2.052945e-08 -1.931647e-08 -1.880896e-08
-2.019632e-08 -2.027976e-08 -2.074772e-08 -1.841575e-08 -2.032836e-08 -1.910029e-08 -1.894973e-08 -1.892397e-08 -1.892735e-08 -1.889692e-08
-2.106119e-08 -2.130855e-08 -1.860908e-08 -1.893306e-08 -1.867515e-08 -1.931767e-08 -2.007337e-08 -2.067318e-08 -2.044405e-08 -1.769372e-08
-2.005692e-08 -2.015405e-08 -2.100953e-08 -1.991856e-08 -1.825763e-08 -2.011155e-08 -1.989796e-08 -2.026238e-08 -2.028442e-08 -1.844787e-08
-1.925738e-08 -2.052947e-08 -1.989762e-08 -1.965088e-08 -2.065867e-08 -2.038206e-08 -2.034623e-08 -1.945036e-08 -2.074394e-08 -1.873185e-08
-1.913110e-08 -1.979824e-08 -2.000288e-08 -1.861159e-08 -1.935934e-08 -2.030816e-08 -2.052014e-08 -1.967186e-08 -1.925408e-08 -1.852065e-08
-1.854244e-08 -2.014269e-08 -1.872799e-08 -2.041036e-08 -1.976790e-08 -1.978664e-08 -1.906340e-08 -2.029128e-08 -1.893091e-08 -2.027521e-08
-1.902048e-08 -1.832408e-08 -2.046778e-08 -1.959065e-08 -1.984423e-08 -1.790244e-08 -1.847211e-08 -1.901973e-08 -1.957862e-08 -2.028254e-08
-1.891940e-08 -1.978649e-08 -1.983234e-08 -1.905177e-08 -1.814317e-08 -1.802672e-08 -1.891030e-08 -1.777763e-08 -1.796103e-08 -1.884163e-08
-1.921435e-08 -1.890930e-08 -1.968722e-08 -1.863025e-08 -1.923419e-08 -1.983009e-08 -1.819251e-08 -1.887081e-08 -1.892010e-08 -1.924171e-08
-1.827521e-08 -1.992816e-08 -1.823364e-08 -1.747292e-08 -1.873118e-08 -1.877512e-08 -1.895472e-08 -1.860709e-08 -1.872116e-08 -1.894723e-08
-1.921900e-08 -1.904314e-08 -1.940671e-08 -1.766076e-08 -1.820385e-08 -1.828563e-08 -1.986596e-08 -1.982587e-08 -1.955256e-08 -1.961220e-08
-1.960652e-08 -1.992020e-08 -1.951665e-08 -1.885311e-08 -1.921966e-08 -2.029872e-08 -2.025783e-08 -1.960267e-08 -1.887093e-08 -1.944770e-08
-1.929882e-08 -1.859689e-08 -2.009882e-08 -1.953635e-08 -2.022495e-08 -1.947321e-08 -2.021014e-08 -2.023349e-08 -1.952600e-08 -2.088679e-08
-2.067088e-08 -2.003529e-08 -1.869257e-08 -2.226704e-08 -1.954954e-08 -2.102418e-08 -1.955838e-08 -2.093450e-08 -1.995789e-08 -2.137767e-08
-2.092093e-08 -1.990675e-08 -1.927769e-08 -2.028776e-08 -2.020783e-08 -2.039923e-08 -1.869552e-08 -1.964463e-08 -1.904848e-08 -2.038444e-08
-2.130144e-08 -2.034785e-08 -1.874196e-08 -1.851558e-08 -1.892712e-08 -2.018565e-08 -1.891294e-08 -1.951150e-08 -1.958901e-08 -2.022753e-08
-1.872019e-08 -1.868348e-08 -2.031102e-08 -2.127213e-08 -1.982504e-08 -2.120931e-08 -2.086756e-08 -1.894941e-08 -1.917725e-08 -2.070959e-08
-2.011605e-08 -1.900972e-08 -2.037152e-08 -1.859409e-08 -1.851573e-08 -1.967966e-08 -2.067700e-08 -1.849159e-08 -1.892456e-08 -1.930498e-08
-1.966060e-08
-1.829932e-08 -1.963277e-08 -1.905751e-08 -1.887394e-08 -1.883619e-08 -1.845699e-08 -1.814099e-08 -1.903546e-08 -1.926013e-08 -1.834293e-08
-1.871851e-08 -2.057196e-08 -1.905027e-08 -1.856953e-08 -1.897583e-08 -1.977521e-08 -1.842012e-08 -1.880614e-08 -1.920862e-08 -1.899019e-08
-1.976371e-08 -1.913044e-08 -2.043529e-08 -2.153806e-08 -1.983379e-08 -2.016771e-08 -2.011082e-08 -1.903833e-08 -2.062062e-08 -1.912516e-08
-2.069343e-08 -1.842021e-08 -1.954535e-08 -2.033962e-08 -1.954563e-08 -1.940695e-08 -1.949380e-08 -2.020526e-08 -1.977129e-08 -1.961805e-08
-1.938941e-08 -2.025499e-08 -2.030842e-08 -2.044696e-08 -1.915030e-08 -1.840846e-08 -2.078861e-08 -2.143742e-08 -2.151621e-08 -1.961658e-08
-1.926239e-08 -2.035909e-08 -1.915357e-08 -1.888222e-08 -1.925656e-08 -1.932925e-08 -1.819227e-08 -1.898434e-08 -1.960959e-08 -1.966294e-08
-1.964824e-08 -1.907864e-08 -1.849841e-08 -1.874392e-08 -1.984094e-08 -1.877520e-08 -1.898464e-08 -1.834476e-08 -2.018342e-08 -2.013640e-08
-1.963732e-08 -1.879636e-08 -1.902841e-08 -1.835441e-08 -1.836053e-08 -1.840464e-08 -1.870947e-08 -1.954957e-08 -2.022642e-08 -1.801881e-08
-1.889579e-08 -1.893020e-08 -1.823401e-08 -1.849622e-08 -1.883841e-08 -1.854822e-08 -1.840621e-08 -1.838738e-08 -1.927534e-08 -1.813341e-08
-1.809008e-08 -1.968674e-08 -1.748553e-08 -1.820364e-08 -1.864565e-08 -1.959475e-08 -1.707534e-08 -1.903526e-08 -1.806446e-08 -1.826206e-08
-1.821861e-08 -1.879384e-08 -1.834159e-08 -1.911966e-08 -1.779188e-08 -1.840102e-08 -1.894071e-08 -1.934676e-08 -1.834841e-08 -1.855109e-08
-1.931383e-08 -1.967167e-08 -1.949165e-08 -1.914756e-08 -1.824957e-08 -1.894706e-08 -1.982201e-08 -1.901364e-08 -1.927932e-08 -1.896473e-08
-1.839779e-08 -1.956821e-08 -1.979291e-08 -1.907797e-08 -2.093039e-08 -1.969940e-08 -1.938039e-08 -1.987285e-08 -2.000100e-08 -1.967325e-08
-1.944212e-08 -1.899071e-08 -2.078182e-08 -1.987658e-08 -1.953381e-08 -1.963240e-08 -1.995769e-08 -2.047048e-08 -1.908045e-08 -1.964485e-08
-2.004966e-08 -1.968480e-08 -1.976503e-08 -1.952980e-08 -1.921080e-08 -2.002792e-08 -1.939459e-08 -2.124681e-08 -2.054368e-08 -2.059672e-08
-1.906798e-08 -1.964427e-08 -1.890570e-08 -1.930368e-08 -2.021807e-08 -1.974078e-08 -1.974600e-08 -1.953710e-08 -2.000509e-08 -1.936671e-08
-2.064605e-08 -2.029267e-08 -1.995377e-08 -1.957400e-08 -1.841613e-08 -1.934440e-08 -1.975275e-08 -2.059789e-08 -1.849804e-08 -1.926592e-08
-1.897765e-08 -1.992707e-08 -1.940437e-08 -1.924061e-08 -1.873831e-08 -1.815041e-08 -1.823199e-08 -2.042891e-08 -1.820051e-08 -1.820852e-08
-1.924627e-08 -1.934776e-08 -1.843633e-08 -1.862725e-08 -2.005813e-08 -2.071439e-08 -2.044169e-08 -1.905482e-08 -1.887939e-08 -2.008361e-08
-1.829210e-08 -1.859559e-08 -1.973538e-08 -2.002228e-08 -1.986947e-08 -1.860331e-08 -1.921699e-08 -2.078419e-08 -2.090895e-08 -1.846404e-08
-1.810738e-08 -2.030989e-08 -1.981427e-08 -1.922072e-08 -1.985769e-08 -1.948541e-08 -2.006275e-08 -1.844468e-08 -1.871595e-08 -1.859266e-08
-1.883984e-08 -1.925345e-08 -1.893594e-08 -1.970508e-08 -1.963054e-08 -1.941405e-08 -1.941332e-08 -1.943653e-08 -2.006348e-08 -1.839180e-08
-1.869419e-08 -1.879459e-08 -1.934470e-08 -1.897086e-08 -1.894997e-08 -2.030651e-08 -1.978412e-08 -1.985731e-08 -2.029624e-08 -1.935119e-08
-1.943947e-08 -1.921620e-08 -2.018630e-08 -1.826226e-08 -1.981812e-08 -1.932660e-08 -2.031687e-08 -1.923504e-08 -1.906318e-08 -1.961685e-08
-1.936377e-08 -1.864438e-08 -1.835346e-08 -1.965672e-08 -1.917651e-08 -2.061673e-08 -1.829566e-08 -1.932237e-08 -1.902683e-08 -1.975563e-08
-1.971782e-08 -1.835496e-08 -1.805157e-08 -1.909984e-08 -1.913937e-08 -1.892619e-08 -1.909441e-08 -1.867328e-08 -1.903412e-08 -1.825127e-08
-1.869268e-08 -1.877793e-08 -1.939317e-08 -1.851601e-08 -1.894627e-08 -1.787470e-08 -1.937966e-08 -1.727343e-08 -1.939978e-08 -1.820981e-08
-1.759303e-08 -1.878779e-08 -1.922256e-08 -1.991344e-08 -1.935238e-08 -1.782244e-08 -1.843322e-08 -1.869765e-08 -1.884779e-08 -1.827924e-08
-1.883899e-08 -1.916956e-08 -1.874955e-08 -1.960680e-08 -1.934115e-08 -1.867430e-08 -1.944534e-08 -1.962977e-08 -1.906333e-08 -1.978502e-08
-1.946233e-08 -1.771934e-08 -1.947559e-08 -2.011751e-08 -1.805475e-08 -1.782912e-08 -1.866980e-08 -1.923509e-08 -1.979354e-08 -2.001100e-08
-2.006214e-08 -2.048263e-08 -1.952770e-08 -1.927025e-08 -2.008576e-08 -1.942692e-08 -1.986193e-08 -1.934306e-08 -1.943779e-08 -1.948452e-08
-1.935133e-08 -2.006977e-08 -2.174831e-08 -1.998299e-08 -2.075446e-08 -1.944757e-08 -2.008052e-08 -2.101257e-08 -1.995302e-08 -2.020542e-08
-1.994730e-08 -2.061837e-08 -2.016648e-08 -1.923720e-08 -2.014300e-08 -2.035524e-08 -1.920835e-08 -1.878952e-08 -2.103135e-08 -2.051680e-08
-1.958386e-08 -2.040624e-08 -2.069909e-08 -1.997319e-08 -2.048683e-08 -1.896069e-08 -1.878829e-08 -2.015832e-08 -1.951395e-08 -2.087859e-08
-2.100281e-08 -1.986472e-08 -2.017231e-08 -1.822096e-08 -1.993972e-08 -2.023094e-08 -1.960878e-08 -1.829139e-08 -1.920800e-08 -2.034339e-08
-2.014474e-08 -2.082425e-08 -1.782290e-08 -1.840988e-08 -1.810873e-08 -1.862463e-08 -1.973832e-08 -1.861534e-08 -1.959528e-08 -1.860508e-08
-1.829932e-08
-1.885948e-08 -1.939766e-08 -1.909251e-08 -1.923611e-08 -1.833499e-08 -2.009265e-08 -1.839412e-08 -1.916612e-08 -1.871105e-08 -1.861677e-08
-2.118788e-08 -1.883113e-08 -1.959300e-08 -1.918787e-08 -1.905037e-08 -1.934164e-08 -1.974949e-08 -1.838769e-08 -1.858678e-08 -1.777554e-08
-1.890175e-08 -1.984288e-08 -2.033208e-08 -1.939383e-08 -1.875446e-08 -2.007722e-08 -2.075718e-08 -1.936347e-08 -1.867022e-08 -1.840925e-08
-1.913923e-08 -1.893331e-08 -1.930344e-08 -1.864723e-08 -1.925252e-08 -1.975348e-08 -1.962122e-08 -2.048227e-08 -1.889556e-08 -1.974758e-08
-2.012528e-08 -1.935769e-08 -1.984263e-08 -1.947734e-08 -2.017424e-08 -1.892199e-08 -1.967115e-08 -1.991950e-08 -1.936440e-08 -1.942308e-08
-2.033520e-08 -1.971823e-08 -1.912312e-08 -1.852590e-08 -2.030268e-08 -1.798892e-08 -2.055983e-08 -1.842915e-08 -1.960103e-08 -2.012547e-08
-1.975409e-08 -1.962470e-08 -1.899089e-08 -1.796088e-08 -2.034819e-08 -1.959950e-08 -1.995273e-08 -1.908569e-08 -1.857509e-08 -1.820205e-08
-1.893084e-08 -1.803228e-08 -1.925173e-08 -1.868552e-08 -1.903101e-08 -1.797724e-08 -1.906093e-08 -1.853928e-08 -1.818293e-08 -1.885116e-08
-1.833942e-08 -1.837676e-08 -1.858267e-08 -1.809180e-08 -1.884676e-08 -1.960958e-08 -1.937732e-08 -1.868165e-08 -1.790382e-08 -1.907346e-08
-1.803698e-08 -1.995960e-08 -1.915292e-08 -1.917196e-08 -1.857299e-08 -1.960595e-08 -1.939034e-08 -1.822598e-08 -1.851300e-08 -1.718713e-08
-1.893219e-08 -2.076501e-08 -1.896224e-08 -1.926170e-08 -1.829969e-08 -1.787734e-08 -1.839155e-08 -1.913390e-08 -1.958002e-08 -1.833631e-08
-1.826643e-08 -1.713995e-08 -1.889652e-08 -1.793980e-08 -1.841301e-08 -1.869348e-08 -1.924563e-08 -1.916666e-08 -1.897932e-08 -1.916804e-08
-1.893540e-08 -1.911271e-08 -1.973143e-08 -1.991149e-08 -1.937614e-08 -1.960318e-08 -1.938552e-08 -2.069380e-08 -1.906503e-08 -1.977251e-08
-2.040709e-08 -1.947524e-08 -2.044900e-08 -1.895418e-08 -1.945218e-08 -1.993975e-08 -2.022066e-08 -2.008142e-08 -1.908359e-08 -1.984249e-08
-2.052724e-08 -1.949932e-08 -2.021618e-08 -1.945308e-08 -2.078002e-08 -2.069093e-08 -1.890268e-08 -1.981288e-08 -1.912461e-08 -1.823784e-08
-2.018047e-08 -1.919133e-08 -1.989213e-08 -1.961456e-08 -1.903615e-08 -1.888763e-08 -1.970509e-08 -1.979611e-08 -1.954695e-08 -1.944002e-08
-2.081714e-08 -1.971438e-08 -1.970229e-08 -1.869796e-08 -1.842619e-08 -1.878391e-08 -1.805608e-08 -1.980525e-08 -1.966281e-08 -1.938319e-08
-1.916030e-08 -1.867129e-08 -1.962353e-08 -1.884563e-08 -1.827616e-08 -1.931438e-08 -1.968977e-08 -1.807004e-08 -1.862823e-08 -1.924451e-08
-1.782399e-08 -1.993814e-08 -1.721396e-08 -1.822828e-08 -1.924504e-08 -1.880332e-08 -1.975157e-08 -1.849276e-08 -1.971346e-08 -1.802917e-08
-1.960023e-08 -1.974929e-08 -1.897066e-08 -1.950244e-08 -1.873399e-08 -1.891623e-08 -1.911282e-08 -2.024270e-08 -1.931248e-08 -1.854366e-08
-1.837893e-08 -1.907678e-08 -2.076523e-08 -2.010142e-08 -1.997813e-08 -2.008237e-08 -2.077262e-08 -1.966473e-08 -2.140783e-08 -1.862448e-08
-1.987392e-08 -1.943045e-08 -1.926117e-08 -1.888366e-08 -1.986997e-08 -2.047311e-08 -2.132283e-08 -2.035546e-08 -1.915225e-08 -1.844717e-08
-2.069353e-08 -2.000139e-08 -1.933130e-08 -1.987557e-08 -1.820396e-08 -1.857370e-08 -1.895667e-08 -1.872021e-08 -2.018327e-08 -1.851092e-08
-2.027008e-08 -2.080189e-08 -2.000139e-08 -1.969315e-08 -1.902066e-08 -1.888433e-08 -1.917232e-08 -2.117900e-08 -1.970461e-08 -1.970911e-08
-1.916697e-08 -1.916704e-08 -1.900109e-08 -1.749926e-08 -1.963637e-08 -1.716027e-08 -1.763890e-08 -1.828506e-08 -1.934237e-08 -1.864253e-08
-1.850951e-08 -1.940371e-08 -1.927874e-08 -1.828553e-08 -2.019507e-08 -1.835072e-08 -1.864238e-08 -1.849243e-08 -1.961425e-08 -1.888109e-08
-1.854572e-08 -1.851948e-08 -1.986288e-08 -1.796441e-08 -1.859333e-08 -1.867695e-08 -1.839646e-08 -1.778199e-08 -1.772306e-08 -1.957623e-08
-1.937543e-08 -1.775002e-08 -1.881149e-08 -1.980403e-08 -1.893220e-08 -1.803682e-08 -1.744226e-08 -1.809479e-08 -1.696904e-08 -1.870821e-08
-1.826903e-08 -1.845081e-08 -1.794418e-08 -1.871861e-08 -1.884897e-08 -1.813068e-08 -1.939039e-08 -1.841227e-08 -1.889465e-08 -1.967592e-08
-1.779156e-08 -1.858257e-08 -1.964135e-08 -1.804622e-08 -1.898200e-08 -1.808249e-08 -1.931509e-08 -1.927476e-08 -1.997897e-08 -1.875116e-08
-1.900004e-08 -1.916357e-08 -1.952135e-08 -1.976498e-08 -2.031808e-08 -1.861748e-08 -1.849533e-08 -1.848327e-08 -1.998688e-08 -1.934870e-08
-1.838909e-08 -1.921807e-08 -1.914031e-08 -1.972862e-08 -2.041823e-08 -2.038338e-08 -1.962770e-08 -2.000139e-08 -1.968589e-08 -1.877186e-08
-2.058368e-08 -2.083600e-08 -1.987313e-08 -1.875643e-08 -1.943829e-08 -1.871077e-08 -2.085283e-08 -1.968240e-08 -1.922619e-08 -1.998517e-08
-1.917704e-08 -1.953400e-08 -1.906730e-08 -2.027235e-08 -1.946501e-08 -2.020965e-08 -1.906715e-08 -1.943021e-08 -1.969506e-08 -2.105948e-08
-1.858399e-08 -1.911714e-08 -1.995904e-08 -1.849177e-08 -2.061128e-08 -2.026075e-08 -1.999295e-08 -1.909691e-08 -1.836869e-08 -1.880060e-08
-1.854529e-08 -1.996219e-08 -1.946416e-08 -1.794560e-08 -1.818792e-08 -1.907753e-08 -1.889156e-08 -1.950365e-08 -2.050020e-08 -1.862044e-08
-1.885948e-08
-1.745643e-08 -1.778169e-08 -1.926031e-08 -1.833484e-08 -1.840004e-08 -1.785847e-08 -1.944987e-08 -1.972655e-08 -1.871265e-08 -1.883636e-08
-1.844404e-08 -1.881153e-08 -2.004980e-08 -2.116717e-08 -1.801490e-08 -1.842642e-08 -2.086778e-08 -1.969931e-08 -1.949422e-08 -1.971937e-08
-1.953916e-08 -1.880047e-08 -1.813446e-08 -1.971301e-08 -1.961053e-08 -1.941003e-08 -1.987678e-08 -1.975669e-08 -2.119724e-08 -1.838247e-08
-1.900285e-08 -1.960680e-08 -1.955719e-08 -1.823782e-08 -1.923170e-08 -1.957732e-08 -1.890239e-08 -1.921904e-08 -1.972031e-08 -1.919562e-08
-1.928565e-08 -1.948594e-08 -1.909366e-08 -1.889419e-08 -1.856324e-08 -1.949159e-08 -1.950167e-08 -1.997929e-08 -2.022062e-08 -1.935115e-08
-1.888532e-08 -2.008573e-08 -1.932181e-08 -1.917551e-08 -1.848419e-08 -1.903588e-08 -1.867484e-08 -2.055430e-08 -1.891816e-08 -1.877128e-08
-1.863648e-08 -1.947937e-08 -1.781812e-08 -1.906426e-08 -2.028364e-08 -1.920058e-08 -1.880754e-08 -1.876718e-08 -1.776818e-08 -1.814869e-08
-1.775524e-08 -1.752358e-08 -1.863415e-08 -1.805153e-08 -1.845511e-08 -1.909298e-08 -1.933041e-08 -1.791822e-08 -1.949130e-08 -1.986680e-08
-1.812467e-08 -1.845909e-08 -1.806311e-08 -1.859091e-08 -1.791676e-08 -1.801944e-08 -1.775110e-08 -1.836087e-08 -1.730352e-08 -1.775871e-08
-1.919828e-08 -1.813420e-08 -1.870235e-08 -1.774619e-08 -1.779980e-08 -1.821820e-08 -1.848867e-08 -1.882051e-08 -1.756069e-08 -1.814531e-08
-1.854371e-08 -1.806807e-08 -1.765776e-08 -1.868177e-08 -1.916422e-08 -1.845973e-08 -1.919998e-08 -1.810528e-08 -1.904846e-08 -1.777740e-08
-1.873751e-08 -1.904072e-08 -1.935867e-08 -1.952628e-08 -1.956460e-08 -1.758847e-08 -1.899635e-08 -1.902770e-08 -1.921233e-08 -1.922822e-08
-1.938186e-08 -1.931355e-08 -2.062987e-08 -2.070055e-08 -1.995561e-08 -1.902079e-08 -1.908263e-08 -1.910736e-08 -1.900770e-08 -1.853593e-08
-1.956371e-08 -1.868075e-08 -1.944106e-08 -1.952269e-08 -2.027594e-08 -2.007424e-08 -1.997606e-08 -1.922203e-08 -2.031549e-08 -1.871147e-08
-1.905571e-08 -1.891096e-08 -2.020057e-08 -1.963996e-08 -1.888352e-08 -1.957162e-08 -1.877518e-08 -1.963846e-08 -1.929843e-08 -1.993677e-08
-1.944896e-08 -1.800766e-08 -1.982351e-08 -1.894603e-08 -2.012326e-08 -1.956488e-08 -1.836577e-08 -1.911111e-08 -1.965007e-08 -1.858430e-08
-1.902165e-08 -1.907356e-08 -1.841683e-08 -1.984774e-08 -1.954339e-08 -1.972607e-08 -1.933975e-08 -2.093880e-08 -1.954374e-08 -1.852993e-08
-1.791245e-08 -1.868237e-08 -1.941160e-08 -1.899049e-08 -1.856426e-08 -1.729210e-08 -1.854863e-08 -1.923530e-08 -1.854254e-08 -1.893136e-08
-1.865867e-08 -1.855160e-08 -1.756493e-08 -1.751382e-08 -1.847552e-08 -1.759822e-08 -1.882327e-08 -1.898229e-08 -1.942395e-08 -1.973304e-08
-1.864188e-08 -1.730121e-08 -1.901427e-08 -1.945949e-08 -1.824457e-08 -1.909162e-08 -1.874413e-08 -1.937637e-08 -2.007032e-08 -1.936268e-08
-1.894715e-08 -1.928878e-08 -1.874222e-08 -1.960250e-08 -1.902290e-08 -2.096395e-08 -1.930082e-08 -1.984650e-08 -2.041404e-08 -1.826356e-08
-2.018372e-08 -1.871209e-08 -1.931545e-08 -1.971969e-08 -1.975403e-08 -1.960232e-08 -1.834239e-08 -1.816731e-08 -1.851419e-08 -1.792230e-08
-1.792410e-08 -1.893563e-08 -1.964217e-08 -2.015920e-08 -1.979334e-08 -1.960273e-08 -1.858740e-08 -1.860732e-08 -1.986988e-08 -1.924105e-08
-1.887688e-08 -1.854146e-08 -1.851229e-08 -2.042723e-08 -1.915659e-08 -1.984181e-08 -1.864365e-08 -1.917364e-08 -1.921014e-08 -1.853183e-08
-1.877515e-08 -1.808783e-08 -1.924447e-08 -1.791558e-08 -1.854467e-08 -1.949554e-08 -1.844870e-08 -1.837437e-08 -1.815858e-08 -1.886529e-08
-1.904579e-08 -1.909027e-08 -1.784370e-08 -1.820332e-08 -1.741163e-08 -1.936388e-08 -1.900389e-08 -1.788439e-08 -1.778634e-08 -1.776543e-08
-1.884541e-08 -1.685206e-08 -1.789060e-08 -1.738453e-08 -1.831055e-08 -1.832898e-08 -1.709144e-08 -1.903422e-08 -1.858905e-08 -1.816933e-08
-1.835777e-08 -1.890690e-08 -1.792548e-08 -1.799497e-08 -1.850035e-08 -1.687963e-08 -1.785206e-08 -1.792025e-08 -1.888891e-08 -1.797324e-08
-1.922014e-08 -1.922869e-08 -1.934275e-08 -1.820123e-08 -1.778555e-08 -1.720603e-08 -1.927615e-08 -1.807759e-08 -1.935712e-08 -1.960990e-08
-1.769267e-08 -1.809098e-08 -1.875537e-08 -1.770955e-08 -1.886798e-08 -1.982820e-08 -1.925471e-08 -2.024992e-08 -1.922913e-08 -1.944042e-08
-1.884278e-08 -1.912379e-08 -1.981199e-08 -1.974770e-08 -1.958581e-08 -1.947470e-08 -1.971264e-08 -1.997710e-08 -2.003685e-08 -1.978556e-08
-1.950725e-08 -1.906256e-08 -1.998959e-08 -1.942566e-08 -1.904209e-08 -2.000407e-08 -1.973868e-08 -2.072724e-08 -1.954630e-08 -1.967899e-08
-2.010245e-08 -2.004130e-08 -1.952702e-08 -1.937746e-08 -1.963885e-08 -2.071109e-08 -1.917390e-08 -1.954363e-08 -2.047577e-08 -2.226848e-08
-1.957884e-08 -1.946499e-08 -1.944952e-08 -1.943884e-08 -1.865794e-08 -1.868023e-08 -1.832823e-08 -2.109351e-08 -1.937648e-08 -1.864520e-08
-1.817907e-08 -1.876846e-08 -1.844349e-08 -1.773927e-08 -1.820652e-08 -1.834732e-08 -1.852347e-08 -1.849636e-08 -1.733280e-08 -1.922223e-08
-1.968726e-08 -1.858768e-08 -1.822447e-08 -1.919633e-08 -1.807407e-08 -1.937755e-08 -1.795219e-08 -1.882879e-08 -1.811417e-08 -1.902236e-08
-1.745643e-08
-1.861949e-08 -1.868191e-08 -1.800400e-08 -1.765626e-08 -1.838412e-08 -1.822952e-08 -1.913216e-08 -1.941256e-08 -1.808452e-08 -1.863307e-08
-1.880504e-08 -1.744951e-08 -1.794300e-08 -1.791710e-08 -1.883812e-08 -1.919283e-08 -1.870236e-08 -1.880379e-08 -1.883293e-08 -1.873334e-08
-1.862747e-08 -1.922455e-08 -1.924977e-08 -2.014665e-08 -1.823053e-08 -1.979336e-08 -1.859032e-08 -1.971574e-08 -2.016890e-08 -1.946740e-08
-1.818409e-08 -1.943947e-08 -1.875031e-08 -1.889750e-08 -2.086925e-08 -1.856966e-08 -1.943303e-08 -1.888858e-08 -1.907702e-08 -1.981133e-08
-1.893037e-08 -1.835428e-08 -1.911953e-08 -1.855046e-08 -1.939491e-08 -2.005721e-08 -2.005485e-08 -1.921452e-08 -1.917036e-08 -1.916963e-08
-1.906433e-08 -1.931428e-08 -1.927664e-08 -2.003197e-08 -1.915451e-08 -1.917566e-08 -1.902662e-08 -1.865775e-08 -1.917063e-08 -1.964933e-08
-1.859934e-08 -1.852104e-08 -1.896677e-08 -1.881621e-08 -1.840301e-08 -1.822976e-08 -1.876102e-08 -1.796630e-08 -1.826394e-08 -1.846580e-08
-1.835255e-08 -1.899989e-08 -1.769249e-08 -1.881265e-08 -1.846012e-08 -1.825090e-08 -1.826336e-08 -1.755128e-08 -1.788522e-08 -1.900261e-08
-1.838145e-08 -1.856473e-08 -1.672874e-08 -1.817113e-08 -1.805708e-08 -1.757770e-08 -1.749830e-08 -1.788763e-08 -1.792939e-08 -1.713216e-08
-1.762378e-08 -1.786777e-08 -1.858797e-08 -1.806031e-08 -1.844255e-08 -1.907930e-08 -1.774253e-08 -1.773368e-08 -1.765138e-08 -1.742859e-08
-1.734219e-08 -1.850935e-08 -1.785692e-08 -1.864988e-08 -1.848746e-08 -1.833476e-08 -1.830519e-08 -1.846316e-08 -1.843121e-08 -1.886939e-08
-1.872274e-08 -1.880337e-08 -1.841745e-08 -1.784349e-08 -1.936747e-08 -1.898968e-08 -1.846132e-08 -1.875885e-08 -1.861659e-08 -1.857022e-08
-1.847642e-08 -1.785712e-08 -1.931487e-08 -2.010047e-08 -1.833324e-08 -2.002025e-08 -1.981866e-08 -2.014003e-08 -1.974279e-08 -1.878869e-08
-1.972806e-08 -2.010502e-08 -1.860940e-08 -1.819244e-08 -2.003731e-08 -1.956387e-08 -2.040604e-08 -1.983901e-08 -1.894149e-08 -1.970003e-08
-1.929885e-08 -1.983172e-08 -1.945835e-08 -1.905063e-08 -1.959755e-08 -2.087145e-08 -2.030414e-08 -1.839580e-08 -1.938035e-08 -1.945203e-08
-1.890101e-08 -1.908108e-08 -2.009217e-08 -1.970930e-08 -1.937599e-08 -1.966497e-08 -1.883918e-08 -2.001942e-08 -1.933878e-08 -1.846702e-08
-1.952952e-08 -1.913681e-08 -2.018805e-08 -1.918842e-08 -1.880459e-08 -1.793457e-08 -1.805598e-08 -1.850792e-08 -1.870406e-08 -1.940735e-08
-1.728547e-08 -1.742386e-08 -1.896783e-08 -2.037948e-08 -1.851566e-08 -1.985892e-08 -1.836352e-08 -1.840604e-08 -2.048214e-08 -1.899180e-08
-1.689679e-08 -1.764030e-08 -1.854061e-08 -1.835023e-08 -1.927594e-08 -1.844758e-08 -1.804644e-08 -1.854319e-08 -1.951422e-08 -1.815625e-08
-1.777200e-08 -1.943824e-08 -1.856665e-08 -1.932560e-08 -1.945853e-08 -1.985078e-08 -1.768541e-08 -1.857895e-08 -1.803714e-08 -1.896250e-08
-1.966807e-08 -1.791239e-08 -1.770261e-08 -1.963977e-08 -1.942031e-08 -1.965542e-08 -1.877036e-08 -1.948121e-08 -1.905944e-08 -1.842183e-08
-1.967759e-08 -1.905767e-08 -1.789861e-08 -1.820335e-08 -1.882667e-08 -1.941010e-08 -1.942669e-08 -1.814208e-08 -1.981094e-08 -1.848322e-08
-1.991629e-08 -1.868208e-08 -1.953035e-08 -1.820217e-08 -1.870721e-08 -1.868885e-08 -1.811168e-08 -1.973230e-08 -1.925464e-08 -1.772820e-08
-1.929770e-08 -1.860975e-08 -1.878775e-08 -1.785170e-08 -1.878558e-08 -1.960886e-08 -1.813820e-08 -1.874327e-08 -1.802136e-08 -1.872495e-08
-1.946300e-08 -1.878090e-08 -1.848984e-08 -1.906292e-08 -1.875958e-08 -1.805203e-08 -1.774954e-08 -1.815254e-08 -1.877817e-08 -1.813594e-08
-1.835005e-08 -1.909432e-08 -1.725972e-08 -1.725068e-08 -1.744370e-08 -1.722946e-08 -1.812388e-08 -1.812792e-08 -1.767200e-08 -1.895879e-08
-1.802251e-08 -1.782844e-08 -1.758008e-08 -1.837137e-08 -1.858403e-08 -1.774595e-08 -1.838576e-08 -1.749854e-08 -1.863562e-08 -1.791687e-08
-1.720853e-08 -1.877389e-08 -1.693055e-08 -1.914786e-08 -1.940661e-08 -1.843188e-08 -1.841388e-08 -1.745759e-08 -1.910095e-08 -1.676531e-08
-1.947869e-08 -1.825425e-08 -1.752544e-08 -1.705295e-08 -1.887688e-08 -1.726018e-08 -1.870735e-08 -1.832454e-08 -1.728259e-08 -1.815303e-08
-2.011526e-08 -1.902216e-08 -1.903698e-08 -1.824317e-08 -1.786013e-08 -1.984841e-08 -1.945732e-08 -1.907021e-08 -1.890941e-08 -1.830040e-08
-1.897566e-08 -1.977236e-08 -1.843445e-08 -1.837636e-08 -1.888093e-08 -2.004126e-08 -1.955617e-08 -1.902383e-08 -2.048237e-08 -2.019205e-08
-1.966353e-08 -1.863367e-08 -1.879317e-08 -1.935440e-08 -1.993762e-08 -1.956078e-08 -1.979821e-08 -2.030339e-08 -2.002028e-08 -1.883167e-08
-1.951353e-08 -1.882664e-08 -1.950801e-08 -1.877277e-08 -1.969791e-08 -1.930342e-08 -2.098208e-08 -2.039958e-08 -2.001578e-08 -2.015315e-08
-2.002548e-08 -2.014877e-08 -1.939485e-08 -1.960207e-08 -1.854583e-08 -1.909933e-08 -1.926297e-08 -1.798682e-08 -1.830509e-08 -1.951673e-08
-1.871992e-08 -1.891963e-08 -1.886468e-08 -1.786110e-08 -1.945476e-08 -1.820955e-08 -1.846487e-08 -1.945480e-08 -1.899985e-08 -1.910409e-08
-1.780827e-08 -2.091497e-08 -1.947617e-08 -1.963075e-08 -1.944263e-08 -1.877481e-08 -1.796752e-08 -1.852418e-08 -1.777548e-08 -1.871963e-08
-1.861949e-08
-1.715344e-08 -1.840789e-08 -1.785223e-08 -1.803850e-08 -1.819425e-08 -1.799470e-08 -1.828172e-08 -1.876274e-08 -1.940796e-08 -1.810259e-08
-1.961510e-08 -1.867638e-08 -1.810896e-08 -1.812044e-08 -1.793232e-08 -1.781591e-08 -1.857934e-08 -1.778747e-08 -1.863791e-08 -1.933050e-08
-1.810131e-08 -1.944301e-08 -1.900703e-08 -1.784930e-08 -1.879267e-08 -1.903373e-08 -1.852779e-08 -1.834026e-08 -1.979904e-08 -1.964264e-08
-1.803754e-08 -1.899343e-08 -1.884977e-08 -1.981347e-08 -1.951547e-08 -1.901807e-08 -1.925653e-08 -1.947691e-08 -1.970268e-08 -1.991105e-08
-1.834193e-08 -1.945147e-08 -1.834985e-08 -1.921209e-08 -1.778152e-08 -1.974879e-08 -1.870867e-08 -1.942509e-08 -1.876229e-08 -1.845815e-08
-1.876855e-08 -1.948911e-08 -1.945187e-08 -1.838305e-08 -1.918102e-08 -1.895811e-08 -1.862463e-08 -1.945027e-08 -1.943151e-08 -1.825738e-08
-1.805114e-08 -1.769536e-08 -1.830788e-08 -1.843914e-08 -1.771629e-08 -1.865698e-08 -1.841974e-08 -1.915421e-08 -1.829978e-08 -1.782775e-08
-1.798526e-08 -1.804193e-08 -1.754881e-08 -1.853531e-08 -1.764849e-08 -1.674793e-08 -1.756670e-08 -1.793947e-08 -1.809850e-08 -1.906181e-08
-1.782664e-08 -1.727932e-08 -1.789442e-08 -1.746840e-08 -1.817506e-08 -1.704213e-08 -1.884330e-08 -1.744223e-08 -1.830647e-08 -1.678657e-08
-1.748929e-08 -1.828822e-08 -1.779426e-08 -1.748825e-08 -1.781227e-08 -1.879346e-08 -1.676625e-08 -1.707830e-08 -1.711669e-08 -1.878511e-08
-1.795877e-08 -1.843630e-08 -1.858182e-08 -1.773545e-08 -1.795337e-08 -1.765022e-08 -1.828784e-08 -1.833965e-08 -1.979886e-08 -1.796453e-08
-1.808943e-08 -1.764637e-08 -1.840928e-08 -1.798804e-08 -1.841117e-08 -1.800697e-08 -1.845148e-08 -1.908106e-08 -1.873638e-08 -1.872131e-08
-1.854688e-08 -1.861998e-08 -1.897416e-08 -1.913803e-08 -1.830957e-08 -1.821049e-08 -1.963851e-08 -1.950056e-08 -1.826315e-08 -1.882290e-08
-1.855023e-08 -1.978634e-08 -1.985096e-08 -1.922424e-08 -1.873257e-08 -2.078327e-08 -2.033367e-08 -1.954815e-08 -1.910992e-08 -1.882033e-08
-1.897434e-08 -1.979322e-08 -1.982988e-08 -1.918619e-08 -1.990097e-08 -1.846867e-08 -2.009887e-08 -2.012526e-08 -1.925448e-08 -1.849091e-08
-1.914412e-08 -1.916840e-08 -1.743700e-08 -1.877677e-08 -1.834776e-08 -1.815577e-08 -1.983354e-08 -1.935702e-08 -1.921158e-08 -1.923715e-08
-1.855466e-08 -1.836352e-08 -1.921901e-08 -1.761118e-08 -1.878014e-08 -1.973992e-08 -1.759382e-08 -1.760562e-08 -1.830434e-08 -1.839392e-08
-1.811186e-08 -1.810690e-08 -1.897084e-08 -1.746605e-08 -1.843240e-08 -1.769325e-08 -1.898388e-08 -1.827718e-08 -1.877674e-08 -1.814483e-08
-1.715975e-08 -1.964066e-08 -1.787051e-08 -1.907748e-08 -1.818146e-08 -1.765438e-08 -1.828063e-08 -1.864251e-08 -1.858451e-08 -1.851373e-08
-1.830426e-08 -1.794070e-08 -1.814112e-08 -1.789962e-08 -1.927034e-08 -1.878787e-08 -1.791233e-08 -1.822053e-08 -1.951288e-08 -1.913292e-08
-1.908709e-08 -1.854757e-08 -1.938909e-08 -1.923889e-08 -1.918622e-08 -1.850838e-08 -1.954608e-08 -1.828065e-08 -1.863011e-08 -1.941141e-08
-1.825154e-08 -2.007380e-08 -1.866731e-08 -2.021999e-08 -1.941832e-08 -1.882072e-08 -1.785937e-08 -1.844602e-08 -1.840052e-08 -1.855616e-08
-1.879116e-08 -1.916361e-08 -1.879169e-08 -1.759243e-08 -1.863285e-08 -1.862026e-08 -1.833940e-08 -1.892907e-08 -1.957683e-08 -1.957959e-08
-1.916903e-08 -1.873344e-08 -1.887179e-08 -1.946206e-08 -1.940722e-08 -1.913757e-08 -1.851384e-08 -1.812575e-08 -1.911273e-08 -1.858970e-08
-1.901699e-08 -1.863725e-08 -1.772739e-08 -1.877991e-08 -1.848397e-08 -1.910110e-08 -1.844708e-08 -1.795230e-08 -1.750975e-08 -1.756529e-08
-1.734168e-08 -1.769159e-08 -1.812335e-08 -1.847416e-08 -1.737758e-08 -1.716406e-08 -1.739232e-08 -1.909034e-08 -1.766469e-08 -1.669186e-08
-1.828936e-08 -1.900499e-08 -1.831252e-08 -1.712333e-08 -1.911165e-08 -1.696996e-08 -1.819038e-08 -1.717801e-08 -1.726932e-08 -1.679041e-08
-1.713138e-08 -1.720593e-08 -1.766990e-08 -1.649390e-08 -1.740688e-08 -1.776395e-08 -1.841175e-08 -1.727407e-08 -1.923348e-08 -1.731709e-08
-1.804912e-08 -1.767305e-08 -1.746972e-08 -1.940798e-08 -1.739555e-08 -1.711843e-08 -1.809991e-08 -1.834852e-08 -1.857044e-08 -1.790627e-08
-1.776929e-08 -1.804407e-08 -1.745594e-08 -1.902041e-08 -1.877725e-08 -1.848551e-08 -1.898383e-08 -1.844727e-08 -1.880713e-08 -1.808336e-08
-2.074632e-08 -1.957278e-08 -1.938949e-08 -1.880602e-08 -1.976382e-08 -1.894418e-08 -1.979004e-08 -1.898972e-08 -2.037997e-08 -1.955730e-08
-1.936572e-08 -1.945123e-08 -1.849491e-08 -1.949481e-08 -1.907088e-08 -1.943964e-08 -1.992783e-08 -1.989944e-08 -1.944581e-08 -1.870603e-08
-1.827471e-08 -1.959472e-08 -1.762771e-08 -1.893780e-08 -2.084612e-08 -1.994135e-08 -1.966904e-08 -1.853074e-08 -1.889355e-08 -2.026342e-08
-1.944296e-08 -1.890837e-08 -1.894354e-08 -2.026841e-08 -1.859499e-08 -1.951552e-08 -1.860196e-08 -1.926700e-08 -1.945182e-08 -1.743520e-08
-1.914898e-08 -1.869749e-08 -1.794109e-08 -1.713424e-08 -1.979801e-08 -1.905234e-08 -1.755200e-08 -1.887123e-08 -1.874512e-08 -1.780840e-08
-1.915492e-08 -1.974764e-08 -1.871533e-08 -1.934177e-08 -1.967151e-08 -1.938157e-08 -1.748723e-08 -1.787466e-08 -1.835037e-08 -1.839028e-08
-1.715344e-08
-1.727644e-08 -1.989712e-08 -1.761080e-08 -1.777947e-08 -1.928534e-08 -1.786009e-08 -1.772870e-08 -1.910532e-08 -1.892816e-08 -1.909289e-08
-1.847392e-08 -1.731155e-08 -1.760916e-08 -1.736029e-08 -1.705031e-08 -1.875871e-08 -1.843383e-08 -1.963931e-08 -1.910786e-08 -1.869443e-08
-1.885710e-08 -1.900363e-08 -1.781335e-08 -1.922604e-08 -1.818828e-08 -1.851678e-08 -1.923733e-08 -1.815747e-08 -1.909419e-08 -1.851968e-08
-1.797655e-08 -1.836184e-08 -1.897619e-08 -1.826400e-08 -1.838661e-08 -1.831173e-08 -1.862522e-08 -1.808440e-08 -1.863335e-08 -1.868850e-08
-1.807201e-08 -1.954908e-08 -1.873077e-08 -1.941907e-08 -1.885913e-08 -1.989200e-08 -1.981538e-08 -1.876330e-08 -1.840709e-08 -1.958067e-08
-1.940269e-08 -1.813051e-08 -1.791919e-08 -1.986248e-08 -1.926442e-08 -1.923338e-08 -1.921249e-08 -1.849694e-08 -1.843116e-08 -1.889858e-08
-1.839332e-08 -1.912100e-08 -1.914505e-08 -1.809035e-08 -1.727770e-08 -1.816070e-08 -1.829740e-08 -1.804750e-08 -1.934748e-08 -1.777644e-08
-1.746983e-08 -1.814041e-08 -1.749882e-08 -1.964091e-08 -1.820591e-08 -1.774067e-08 -1.732137e-08 -1.792201e-08 -1.767459e-08 -1.757766e-08
-1.767881e-08 -1.827844e-08 -1.773226e-08 -1.763537e-08 -1.707892e-08 -1.842244e-08 -1.755642e-08 -1.875694e-08 -1.707692e-08 -1.661255e-08
-1.651590e-08 -1.762028e-08 -1.701008e-08 -1.834844e-08 -1.773980e-08 -1.744663e-08 -1.732735e-08 -1.743483e-08 -1.853329e-08 -1.701856e-08
-1.863638e-08 -1.674777e-08 -1.700423e-08 -1.799360e-08 -1.776552e-08 -1.758475e-08 -1.738748e-08 -1.795726e-08 -1.880038e-08 -1.728588e-08
-1.801193e-08 -1.796138e-08 -1.728866e-08 -2.015278e-08 -1.892109e-08 -1.839175e-08 -1.791238e-08 -1.790484e-08 -1.733435e-08 -1.782102e-08
-1.868134e-08 -1.919438e-08 -1.909163e-08 -1.883589e-08 -1.925041e-08 -1.906097e-08 -1.921973e-08 -1.896215e-08 -1.843871e-08 -1.965338e-08
-1.916021e-08 -1.953247e-08 -1.959619e-08 -2.002303e-08 -1.883211e-08 -1.858751e-08 -1.875969e-08 -1.879390e-08 -1.959621e-08 -2.016184e-08
-1.924537e-08 -1.901486e-08 -1.780557e-08 -1.925901e-08 -1.875770e-08 -1.828357e-08 -1.913002e-08 -1.953121e-08 -1.807150e-08 -1.983744e-08
-1.829701e-08 -2.008325e-08 -1.956561e-08 -1.872343e-08 -1.762548e-08 -1.952821e-08 -1.903206e-08 -1.884083e-08 -1.901284e-08 -1.786636e-08
-1.863724e-08 -2.027073e-08 -1.897494e-08 -1.919515e-08 -1.797305e-08 -1.840817e-08 -1.907592e-08 -1.784105e-08 -1.837207e-08 -1.952162e-08
-1.869061e-08 -1.866864e-08 -1.959563e-08 -1.698881e-08 -1.729433e-08 -1.799623e-08 -1.927790e-08 -1.823080e-08 -1.852781e-08 -1.951542e-08
-1.683022e-08 -1.736636e-08 -1.792115e-08 -1.813607e-08 -1.842966e-08 -1.825359e-08 -1.793918e-08 -1.851424e-08 -1.886468e-08 -1.741782e-08
-1.793065e-08 -1.753301e-08 -1.941875e-08 -1.987708e-08 -1.847790e-08 -1.781483e-08 -1.893740e-08 -1.830350e-08 -1.942456e-08 -1.804296e-08
-1.836001e-08 -1.901342e-08 -1.854528e-08 -1.920924e-08 -1.874979e-08 -1.752156e-08 -1.851679e-08 -1.847255e-08 -1.925979e-08 -1.931159e-08
-1.865772e-08 -1.892889e-08 -1.915120e-08 -2.000688e-08 -1.867314e-08 -1.884055e-08 -1.897719e-08 -1.939266e-08 -1.779681e-08 -1.863237e-08
-1.895839e-08 -1.868491e-08 -1.753485e-08 -1.744656e-08 -1.932957e-08 -1.855081e-08 -1.941247e-08 -1.814297e-08 -1.863961e-08 -1.915426e-08
-1.870889e-08 -1.887416e-08 -1.916935e-08 -1.916233e-08 -1.933113e-08 -1.874889e-08 -1.837548e-08 -2.038295e-08 -1.761197e-08 -1.860368e-08
-1.734526e-08 -1.852080e-08 -1.871917e-08 -1.865294e-08 -1.767268e-08 -1.829610e-08 -1.748046e-08 -1.737619e-08 -1.822974e-08 -1.892621e-08
-1.828646e-08 -1.952916e-08 -1.737647e-08 -1.710612e-08 -1.821952e-08 -1.697027e-08 -1.773989e-08 -1.846390e-08 -1.679225e-08 -1.844451e-08
-1.686459e-08 -1.782885e-08 -1.778600e-08 -1.728765e-08 -1.743556e-08 -1.718859e-08 -1.736774e-08 -1.722051e-08 -1.875628e-08 -1.684984e-08
-1.738021e-08 -1.681609e-08 -1.726060e-08 -1.657216e-08 -1.729247e-08 -1.739285e-08 -1.847924e-08 -1.734674e-08 -1.776690e-08 -1.673557e-08
-1.808770e-08 -1.722423e-08 -1.747303e-08 -1.821556e-08 -1.852462e-08 -1.788084e-08 -1.794123e-08 -1.764329e-08 -1.820245e-08 -1.724585e-08
-1.873744e-08 -1.802722e-08 -1.699589e-08 -1.870488e-08 -1.861839e-08 -1.844469e-08 -1.826999e-08 -1.721546e-08 -1.894792e-08 -1.867844e-08
-1.814098e-08 -1.896077e-08 -1.898208e-08 -1.842707e-08 -1.843989e-08 -1.845379e-08 -1.882213e-08 -1.973595e-08 -1.825910e-08 -1.831053e-08
-1.908507e-08 -1.799063e-08 -1.927312e-08 -1.958103e-08 -1.778662e-08 -2.130718e-08 -1.845797e-08 -1.781441e-08 -1.871687e-08 -1.908082e-08
-1.901831e-08 -1.903142e-08 -1.981289e-08 -1.799097e-08 -1.985460e-08 -1.909591e-08 -1.825980e-08 -1.793288e-08 -1.797123e-08 -1.883616e-08
-1.920963e-08 -1.873286e-08 -1.848560e-08 -1.849933e-08 -1.874158e-08 -1.881979e-08 -1.813149e-08 -1.759130e-08 -1.854158e-08 -1.831949e-08
-1.956148e-08 -1.846744e-08 -1.792097e-08 -1.934823e-08 -1.882652e-08 -1.856203e-08 -1.892018e-08 -1.787662e-08 -1.816006e-08 -1.858275e-08
-1.802106e-08 -1.863206e-08 -1.760804e-08 -1.760430e-08 -1.830957e-08 -1.709944e-08 -1.821157e-08 -1.724629e-08 -1.817641e-08 -1.825981e-08
-1.727644e-08
-1.783382e-08 -1.832100e-08 -1.684973e-08 -1.955731e-08 -1.764302e-08 -1.835428e-08 -1.843643e-08 -1.889797e-08 -1.710819e-08 -1.739929e-08
-1.790378e-08 -1.711896e-08 -1.668273e-08 -1.878167e-08 -1.762967e-08 -1.722015e-08 -1.743039e-08 -2.008019e-08 -1.809264e-08 -1.927894e-08
-1.984875e-08 -1.782573e-08 -1.930331e-08 -1.884644e-08 -1.813732e-08 -1.871723e-08 -1.928122e-08 -1.810934e-08 -1.794054e-08 -1.785263e-08
-1.864768e-08 -1.738808e-08 -1.946486e-08 -1.918693e-08 -1.831222e-08 -1.767452e-08 -1.776450e-08 -1.934689e-08 -1.714903e-08 -1.822495e-08
-1.796649e-08 -1.847411e-08 -1.870208e-08 -1.786330e-08 -1.960868e-08 -1.957933e-08 -1.957910e-08 -1.904970e-08 -1.948724e-08 -1.786990e-08
-1.887796e-08 -1.825944e-08 -1.840427e-08 -1.911129e-08 -1.764993e-08 -1.867185e-08 -1.889112e-08 -1.804566e-08 -1.745607e-08 -1.808766e-08
-1.777301e-08 -1.770608e-08 -1.901213e-08 -1.862760e-08 -1.748711e-08 -1.761195e-08 -1.829668e-08 -1.877273e-08 -1.788373e-08 -1.762817e-08
-1.861633e-08 -1.782876e-08 -1.755115e-08 -1.749647e-08 -1.804156e-08 -1.792635e-08 -1.877032e-08 -1.763201e-08 -1.845972e-08 -1.699317e-08
-1.656161e-08 -1.658811e-08 -1.693312e-08 -1.775327e-08 -1.756378e-08 -1.912957e-08 -1.682833e-08 -1.724195e-08 -1.806101e-08 -1.811059e-08
-1.738237e-08 -1.781499e-08 -1.683085e-08 -1.679102e-08 -1.618982e-08 -1.769771e-08 -1.798522e-08 -1.787900e-08 -1.634486e-08 -1.748479e-08
-1.772237e-08 -1.818516e-08 -1.768257e-08 -1.700248e-08 -1.703156e-08 -1.833399e-08 -1.715801e-08 -1.754499e-08 -1.826769e-08 -1.702325e-08
-1.728205e-08 -1.801302e-08 -1.996455e-08 -1.831482e-08 -1.899218e-08 -1.787380e-08 -1.912066e-08 -1.822201e-08 -1.764450e-08 -1.891955e-08
-1.984682e-08 -1.966711e-08 -1.953551e-08 -1.963643e-08 -1.949088e-08 -1.959745e-08 -1.913489e-08 -1.893906e-08 -1.870107e-08 -1.772877e-08
-1.836601e-08 -1.860167e-08 -1.920580e-08 -1.876391e-08 -1.961407e-08 -1.800357e-08 -1.834725e-08 -1.773031e-08 -2.028581e-08 -1.838222e-08
-1.812828e-08 -1.935429e-08 -1.881430e-08 -1.916682e-08 -1.834980e-08 -1.770797e-08 -2.016701e-08 -1.881002e-08 -1.773534e-08 -1.801074e-08
-1.901841e-08 -1.881400e-08 -1.814923e-08 -1.855709e-08 -1.849720e-08 -1.847286e-08 -1.785817e-08 -1.997175e-08 -1.795023e-08 -1.886113e-08
-1.916782e-08 -1.800505e-08 -1.842455e-08 -1.750845e-08 -1.819540e-08 -1.836901e-08 -1.856581e-08 -1.702693e-08 -1.866695e-08 -1.943413e-08
-1.737468e-08 -1.835464e-08 -1.749579e-08 -1.694706e-08 -1.861416e-08 -1.700305e-08 -1.769330e-08 -1.651244e-08 -1.818125e-08 -1.727787e-08
-1.638690e-08 -1.812789e-08 -1.732709e-08 -1.797798e-08 -1.804893e-08 -1.645730e-08 -1.860754e-08 -1.698597e-08 -1.843861e-08 -1.824101e-08
-1.853989e-08 -1.744796e-08 -1.790281e-08 -1.903463e-08 -1.817615e-08 -1.739385e-08 -1.925056e-08 -1.750881e-08 -1.751163e-08 -1.826557e-08
-1.935825e-08 -1.782964e-08 -1.874942e-08 -1.927691e-08 -1.808238e-08 -1.877490e-08 -1.821263e-08 -1.898728e-08 -1.869537e-08 -1.893304e-08
-1.928522e-08 -1.758892e-08 -1.854912e-08 -1.755903e-08 -1.944984e-08 -1.800205e-08 -1.866270e-08 -1.878294e-08 -1.917701e-08 -1.849324e-08
-1.798263e-08 -1.977301e-08 -1.824572e-08 -1.739912e-08 -1.835193e-08 -1.949146e-08 -1.894539e-08 -1.847493e-08 -1.820188e-08 -1.928267e-08
-1.901156e-08 -1.843754e-08 -1.853703e-08 -1.878922e-08 -1.848407e-08 -1.801727e-08 -1.828619e-08 -1.839524e-08 -1.970321e-08 -1.896865e-08
-1.846014e-08 -1.828796e-08 -1.790108e-08 -1.772483e-08 -1.847151e-08 -1.784560e-08 -1.720350e-08 -1.763336e-08 -1.802571e-08 -1.739501e-08
-1.750236e-08 -1.763885e-08 -1.777847e-08 -1.669904e-08 -1.760011e-08 -1.711141e-08 -1.876790e-08 -1.781125e-08 -1.751510e-08 -1.720315e-08
-1.836490e-08 -1.777008e-08 -1.672225e-08 -1.700273e-08 -1.669081e-08 -1.796274e-08 -1.681469e-08 -1.736414e-08 -1.739426e-08 -1.732102e-08
-1.625256e-08 -1.609385e-08 -1.686939e-08 -1.725920e-08 -1.804165e-08 -1.697540e-08 -1.673832e-08 -1.760480e-08 -1.776675e-08 -1.736304e-08
-1.681845e-08 -1.819033e-08 -1.735855e-08 -1.773157e-08 -1.841352e-08 -1.761663e-08 -1.887490e-08 -1.755298e-08 -1.736928e-08 -1.860088e-08
-1.779948e-08 -1.800333e-08 -1.868673e-08 -1.886913e-08 -1.827306e-08 -1.824307e-08 -1.779799e-08 -1.967529e-08 -1.825628e-08 -1.873550e-08
-1.898117e-08 -1.918581e-08 -1.798586e-08 -1.781365e-08 -1.883450e-08 -1.745806e-08 -1.833709e-08 -1.885896e-08 -1.871295e-08 -1.839613e-08
-1.920081e-08 -1.907862e-08 -1.895756e-08 -1.930432e-08 -1.845878e-08 -1.829946e-08 -1.804131e-08 -1.839024e-08 -1.892535e-08 -2.023294e-08
-1.928049e-08 -1.793482e-08 -2.022399e-08 -1.856938e-08 -1.850315e-08 -2.008365e-08 -1.857231e-08 -1.929221e-08 -1.724391e-08 -1.875109e-08
-1.951935e-08 -1.900750e-08 -1.752711e-08 -1.970739e-08 -1.857674e-08 -1.884583e-08 -1.741431e-08 -1.814959e-08 -1.917584e-08 -1.773901e-08
-1.858847e-08 -1.890634e-08 -1.810718e-08 -1.742353e-08 -1.746745e-08 -1.774269e-08 -1.812940e-08 -1.746502e-08 -1.717758e-08 -1.802852e-08
-1.717254e-08 -1.777707e-08 -1.810017e-08 -1.875840e-08 -1.720023e-08 -1.834956e-08 -1.879503e-08 -1.742673e-08 -1.752550e-08 -1.702275e-08
-1.783382e-08
-1.782944e-08 -1.788107e-08 -1.637933e-08 -1.727508e-08 -1.805483e-08 -1.640717e-08 -1.736512e-08 -1.776730e-08 -1.751517e-08 -1.758303e-08
-1.855041e-08 -1.800698e-08 -1.902434e-08 -1.861970e-08 -1.728363e-08 -1.854656e-08 -1.913949e-08 -1.726273e-08 -1.832824e-08 -1.787716e-08
-1.739370e-08 -1.757492e-08 -1.797561e-08 -1.831587e-08 -1.712233e-08 -1.745170e-08 -1.761650e-08 -1.869972e-08 -1.872340e-08 -1.868572e-08
-1.923576e-08 -1.833860e-08 -1.801744e-08 -1.812368e-08 -1.931619e-08 -1.757003e-08 -1.805353e-08 -1.765262e-08 -1.848599e-08 -1.849815e-08
-1.758465e-08 -2.025057e-08 -1.883008e-08 -1.885139e-08 -1.960701e-08 -1.768865e-08 -1.852912e-08 -1.840603e-08 -1.778643e-08 -1.849618e-08
-1.925513e-08 -1.847642e-08 -1.816970e-08 -1.873596e-08 -1.842313e-08 -1.937891e-08 -1.929269e-08 -1.779498e-08 -1.812368e-08 -1.887548e-08
-1.845872e-08 -1.841348e-08 -1.779877e-08 -1.763282e-08 -1.812000e-08 -1.839071e-08 -1.756868e-08 -1.747903e-08 -1.716108e-08 -1.600345e-08
-1.765451e-08 -1.789271e-08 -1.735494e-08 -1.708956e-08 -1.771270e-08 -1.699121e-08 -1.628830e-08 -1.871576e-08 -1.690223e-08 -1.757974e-08
-1.679377e-08 -1.758322e-08 -1.678070e-08 -1.636854e-08 -1.736766e-08 -1.568758e-08 -1.685225e-08 -1.787278e-08 -1.685012e-08 -1.630506e-08
-1.623065e-08 -1.788832e-08 -1.725906e-08 -1.717618e-08 -1.797959e-08 -1.591592e-08 -1.743680e-08 -1.652811e-08 -1.676551e-08 -1.722329e-08
-1.669453e-08 -1.701242e-08 -1.656009e-08 -1.656503e-08 -1.816581e-08 -1.786515e-08 -1.820374e-08 -1.779432e-08 -1.657513e-08 -1.666384e-08
-1.738169e-08 -1.747796e-08 -1.800433e-08 -1.841694e-08 -2.019076e-08 -1.760656e-08 -1.881592e-08 -1.855314e-08 -1.810547e-08 -1.823607e-08
-1.876633e-08 -1.877476e-08 -1.798001e-08 -1.765019e-08 -1.899884e-08 -1.807511e-08 -1.800069e-08 -1.832938e-08 -1.889087e-08 -1.838859e-08
-1.787303e-08 -1.895564e-08 -1.929363e-08 -1.943692e-08 -1.824586e-08 -1.832100e-08 -1.862381e-08 -1.798559e-08 -1.876352e-08 -1.739796e-08
-1.901651e-08 -1.857239e-08 -1.789932e-08 -1.780060e-08 -1.867415e-08 -1.885313e-08 -1.927996e-08 -1.876553e-08 -1.879382e-08 -2.038225e-08
-1.778288e-08 -1.908274e-08 -1.905394e-08 -1.943406e-08 -1.833002e-08 -1.923326e-08 -1.826457e-08 -1.832124e-08 -1.772851e-08 -1.772479e-08
-1.836637e-08 -1.795336e-08 -1.858671e-08 -1.752267e-08 -1.796436e-08 -1.847011e-08 -1.708220e-08 -1.807720e-08 -1.746125e-08 -1.746915e-08
-1.856285e-08 -1.733240e-08 -1.672741e-08 -1.740563e-08 -1.669781e-08 -1.808668e-08 -1.625990e-08 -1.632915e-08 -1.630167e-08 -1.707932e-08
-1.696483e-08 -1.752220e-08 -1.754550e-08 -1.830899e-08 -1.801585e-08 -1.879540e-08 -1.704733e-08 -1.819031e-08 -1.813265e-08 -1.804275e-08
-1.798129e-08 -1.697755e-08 -1.708543e-08 -1.744005e-08 -1.744339e-08 -1.923142e-08 -1.851824e-08 -1.652832e-08 -1.848662e-08 -1.987667e-08
-1.785395e-08 -1.832448e-08 -1.855927e-08 -1.933010e-08 -1.834774e-08 -1.837705e-08 -1.781106e-08 -1.850517e-08 -1.823333e-08 -1.862782e-08
-1.859350e-08 -1.777129e-08 -1.909438e-08 -1.796326e-08 -1.856931e-08 -1.926288e-08 -1.744753e-08 -1.909237e-08 -1.821787e-08 -1.746160e-08
-1.813186e-08 -1.782134e-08 -1.900265e-08 -1.857754e-08 -1.930741e-08 -1.816690e-08 -1.932806e-08 -1.814827e-08 -1.768091e-08 -1.901140e-08
-1.763867e-08 -1.797576e-08 -1.834104e-08 -1.918777e-08 -1.865469e-08 -1.745740e-08 -1.826992e-08 -1.901155e-08 -1.811016e-08 -1.874380e-08
-1.774225e-08 -1.825950e-08 -1.720192e-08 -1.742502e-08 -1.729789e-08 -1.835182e-08 -1.760952e-08 -1.724539e-08 -1.779785e-08 -1.792245e-08
-1.816358e-08 -1.753079e-08 -1.815588e-08 -1.735314e-08 -1.786121e-08 -1.749015e-08 -1.810720e-08 -1.670289e-08 -1.840131e-08 -1.631364e-08
-1.677508e-08 -1.684184e-08 -1.627049e-08 -1.647342e-08 -1.656759e-08 -1.699638e-08 -1.800146e-08 -1.682016e-08 -1.752113e-08 -1.644340e-08
-1.700646e-08 -1.636937e-08 -1.628350e-08 -1.692941e-08 -1.636767e-08 -1.705962e-08 -1.684552e-08 -1.610690e-08 -1.567616e-08 -1.608229e-08
-1.605990e-08 -1.712594e-08 -1.689596e-08 -1.727640e-08 -1.715047e-08 -1.691100e-08 -1.807837e-08 -1.723728e-08 -1.762383e-08 -1.690774e-08
-1.791486e-08 -1.798112e-08 -1.932336e-08 -1.796294e-08 -1.802167e-08 -1.796140e-08 -1.790693e-08 -1.795388e-08 -1.833612e-08 -1.873617e-08
-1.800056e-08 -1.858599e-08 -1.813819e-08 -1.944617e-08 -1.886974e-08 -1.790828e-08 -1.800142e-08 -1.851024e-08 -1.753401e-08 -1.796407e-08
-1.878246e-08 -1.888406e-08 -1.847915e-08 -1.765915e-08 -1.893733e-08 -1.864054e-08 -1.908539e-08 -1.882562e-08 -1.876301e-08 -1.877899e-08
-1.818353e-08 -1.815509e-08 -1.823142e-08 -1.814749e-08 -1.809442e-08 -1.787845e-08 -1.700576e-08 -1.822964e-08 -1.900572e-08 -1.734247e-08
-1.735365e-08 -1.909996e-08 -1.763790e-08 -1.821275e-08 -1.858786e-08 -1.842346e-08 -1.784885e-08 -1.754905e-08 -1.811682e-08 -1.732955e-08
-1.888421e-08 -1.823758e-08 -1.730677e-08 -1.674971e-08 -1.733028e-08 -1.796734e-08 -1.788508e-08 -2.000917e-08 -1.850369e-08 -1.783421e-08
-1.855499e-08 -1.998411e-08 -1.760874e-08 -1.792641e-08 -1.845428e-08 -1.761297e-08 -1.717028e-08 -1.701614e-08 -1.811640e-08 -1.666697e-08
-1.782944e-08
-1.874757e-08 -1.721466e-08 -1.740512e-08 -1.707254e-08 -2.021631e-08 -1.694117e-08 -1.682048e-08 -1.629308e-08 -1.878475e-08 -1.797533e-08
-1.627196e-08 -1.944510e-08 -1.801068e-08 -1.709632e-08 -1.676145e-08 -1.721629e-08 -1.844887e-08 -1.801297e-08 -1.764159e-08 -1.698294e-08
-1.718883e-08 -1.807848e-08 -1.739581e-08 -1.765335e-08 -1.731563e-08 -1.777068e-08 -1.783543e-08 -1.880308e-08 -1.813748e-08 -1.803822e-08
-1.807989e-08 -1.790856e-08 -1.869735e-08 -1.790478e-08 -1.809281e-08 -1.845393e-08 -1.753835e-08 -1.748304e-08 -1.792342e-08 -1.863819e-08
-1.876431e-08 -1.765818e-08 -1.804980e-08 -1.730399e-08 -1.735610e-08 -1.808105e-08 -1.785210e-08 -1.793490e-08 -1.801355e-08 -1.870002e-08
-1.904106e-08 -1.857804e-08 -1.758859e-08 -1.755457e-08 -1.799875e-08 -1.818879e-08 -1.883985e-08 -1.686008e-08 -1.783156e-08 -1.771376e-08
-1.739270e-08 -1.825712e-08 -1.712447e-08 -1.768007e-08 -1.798748e-08 -1.851937e-08 -1.723274e-08 -1.691602e-08 -1.733464e-08 -1.681763e-08
-1.944956e-08 -1.799193e-08 -1.677205e-08 -1.764115e-08 -1.786609e-08 -1.830032e-08 -1.712654e-08 -1.646798e-08 -1.706353e-08 -1.706493e-08
-1.723068e-08 -1.703762e-08 -1.710057e-08 -1.645048e-08 -1.683673e-08 -1.712998e-08 -1.659632e-08 -1.673799e-08 -1.641806e-08 -1.716444e-08
-1.646740e-08 -1.692484e-08 -1.641307e-08 -1.680515e-08 -1.657840e-08 -1.641853e-08 -1.719708e-08 -1.730222e-08 -1.707278e-08 -1.654927e-08
-1.748694e-08 -1.743868e-08 -1.844151e-08 -1.629025e-08 -1.748315e-08 -1.786764e-08 -1.778122e-08 -1.803168e-08 -1.751135e-08 -1.641937e-08
-1.784347e-08 -1.772622e-08 -1.835710e-08 -1.895070e-08 -1.838303e-08 -1.808895e-08 -1.763148e-08 -1.747203e-08 -1.795176e-08 -1.810640e-08
-1.709346e-08 -1.849775e-08 -1.892636e-08 -1.797409e-08 -1.955404e-08 -1.892252e-08 -1.728945e-08 -1.797175e-08 -1.783849e-08 -1.845046e-08
-1.712703e-08 -1.713492e-08 -1.880378e-08 -1.919072e-08 -1.746811e-08 -1.841780e-08 -1.907937e-08 -1.811419e-08 -1.795208e-08 -1.773816e-08
-1.769378e-08 -1.707532e-08 -1.951440e-08 -1.902167e-08 -1.802438e-08 -1.732816e-08 -1.829902e-08 -1.971080e-08 -1.776343e-08 -1.875466e-08
-1.821305e-08 -1.795932e-08 -1.704089e-08 -1.828064e-08 -1.765932e-08 -1.755007e-08 -1.813966e-08 -1.734137e-08 -1.810278e-08 -1.771070e-08
-1.859385e-08 -1.832885e-08 -1.737316e-08 -1.740555e-08 -1.710055e-08 -1.733982e-08 -1.721879e-08 -1.827107e-08 -1.709002e-08 -1.747636e-08
-1.677369e-08 -1.819662e-08 -1.813736e-08 -1.690337e-08 -1.663260e-08 -1.788665e-08 -1.718271e-08 -1.688267e-08 -1.694842e-08 -1.732689e-08
-1.729102e-08 -1.732717e-08 -1.585995e-08 -1.707038e-08 -1.665664e-08 -1.872003e-08 -1.718652e-08 -1.812388e-08 -1.741360e-08 -1.795555e-08
-1.787303e-08 -1.954569e-08 -1.775141e-08 -1.719133e-08 -1.768677e-08 -1.777892e-08 -1.703665e-08 -1.822227e-08 -1.790258e-08 -1.908914e-08
-1.704464e-08 -1.827743e-08 -1.835129e-08 -1.864188e-08 -1.857126e-08 -1.895048e-08 -1.821424e-08 -1.849346e-08 -1.819017e-08 -1.789321e-08
-1.803263e-08 -1.836471e-08 -1.848762e-08 -1.797989e-08 -1.794041e-08 -1.820706e-08 -1.776523e-08 -1.818483e-08 -1.893442e-08 -1.763143e-08
-1.864863e-08 -1.894558e-08 -1.823577e-08 -1.877375e-08 -1.760145e-08 -1.863335e-08 -1.751435e-08 -1.776482e-08 -1.783416e-08 -1.812812e-08
-1.818198e-08 -1.845130e-08 -1.666745e-08 -1.743581e-08 -1.773530e-08 -1.819269e-08 -1.896559e-08 -1.780907e-08 -1.859995e-08 -1.939530e-08
-1.705038e-08 -1.787320e-08 -1.793077e-08 -1.783100e-08 -1.811452e-08 -1.648112e-08 -1.810771e-08 -1.720985e-08 -1.751508e-08 -1.885046e-08
-1.668027e-08 -1.702398e-08 -1.769226e-08 -1.729373e-08 -1.702833e-08 -1.649624e-08 -1.604580e-08 -1.669919e-08 -1.647991e-08 -1.686537e-08
-1.772460e-08 -1.695256e-08 -1.717329e-08 -1.646090e-08 -1.687328e-08 -1.650935e-08 -1.562762e-08 -1.647284e-08 -1.644445e-08 -1.576978e-08
-1.637940e-08 -1.621661e-08 -1.751493e-08 -1.669817e-08 -1.640797e-08 -1.698333e-08 -1.557838e-08 -1.827172e-08 -1.817721e-08 -1.651561e-08
-1.671254e-08 -1.631240e-08 -1.744069e-08 -1.662019e-08 -1.738549e-08 -1.655619e-08 -1.768312e-08 -1.763535e-08 -1.718358e-08 -1.745975e-08
-1.828243e-08 -1.768385e-08 -1.785169e-08 -1.895769e-08 -1.775127e-08 -1.821376e-08 -1.765108e-08 -1.777876e-08 -1.808787e-08 -1.802296e-08
-1.818765e-08 -1.735090e-08 -1.725305e-08 -1.814090e-08 -1.752604e-08 -1.851705e-08 -1.808355e-08 -1.877717e-08 -1.950029e-08 -1.841051e-08
-1.951724e-08 -1.860980e-08 -1.854079e-08 -1.855464e-08 -1.898146e-08 -1.770246e-08 -1.832686e-08 -1.910302e-08 -1.921745e-08 -1.872422e-08
-1.732909e-08 -1.875332e-08 -1.863015e-08 -1.753039e-08 -1.806288e-08 -1.713611e-08 -1.864919e-08 -1.765889e-08 -1.831290e-08 -1.797713e-08
-1.856984e-08 -1.733881e-08 -1.726161e-08 -1.722266e-08 -1.631423e-08 -1.780104e-08 -1.735519e-08 -1.843839e-08 -1.763979e-08 -1.773219e-08
-1.672059e-08 -1.725072e-08 -1.751292e-08 -1.745084e-08 -1.707232e-08 -1.730577e-08 -1.711236e-08 -1.645652e-08 -1.703893e-08 -1.729977e-08
-1.725066e-08 -1.615888e-08 -1.776625e-08 -1.683843e-08 -1.762974e-08 -1.984244e-08 -1.790932e-08 -1.681930e-08 -1.693315e-08 -1.656402e-08
-1.874757e-08
-1.722033e-08 -1.535785e-08 -1.578931e-08 -1.787951e-08 -1.596690e-08 -1.737492e-08 -1.852914e-08 -1.798610e-08 -1.659143e-08 -1.641579e-08
-1.725633e-08 -1.724545e-08 -1.766337e-08 -1.676915e-08 -1.698555e-08 -1.772792e-08 -1.774331e-08 -1.661151e-08 -1.763610e-08 -1.666353e-08
-1.796467e-08 -1.764163e-08 -1.592044e-08 -1.806603e-08 -1.752603e-08 -1.639907e-08 -1.730561e-08 -1.805852e-08 -1.642020e-08 -1.772585e-08
-1.877213e-08 -1.871742e-08 -1.876661e-08 -1.851082e-08 -1.853613e-08 -1.855352e-08 -1.752124e-08 -1.775717e-08 -1.774278e-08 -1.795529e-08
-1.692882e-08 -1.793594e-08 -1.857226e-08 -1.851094e-08 -1.794531e-08 -1.825678e-08 -1.782924e-08 -1.854232e-08 -1.883370e-08 -1.701132e-08
-1.762696e-08 -1.695327e-08 -1.718679e-08 -1.820054e-08 -1.702678e-08 -1.816267e-08 -1.706223e-08 -1.749696e-08 -1.794137e-08 -1.681336e-08
-1.717186e-08 -1.814405e-08 -1.840230e-08 -1.852339e-08 -1.817525e-08 -1.708772e-08 -1.747586e-08 -1.792911e-08 -1.738789e-08 -1.694566e-08
-1.750414e-08 -1.691838e-08 -1.619897e-08 -1.735274e-08 -1.762259e-08 -1.648367e-08 -1.694160e-08 -1.622248e-08 -1.592345e-08 -1.711870e-08
-1.725184e-08 -1.692684e-08 -1.683360e-08 -1.747268e-08 -1.675978e-08 -1.659634e-08 -1.597804e-08 -1.580163e-08 -1.666066e-08 -1.626504e-08
-1.730334e-08 -1.598255e-08 -1.607594e-08 -1.585176e-08 -1.555369e-08 -1.593043e-08 -1.661926e-08 -1.728516e-08 -1.675770e-08 -1.589684e-08
-1.520547e-08 -1.675729e-08 -1.736462e-08 -1.712222e-08 -1.779280e-08 -1.727076e-08 -1.777534e-08 -1.745765e-08 -1.719879e-08 -1.731428e-08
-1.696416e-08 -1.742431e-08 -1.763912e-08 -1.668036e-08 -1.898247e-08 -1.741911e-08 -1.783705e-08 -1.767111e-08 -1.815375e-08 -1.735185e-08
-1.962040e-08 -1.778722e-08 -1.763643e-08 -1.838079e-08 -1.837570e-08 -1.924111e-08 -1.827301e-08 -1.867109e-08 -1.775375e-08 -1.876056e-08
-1.818512e-08 -1.801582e-08 -1.753234e-08 -1.715125e-08 -1.821639e-08 -1.735735e-08 -1.690553e-08 -1.805115e-08 -1.710077e-08 -1.759134e-08
-1.840602e-08 -1.903529e-08 -1.796023e-08 -1.744181e-08 -1.811964e-08 -1.795588e-08 -1.831463e-08 -1.844864e-08 -1.795971e-08 -1.820856e-08
-1.822518e-08 -1.748985e-08 -1.817885e-08 -1.829813e-08 -1.808742e-08 -1.690708e-08 -1.698133e-08 -1.752274e-08 -1.806043e-08 -1.726391e-08
-1.822242e-08 -1.739526e-08 -1.820196e-08 -1.713748e-08 -2.002268e-08 -1.699310e-08 -1.682452e-08 -1.644567e-08 -1.787262e-08 -1.825573e-08
-1.717578e-08 -1.739502e-08 -1.851755e-08 -1.675678e-08 -1.628954e-08 -1.633160e-08 -1.661960e-08 -1.750988e-08 -1.743343e-08 -1.711901e-08
-1.620243e-08 -1.710528e-08 -1.764259e-08 -1.583912e-08 -1.822273e-08 -1.668256e-08 -1.655893e-08 -1.663342e-08 -1.698242e-08 -1.660788e-08
-1.803821e-08 -1.594253e-08 -1.585762e-08 -1.655981e-08 -1.685141e-08 -1.756909e-08 -1.716402e-08 -1.792862e-08 -1.661210e-08 -1.800939e-08
-1.709822e-08 -1.795914e-08 -1.681982e-08 -1.634822e-08 -1.678212e-08 -1.706874e-08 -1.716178e-08 -1.717762e-08 -1.824294e-08 -1.779860e-08
-1.737251e-08 -1.787415e-08 -1.703775e-08 -1.803462e-08 -1.729763e-08 -1.782111e-08 -1.729601e-08 -1.761713e-08 -1.811841e-08 -1.689176e-08
-1.743743e-08 -1.828294e-08 -1.785416e-08 -1.822793e-08 -1.792815e-08 -1.754195e-08 -1.776267e-08 -1.721627e-08 -1.717239e-08 -1.805902e-08
-1.699600e-08 -1.803059e-08 -1.719575e-08 -1.748114e-08 -1.815237e-08 -1.849948e-08 -1.787204e-08 -1.824420e-08 -1.853951e-08 -1.681652e-08
-1.754972e-08 -1.706828e-08 -1.798570e-08 -1.671351e-08 -1.742822e-08 -1.780172e-08 -1.667155e-08 -1.731860e-08 -1.827494e-08 -1.750769e-08
-1.568752e-08 -1.644457e-08 -1.824102e-08 -1.635508e-08 -1.641505e-08 -1.696776e-08 -1.560096e-08 -1.593831e-08 -1.616962e-08 -1.716437e-08
-1.635838e-08 -1.671925e-08 -1.685261e-08 -1.792833e-08 -1.519102e-08 -1.627318e-08 -1.632224e-08 -1.602732e-08 -1.581909e-08 -1.579760e-08
-1.649042e-08 -1.566168e-08 -1.738692e-08 -1.582250e-08 -1.663042e-08 -1.563960e-08 -1.658514e-08 -1.654628e-08 -1.573863e-08 -1.806813e-08
-1.605358e-08 -1.679942e-08 -1.675861e-08 -1.672328e-08 -1.694218e-08 -1.702128e-08 -1.703080e-08 -1.731249e-08 -1.638088e-08 -1.768611e-08
-1.672995e-08 -1.724695e-08 -1.697771e-08 -1.760225e-08 -1.792480e-08 -1.724569e-08 -1.830053e-08 -1.866095e-08 -1.733292e-08 -1.706558e-08
-1.872059e-08 -1.751219e-08 -1.709286e-08 -1.759387e-08 -1.776699e-08 -1.652666e-08 -1.726302e-08 -1.792434e-08 -1.788077e-08 -1.737917e-08
-1.806693e-08 -1.866407e-08 -1.934670e-08 -1.747869e-08 -1.798235e-08 -1.764810e-08 -1.868291e-08 -1.859545e-08 -1.833427e-08 -1.813006e-08
-1.757546e-08 -1.904213e-08 -1.799073e-08 -1.750153e-08 -1.774667e-08 -1.830279e-08 -1.798042e-08 -1.811091e-08 -1.822400e-08 -1.658236e-08
-1.777525e-08 -1.865346e-08 -1.823000e-08 -1.790874e-08 -1.850660e-08 -1.875686e-08 -1.776614e-08 -1.652610e-08 -1.748995e-08 -1.765854e-08
-1.783101e-08 -1.714635e-08 -1.745048e-08 -1.688190e-08 -1.635741e-08 -1.638755e-08 -1.654427e-08 -1.782514e-08 -1.732474e-08 -1.746403e-08
-1.689724e-08 -1.730190e-08 -1.653921e-08 -1.756958e-08 -1.793264e-08 -1.764890e-08 -1.750815e-08 -1.682537e-08 -1.619373e-08 -1.730047e-08
-1.722033e-08
-1.615006e-08 -1.565620e-08 -1.616511e-08 -1.753499e-08 -1.565539e-08 -1.568728e-08 -1.665147e-08 -1.666371e-08 -1.709399e-08 -1.612892e-08
-1.735300e-08 -1.655932e-08 -1.636707e-08 -1.673062e-08 -1.607993e-08 -1.714257e-08 -1.655641e-08 -1.645070e-08 -1.831237e-08 -1.621171e-08
-1.637217e-08 -1.724726e-08 -1.627652e-08 -1.647622e-08 -1.723041e-08 -1.836820e-08 -1.791800e-08 -1.846360e-08 -1.776734e-08 -1.699976e-08
-1.761060e-08 -1.835616e-08 -1.816582e-08 -1.621515e-08 -1.815562e-08 -1.696295e-08 -1.755195e-08 -1.729752e-08 -1.746041e-08 -1.697518e-08
-1.803775e-08 -1.778710e-08 -1.644817e-08 -1.798044e-08 -1.809915e-08 -1.713486e-08 -1.750894e-08 -1.833846e-08 -1.759170e-08 -1.777327e-08
-1.726779e-08 -1.710901e-08 -1.717198e-08 -1.822756e-08 -1.860935e-08 -1.766254e-08 -1.719657e-08 -1.670591e-08 -1.722262e-08 -1.823899e-08
-1.702585e-08 -1.730673e-08 -1.693879e-08 -1.724109e-08 -1.815270e-08 -1.656571e-08 -1.781193e-08 -1.813991e-08 -1.681498e-08 -1.811529e-08
-1.675742e-08 -1.721008e-08 -1.692484e-08 -1.658144e-08 -1.639858e-08 -1.574078e-08 -1.562609e-08 -1.546709e-08 -1.676013e-08 -1.665530e-08
-1.603364e-08 -1.587511e-08 -1.556234e-08 -1.674194e-08 -1.630161e-08 -1.698395e-08 -1.559741e-08 -1.726838e-08 -1.558001e-08 -1.643046e-08
-1.681073e-08 -1.712039e-08 -1.556248e-08 -1.770417e-08 -1.777703e-08 -1.598293e-08 -1.625397e-08 -1.705901e-08 -1.566661e-08 -1.675109e-08
-1.774573e-08 -1.673739e-08 -1.665239e-08 -1.678893e-08 -1.653404e-08 -1.779883e-08 -1.748391e-08 -1.659065e-08 -1.702393e-08 -1.833754e-08
-1.711238e-08 -1.783326e-08 -1.800673e-08 -1.712087e-08 -1.856184e-08 -1.863225e-08 -1.745373e-08 -1.767986e-08 -1.780806e-08 -1.685052e-08
-1.733648e-08 -1.701336e-08 -1.872198e-08 -1.750984e-08 -1.797769e-08 -1.734998e-08 -1.782898e-08 -1.717743e-08 -1.912310e-08 -1.930168e-08
-1.889772e-08 -1.855044e-08 -1.699394e-08 -1.775385e-08 -1.813857e-08 -1.807966e-08 -1.775656e-08 -1.686144e-08 -1.874652e-08 -1.898695e-08
-1.847357e-08 -1.770087e-08 -1.786181e-08 -1.697391e-08 -1.789067e-08 -1.767424e-08 -1.768272e-08 -1.795069e-08 -1.807696e-08 -1.747888e-08
-1.747613e-08 -1.779648e-08 -1.988759e-08 -1.815176e-08 -1.784668e-08 -1.730563e-08 -1.783821e-08 -1.733975e-08 -1.678992e-08 -1.800198e-08
-1.657004e-08 -1.871607e-08 -1.739861e-08 -1.617471e-08 -1.713708e-08 -1.711316e-08 -1.643417e-08 -1.668825e-08 -1.674169e-08 -1.647323e-08
-1.592171e-08 -1.739890e-08 -1.639249e-08 -1.717759e-08 -1.605431e-08 -1.579999e-08 -1.645105e-08 -1.647505e-08 -1.538097e-08 -1.675732e-08
-1.645338e-08 -1.608825e-08 -1.606928e-08 -1.602884e-08 -1.538140e-08 -1.623541e-08 -1.741140e-08 -1.676996e-08 -1.950609e-08 -1.653445e-08
-1.592011e-08 -1.633473e-08 -1.744383e-08 -1.632311e-08 -1.589643e-08 -1.744095e-08 -1.685899e-08 -1.610706e-08 -1.830207e-08 -1.662224e-08
-1.695615e-08 -1.724810e-08 -1.777905e-08 -1.707473e-08 -1.857011e-08 -1.764625e-08 -1.831093e-08 -1.751645e-08 -1.722353e-08 -1.770218e-08
-1.761576e-08 -1.875883e-08 -1.692242e-08 -1.776019e-08 -1.738679e-08 -1.731307e-08 -1.709937e-08 -1.692966e-08 -1.704522e-08 -1.784796e-08
-1.892738e-08 -1.670807e-08 -1.642844e-08 -1.695967e-08 -1.672515e-08 -1.728995e-08 -1.782544e-08 -1.741670e-08 -1.871825e-08 -1.874113e-08
-1.715047e-08 -1.789754e-08 -1.745940e-08 -1.853920e-08 -1.810622e-08 -1.801398e-08 -1.710466e-08 -1.781799e-08 -1.697714e-08 -1.756475e-08
-1.804585e-08 -1.708186e-08 -1.632076e-08 -1.650779e-08 -1.741229e-08 -1.650608e-08 -1.786132e-08 -1.642321e-08 -1.651748e-08 -1.733350e-08
-1.661297e-08 -1.770471e-08 -1.751557e-08 -1.689309e-08 -1.745452e-08 -1.708707e-08 -1.571804e-08 -1.635379e-08 -1.747516e-08 -1.624394e-08
-1.571827e-08 -1.650556e-08 -1.619016e-08 -1.612918e-08 -1.560672e-08 -1.739289e-08 -1.640361e-08 -1.603672e-08 -1.610680e-08 -1.553247e-08
-1.564774e-08 -1.638184e-08 -1.657563e-08 -1.635562e-08 -1.580360e-08 -1.542380e-08 -1.640805e-08 -1.617925e-08 -1.698420e-08 -1.610274e-08
-1.694114e-08 -1.725782e-08 -1.678458e-08 -1.659178e-08 -1.703074e-08 -1.693591e-08 -1.627564e-08 -1.623980e-08 -1.761984e-08 -1.691731e-08
-1.702026e-08 -1.596660e-08 -1.775775e-08 -1.701408e-08 -1.695879e-08 -1.771857e-08 -1.827792e-08 -1.673031e-08 -1.796156e-08 -1.801073e-08
-1.725427e-08 -1.831734e-08 -1.788611e-08 -1.691254e-08 -1.906098e-08 -1.767183e-08 -1.783355e-08 -1.778388e-08 -1.892155e-08 -1.668590e-08
-1.793153e-08 -1.802452e-08 -1.722885e-08 -1.741461e-08 -1.795982e-08 -1.775630e-08 -1.747984e-08 -1.784749e-08 -1.772170e-08 -1.780026e-08
-1.751399e-08 -1.709146e-08 -1.811756e-08 -1.812867e-08 -1.727842e-08 -1.730772e-08 -1.710338e-08 -1.824690e-08 -1.776641e-08 -1.688944e-08
-1.972862e-08 -1.729148e-08 -1.776846e-08 -1.794399e-08 -1.651708e-08 -1.697877e-08 -1.865163e-08 -1.805232e-08 -1.661993e-08 -1.901886e-08
-1.673235e-08 -1.590040e-08 -1.615187e-08 -1.774463e-08 -1.791716e-08 -1.647034e-08 -1.655250e-08 -1.817923e-08 -1.756122e-08 -1.883289e-08
-1.621267e-08 -1.711393e-08 -1.564927e-08 -1.605328e-08 -1.589196e-08 -1.687121e-08 -1.694649e-08 -1.700654e-08 -1.603830e-08 -1.516296e-08
-1.615006e-08
-1.492192e-08 -1.572867e-08 -1.584714e-08 -1.619367e-08 -1.596720e-08 -1.735000e-08 -1.604941e-08 -1.581411e-08 -1.547488e-08 -1.639912e-08
-1.663718e-08 -1.851955e-08 -1.685598e-08 -1.563325e-08 -1.622755e-08 -1.614347e-08 -1.567251e-08 -1.648721e-08 -1.611853e-08 -1.643623e-08
-1.774334e-08 -1.654426e-08 -1.624282e-08 -1.709451e-08 -1.653950e-08 -1.635816e-08 -1.651732e-08 -1.736439e-08 -1.780580e-08 -1.697483e-08
-1.775171e-08 -1.784089e-08 -1.608726e-08 -1.780126e-08 -1.746518e-08 -1.651750e-08 -1.703110e-08 -1.691505e-08 -1.733292e-08 -1.767134e-08
-1.758056e-08 -1.715067e-08 -1.704256e-08 -1.750289e-08 -1.805840e-08 -1.812233e-08 -1.802086e-08 -1.691030e-08 -1.839696e-08 -1.720846e-08
-1.708869e-08 -1.775964e-08 -1.731675e-08 -1.724674e-08 -1.617990e-08 -1.782138e-08 -1.618543e-08 -1.713330e-08 -1.641652e-08 -1.660363e-08
-1.739213e-08 -1.819923e-08 -1.821641e-08 -1.697928e-08 -1.728269e-08 -1.675734e-08 -1.687169e-08 -1.653628e-08 -1.645167e-08 -1.790461e-08
-1.641228e-08 -1.609387e-08 -1.641005e-08 -1.698210e-08 -1.668012e-08 -1.579312e-08 -1.711176e-08 -1.577966e-08 -1.648372e-08 -1.594803e-08
-1.626474e-08 -1.589913e-08 -1.684837e-08 -1.763014e-08 -1.512215e-08 -1.528205e-08 -1.665756e-08 -1.761324e-08 -1.659789e-08 -1.577977e-08
-1.604710e-08 -1.447432e-08 -1.552971e-08 -1.548489e-08 -1.659937e-08 -1.636991e-08 -1.574700e-08 -1.508195e-08 -1.606088e-08 -1.539621e-08
-1.573295e-08 -1.604617e-08 -1.586494e-08 -1.595235e-08 -1.559904e-08 -1.602233e-08 -1.567381e-08 -1.645052e-08 -1.730686e-08 -1.749001e-08
-1.731411e-08 -1.655003e-08 -1.745289e-08 -1.736533e-08 -1.614667e-08 -1.741544e-08 -1.722944e-08 -1.709117e-08 -1.805969e-08 -1.797536e-08
-1.752113e-08 -1.730480e-08 -1.935727e-08 -1.758187e-08 -1.808307e-08 -1.721649e-08 -1.708252e-08 -1.683649e-08 -1.788803e-08 -1.717913e-08
-1.740153e-08 -1.828124e-08 -1.778946e-08 -1.770425e-08 -1.693687e-08 -1.741356e-08 -1.787921e-08 -1.780504e-08 -1.762115e-08 -1.725805e-08
-1.744559e-08 -1.800970e-08 -1.775204e-08 -1.790185e-08 -1.693313e-08 -1.815644e-08 -1.678105e-08 -1.713637e-08 -1.820076e-08 -1.742347e-08
-1.819234e-08 -1.676969e-08 -1.650819e-08 -1.784423e-08 -1.694570e-08 -1.691739e-08 -1.631499e-08 -1.738640e-08 -1.768641e-08 -1.723017e-08
-1.638136e-08 -1.830734e-08 -1.680467e-08 -1.848001e-08 -1.622722e-08 -1.615289e-08 -1.690994e-08 -1.673020e-08 -1.609226e-08 -1.886165e-08
-1.743775e-08 -1.732842e-08 -1.671249e-08 -1.673591e-08 -1.598764e-08 -1.652682e-08 -1.691149e-08 -1.630727e-08 -1.557863e-08 -1.572287e-08
-1.610603e-08 -1.606914e-08 -1.559374e-08 -1.526573e-08 -1.617959e-08 -1.624483e-08 -1.651181e-08 -1.775818e-08 -1.565832e-08 -1.656466e-08
-1.596835e-08 -1.554101e-08 -1.625307e-08 -1.754531e-08 -1.721031e-08 -1.796477e-08 -1.742872e-08 -1.578311e-08 -1.714399e-08 -1.701478e-08
-1.814746e-08 -1.794050e-08 -1.565350e-08 -1.760628e-08 -1.675148e-08 -1.879928e-08 -1.740045e-08 -1.806076e-08 -1.729962e-08 -1.758664e-08
-1.726026e-08 -1.816945e-08 -1.718536e-08 -1.720030e-08 -1.708304e-08 -1.688915e-08 -1.721225e-08 -1.755771e-08 -1.759730e-08 -1.792674e-08
-1.851783e-08 -1.683065e-08 -1.707004e-08 -1.738051e-08 -1.711372e-08 -1.746942e-08 -1.675376e-08 -1.716914e-08 -1.663856e-08 -1.694934e-08
-1.704156e-08 -1.770928e-08 -1.721947e-08 -1.770629e-08 -1.745346e-08 -1.597789e-08 -1.715853e-08 -1.700216e-08 -1.779951e-08 -1.718014e-08
-1.617255e-08 -1.695853e-08 -1.664514e-08 -1.803508e-08 -1.630664e-08 -1.587268e-08 -1.690257e-08 -1.863247e-08 -1.692862e-08 -1.573836e-08
-1.723174e-08 -1.614394e-08 -1.605328e-08 -1.725493e-08 -1.566491e-08 -1.560184e-08 -1.644455e-08 -1.639215e-08 -1.547790e-08 -1.597923e-08
-1.696467e-08 -1.568778e-08 -1.682693e-08 -1.603161e-08 -1.600516e-08 -1.560471e-08 -1.587213e-08 -1.692958e-08 -1.577466e-08 -1.633772e-08
-1.503065e-08 -1.580784e-08 -1.579904e-08 -1.530349e-08 -1.535376e-08 -1.700143e-08 -1.611324e-08 -1.605949e-08 -1.574614e-08 -1.752505e-08
-1.557012e-08 -1.658788e-08 -1.687072e-08 -1.646732e-08 -1.757377e-08 -1.658626e-08 -1.660040e-08 -1.698062e-08 -1.656631e-08 -1.654766e-08
-1.770401e-08 -1.609873e-08 -1.638701e-08 -1.658358e-08 -1.795947e-08 -1.734513e-08 -1.678595e-08 -1.640523e-08 -1.628351e-08 -1.679410e-08
-1.669327e-08 -1.796818e-08 -1.699691e-08 -1.790399e-08 -1.787077e-08 -1.676198e-08 -1.691775e-08 -1.775676e-08 -1.704707e-08 -1.800547e-08
-1.678436e-08 -1.689373e-08 -1.756916e-08 -1.796899e-08 -1.747972e-08 -1.678801e-08 -1.776244e-08 -1.778026e-08 -1.848925e-08 -1.714158e-08
-1.732431e-08 -1.707677e-08 -1.682596e-08 -1.736625e-08 -1.766398e-08 -1.660994e-08 -1.732039e-08 -1.723645e-08 -1.690826e-08 -1.737128e-08
-1.657973e-08 -1.660519e-08 -1.771740e-08 -1.630272e-08 -1.611394e-08 -1.675278e-08 -1.643913e-08 -1.691655e-08 -1.765534e-08 -1.627756e-08
-1.572795e-08 -1.585515e-08 -1.667644e-08 -1.609504e-08 -1.662745e-08 -1.570253e-08 -1.737737e-08 -1.623806e-08 -1.643110e-08 -1.575385e-08
-1.604884e-08 -1.484005e-08 -1.633405e-08 -1.579322e-08 -1.653294e-08 -1.555713e-08 -1.548369e-08 -1.552220e-08 -1.674027e-08 -1.551523e-08
-1.492192e-08
-1.691184e-08 -1.711745e-08 -1.834391e-08 -1.654527e-08 -1.597984e-08 -1.686497e-08 -1.581724e-08 -1.535379e-08 -1.617414e-08 -1.565821e-08
-1.649969e-08 -1.542389e-08 -1.609721e-08 -1.698056e-08 -1.683705e-08 -1.630439e-08 -1.573041e-08 -1.670525e-08 -1.811174e-08 -1.590258e-08
-1.563398e-08 -1.762899e-08 -1.563757e-08 -1.698528e-08 -1.562903e-08 -1.709090e-08 -1.634397e-08 -1.608063e-08 -1.657346e-08 -1.651230e-08
-1.675178e-08 -1.697778e-08 -1.815162e-08 -1.866102e-08 -1.608881e-08 -1.707775e-08 -1.716474e-08 -1.633721e-08 -1.749190e-08 -1.664156e-08
-1.734186e-08 -1.652553e-08 -1.730984e-08 -1.675223e-08 -1.704796e-08 -1.754572e-08 -1.742212e-08 -1.764014e-08 -1.730168e-08 -1.741853e-08
-1.711470e-08 -1.645636e-08 -1.786460e-08 -1.727530e-08 -1.830964e-08 -1.715830e-08 -1.665900e-08 -1.675509e-08 -1.655596e-08 -1.620272e-08
-1.706818e-08 -1.626617e-08 -1.717324e-08 -1.690689e-08 -1.800931e-08 -1.560432e-08 -1.581584e-08 -1.689783e-08 -1.539255e-08 -1.669133e-08
-1.730998e-08 -1.614114e-08 -1.627045e-08 -1.617524e-08 -1.516454e-08 -1.562097e-08 -1.658933e-08 -1.561776e-08 -1.506911e-08 -1.505624e-08
-1.767500e-08 -1.497985e-08 -1.534739e-08 -1.585822e-08 -1.505282e-08 -1.631700e-08 -1.651206e-08 -1.584057e-08 -1.634370e-08 -1.593543e-08
-1.586798e-08 -1.520070e-08 -1.667295e-08 -1.511973e-08 -1.572066e-08 -1.497831e-08 -1.518868e-08 -1.624050e-08 -1.567389e-08 -1.572541e-08
-1.498536e-08 -1.623300e-08 -1.578252e-08 -1.740887e-08 -1.698329e-08 -1.550606e-08 -1.579964e-08 -1.578106e-08 -1.727907e-08 -1.713921e-08
-1.696973e-08 -1.634314e-08 -1.757853e-08 -1.644396e-08 -1.647161e-08 -1.586506e-08 -1.652954e-08 -1.601886e-08 -1.645851e-08 -1.790102e-08
-1.690542e-08 -1.668881e-08 -1.667887e-08 -1.725275e-08 -1.776480e-08 -1.710020e-08 -1.702219e-08 -1.634746e-08 -1.846380e-08 -1.640830e-08
-1.700234e-08 -1.806305e-08 -1.828207e-08 -1.681946e-08 -1.730395e-08 -1.644323e-08 -1.885818e-08 -1.763443e-08 -1.870721e-08 -1.808125e-08
-1.748659e-08 -1.711148e-08 -1.662327e-08 -1.777989e-08 -1.871893e-08 -1.769813e-08 -1.652373e-08 -1.614385e-08 -1.674562e-08 -1.683680e-08
-1.710956e-08 -1.722877e-08 -1.656676e-08 -1.702173e-08 -1.703888e-08 -1.597804e-08 -1.839378e-08 -1.642223e-08 -1.712347e-08 -1.664831e-08
-1.754028e-08 -1.640687e-08 -1.563444e-08 -1.651087e-08 -1.667405e-08 -1.638494e-08 -1.703429e-08 -1.682969e-08 -1.545255e-08 -1.622335e-08
-1.694289e-08 -1.709973e-08 -1.589446e-08 -1.578179e-08 -1.615485e-08 -1.600481e-08 -1.616371e-08 -1.534879e-08 -1.595070e-08 -1.534927e-08
-1.645625e-08 -1.692728e-08 -1.636769e-08 -1.542807e-08 -1.511520e-08 -1.572116e-08 -1.605171e-08 -1.634106e-08 -1.657381e-08 -1.580262e-08
-1.867485e-08 -1.649998e-08 -1.613783e-08 -1.628897e-08 -1.607754e-08 -1.622582e-08 -1.636957e-08 -1.699220e-08 -1.694246e-08 -1.735236e-08
-1.567994e-08 -1.638599e-08 -1.645214e-08 -1.750290e-08 -1.656495e-08 -1.772958e-08 -1.628699e-08 -1.718931e-08 -1.729371e-08 -1.840353e-08
-1.636140e-08 -1.687108e-08 -1.646778e-08 -1.591583e-08 -1.734442e-08 -1.717906e-08 -1.739900e-08 -1.653589e-08 -1.646956e-08 -1.723044e-08
-1.567660e-08 -1.674387e-08 -1.675997e-08 -1.728684e-08 -1.627554e-08 -1.737133e-08 -1.699561e-08 -1.685443e-08 -1.563234e-08 -1.714467e-08
-1.718345e-08 -1.695245e-08 -1.604285e-08 -1.733447e-08 -1.720881e-08 -1.630143e-08 -1.645486e-08 -1.587626e-08 -1.772968e-08 -1.637391e-08
-1.752855e-08 -1.620835e-08 -1.644745e-08 -1.641776e-08 -1.582583e-08 -1.624045e-08 -1.594371e-08 -1.659444e-08 -1.652969e-08 -1.818757e-08
-1.616504e-08 -1.602027e-08 -1.556291e-08 -1.621488e-08 -1.524019e-08 -1.500660e-08 -1.618579e-08 -1.555213e-08 -1.499937e-08 -1.610084e-08
-1.530206e-08 -1.579000e-08 -1.517568e-08 -1.554090e-08 -1.595257e-08 -1.459537e-08 -1.429169e-08 -1.547916e-08 -1.445984e-08 -1.499795e-08
-1.528043e-08 -1.461976e-08 -1.534161e-08 -1.607696e-08 -1.388752e-08 -1.585968e-08 -1.573854e-08 -1.492162e-08 -1.617596e-08 -1.548760e-08
-1.672087e-08 -1.537384e-08 -1.597403e-08 -1.681664e-08 -1.658434e-08 -1.667842e-08 -1.660048e-08 -1.543496e-08 -1.649752e-08 -1.675066e-08
-1.626196e-08 -1.687157e-08 -1.603207e-08 -1.793470e-08 -1.710149e-08 -1.683944e-08 -1.666615e-08 -1.645225e-08 -1.699972e-08 -1.675667e-08
-1.673935e-08 -1.603383e-08 -1.685857e-08 -1.633115e-08 -1.646551e-08 -1.729580e-08 -1.791169e-08 -1.789023e-08 -1.778916e-08 -1.633140e-08
-1.753335e-08 -1.760707e-08 -1.670491e-08 -1.771598e-08 -1.792974e-08 -1.796411e-08 -1.655829e-08 -1.800377e-08 -1.783700e-08 -1.734916e-08
-1.734587e-08 -1.729739e-08 -1.748700e-08 -1.618021e-08 -1.623021e-08 -1.609665e-08 -1.703881e-08 -1.615471e-08 -1.585454e-08 -1.683826e-08
-1.644191e-08 -1.612133e-08 -1.643746e-08 -1.598014e-08 -1.690903e-08 -1.601523e-08 -1.610682e-08 -1.664810e-08 -1.620778e-08 -1.607187e-08
-1.673633e-08 -1.555095e-08 -1.653037e-08 -1.660498e-08 -1.591302e-08 -1.648743e-08 -1.616957e-08 -1.625347e-08 -1.577691e-08 -1.623269e-08
-1.709352e-08 -1.596854e-08 -1.496525e-08 -1.543763e-08 -1.618542e-08 -1.564893e-08 -1.507535e-08 -1.538743e-08 -1.602011e-08 -1.479290e-08
-1.691184e-08
-1.493420e-08 -1.518008e-08 -1.653254e-08 -1.488588e-08 -1.521006e-08 -1.540189e-08 -1.554810e-08 -1.515952e-08 -1.576559e-08 -1.513170e-08
-1.623510e-08 -1.571510e-08 -1.679502e-08 -1.513049e-08 -1.593764e-08 -1.579819e-08 -1.753091e-08 -1.681704e-08 -1.693059e-08 -1.690634e-08
-1.819591e-08 -1.752796e-08 -1.544953e-08 -1.627307e-08 -1.601136e-08 -1.593810e-08 -1.616941e-08 -1.630538e-08 -1.673350e-08 -1.631489e-08
-1.673479e-08 -1.691434e-08 -1.714505e-08 -1.582667e-08 -1.705042e-08 -1.732949e-08 -1.637076e-08 -1.643651e-08 -1.715212e-08 -1.653990e-08
-1.624951e-08 -1.629719e-08 -1.711285e-08 -1.582827e-08 -1.666950e-08 -1.686904e-08 -1.556869e-08 -1.732558e-08 -1.675373e-08 -1.619045e-08
-1.678182e-08 -1.652297e-08 -1.614905e-08 -1.601703e-08 -1.654664e-08 -1.651019e-08 -1.611193e-08 -1.639964e-08 -1.680124e-08 -1.610615e-08
-1.786013e-08 -1.660419e-08 -1.598453e-08 -1.724730e-08 -1.561283e-08 -1.681477e-08 -1.613408e-08 -1.653379e-08 -1.705712e-08 -1.747668e-08
-1.540253e-08 -1.579482e-08 -1.682763e-08 -1.503082e-08 -1.594107e-08 -1.674230e-08 -1.542017e-08 -1.739888e-08 -1.567961e-08 -1.573310e-08
-1.551515e-08 -1.556084e-08 -1.665765e-08 -1.543814e-08 -1.499330e-08 -1.685530e-08 -1.484257e-08 -1.489397e-08 -1.489062e-08 -1.562940e-08
-1.797026e-08 -1.559852e-08 -1.508356e-08 -1.492870e-08 -1.567669e-08 -1.521864e-08 -1.574415e-08 -1.521356e-08 -1.466476e-08 -1.632288e-08
-1.627479e-08 -1.479016e-08 -1.578663e-08 -1.493236e-08 -1.583997e-08 -1.523554e-08 -1.675855e-08 -1.603753e-08 -1.562057e-08 -1.671581e-08
-1.538349e-08 -1.563270e-08 -1.664630e-08 -1.613398e-08 -1.706870e-08 -1.741101e-08 -1.580120e-08 -1.683752e-08 -1.649900e-08 -1.634058e-08
-1.662104e-08 -1.686849e-08 -1.751074e-08 -1.738954e-08 -1.609483e-08 -1.708003e-08 -1.676153e-08 -1.709581e-08 -1.775939e-08 -1.607873e-08
-1.748805e-08 -1.676371e-08 -1.900266e-08 -1.677928e-08 -1.649733e-08 -1.814310e-08 -1.664902e-08 -1.799598e-08 -1.725419e-08 -1.591656e-08
-1.673386e-08 -1.742008e-08 -1.683756e-08 -1.891915e-08 -1.787628e-08 -1.738455e-08 -1.702074e-08 -1.764013e-08 -1.640926e-08 -1.640304e-08
-1.632348e-08 -1.719612e-08 -1.592537e-08 -1.645473e-08 -1.754300e-08 -1.558114e-08 -1.791977e-08 -1.774995e-08 -1.585166e-08 -1.726114e-08
-1.618293e-08 -1.733278e-08 -1.667930e-08 -1.754505e-08 -1.622706e-08 -1.684949e-08 -1.749872e-08 -1.563354e-08 -1.580605e-08 -1.583238e-08
-1.519718e-08 -1.560794e-08 -1.531359e-08 -1.674302e-08 -1.495729e-08 -1.528668e-08 -1.548147e-08 -1.509587e-08 -1.577471e-08 -1.423877e-08
-1.505155e-08 -1.606392e-08 -1.639691e-08 -1.531297e-08 -1.560968e-08 -1.441684e-08 -1.692307e-08 -1.504018e-08 -1.591985e-08 -1.551733e-08
-1.523042e-08 -1.621758e-08 -1.507906e-08 -1.523060e-08 -1.604714e-08 -1.644243e-08 -1.540301e-08 -1.640222e-08 -1.561395e-08 -1.723552e-08
-1.680411e-08 -1.612983e-08 -1.668644e-08 -1.626954e-08 -1.740803e-08 -1.568137e-08 -1.725289e-08 -1.652782e-08 -1.640224e-08 -1.794459e-08
-1.625170e-08 -1.519071e-08 -1.602407e-08 -1.703734e-08 -1.720259e-08 -1.735467e-08 -1.618721e-08 -1.642402e-08 -1.646489e-08 -1.713997e-08
-1.670585e-08 -1.704648e-08 -1.709489e-08 -1.661756e-08 -1.647920e-08 -1.656729e-08 -1.682401e-08 -1.775730e-08 -1.618285e-08 -1.697294e-08
-1.698727e-08 -1.693106e-08 -1.639645e-08 -1.656882e-08 -1.642002e-08 -1.610990e-08 -1.633534e-08 -1.632911e-08 -1.652642e-08 -1.750879e-08
-1.695170e-08 -1.620955e-08 -1.623312e-08 -1.624503e-08 -1.570781e-08 -1.550691e-08 -1.564553e-08 -1.687637e-08 -1.564621e-08 -1.710349e-08
-1.542864e-08 -1.573655e-08 -1.526427e-08 -1.518785e-08 -1.472673e-08 -1.590941e-08 -1.590456e-08 -1.487376e-08 -1.484694e-08 -1.649467e-08
-1.538525e-08 -1.554293e-08 -1.484367e-08 -1.510090e-08 -1.667879e-08 -1.560331e-08 -1.607964e-08 -1.437827e-08 -1.516353e-08 -1.451464e-08
-1.472702e-08 -1.568070e-08 -1.627309e-08 -1.569522e-08 -1.627922e-08 -1.439705e-08 -1.473591e-08 -1.471426e-08 -1.487188e-08 -1.512167e-08
-1.508075e-08 -1.579014e-08 -1.565431e-08 -1.553660e-08 -1.534524e-08 -1.568221e-08 -1.647710e-08 -1.674109e-08 -1.520739e-08 -1.550379e-08
-1.665981e-08 -1.573751e-08 -1.548573e-08 -1.689668e-08 -1.577827e-08 -1.598174e-08 -1.617143e-08 -1.703294e-08 -1.760094e-08 -1.707676e-08
-1.772355e-08 -1.815245e-08 -1.804028e-08 -1.598418e-08 -1.614760e-08 -1.725597e-08 -1.622445e-08 -1.641854e-08 -1.626872e-08 -1.713713e-08
-1.665892e-08 -1.650041e-08 -1.709383e-08 -1.718631e-08 -1.671653e-08 -1.806249e-08 -1.680126e-08 -1.627778e-08 -1.643675e-08 -1.680383e-08
-1.698653e-08 -1.727724e-08 -1.632955e-08 -1.653534e-08 -1.701648e-08 -1.763184e-08 -1.664250e-08 -1.629059e-08 -1.562428e-08 -1.779861e-08
-1.637579e-08 -1.662424e-08 -1.757350e-08 -1.718550e-08 -1.561125e-08 -1.713761e-08 -1.661523e-08 -1.670843e-08 -1.668257e-08 -1.612207e-08
-1.646459e-08 -1.575427e-08 -1.605420e-08 -1.629748e-08 -1.566727e-08 -1.541145e-08 -1.695062e-08 -1.537842e-08 -1.539163e-08 -1.556682e-08
-1.514746e-08 -1.523162e-08 -1.610269e-08 -1.618081e-08 -1.479515e-08 -1.548362e-08 -1.604401e-08 -1.550180e-08 -1.580866e-08 -1.531887e-08
-1.493420e-08
-1.479695e-08 -1.701950e-08 -1.639403e-08 -1.409235e-08 -1.577753e-08 -1.567759e-08 -1.586489e-08 -1.542485e-08 -1.515395e-08 -1.564840e-08
-1.431693e-08 -1.477426e-08 -1.679144e-08 -1.480800e-08 -1.436355e-08 -1.643865e-08 -1.742004e-08 -1.663238e-08 -1.630198e-08 -1.577813e-08
-1.581437e-08 -1.553185e-08 -1.553327e-08 -1.660377e-08 -1.746327e-08 -1.584472e-08 -1.594078e-08 -1.626209e-08 -1.592465e-08 -1.574502e-08
-1.617892e-08 -1.651776e-08 -1.535940e-08 -1.502313e-08 -1.668890e-08 -1.651357e-08 -1.673224e-08 -1.563809e-08 -1.634195e-08 -1.580735e-08
-1.615087e-08 -1.666537e-08 -1.606354e-08 -1.625846e-08 -1.611796e-08 -1.641824e-08 -1.593550e-08 -1.638670e-08 -1.683885e-08 -1.738313e-08
-1.646160e-08 -1.701081e-08 -1.635770e-08 -1.625745e-08 -1.624490e-08 -1.646053e-08 -1.599413e-08 -1.720520e-08 -1.611917e-08 -1.651250e-08
-1.575977e-08 -1.598793e-08 -1.702652e-08 -1.559084e-08 -1.595430e-08 -1.623702e-08 -1.565057e-08 -1.576320e-08 -1.718690e-08 -1.628228e-08
-1.593646e-08 -1.617562e-08 -1.618278e-08 -1.560585e-08 -1.634133e-08 -1.478569e-08 -1.507666e-08 -1.490133e-08 -1.504011e-08 -1.490704e-08
-1.500622e-08 -1.457326e-08 -1.542086e-08 -1.536515e-08 -1.521846e-08 -1.449231e-08 -1.403921e-08 -1.460221e-08 -1.403428e-08 -1.466806e-08
-1.487378e-08 -1.469613e-08 -1.451108e-08 -1.546948e-08 -1.491470e-08 -1.530979e-08 -1.582432e-08 -1.464177e-08 -1.490685e-08 -1.478280e-08
-1.405702e-08 -1.546002e-08 -1.569049e-08 -1.547244e-08 -1.592824e-08 -1.587722e-08 -1.662529e-08 -1.498979e-08 -1.669861e-08 -1.576273e-08
-1.542880e-08 -1.647486e-08 -1.564574e-08 -1.580011e-08 -1.645983e-08 -1.680003e-08 -1.634828e-08 -1.577082e-08 -1.550594e-08 -1.618817e-08
-1.709781e-08 -1.557511e-08 -1.650679e-08 -1.622031e-08 -1.687065e-08 -1.618215e-08 -1.635202e-08 -1.713878e-08 -1.658290e-08 -1.614299e-08
-1.633074e-08 -1.600496e-08 -1.701570e-08 -1.625083e-08 -1.727836e-08 -1.629267e-08 -1.672768e-08 -1.697371e-08 -1.710663e-08 -1.691884e-08
-1.745418e-08 -1.651698e-08 -1.690214e-08 -1.759470e-08 -1.705383e-08 -1.722339e-08 -1.607714e-08 -1.690662e-08 -1.640001e-08 -1.613165e-08
-1.632842e-08 -1.757975e-08 -1.605328e-08 -1.684354e-08 -1.616060e-08 -1.623333e-08 -1.536149e-08 -1.723197e-08 -1.657809e-08 -1.566370e-08
-1.614454e-08 -1.566432e-08 -1.538188e-08 -1.573316e-08 -1.488911e-08 -1.633183e-08 -1.524355e-08 -1.532749e-08 -1.468278e-08 -1.608013e-08
-1.621027e-08 -1.687455e-08 -1.613076e-08 -1.527283e-08 -1.517856e-08 -1.529133e-08 -1.482393e-08 -1.674500e-08 -1.335640e-08 -1.443935e-08
-1.451404e-08 -1.477955e-08 -1.522892e-08 -1.551203e-08 -1.440668e-08 -1.497387e-08 -1.645961e-08 -1.542280e-08 -1.507442e-08 -1.569963e-08
-1.660297e-08 -1.639682e-08 -1.489776e-08 -1.492008e-08 -1.486273e-08 -1.612419e-08 -1.533049e-08 -1.561019e-08 -1.516424e-08 -1.560468e-08
-1.556806e-08 -1.557923e-08 -1.603288e-08 -1.611596e-08 -1.584214e-08 -1.518319e-08 -1.658580e-08 -1.544878e-08 -1.611196e-08 -1.590627e-08
-1.702863e-08 -1.570290e-08 -1.658198e-08 -1.597166e-08 -1.681083e-08 -1.738383e-08 -1.748626e-08 -1.569440e-08 -1.744589e-08 -1.571311e-08
-1.682216e-08 -1.764748e-08 -1.581374e-08 -1.521654e-08 -1.693163e-08 -1.703926e-08 -1.678069e-08 -1.665421e-08 -1.625488e-08 -1.771794e-08
-1.608861e-08 -1.629737e-08 -1.594888e-08 -1.578755e-08 -1.740215e-08 -1.617261e-08 -1.661111e-08 -1.613554e-08 -1.602305e-08 -1.544625e-08
-1.570437e-08 -1.637254e-08 -1.596346e-08 -1.585712e-08 -1.586390e-08 -1.787740e-08 -1.539800e-08 -1.528516e-08 -1.523237e-08 -1.576030e-08
-1.483078e-08 -1.599401e-08 -1.668069e-08 -1.534136e-08 -1.579842e-08 -1.528626e-08 -1.600010e-08 -1.557748e-08 -1.423152e-08 -1.583853e-08
-1.610239e-08 -1.500669e-08 -1.461476e-08 -1.534428e-08 -1.509938e-08 -1.465797e-08 -1.512370e-08 -1.395604e-08 -1.487788e-08 -1.600618e-08
-1.585796e-08 -1.581593e-08 -1.473005e-08 -1.576472e-08 -1.542534e-08 -1.408754e-08 -1.422147e-08 -1.448463e-08 -1.412930e-08 -1.467906e-08
-1.498317e-08 -1.520922e-08 -1.563077e-08 -1.435312e-08 -1.571665e-08 -1.590663e-08 -1.596566e-08 -1.512242e-08 -1.604967e-08 -1.558863e-08
-1.578622e-08 -1.681362e-08 -1.605755e-08 -1.625458e-08 -1.618627e-08 -1.556461e-08 -1.576134e-08 -1.585702e-08 -1.606109e-08 -1.584895e-08
-1.768322e-08 -1.674073e-08 -1.694950e-08 -1.707428e-08 -1.559200e-08 -1.641534e-08 -1.639443e-08 -1.671049e-08 -1.681908e-08 -1.619462e-08
-1.839274e-08 -1.714901e-08 -1.742970e-08 -1.645464e-08 -1.679758e-08 -1.631398e-08 -1.715418e-08 -1.634185e-08 -1.729626e-08 -1.595117e-08
-1.718917e-08 -1.576819e-08 -1.676046e-08 -1.671856e-08 -1.726534e-08 -1.655412e-08 -1.664176e-08 -1.562524e-08 -1.590736e-08 -1.634175e-08
-1.664007e-08 -1.533379e-08 -1.635985e-08 -1.612589e-08 -1.584556e-08 -1.590430e-08 -1.765753e-08 -1.570208e-08 -1.578910e-08 -1.558246e-08
-1.556733e-08 -1.562430e-08 -1.580342e-08 -1.466621e-08 -1.530830e-08 -1.521355e-08 -1.616226e-08 -1.508319e-08 -1.539470e-08 -1.623403e-08
-1.513887e-08 -1.453674e-08 -1.533374e-08 -1.583635e-08 -1.608792e-08 -1.503941e-08 -1.629267e-08 -1.534285e-08 -1.406356e-08 -1.560450e-08
-1.479695e-08
-1.420687e-08 -1.365785e-08 -1.590527e-08 -1.370089e-08 -1.552428e-08 -1.440077e-08 -1.413584e-08 -1.455102e-08 -1.493337e-08 -1.584821e-08
-1.583127e-08 -1.582524e-08 -1.569430e-08 -1.514888e-08 -1.489600e-08 -1.515627e-08 -1.527631e-08 -1.652084e-08 -1.661613e-08 -1.674043e-08
-1.489128e-08 -1.451956e-08 -1.653772e-08 -1.634222e-08 -1.665477e-08 -1.567169e-08 -1.559498e-08 -1.550073e-08 -1.671423e-08 -1.609074e-08
-1.684323e-08 -1.606750e-08 -1.559992e-08 -1.707954e-08 -1.663404e-08 -1.578743e-08 -1.561539e-08 -1.742863e-08 -1.671913e-08 -1.615868e-08
-1.646146e-08 -1.545660e-08 -1.686581e-08 -1.688864e-08 -1.582181e-08 -1.632962e-08 -1.543335e-08 -1.821580e-08 -1.638067e-08 -1.625487e-08
-1.623062e-08 -1.641555e-08 -1.694518e-08 -1.670490e-08 -1.767626e-08 -1.806323e-08 -1.680510e-08 -1.586181e-08 -1.681055e-08 -1.653538e-08
-1.566165e-08 -1.627894e-08 -1.581483e-08 -1.609174e-08 -1.605513e-08 -1.638828e-08 -1.650780e-08 -1.540834e-08 -1.512484e-08 -1.492517e-08
-1.594080e-08 -1.481779e-08 -1.542000e-08 -1.599068e-08 -1.528673e-08 -1.416238e-08 -1.515886e-08 -1.515463e-08 -1.576439e-08 -1.474217e-08
-1.445625e-08 -1.510404e-08 -1.393395e-08 -1.406608e-08 -1.468827e-08 -1.376279e-08 -1.440508e-08 -1.525538e-08 -1.503912e-08 -1.460292e-08
-1.489983e-08 -1.496574e-08 -1.461739e-08 -1.553792e-08 -1.407690e-08 -1.465196e-08 -1.452882e-08 -1.378681e-08 -1.532295e-08 -1.400024e-08
-1.420641e-08 -1.405810e-08 -1.533422e-08 -1.456047e-08 -1.474050e-08 -1.558248e-08 -1.478971e-08 -1.548034e-08 -1.578138e-08 -1.564262e-08
-1.587305e-08 -1.547792e-08 -1.622096e-08 -1.570193e-08 -1.492318e-08 -1.568306e-08 -1.600732e-08 -1.591068e-08 -1.612064e-08 -1.588418e-08
-1.566825e-08 -1.648377e-08 -1.695350e-08 -1.623969e-08 -1.673515e-08 -1.693346e-08 -1.700447e-08 -1.700604e-08 -1.590440e-08 -1.668142e-08
-1.739571e-08 -1.615836e-08 -1.673451e-08 -1.693796e-08 -1.695447e-08 -1.641744e-08 -1.635653e-08 -1.672438e-08 -1.651671e-08 -1.589893e-08
-1.592089e-08 -1.605148e-08 -1.688955e-08 -1.591363e-08 -1.629396e-08 -1.571304e-08 -1.647911e-08 -1.677031e-08 -1.613713e-08 -1.608075e-08
-1.575037e-08 -1.578550e-08 -1.637634e-08 -1.601802e-08 -1.738562e-08 -1.628979e-08 -1.623389e-08 -1.566955e-08 -1.540037e-08 -1.597670e-08
-1.617891e-08 -1.554309e-08 -1.712584e-08 -1.459191e-08 -1.692172e-08 -1.619297e-08 -1.695737e-08 -1.469018e-08 -1.571153e-08 -1.633823e-08
-1.483200e-08 -1.487259e-08 -1.483625e-08 -1.444909e-08 -1.490302e-08 -1.376854e-08 -1.485942e-08 -1.479043e-08 -1.375747e-08 -1.448370e-08
-1.503394e-08 -1.406387e-08 -1.550973e-08 -1.554801e-08 -1.559875e-08 -1.418613e-08 -1.440358e-08 -1.570986e-08 -1.487890e-08 -1.373156e-08
-1.538514e-08 -1.602404e-08 -1.484345e-08 -1.556162e-08 -1.586654e-08 -1.491574e-08 -1.546578e-08 -1.638262e-08 -1.478842e-08 -1.535631e-08
-1.503358e-08 -1.654842e-08 -1.619195e-08 -1.545173e-08 -1.528481e-08 -1.701626e-08 -1.615879e-08 -1.637516e-08 -1.490021e-08 -1.650479e-08
-1.658045e-08 -1.613672e-08 -1.568548e-08 -1.611448e-08 -1.583254e-08 -1.628972e-08 -1.538679e-08 -1.617369e-08 -1.630992e-08 -1.534168e-08
-1.567400e-08 -1.692343e-08 -1.516947e-08 -1.616087e-08 -1.566574e-08 -1.612846e-08 -1.680255e-08 -1.623701e-08 -1.549930e-08 -1.610089e-08
-1.572658e-08 -1.603491e-08 -1.595710e-08 -1.598494e-08 -1.625250e-08 -1.701049e-08 -1.485139e-08 -1.687522e-08 -1.584438e-08 -1.600884e-08
-1.523755e-08 -1.592237e-08 -1.753111e-08 -1.584921e-08 -1.552535e-08 -1.609751e-08 -1.550886e-08 -1.629318e-08 -1.504207e-08 -1.651235e-08
-1.478738e-08 -1.474519e-08 -1.632499e-08 -1.524406e-08 -1.592400e-08 -1.592534e-08 -1.490377e-08 -1.412250e-08 -1.627695e-08 -1.434114e-08
-1.474585e-08 -1.425258e-08 -1.515008e-08 -1.366988e-08 -1.540345e-08 -1.626050e-08 -1.381821e-08 -1.478522e-08 -1.597144e-08 -1.445023e-08
-1.382282e-08 -1.650285e-08 -1.506608e-08 -1.384698e-08 -1.462849e-08 -1.385690e-08 -1.563681e-08 -1.496493e-08 -1.474769e-08 -1.454159e-08
-1.417232e-08 -1.466097e-08 -1.550537e-08 -1.566853e-08 -1.446707e-08 -1.541171e-08 -1.557041e-08 -1.654400e-08 -1.475341e-08 -1.552016e-08
-1.533206e-08 -1.479958e-08 -1.450469e-08 -1.605583e-08 -1.672493e-08 -1.538265e-08 -1.539880e-08 -1.564071e-08 -1.560948e-08 -1.606841e-08
-1.626272e-08 -1.526388e-08 -1.589933e-08 -1.582987e-08 -1.609829e-08 -1.763670e-08 -1.634285e-08 -1.690319e-08 -1.525991e-08 -1.585170e-08
-1.680871e-08 -1.518495e-08 -1.564313e-08 -1.650463e-08 -1.695899e-08 -1.605904e-08 -1.606577e-08 -1.504991e-08 -1.606168e-08 -1.632471e-08
-1.589699e-08 -1.530827e-08 -1.544260e-08 -1.523986e-08 -1.579075e-08 -1.520478e-08 -1.662620e-08 -1.651848e-08 -1.626480e-08 -1.567576e-08
-1.565405e-08 -1.597256e-08 -1.581124e-08 -1.579013e-08 -1.694641e-08 -1.565651e-08 -1.546392e-08 -1.577020e-08 -1.550239e-08 -1.526311e-08
-1.467705e-08 -1.670458e-08 -1.566270e-08 -1.594984e-08 -1.517081e-08 -1.742860e-08 -1.601203e-08 -1.441279e-08 -1.520877e-08 -1.511364e-08
-1.595801e-08 -1.504391e-08 -1.639595e-08 -1.520758e-08 -1.523362e-08 -1.515358e-08 -1.419436e-08 -1.411532e-08 -1.446181e-08 -1.460025e-08
-1.420687e-08
-1.392797e-08 -1.518792e-08 -1.424361e-08 -1.390557e-08 -1.476691e-08 -1.427087e-08 -1.433780e-08 -1.415322e-08 -1.414019e-08 -1.484666e-08
-1.560083e-08 -1.606502e-08 -1.420017e-08 -1.529814e-08 -1.626439e-08 -1.522775e-08 -1.601647e-08 -1.532728e-08 -1.464199e-08 -1.592894e-08
-1.545443e-08 -1.450825e-08 -1.553551e-08 -1.542662e-08 -1.601713e-08 -1.671373e-08 -1.573103e-08 -1.526373e-08 -1.483661e-08 -1.515847e-08
-1.553765e-08 -1.731416e-08 -1.629490e-08 -1.666255e-08 -1.541753e-08 -1.739767e-08 -1.512569e-08 -1.642943e-08 -1.529227e-08 -1.562883e-08
-1.562174e-08 -1.663860e-08 -1.506169e-08 -1.574894e-08 -1.645788e-08 -1.580257e-08 -1.631148e-08 -1.607945e-08 -1.673949e-08 -1.668652e-08
-1.576123e-08 -1.631859e-08 -1.756480e-08 -1.675041e-08 -1.588074e-08 -1.562730e-08 -1.532648e-08 -1.514572e-08 -1.638952e-08 -1.572145e-08
-1.514191e-08 -1.527175e-08 -1.595043e-08 -1.449687e-08 -1.547423e-08 -1.569834e-08 -1.515073e-08 -1.596200e-08 -1.660701e-08 -1.537171e-08
-1.531333e-08 -1.591047e-08 -1.514490e-08 -1.517473e-08 -1.450680e-08 -1.562598e-08 -1.423814e-08 -1.482853e-08 -1.538349e-08 -1.538710e-08
-1.384941e-08 -1.528196e-08 -1.610879e-08 -1.402269e-08 -1.341100e-08 -1.529318e-08 -1.490797e-08 -1.442392e-08 -1.416388e-08 -1.405340e-08
-1.571669e-08 -1.331510e-08 -1.376789e-08 -1.418776e-08 -1.428214e-08 -1.433110e-08 -1.448695e-08 -1.441605e-08 -1.355190e-08 -1.483063e-08
-1.481665e-08 -1.476680e-08 -1.543607e-08 -1.492044e-08 -1.610481e-08 -1.525922e-08 -1.421532e-08 -1.549632e-08 -1.527429e-08 -1.502997e-08
-1.565771e-08 -1.557787e-08 -1.496530e-08 -1.687062e-08 -1.581337e-08 -1.539918e-08 -1.477526e-08 -1.511393e-08 -1.552120e-08 -1.655470e-08
-1.560977e-08 -1.579223e-08 -1.545306e-08 -1.571065e-08 -1.631186e-08 -1.586433e-08 -1.566880e-08 -1.698038e-08 -1.545636e-08 -1.750213e-08
-1.600765e-08 -1.532823e-08 -1.637397e-08 -1.681274e-08 -1.662504e-08 -1.649649e-08 -1.581672e-08 -1.600038e-08 -1.543796e-08 -1.548357e-08
-1.608965e-08 -1.564628e-08 -1.605108e-08 -1.670497e-08 -1.575955e-08 -1.615010e-08 -1.567399e-08 -1.609848e-08 -1.558906e-08 -1.625342e-08
-1.599979e-08 -1.575095e-08 -1.528868e-08 -1.576712e-08 -1.596697e-08 -1.751944e-08 -1.555724e-08 -1.619514e-08 -1.520811e-08 -1.705586e-08
-1.621204e-08 -1.535818e-08 -1.639813e-08 -1.570075e-08 -1.571528e-08 -1.426465e-08 -1.562167e-08 -1.586280e-08 -1.484516e-08 -1.493185e-08
-1.436609e-08 -1.439722e-08 -1.345211e-08 -1.437896e-08 -1.581448e-08 -1.443533e-08 -1.532760e-08 -1.415983e-08 -1.459072e-08 -1.414743e-08
-1.452284e-08 -1.453188e-08 -1.451397e-08 -1.368382e-08 -1.433680e-08 -1.515498e-08 -1.443791e-08 -1.486740e-08 -1.492957e-08 -1.545587e-08
-1.519277e-08 -1.517137e-08 -1.544902e-08 -1.460400e-08 -1.679706e-08 -1.553285e-08 -1.410052e-08 -1.512861e-08 -1.544292e-08 -1.505148e-08
-1.425932e-08 -1.626106e-08 -1.535095e-08 -1.549941e-08 -1.550347e-08 -1.618684e-08 -1.586985e-08 -1.640313e-08 -1.513336e-08 -1.604844e-08
-1.589725e-08 -1.715779e-08 -1.564638e-08 -1.671007e-08 -1.626523e-08 -1.602937e-08 -1.576083e-08 -1.556223e-08 -1.515664e-08 -1.514024e-08
-1.597919e-08 -1.706990e-08 -1.605705e-08 -1.523883e-08 -1.526538e-08 -1.636597e-08 -1.612397e-08 -1.538405e-08 -1.597319e-08 -1.553993e-08
-1.643673e-08 -1.605628e-08 -1.595684e-08 -1.562821e-08 -1.511720e-08 -1.615585e-08 -1.531429e-08 -1.543004e-08 -1.508313e-08 -1.576771e-08
-1.615246e-08 -1.629002e-08 -1.506094e-08 -1.500606e-08 -1.499050e-08 -1.445899e-08 -1.524305e-08 -1.449896e-08 -1.576372e-08 -1.554994e-08
-1.503436e-08 -1.542896e-08 -1.661902e-08 -1.444118e-08 -1.412461e-08 -1.388649e-08 -1.466272e-08 -1.405581e-08 -1.496982e-08 -1.438065e-08
-1.560094e-08 -1.359747e-08 -1.414316e-08 -1.445539e-08 -1.419546e-08 -1.389962e-08 -1.364081e-08 -1.339886e-08 -1.438445e-08 -1.540114e-08
-1.409247e-08 -1.448804e-08 -1.323993e-08 -1.510912e-08 -1.413091e-08 -1.382026e-08 -1.476849e-08 -1.452461e-08 -1.348407e-08 -1.595365e-08
-1.401895e-08 -1.428128e-08 -1.439890e-08 -1.505915e-08 -1.409134e-08 -1.503469e-08 -1.503654e-08 -1.385214e-08 -1.578031e-08 -1.421978e-08
-1.562800e-08 -1.418039e-08 -1.553379e-08 -1.569436e-08 -1.504935e-08 -1.432897e-08 -1.724869e-08 -1.616899e-08 -1.622610e-08 -1.557951e-08
-1.579007e-08 -1.534369e-08 -1.517498e-08 -1.587826e-08 -1.607756e-08 -1.587381e-08 -1.486724e-08 -1.608915e-08 -1.548664e-08 -1.637584e-08
-1.581450e-08 -1.507405e-08 -1.597517e-08 -1.634751e-08 -1.568207e-08 -1.622363e-08 -1.490361e-08 -1.497990e-08 -1.586538e-08 -1.513144e-08
-1.527081e-08 -1.624211e-08 -1.511044e-08 -1.507838e-08 -1.553121e-08 -1.482418e-08 -1.661180e-08 -1.586673e-08 -1.590314e-08 -1.560275e-08
-1.568437e-08 -1.515892e-08 -1.545943e-08 -1.631332e-08 -1.710310e-08 -1.633994e-08 -1.494669e-08 -1.657007e-08 -1.618886e-08 -1.585175e-08
-1.574862e-08 -1.519516e-08 -1.547088e-08 -1.421164e-08 -1.554383e-08 -1.524419e-08 -1.558124e-08 -1.664625e-08 -1.420998e-08 -1.472768e-08
-1.425250e-08 -1.440393e-08 -1.584369e-08 -1.435777e-08 -1.449665e-08 -1.391564e-08 -1.455085e-08 -1.533003e-08 -1.508797e-08 -1.390226e-08
-1.392797e-08
-1.417483e-08 -1.382663e-08 -1.391700e-08 -1.316035e-08 -1.403529e-08 -1.370229e-08 -1.546316e-08 -1.401955e-08 -1.455273e-08 -1.360269e-08
-1.512944e-08 -1.587786e-08 -1.506095e-08 -1.393791e-08 -1.558671e-08 -1.505302e-08 -1.526937e-08 -1.436741e-08 -1.420544e-08 -1.432413e-08
-1.552105e-08 -1.451267e-08 -1.438179e-08 -1.465107e-08 -1.452605e-08 -1.427076e-08 -1.588530e-08 -1.591831e-08 -1.413945e-08 -1.453628e-08
-1.591445e-08 -1.520146e-08 -1.539105e-08 -1.583426e-08 -1.507595e-08 -1.589673e-08 -1.564989e-08 -1.530023e-08 -1.627547e-08 -1.507280e-08
-1.627613e-08 -1.501034e-08 -1.512771e-08 -1.575867e-08 -1.535702e-08 -1.513229e-08 -1.552809e-08 -1.553337e-08 -1.568446e-08 -1.475671e-08
-1.474501e-08 -1.553936e-08 -1.532809e-08 -1.547529e-08 -1.627052e-08 -1.597512e-08 -1.614016e-08 -1.523131e-08 -1.678925e-08 -1.589907e-08
-1.466547e-08 -1.505487e-08 -1.533959e-08 -1.545298e-08 -1.595376e-08 -1.444036e-08 -1.488880e-08 -1.541120e-08 -1.428787e-08 -1.561988e-08
-1.692708e-08 -1.473061e-08 -1.608301e-08 -1.396602e-08 -1.486785e-08 -1.474524e-08 -1.432047e-08 -1.523966e-08 -1.468287e-08 -1.391439e-08
-1.395675e-08 -1.374410e-08 -1.414745e-08 -1.265383e-08 -1.380038e-08 -1.501427e-08 -1.506717e-08 -1.365729e-08 -1.403788e-08 -1.534879e-08
-1.399269e-08 -1.551793e-08 -1.331732e-08 -1.440317e-08 -1.363019e-08 -1.384802e-08 -1.388928e-08 -1.552630e-08 -1.366843e-08 -1.310517e-08
-1.388300e-08 -1.385990e-08 -1.469661e-08 -1.471564e-08 -1.516674e-08 -1.428968e-08 -1.416330e-08 -1.544645e-08 -1.515073e-08 -1.487444e-08
-1.501987e-08 -1.475910e-08 -1.630538e-08 -1.470488e-08 -1.497567e-08 -1.534406e-08 -1.438323e-08 -1.481547e-08 -1.469213e-08 -1.586025e-08
-1.514060e-08 -1.680381e-08 -1.602759e-08 -1.533209e-08 -1.644010e-08 -1.519788e-08 -1.608343e-08 -1.521228e-08 -1.590907e-08 -1.607800e-08
-1.508368e-08 -1.528267e-08 -1.541301e-08 -1.506312e-08 -1.606711e-08 -1.556893e-08 -1.521904e-08 -1.499774e-08 -1.517218e-08 -1.558659e-08
-1.527489e-08 -1.542507e-08 -1.559187e-08 -1.581965e-08 -1.569102e-08 -1.522088e-08 -1.590524e-08 -1.492115e-08 -1.602816e-08 -1.655516e-08
-1.730619e-08 -1.527473e-08 -1.610698e-08 -1.606469e-08 -1.496160e-08 -1.615734e-08 -1.524444e-08 -1.534728e-08 -1.664755e-08 -1.508249e-08
-1.582390e-08 -1.534960e-08 -1.550617e-08 -1.659046e-08 -1.543453e-08 -1.535906e-08 -1.429424e-08 -1.469404e-08 -1.433909e-08 -1.497612e-08
-1.412201e-08 -1.522994e-08 -1.457288e-08 -1.353515e-08 -1.345534e-08 -1.444395e-08 -1.419366e-08 -1.356426e-08 -1.290744e-08 -1.397848e-08
-1.359003e-08 -1.447011e-08 -1.354822e-08 -1.433838e-08 -1.616060e-08 -1.423567e-08 -1.425493e-08 -1.523980e-08 -1.350124e-08 -1.382842e-08
-1.470476e-08 -1.524540e-08 -1.435639e-08 -1.456200e-08 -1.423499e-08 -1.472714e-08 -1.559323e-08 -1.568784e-08 -1.635222e-08 -1.515938e-08
-1.492834e-08 -1.629465e-08 -1.405616e-08 -1.553843e-08 -1.533686e-08 -1.601154e-08 -1.591941e-08 -1.459461e-08 -1.497130e-08 -1.476893e-08
-1.489921e-08 -1.424995e-08 -1.538121e-08 -1.529590e-08 -1.607282e-08 -1.640278e-08 -1.562703e-08 -1.644636e-08 -1.571844e-08 -1.600475e-08
-1.590218e-08 -1.513802e-08 -1.604327e-08 -1.712187e-08 -1.585510e-08 -1.607118e-08 -1.509292e-08 -1.525235e-08 -1.567585e-08 -1.554193e-08
-1.460451e-08 -1.604088e-08 -1.620579e-08 -1.468211e-08 -1.550580e-08 -1.525379e-08 -1.706713e-08 -1.593972e-08 -1.479962e-08 -1.426660e-08
-1.467006e-08 -1.466099e-08 -1.518802e-08 -1.437931e-08 -1.590656e-08 -1.537372e-08 -1.607835e-08 -1.432549e-08 -1.379334e-08 -1.552891e-08
-1.502598e-08 -1.398000e-08 -1.347909e-08 -1.405582e-08 -1.590479e-08 -1.527965e-08 -1.476407e-08 -1.403603e-08 -1.403210e-08 -1.274985e-08
-1.493346e-08 -1.485974e-08 -1.340523e-08 -1.474780e-08 -1.411349e-08 -1.325706e-08 -1.479837e-08 -1.367462e-08 -1.419765e-08 -1.418648e-08
-1.541016e-08 -1.521924e-08 -1.293988e-08 -1.436878e-08 -1.537687e-08 -1.315305e-08 -1.338180e-08 -1.276697e-08 -1.405281e-08 -1.394216e-08
-1.334546e-08 -1.367484e-08 -1.560330e-08 -1.429227e-08 -1.469903e-08 -1.503119e-08 -1.467322e-08 -1.454276e-08 -1.518499e-08 -1.533233e-08
-1.491789e-08 -1.552619e-08 -1.447425e-08 -1.565929e-08 -1.624338e-08 -1.508897e-08 -1.428664e-08 -1.553254e-08 -1.569770e-08 -1.620467e-08
-1.650169e-08 -1.575949e-08 -1.507766e-08 -1.504743e-08 -1.589316e-08 -1.511557e-08 -1.589024e-08 -1.516639e-08 -1.646007e-08 -1.652945e-08
-1.608951e-08 -1.466272e-08 -1.474851e-08 -1.516226e-08 -1.620877e-08 -1.550920e-08 -1.690255e-08 -1.503773e-08 -1.523596e-08 -1.495125e-08
-1.483360e-08 -1.546329e-08 -1.538120e-08 -1.490196e-08 -1.452681e-08 -1.436825e-08 -1.579699e-08 -1.461399e-08 -1.484676e-08 -1.557915e-08
-1.552278e-08 -1.521841e-08 -1.524031e-08 -1.383151e-08 -1.453599e-08 -1.544460e-08 -1.598310e-08 -1.482425e-08 -1.499521e-08 -1.597365e-08
-1.436137e-08 -1.703732e-08 -1.566874e-08 -1.412401e-08 -1.368321e-08 -1.639619e-08 -1.632775e-08 -1.518274e-08 -1.479324e-08 -1.360816e-08
-1.537526e-08 -1.420769e-08 -1.488928e-08 -1.318381e-08 -1.489796e-08 -1.414849e-08 -1.426053e-08 -1.371977e-08 -1.435077e-08 -1.332394e-08
-1.417483e-08
-1.362490e-08 -1.312129e-08 -1.377293e-08 -1.545507e-08 -1.563828e-08 -1.563576e-08 -1.357103e-08 -1.297462e-08 -1.305370e-08 -1.380196e-08
-1.466582e-08 -1.499501e-08 -1.446297e-08 -1.406918e-08 -1.493538e-08 -1.414106e-08 -1.362996e-08 -1.575444e-08 -1.336677e-08 -1.425150e-08
-1.376882e-08 -1.417687e-08 -1.521335e-08 -1.437248e-08 -1.503748e-08 -1.586027e-08 -1.488823e-08 -1.485630e-08 -1.490993e-08 -1.449840e-08
-1.394696e-08 -1.514979e-08 -1.529307e-08 -1.586407e-08 -1.439688e-08 -1.570151e-08 -1.556574e-08 -1.490878e-08 -1.588997e-08 -1.623426e-08
-1.520032e-08 -1.555597e-08 -1.578618e-08 -1.574766e-08 -1.580440e-08 -1.687336e-08 -1.431327e-08 -1.642299e-08 -1.551386e-08 -1.482888e-08
-1.553740e-08 -1.636235e-08 -1.651452e-08 -1.554677e-08 -1.515658e-08 -1.564790e-08 -1.544520e-08 -1.456287e-08 -1.663214e-08 -1.471007e-08
-1.530636e-08 -1.586432e-08 -1.497206e-08 -1.443183e-08 -1.559904e-08 -1.433893e-08 -1.588257e-08 -1.561871e-08 -1.453016e-08 -1.531673e-08
-1.439559e-08 -1.362125e-08 -1.557987e-08 -1.425637e-08 -1.457087e-08 -1.397462e-08 -1.368409e-08 -1.375525e-08 -1.447302e-08 -1.302085e-08
-1.458587e-08 -1.380242e-08 -1.297202e-08 -1.335972e-08 -1.390340e-08 -1.337066e-08 -1.483316e-08 -1.377597e-08 -1.386252e-08 -1.286074e-08
-1.387831e-08 -1.375833e-08 -1.487786e-08 -1.440546e-08 -1.441711e-08 -1.351045e-08 -1.338075e-08 -1.316256e-08 -1.297076e-08 -1.445995e-08
-1.396254e-08 -1.485495e-08 -1.482798e-08 -1.406468e-08 -1.368710e-08 -1.434240e-08 -1.461749e-08 -1.565182e-08 -1.538531e-08 -1.473510e-08
-1.458379e-08 -1.492288e-08 -1.539035e-08 -1.548792e-08 -1.437341e-08 -1.434791e-08 -1.531508e-08 -1.428328e-08 -1.653354e-08 -1.493090e-08
-1.504625e-08 -1.590627e-08 -1.481370e-08 -1.547668e-08 -1.595816e-08 -1.672738e-08 -1.504436e-08 -1.630237e-08 -1.477315e-08 -1.575455e-08
-1.617445e-08 -1.593274e-08 -1.564216e-08 -1.524248e-08 -1.567235e-08 -1.503177e-08 -1.521526e-08 -1.572884e-08 -1.543018e-08 -1.466774e-08
-1.454595e-08 -1.592845e-08 -1.639926e-08 -1.591747e-08 -1.559598e-08 -1.527495e-08 -1.552602e-08 -1.611749e-08 -1.567301e-08 -1.564145e-08
-1.565076e-08 -1.623685e-08 -1.475026e-08 -1.494137e-08 -1.561536e-08 -1.574804e-08 -1.556101e-08 -1.439939e-08 -1.498056e-08 -1.456793e-08
-1.477823e-08 -1.572494e-08 -1.422107e-08 -1.482371e-08 -1.477000e-08 -1.514783e-08 -1.511392e-08 -1.391173e-08 -1.431359e-08 -1.476556e-08
-1.516049e-08 -1.370682e-08 -1.347189e-08 -1.485381e-08 -1.345114e-08 -1.292833e-08 -1.323631e-08 -1.380482e-08 -1.322932e-08 -1.309104e-08
-1.412176e-08 -1.590506e-08 -1.348856e-08 -1.349636e-08 -1.281353e-08 -1.428751e-08 -1.502801e-08 -1.416891e-08 -1.497782e-08 -1.379856e-08
-1.369702e-08 -1.424737e-08 -1.533950e-08 -1.350729e-08 -1.354688e-08 -1.472064e-08 -1.374573e-08 -1.386084e-08 -1.466037e-08 -1.431291e-08
-1.518055e-08 -1.428949e-08 -1.462880e-08 -1.433142e-08 -1.555759e-08 -1.457467e-08 -1.440639e-08 -1.467679e-08 -1.619036e-08 -1.429790e-08
-1.462645e-08 -1.461736e-08 -1.670309e-08 -1.590406e-08 -1.537236e-08 -1.560966e-08 -1.446135e-08 -1.459208e-08 -1.493652e-08 -1.486971e-08
-1.590056e-08 -1.444250e-08 -1.505646e-08 -1.501125e-08 -1.454166e-08 -1.557102e-08 -1.492149e-08 -1.442572e-08 -1.605811e-08 -1.439938e-08
-1.451920e-08 -1.530085e-08 -1.510444e-08 -1.445408e-08 -1.475351e-08 -1.578554e-08 -1.466243e-08 -1.490689e-08 -1.530926e-08 -1.446795e-08
-1.459177e-08 -1.496350e-08 -1.465665e-08 -1.393645e-08 -1.592357e-08 -1.497749e-08 -1.506814e-08 -1.456875e-08 -1.476340e-08 -1.458062e-08
-1.534175e-08 -1.576563e-08 -1.430808e-08 -1.358909e-08 -1.412615e-08 -1.352499e-08 -1.354850e-08 -1.399133e-08 -1.405685e-08 -1.393235e-08
-1.320731e-08 -1.355392e-08 -1.374364e-08 -1.303763e-08 -1.324572e-08 -1.323479e-08 -1.320840e-08 -1.313849e-08 -1.488985e-08 -1.498687e-08
-1.495236e-08 -1.518674e-08 -1.306179e-08 -1.310456e-08 -1.298476e-08 -1.241358e-08 -1.541416e-08 -1.477688e-08 -1.447464e-08 -1.328797e-08
-1.440500e-08 -1.473768e-08 -1.411007e-08 -1.364049e-08 -1.366744e-08 -1.412939e-08 -1.420541e-08 -1.409431e-08 -1.472614e-08 -1.439853e-08
-1.552109e-08 -1.442803e-08 -1.390097e-08 -1.474125e-08 -1.390954e-08 -1.581321e-08 -1.523497e-08 -1.646281e-08 -1.565076e-08 -1.554948e-08
-1.552131e-08 -1.479366e-08 -1.616358e-08 -1.516179e-08 -1.547599e-08 -1.538501e-08 -1.550736e-08 -1.508526e-08 -1.639862e-08 -1.580017e-08
-1.497657e-08 -1.528594e-08 -1.419604e-08 -1.460901e-08 -1.484493e-08 -1.538287e-08 -1.554644e-08 -1.518255e-08 -1.568181e-08 -1.416735e-08
-1.411194e-08 -1.440673e-08 -1.525287e-08 -1.534073e-08 -1.426793e-08 -1.412813e-08 -1.455703e-08 -1.493627e-08 -1.347727e-08 -1.596996e-08
-1.574095e-08 -1.618020e-08 -1.375854e-08 -1.450498e-08 -1.442363e-08 -1.363162e-08 -1.398924e-08 -1.390851e-08 -1.504435e-08 -1.458214e-08
-1.527825e-08 -1.522034e-08 -1.647983e-08 -1.394459e-08 -1.531224e-08 -1.474995e-08 -1.402770e-08 -1.346905e-08 -1.496174e-08 -1.533765e-08
-1.445765e-08 -1.365461e-08 -1.307338e-08 -1.419427e-08 -1.337441e-08 -1.362658e-08 -1.383669e-08 -1.296175e-08 -1.408065e-08 -1.292767e-08
-1.362490e-08
-1.448061e-08 -1.308958e-08 -1.277123e-08 -1.398813e-08 -1.332201e-08 -1.265655e-08 -1.316499e-08 -1.288748e-08 -1.472856e-08 -1.294952e-08
-1.330110e-08 -1.418808e-08 -1.411371e-08 -1.314285e-08 -1.416053e-08 -1.399708e-08 -1.420096e-08 -1.486366e-08 -1.520468e-08 -1.414994e-08
-1.515146e-08 -1.376676e-08 -1.478398e-08 -1.405308e-08 -1.423737e-08 -1.416349e-08 -1.451560e-08 -1.371566e-08 -1.474769e-08 -1.451585e-08
-1.432055e-08 -1.419161e-08 -1.442105e-08 -1.448570e-08 -1.508187e-08 -1.541639e-08 -1.388045e-08 -1.531318e-08 -1.420633e-08 -1.508642e-08
-1.430422e-08 -1.476517e-08 -1.498770e-08 -1.444678e-08 -1.486667e-08 -1.491555e-08 -1.566330e-08 -1.482375e-08 -1.448431e-08 -1.526143e-08
-1.495044e-08 -1.511537e-08 -1.379609e-08 -1.505548e-08 -1.495347e-08 -1.508332e-08 -1.499852e-08 -1.489591e-08 -1.591646e-08 -1.593431e-08
-1.363948e-08 -1.460133e-08 -1.399385e-08 -1.383712e-08 -1.470461e-08 -1.379555e-08 -1.445618e-08 -1.425527e-08 -1.476158e-08 -1.385023e-08
-1.510323e-08 -1.444479e-08 -1.399474e-08 -1.474061e-08 -1.482840e-08 -1.300712e-08 -1.367481e-08 -1.418130e-08 -1.320709e-08 -1.406837e-08
-1.498531e-08 -1.286275e-08 -1.360613e-08 -1.341347e-08 -1.313500e-08 -1.342868e-08 -1.302917e-08 -1.374282e-08 -1.307242e-08 -1.362188e-08
-1.281919e-08 -1.334262e-08 -1.411515e-08 -1.623551e-08 -1.334687e-08 -1.302408e-08 -1.327683e-08 -1.287313e-08 -1.437403e-08 -1.347053e-08
-1.336569e-08 -1.453341e-08 -1.344004e-08 -1.386312e-08 -1.491473e-08 -1.381888e-08 -1.434407e-08 -1.533497e-08 -1.388966e-08 -1.425425e-08
-1.454224e-08 -1.363053e-08 -1.455277e-08 -1.500815e-08 -1.536479e-08 -1.490175e-08 -1.613397e-08 -1.533246e-08 -1.458227e-08 -1.560916e-08
-1.520488e-08 -1.492073e-08 -1.506097e-08 -1.543021e-08 -1.529751e-08 -1.482474e-08 -1.506780e-08 -1.437530e-08 -1.556915e-08 -1.544513e-08
-1.513460e-08 -1.604291e-08 -1.470738e-08 -1.573653e-08 -1.517968e-08 -1.485144e-08 -1.473635e-08 -1.682040e-08 -1.451033e-08 -1.488498e-08
-1.416105e-08 -1.422963e-08 -1.624570e-08 -1.539420e-08 -1.504003e-08 -1.471026e-08 -1.470225e-08 -1.421804e-08 -1.439850e-08 -1.416130e-08
-1.542612e-08 -1.586577e-08 -1.469839e-08 -1.526112e-08 -1.618722e-08 -1.414822e-08 -1.627077e-08 -1.409795e-08 -1.469674e-08 -1.393446e-08
-1.458771e-08 -1.359260e-08 -1.428296e-08 -1.489492e-08 -1.437589e-08 -1.461414e-08 -1.419079e-08 -1.366073e-08 -1.443950e-08 -1.378633e-08
-1.371732e-08 -1.505319e-08 -1.452626e-08 -1.341526e-08 -1.425602e-08 -1.226303e-08 -1.343465e-08 -1.430657e-08 -1.297787e-08 -1.285190e-08
-1.394831e-08 -1.384516e-08 -1.528070e-08 -1.332108e-08 -1.426104e-08 -1.367423e-08 -1.279589e-08 -1.337629e-08 -1.329112e-08 -1.336655e-08
-1.255135e-08 -1.419906e-08 -1.331186e-08 -1.508632e-08 -1.303194e-08 -1.333579e-08 -1.323048e-08 -1.568937e-08 -1.511100e-08 -1.418932e-08
-1.427790e-08 -1.526408e-08 -1.491137e-08 -1.671357e-08 -1.401244e-08 -1.452916e-08 -1.508085e-08 -1.477736e-08 -1.535272e-08 -1.541813e-08
-1.409062e-08 -1.404512e-08 -1.469607e-08 -1.422052e-08 -1.480725e-08 -1.617004e-08 -1.460002e-08 -1.533109e-08 -1.434847e-08 -1.452241e-08
-1.393484e-08 -1.398774e-08 -1.476676e-08 -1.478359e-08 -1.386144e-08 -1.381444e-08 -1.462277e-08 -1.493953e-08 -1.512031e-08 -1.552011e-08
-1.510488e-08 -1.402100e-08 -1.434386e-08 -1.414754e-08 -1.520289e-08 -1.420559e-08 -1.508947e-08 -1.593792e-08 -1.408899e-08 -1.520469e-08
-1.496723e-08 -1.513162e-08 -1.343718e-08 -1.413376e-08 -1.430400e-08 -1.509180e-08 -1.598623e-08 -1.482649e-08 -1.338825e-08 -1.476629e-08
-1.465540e-08 -1.345312e-08 -1.466949e-08 -1.328313e-08 -1.336035e-08 -1.292205e-08 -1.364880e-08 -1.472713e-08 -1.462587e-08 -1.378028e-08
-1.282802e-08 -1.337994e-08 -1.410915e-08 -1.430369e-08 -1.361878e-08 -1.259825e-08 -1.320006e-08 -1.297483e-08 -1.257037e-08 -1.305002e-08
-1.429864e-08 -1.337177e-08 -1.367374e-08 -1.332469e-08 -1.270505e-08 -1.252710e-08 -1.370050e-08 -1.268689e-08 -1.365404e-08 -1.289589e-08
-1.393491e-08 -1.390254e-08 -1.350011e-08 -1.367793e-08 -1.444632e-08 -1.486497e-08 -1.495220e-08 -1.479045e-08 -1.349693e-08 -1.410741e-08
-1.351190e-08 -1.450291e-08 -1.513807e-08 -1.544620e-08 -1.530024e-08 -1.394416e-08 -1.544935e-08 -1.594413e-08 -1.497648e-08 -1.476392e-08
-1.512835e-08 -1.528250e-08 -1.445988e-08 -1.473967e-08 -1.468662e-08 -1.482169e-08 -1.559811e-08 -1.506445e-08 -1.473182e-08 -1.507506e-08
-1.426842e-08 -1.359269e-08 -1.518760e-08 -1.627068e-08 -1.465484e-08 -1.567951e-08 -1.501164e-08 -1.384774e-08 -1.503163e-08 -1.441466e-08
-1.476793e-08 -1.473222e-08 -1.483593e-08 -1.527838e-08 -1.391932e-08 -1.436761e-08 -1.605101e-08 -1.505436e-08 -1.522892e-08 -1.588693e-08
-1.389477e-08 -1.521533e-08 -1.496670e-08 -1.512692e-08 -1.468328e-08 -1.350678e-08 -1.419546e-08 -1.314283e-08 -1.360189e-08 -1.355013e-08
-1.366806e-08 -1.452025e-08 -1.336425e-08 -1.336716e-08 -1.385338e-08 -1.403678e-08 -1.427079e-08 -1.304907e-08 -1.420584e-08 -1.295102e-08
-1.358041e-08 -1.378431e-08 -1.300939e-08 -1.332402e-08 -1.367011e-08 -1.423426e-08 -1.337866e-08 -1.376259e-08 -1.392551e-08 -1.276021e-08
-1.448061e-08
-1.334186e-08 -1.231531e-08 -1.290091e-08 -1.351291e-08 -1.411358e-08 -1.450392e-08 -1.362893e-08 -1.234497e-08 -1.269086e-08 -1.282063e-08
-1.274463e-08 -1.203599e-08 -1.408568e-08 -1.506542e-08 -1.353655e-08 -1.293012e-08 -1.401771e-08 -1.388969e-08 -1.457375e-08 -1.313283e-08
-1.653463e-08 -1.546360e-08 -1.359894e-08 -1.547184e-08 -1.502301e-08 -1.499594e-08 -1.355587e-08 -1.586375e-08 -1.430328e-08 -1.353438e-08
-1.330509e-08 -1.517379e-08 -1.552277e-08 -1.581445e-08 -1.493699e-08 -1.498848e-08 -1.392302e-08 -1.459521e-08 -1.596150e-08 -1.387074e-08
-1.400685e-08 -1.481633e-08 -1.384206e-08 -1.450848e-08 -1.565686e-08 -1.457773e-08 -1.448706e-08 -1.401191e-08 -1.532660e-08 -1.467248e-08
-1.400308e-08 -1.530174e-08 -1.461340e-08 -1.496098e-08 -1.367381e-08 -1.438817e-08 -1.342223e-08 -1.403918e-08 -1.524718e-08 -1.474562e-08
-1.324047e-08 -1.454103e-08 -1.560621e-08 -1.296414e-08 -1.443594e-08 -1.432997e-08 -1.412201e-08 -1.481411e-08 -1.424994e-08 -1.354760e-08
-1.314132e-08 -1.464981e-08 -1.418301e-08 -1.366840e-08 -1.270412e-08 -1.338444e-08 -1.253613e-08 -1.281299e-08 -1.346870e-08 -1.268040e-08
-1.250963e-08 -1.405261e-08 -1.278817e-08 -1.302292e-08 -1.286519e-08 -1.286870e-08 -1.297765e-08 -1.243141e-08 -1.335010e-08 -1.252841e-08
-1.176768e-08 -1.393775e-08 -1.284791e-08 -1.286320e-08 -1.192835e-08 -1.349071e-08 -1.289416e-08 -1.350780e-08 -1.444386e-08 -1.236656e-08
-1.309044e-08 -1.302518e-08 -1.356232e-08 -1.319733e-08 -1.491960e-08 -1.418881e-08 -1.342893e-08 -1.378740e-08 -1.455747e-08 -1.450035e-08
-1.342654e-08 -1.362656e-08 -1.502328e-08 -1.397975e-08 -1.444021e-08 -1.499438e-08 -1.459793e-08 -1.515640e-08 -1.350238e-08 -1.526192e-08
-1.418205e-08 -1.362676e-08 -1.383723e-08 -1.462022e-08 -1.534037e-08 -1.462540e-08 -1.411169e-08 -1.418410e-08 -1.471752e-08 -1.577272e-08
-1.488145e-08 -1.461491e-08 -1.610248e-08 -1.441985e-08 -1.452460e-08 -1.448982e-08 -1.434708e-08 -1.447936e-08 -1.489930e-08 -1.469049e-08
-1.405859e-08 -1.452568e-08 -1.425039e-08 -1.430606e-08 -1.395174e-08 -1.461286e-08 -1.409622e-08 -1.550463e-08 -1.397089e-08 -1.503730e-08
-1.413228e-08 -1.502254e-08 -1.452621e-08 -1.356449e-08 -1.398770e-08 -1.434602e-08 -1.424044e-08 -1.513743e-08 -1.479478e-08 -1.364343e-08
-1.547539e-08 -1.441809e-08 -1.486033e-08 -1.446101e-08 -1.389194e-08 -1.472692e-08 -1.536986e-08 -1.274902e-08 -1.438338e-08 -1.367430e-08
-1.486282e-08 -1.286705e-08 -1.264425e-08 -1.279538e-08 -1.390525e-08 -1.312378e-08 -1.252173e-08 -1.227746e-08 -1.424242e-08 -1.331079e-08
-1.224472e-08 -1.226543e-08 -1.561873e-08 -1.188037e-08 -1.257512e-08 -1.351806e-08 -1.217804e-08 -1.296527e-08 -1.293962e-08 -1.258239e-08
-1.311934e-08 -1.387569e-08 -1.307684e-08 -1.303715e-08 -1.435296e-08 -1.470029e-08 -1.358546e-08 -1.370864e-08 -1.251361e-08 -1.340914e-08
-1.466744e-08 -1.421461e-08 -1.481536e-08 -1.366734e-08 -1.394772e-08 -1.506208e-08 -1.430203e-08 -1.405921e-08 -1.438072e-08 -1.398923e-08
-1.378392e-08 -1.386173e-08 -1.540809e-08 -1.454705e-08 -1.386139e-08 -1.487306e-08 -1.471287e-08 -1.412396e-08 -1.368931e-08 -1.579933e-08
-1.438055e-08 -1.496608e-08 -1.457486e-08 -1.494224e-08 -1.487844e-08 -1.334564e-08 -1.460149e-08 -1.429498e-08 -1.512478e-08 -1.408010e-08
-1.460696e-08 -1.434972e-08 -1.401961e-08 -1.426904e-08 -1.381526e-08 -1.366303e-08 -1.394148e-08 -1.422843e-08 -1.396382e-08 -1.385558e-08
-1.398582e-08 -1.444748e-08 -1.298335e-08 -1.361502e-08 -1.321626e-08 -1.480421e-08 -1.391630e-08 -1.456638e-08 -1.355356e-08 -1.407038e-08
-1.449739e-08 -1.341321e-08 -1.388695e-08 -1.394595e-08 -1.315427e-08 -1.387192e-08 -1.419386e-08 -1.401160e-08 -1.470936e-08 -1.378825e-08
-1.316647e-08 -1.435866e-08 -1.244842e-08 -1.403207e-08 -1.386905e-08 -1.246496e-08 -1.293319e-08 -1.265165e-08 -1.203281e-08 -1.483363e-08
-1.383827e-08 -1.369787e-08 -1.218813e-08 -1.247642e-08 -1.263611e-08 -1.273924e-08 -1.240110e-08 -1.328916e-08 -1.423427e-08 -1.403935e-08
-1.306179e-08 -1.342982e-08 -1.389106e-08 -1.375171e-08 -1.474594e-08 -1.383114e-08 -1.409028e-08 -1.296998e-08 -1.349238e-08 -1.495630e-08
-1.377839e-08 -1.317938e-08 -1.363010e-08 -1.573190e-08 -1.396090e-08 -1.340965e-08 -1.542169e-08 -1.527651e-08 -1.374973e-08 -1.489742e-08
-1.483160e-08 -1.375615e-08 -1.492862e-08 -1.417720e-08 -1.451565e-08 -1.464360e-08 -1.366593e-08 -1.418638e-08 -1.420270e-08 -1.432911e-08
-1.380920e-08 -1.394791e-08 -1.425299e-08 -1.381193e-08 -1.463230e-08 -1.408743e-08 -1.412843e-08 -1.447573e-08 -1.449264e-08 -1.524875e-08
-1.449027e-08 -1.432964e-08 -1.417953e-08 -1.355872e-08 -1.465074e-08 -1.377500e-08 -1.479816e-08 -1.503700e-08 -1.475656e-08 -1.375330e-08
-1.534012e-08 -1.389441e-08 -1.346568e-08 -1.364244e-08 -1.539224e-08 -1.580757e-08 -1.448282e-08 -1.339254e-08 -1.318930e-08 -1.339824e-08
-1.336624e-08 -1.370399e-08 -1.345184e-08 -1.317736e-08 -1.304807e-08 -1.414707e-08 -1.301577e-08 -1.299500e-08 -1.401292e-08 -1.398606e-08
-1.373629e-08 -1.358824e-08 -1.384857e-08 -1.353052e-08 -1.262625e-08 -1.243600e-08 -1.378522e-08 -1.477122e-08 -1.472091e-08 -1.313704e-08
-1.334186e-08
-1.285375e-08 -1.191783e-08 -1.183877e-08 -1.276602e-08 -1.439432e-08 -1.343818e-08 -1.274137e-08 -1.196721e-08 -1.355789e-08 -1.396705e-08
-1.411012e-08 -1.326609e-08 -1.445334e-08 -1.401978e-08 -1.239501e-08 -1.276380e-08 -1.323563e-08 -1.389802e-08 -1.426082e-08 -1.436262e-08
-1.460216e-08 -1.444846e-08 -1.358707e-08 -1.401388e-08 -1.365003e-08 -1.310142e-08 -1.371020e-08 -1.467614e-08 -1.291433e-08 -1.383182e-08
-1.420318e-08 -1.360746e-08 -1.383032e-08 -1.335930e-08 -1.391421e-08 -1.391015e-08 -1.407705e-08 -1.430042e-08 -1.438605e-08 -1.497214e-08
-1.319903e-08 -1.505688e-08 -1.415832e-08 -1.348276e-08 -1.426024e-08 -1.383163e-08 -1.368938e-08 -1.365096e-08 -1.467273e-08 -1.482852e-08
-1.328224e-08 -1.441160e-08 -1.381615e-08 -1.389950e-08 -1.411426e-08 -1.376550e-08 -1.368933e-08 -1.436695e-08 -1.400181e-08 -1.387495e-08
-1.349924e-08 -1.298454e-08 -1.362080e-08 -1.328168e-08 -1.364926e-08 -1.380050e-08 -1.392964e-08 -1.430228e-08 -1.380865e-08 -1.429513e-08
-1.349588e-08 -1.498280e-08 -1.311649e-08 -1.255855e-08 -1.179385e-08 -1.474659e-08 -1.268902e-08 -1.212178e-08 -1.236335e-08 -1.317994e-08
-1.378586e-08 -1.266520e-08 -1.160834e-08 -1.276961e-08 -1.235335e-08 -1.191030e-08 -1.250167e-08 -1.225117e-08 -1.330685e-08 -1.424835e-08
-1.249914e-08 -1.345352e-08 -1.325749e-08 -1.168356e-08 -1.211216e-08 -1.299651e-08 -1.181090e-08 -1.338778e-08 -1.329203e-08 -1.299615e-08
-1.210300e-08 -1.293069e-08 -1.404151e-08 -1.299355e-08 -1.242417e-08 -1.470281e-08 -1.358290e-08 -1.405399e-08 -1.308212e-08 -1.323063e-08
-1.313377e-08 -1.510054e-08 -1.346599e-08 -1.334555e-08 -1.389714e-08 -1.456599e-08 -1.340789e-08 -1.465457e-08 -1.354026e-08 -1.380135e-08
-1.473212e-08 -1.391025e-08 -1.520733e-08 -1.483909e-08 -1.398970e-08 -1.459999e-08 -1.370640e-08 -1.521244e-08 -1.623331e-08 -1.451519e-08
-1.499997e-08 -1.447329e-08 -1.366634e-08 -1.454958e-08 -1.424380e-08 -1.433870e-08 -1.432010e-08 -1.504368e-08 -1.429161e-08 -1.415275e-08
-1.382250e-08 -1.532029e-08 -1.389906e-08 -1.440803e-08 -1.436681e-08 -1.515044e-08 -1.383641e-08 -1.472284e-08 -1.440312e-08 -1.468668e-08
-1.476317e-08 -1.391351e-08 -1.581889e-08 -1.371854e-08 -1.374825e-08 -1.514045e-08 -1.410409e-08 -1.446063e-08 -1.428623e-08 -1.325380e-08
-1.326168e-08 -1.239151e-08 -1.272938e-08 -1.499598e-08 -1.490592e-08 -1.382685e-08 -1.544229e-08 -1.363968e-08 -1.298034e-08 -1.425570e-08
-1.270382e-08 -1.363213e-08 -1.332537e-08 -1.214779e-08 -1.340488e-08 -1.275918e-08 -1.224313e-08 -1.307879e-08 -1.237401e-08 -1.223568e-08
-1.416755e-08 -1.279692e-08 -1.169394e-08 -1.363442e-08 -1.305603e-08 -1.236736e-08 -1.308312e-08 -1.342636e-08 -1.180061e-08 -1.230148e-08
-1.310422e-08 -1.500307e-08 -1.259085e-08 -1.279860e-08 -1.331382e-08 -1.360947e-08 -1.347476e-08 -1.435716e-08 -1.365595e-08 -1.438173e-08
-1.317913e-08 -1.554507e-08 -1.442173e-08 -1.464533e-08 -1.352589e-08 -1.404109e-08 -1.403537e-08 -1.300964e-08 -1.319163e-08 -1.425301e-08
-1.542415e-08 -1.407197e-08 -1.419888e-08 -1.500157e-08 -1.338245e-08 -1.357222e-08 -1.456214e-08 -1.371771e-08 -1.347632e-08 -1.325870e-08
-1.398773e-08 -1.589316e-08 -1.507232e-08 -1.469743e-08 -1.460630e-08 -1.457651e-08 -1.487541e-08 -1.405595e-08 -1.396890e-08 -1.341671e-08
-1.364804e-08 -1.416915e-08 -1.441292e-08 -1.434922e-08 -1.327557e-08 -1.468500e-08 -1.505390e-08 -1.430662e-08 -1.314612e-08 -1.422288e-08
-1.343121e-08 -1.362581e-08 -1.313807e-08 -1.352840e-08 -1.362176e-08 -1.384794e-08 -1.401290e-08 -1.419686e-08 -1.539482e-08 -1.374699e-08
-1.447228e-08 -1.375660e-08 -1.309151e-08 -1.293122e-08 -1.311096e-08 -1.306164e-08 -1.278739e-08 -1.324483e-08 -1.214719e-08 -1.281150e-08
-1.238590e-08 -1.234501e-08 -1.212598e-08 -1.158802e-08 -1.175377e-08 -1.353195e-08 -1.169309e-08 -1.230395e-08 -1.268387e-08 -1.172458e-08
-1.130376e-08 -1.321728e-08 -1.218849e-08 -1.164199e-08 -1.258295e-08 -1.230363e-08 -1.161762e-08 -1.345918e-08 -1.255045e-08 -1.240937e-08
-1.220438e-08 -1.450851e-08 -1.312282e-08 -1.248777e-08 -1.307941e-08 -1.434904e-08 -1.321629e-08 -1.312798e-08 -1.420504e-08 -1.359521e-08
-1.340312e-08 -1.305931e-08 -1.406419e-08 -1.443432e-08 -1.334165e-08 -1.361382e-08 -1.443825e-08 -1.417247e-08 -1.457782e-08 -1.323684e-08
-1.495356e-08 -1.373859e-08 -1.433188e-08 -1.351502e-08 -1.522223e-08 -1.458345e-08 -1.525284e-08 -1.365666e-08 -1.437778e-08 -1.516578e-08
-1.627819e-08 -1.358372e-08 -1.351764e-08 -1.407554e-08 -1.349605e-08 -1.401472e-08 -1.496305e-08 -1.420797e-08 -1.464200e-08 -1.489447e-08
-1.393597e-08 -1.407724e-08 -1.450746e-08 -1.374891e-08 -1.366023e-08 -1.376692e-08 -1.476458e-08 -1.416207e-08 -1.455294e-08 -1.345455e-08
-1.352696e-08 -1.355917e-08 -1.451243e-08 -1.361960e-08 -1.402520e-08 -1.395572e-08 -1.439942e-08 -1.307474e-08 -1.366595e-08 -1.425238e-08
-1.486979e-08 -1.314559e-08 -1.343057e-08 -1.252902e-08 -1.346529e-08 -1.402715e-08 -1.538900e-08 -1.349049e-08 -1.273610e-08 -1.288921e-08
-1.365466e-08 -1.292946e-08 -1.368555e-08 -1.378370e-08 -1.212925e-08 -1.331723e-08 -1.422672e-08 -1.198089e-08 -1.320982e-08 -1.381678e-08
-1.285375e-08
-1.180821e-08 -1.218452e-08 -1.273125e-08 -1.363602e-08 -1.323939e-08 -1.380368e-08 -1.271713e-08 -1.245999e-08 -1.285615e-08 -1.261076e-08
-1.353902e-08 -1.353247e-08 -1.327271e-08 -1.242002e-08 -1.299094e-08 -1.264513e-08 -1.430179e-08 -1.251609e-08 -1.410817e-08 -1.349340e-08
-1.239362e-08 -1.224089e-08 -1.302668e-08 -1.319902e-08 -1.344106e-08 -1.368208e-08 -1.395650e-08 -1.369343e-08 -1.420624e-08 -1.279125e-08
-1.361715e-08 -1.389578e-08 -1.366982e-08 -1.293543e-08 -1.452759e-08 -1.388454e-08 -1.423333e-08 -1.360528e-08 -1.447880e-08 -1.452341e-08
-1.463413e-08 -1.369533e-08 -1.419989e-08 -1.478413e-08 -1.449295e-08 -1.348833e-08 -1.285214e-08 -1.357053e-08 -1.308507e-08 -1.377640e-08
-1.459875e-08 -1.361429e-08 -1.362671e-08 -1.331556e-08 -1.261210e-08 -1.318170e-08 -1.299120e-08 -1.322634e-08 -1.415760e-08 -1.372868e-08
-1.345048e-08 -1.325336e-08 -1.275649e-08 -1.393245e-08 -1.341483e-08 -1.308674e-08 -1.355238e-08 -1.402866e-08 -1.299447e-08 -1.259728e-08
-1.331002e-08 -1.285043e-08 -1.277179e-08 -1.268143e-08 -1.221635e-08 -1.213616e-08 -1.201683e-08 -1.202254e-08 -1.274979e-08 -1.268570e-08
-1.267881e-08 -1.252963e-08 -1.297077e-08 -1.255361e-08 -1.154201e-08 -1.372445e-08 -1.194667e-08 -1.244272e-08 -1.305958e-08 -1.209289e-08
-1.216334e-08 -1.157788e-08 -1.251258e-08 -1.338000e-08 -1.179700e-08 -1.368083e-08 -1.195640e-08 -1.348763e-08 -1.265250e-08 -1.421126e-08
-1.368997e-08 -1.191417e-08 -1.280252e-08 -1.354969e-08 -1.171024e-08 -1.291998e-08 -1.403658e-08 -1.456811e-08 -1.291421e-08 -1.344560e-08
-1.301335e-08 -1.257172e-08 -1.387256e-08 -1.436150e-08 -1.503791e-08 -1.301342e-08 -1.255679e-08 -1.385020e-08 -1.368316e-08 -1.397925e-08
-1.323608e-08 -1.339094e-08 -1.465725e-08 -1.373349e-08 -1.321531e-08 -1.439989e-08 -1.447191e-08 -1.314612e-08 -1.335048e-08 -1.406938e-08
-1.372369e-08 -1.519456e-08 -1.337730e-08 -1.446594e-08 -1.489501e-08 -1.406740e-08 -1.526610e-08 -1.468939e-08 -1.397555e-08 -1.456291e-08
-1.366176e-08 -1.388684e-08 -1.417558e-08 -1.501837e-08 -1.354885e-08 -1.426727e-08 -1.358302e-08 -1.287787e-08 -1.375961e-08 -1.409516e-08
-1.390505e-08 -1.407911e-08 -1.354840e-08 -1.285938e-08 -1.317628e-08 -1.346886e-08 -1.358368e-08 -1.301686e-08 -1.374351e-08 -1.287083e-08
-1.266221e-08 -1.200765e-08 -1.456018e-08 -1.290685e-08 -1.342397e-08 -1.372865e-08 -1.226645e-08 -1.297550e-08 -1.241608e-08 -1.452436e-08
-1.426015e-08 -1.214373e-08 -1.454519e-08 -1.257403e-08 -1.233586e-08 -1.240029e-08 -1.264683e-08 -1.253032e-08 -1.246655e-08 -1.241859e-08
-1.312993e-08 -1.306195e-08 -1.349430e-08 -1.233309e-08 -1.377235e-08 -1.261030e-08 -1.266503e-08 -1.407420e-08 -1.390904e-08 -1.283791e-08
-1.357536e-08 -1.355227e-08 -1.495282e-08 -1.313519e-08 -1.295814e-08 -1.293964e-08 -1.364586e-08 -1.327917e-08 -1.304845e-08 -1.342131e-08
-1.333058e-08 -1.269449e-08 -1.275183e-08 -1.382689e-08 -1.388759e-08 -1.278036e-08 -1.311985e-08 -1.269874e-08 -1.267834e-08 -1.400103e-08
-1.354885e-08 -1.315494e-08 -1.422400e-08 -1.315493e-08 -1.361055e-08 -1.342759e-08 -1.311195e-08 -1.316981e-08 -1.329010e-08 -1.297289e-08
-1.380101e-08 -1.352444e-08 -1.400097e-08 -1.407885e-08 -1.281737e-08 -1.405246e-08 -1.354492e-08 -1.452427e-08 -1.358164e-08 -1.381433e-08
-1.322634e-08 -1.466001e-08 -1.320493e-08 -1.308859e-08 -1.284182e-08 -1.315808e-08 -1.403367e-08 -1.383701e-08 -1.379910e-08 -1.363354e-08
-1.348418e-08 -1.389634e-08 -1.361401e-08 -1.336184e-08 -1.314280e-08 -1.366911e-08 -1.368518e-08 -1.354249e-08 -1.220235e-08 -1.200749e-08
-1.258796e-08 -1.273562e-08 -1.217249e-08 -1.293570e-08 -1.216005e-08 -1.260317e-08 -1.287780e-08 -1.272042e-08 -1.327902e-08 -1.191595e-08
-1.407510e-08 -1.320645e-08 -1.193628e-08 -1.367768e-08 -1.335994e-08 -1.193546e-08 -1.171871e-08 -1.278011e-08 -1.235726e-08 -1.172171e-08
-1.115715e-08 -1.149712e-08 -1.116879e-08 -1.433271e-08 -1.178853e-08 -1.217234e-08 -1.219822e-08 -1.183523e-08 -1.340326e-08 -1.228292e-08
-1.298098e-08 -1.292722e-08 -1.433809e-08 -1.223475e-08 -1.367246e-08 -1.274298e-08 -1.257191e-08 -1.259531e-08 -1.239564e-08 -1.343285e-08
-1.288318e-08 -1.312990e-08 -1.378142e-08 -1.429466e-08 -1.489143e-08 -1.341027e-08 -1.492608e-08 -1.400378e-08 -1.314079e-08 -1.461342e-08
-1.310329e-08 -1.467835e-08 -1.292234e-08 -1.351027e-08 -1.348033e-08 -1.461389e-08 -1.288898e-08 -1.415834e-08 -1.364358e-08 -1.383921e-08
-1.309900e-08 -1.411203e-08 -1.451868e-08 -1.365429e-08 -1.364836e-08 -1.392929e-08 -1.379534e-08 -1.335604e-08 -1.403863e-08 -1.460188e-08
-1.469606e-08 -1.365068e-08 -1.321064e-08 -1.370986e-08 -1.338855e-08 -1.366368e-08 -1.410842e-08 -1.291401e-08 -1.315177e-08 -1.377028e-08
-1.332115e-08 -1.252585e-08 -1.449019e-08 -1.289812e-08 -1.297346e-08 -1.406422e-08 -1.273157e-08 -1.396158e-08 -1.278950e-08 -1.277665e-08
-1.268329e-08 -1.512485e-08 -1.331696e-08 -1.334894e-08 -1.295474e-08 -1.364979e-08 -1.255458e-08 -1.295248e-08 -1.231673e-08 -1.321376e-08
-1.183117e-08 -1.149481e-08 -1.169439e-08 -1.262270e-08 -1.237864e-08 -1.338449e-08 -1.203908e-08 -1.137880e-08 -1.300706e-08 -1.210791e-08
-1.180821e-08
-1.365293e-08 -1.195413e-08 -1.183152e-08 -1.263467e-08 -1.266013e-08 -1.121256e-08 -1.435390e-08 -1.263068e-08 -1.233082e-08 -1.342741e-08
-1.321715e-08 -1.151552e-08 -1.178060e-08 -1.219319e-08 -1.259046e-08 -1.328630e-08 -1.170177e-08 -1.286206e-08 -1.248707e-08 -1.204778e-08
-1.256063e-08 -1.273817e-08 -1.380256e-08 -1.319079e-08 -1.302399e-08 -1.319192e-08 -1.335703e-08 -1.384833e-08 -1.381605e-08 -1.302773e-08
-1.457118e-08 -1.306556e-08 -1.351770e-08 -1.423729e-08 -1.249754e-08 -1.307919e-08 -1.434671e-08 -1.367683e-08 -1.311988e-08 -1.403239e-08
-1.334394e-08 -1.350717e-08 -1.345167e-08 -1.306014e-08 -1.331277e-08 -1.288664e-08 -1.296103e-08 -1.449557e-08 -1.371192e-08 -1.356621e-08
-1.316040e-08 -1.289767e-08 -1.376717e-08 -1.372132e-08 -1.356993e-08 -1.427440e-08 -1.441008e-08 -1.279452e-08 -1.397556e-08 -1.387442e-08
-1.279362e-08 -1.305156e-08 -1.415060e-08 -1.333056e-08 -1.323301e-08 -1.261875e-08 -1.309063e-08 -1.394057e-08 -1.261437e-08 -1.312973e-08
-1.231250e-08 -1.287299e-08 -1.324193e-08 -1.442812e-08 -1.125384e-08 -1.281346e-08 -1.114529e-08 -1.253373e-08 -1.277212e-08 -1.249702e-08
-1.273446e-08 -1.146666e-08 -1.149090e-08 -1.269012e-08 -1.115565e-08 -1.253518e-08 -1.191502e-08 -1.107105e-08 -1.193749e-08 -1.155305e-08
-1.086432e-08 -1.290833e-08 -1.278265e-08 -1.164760e-08 -1.190614e-08 -1.108082e-08 -1.242944e-08 -1.088744e-08 -1.296267e-08 -1.151224e-08
-1.149153e-08 -1.196466e-08 -1.379357e-08 -1.156015e-08 -1.183430e-08 -1.331840e-08 -1.242472e-08 -1.220233e-08 -1.281540e-08 -1.383008e-08
-1.312456e-08 -1.323654e-08 -1.219452e-08 -1.217755e-08 -1.309406e-08 -1.347666e-08 -1.332388e-08 -1.252903e-08 -1.345597e-08 -1.446775e-08
-1.292824e-08 -1.384670e-08 -1.260755e-08 -1.367882e-08 -1.475776e-08 -1.327555e-08 -1.373615e-08 -1.428317e-08 -1.379669e-08 -1.443251e-08
-1.359592e-08 -1.287330e-08 -1.335907e-08 -1.394757e-08 -1.358447e-08 -1.321314e-08 -1.399929e-08 -1.334896e-08 -1.361425e-08 -1.324719e-08
-1.388940e-08 -1.350220e-08 -1.276993e-08 -1.382975e-08 -1.312922e-08 -1.370218e-08 -1.424243e-08 -1.312948e-08 -1.394502e-08 -1.387905e-08
-1.428196e-08 -1.437369e-08 -1.370858e-08 -1.334867e-08 -1.292076e-08 -1.294601e-08 -1.384349e-08 -1.372523e-08 -1.328730e-08 -1.344282e-08
-1.283503e-08 -1.218128e-08 -1.393145e-08 -1.314284e-08 -1.328550e-08 -1.442588e-08 -1.149660e-08 -1.227429e-08 -1.180654e-08 -1.240673e-08
-1.369894e-08 -1.278728e-08 -1.255741e-08 -1.298530e-08 -1.268509e-08 -1.175567e-08 -1.145925e-08 -1.303590e-08 -1.285790e-08 -1.209139e-08
-1.160315e-08 -1.138245e-08 -1.316201e-08 -1.361295e-08 -1.121448e-08 -1.187215e-08 -1.109289e-08 -1.109603e-08 -1.134066e-08 -1.153048e-08
-1.277461e-08 -1.209789e-08 -1.195797e-08 -1.169705e-08 -1.363655e-08 -1.343443e-08 -1.347442e-08 -1.303144e-08 -1.286519e-08 -1.193766e-08
-1.320795e-08 -1.320485e-08 -1.237999e-08 -1.327721e-08 -1.330255e-08 -1.423873e-08 -1.372586e-08 -1.278930e-08 -1.353679e-08 -1.357631e-08
-1.271656e-08 -1.363489e-08 -1.377207e-08 -1.327462e-08 -1.398998e-08 -1.287282e-08 -1.434736e-08 -1.268173e-08 -1.381831e-08 -1.357670e-08
-1.425871e-08 -1.392908e-08 -1.321930e-08 -1.316930e-08 -1.265811e-08 -1.274119e-08 -1.330928e-08 -1.271054e-08 -1.454639e-08 -1.308613e-08
-1.491270e-08 -1.429387e-08 -1.281547e-08 -1.364456e-08 -1.385685e-08 -1.412764e-08 -1.314419e-08 -1.416341e-08 -1.364186e-08 -1.315020e-08
-1.201781e-08 -1.311033e-08 -1.338266e-08 -1.395996e-08 -1.225800e-08 -1.396868e-08 -1.270305e-08 -1.247287e-08 -1.321784e-08 -1.347504e-08
-1.345187e-08 -1.387301e-08 -1.214059e-08 -1.395553e-08 -1.254099e-08 -1.128247e-08 -1.302017e-08 -1.303183e-08 -1.162955e-08 -1.154326e-08
-1.136032e-08 -1.161184e-08 -1.097507e-08 -1.326804e-08 -1.161290e-08 -1.353100e-08 -1.269359e-08 -1.310085e-08 -1.148673e-08 -1.130129e-08
-1.052369e-08 -1.133840e-08 -1.222716e-08 -1.212029e-08 -1.199485e-08 -1.266639e-08 -1.243813e-08 -1.408498e-08 -1.157257e-08 -1.126608e-08
-1.257462e-08 -1.358787e-08 -1.188466e-08 -1.190406e-08 -1.341033e-08 -1.197100e-08 -1.277087e-08 -1.163389e-08 -1.206384e-08 -1.220223e-08
-1.299569e-08 -1.242758e-08 -1.356301e-08 -1.250174e-08 -1.318017e-08 -1.248929e-08 -1.355258e-08 -1.360022e-08 -1.276732e-08 -1.316167e-08
-1.314625e-08 -1.319081e-08 -1.288473e-08 -1.279447e-08 -1.333534e-08 -1.328238e-08 -1.348965e-08 -1.382215e-08 -1.278473e-08 -1.300148e-08
-1.274175e-08 -1.427671e-08 -1.359786e-08 -1.284967e-08 -1.350131e-08 -1.351157e-08 -1.295938e-08 -1.342933e-08 -1.385334e-08 -1.297256e-08
-1.314727e-08 -1.409388e-08 -1.407089e-08 -1.338043e-08 -1.381494e-08 -1.323224e-08 -1.357025e-08 -1.303318e-08 -1.295480e-08 -1.311113e-08
-1.226985e-08 -1.228932e-08 -1.350805e-08 -1.301902e-08 -1.277474e-08 -1.279600e-08 -1.314668e-08 -1.198207e-08 -1.359397e-08 -1.324461e-08
-1.353356e-08 -1.345324e-08 -1.299650e-08 -1.142905e-08 -1.218563e-08 -1.200255e-08 -1.151984e-08 -1.290248e-08 -1.220987e-08 -1.290715e-08
-1.227054e-08 -1.234345e-08 -1.107835e-08 -1.097091e-08 -1.075593e-08 -1.340446e-08 -1.271560e-08 -1.138128e-08 -1.411047e-08 -1.124392e-08
-1.365293e-08
-1.016000e-08 -1.103952e-08 -1.090915e-08 -1.047313e-08 -1.119000e-08 -1.132045e-08 -1.190832e-08 -1.128597e-08 -1.163074e-08 -1.088105e-08
-1.109179e-08 -1.293122e-08 -1.174971e-08 -1.201291e-08 -1.267544e-08 -1.234446e-08 -1.179637e-08 -1.240646e-08 -1.188849e-08 -1.470786e-08
-1.314455e-08 -1.326743e-08 -1.419468e-08 -1.311518e-08 -1.198421e-08 -1.137308e-08 -1.301803e-08 -1.198331e-08 -1.278388e-08 -1.296180e-08
-1.214526e-08 -1.290603e-08 -1.224194e-08 -1.295089e-08 -1.375936e-08 -1.210709e-08 -1.342891e-08 -1.314348e-08 -1.279702e-08 -1.308743e-08
-1.319334e-08 -1.398391e-08 -1.334288e-08 -1.340292e-08 -1.285553e-08 -1.258663e-08 -1.283702e-08 -1.247991e-08 -1.280332e-08 -1.333680e-08
-1.288314e-08 -1.308134e-08 -1.387240e-08 -1.233030e-08 -1.379042e-08 -1.299034e-08 -1.257883e-08 -1.250689e-08 -1.261537e-08 -1.365667e-08
-1.283882e-08 -1.275906e-08 -1.326903e-08 -1.220513e-08 -1.234827e-08 -1.165356e-08 -1.284927e-08 -1.314756e-08 -1.210618e-08 -1.289928e-08
-1.249757e-08 -1.331170e-08 -1.191284e-08 -1.255509e-08 -1.206886e-08 -1.171345e-08 -1.140301e-08 -1.107506e-08 -1.087942e-08 -1.095095e-08
-1.210854e-08 -1.235546e-08 -1.067265e-08 -1.079305e-08 -1.344438e-08 -1.186891e-08 -1.178604e-08 -1.222034e-08 -1.152379e-08 -1.075047e-08
-1.078531e-08 -1.188610e-08 -1.101043e-08 -1.094291e-08 -1.215660e-08 -1.137267e-08 -1.170224e-08 -1.241572e-08 -1.134719e-08 -1.208355e-08
-1.120639e-08 -1.108198e-08 -1.239511e-08 -1.123508e-08 -1.278283e-08 -1.180280e-08 -1.242262e-08 -1.342188e-08 -1.215981e-08 -1.282566e-08
-1.296254e-08 -1.323933e-08 -1.202321e-08 -1.286068e-08 -1.233725e-08 -1.287532e-08 -1.274325e-08 -1.280594e-08 -1.312362e-08 -1.265058e-08
-1.270249e-08 -1.265330e-08 -1.317156e-08 -1.374189e-08 -1.320405e-08 -1.337515e-08 -1.473810e-08 -1.350984e-08 -1.302079e-08 -1.300865e-08
-1.283402e-08 -1.417459e-08 -1.267219e-08 -1.335738e-08 -1.423882e-08 -1.425434e-08 -1.397466e-08 -1.300669e-08 -1.367679e-08 -1.367578e-08
-1.329300e-08 -1.261732e-08 -1.321107e-08 -1.366498e-08 -1.279771e-08 -1.343545e-08 -1.342484e-08 -1.310606e-08 -1.315235e-08 -1.388565e-08
-1.536443e-08 -1.311322e-08 -1.561049e-08 -1.272944e-08 -1.411614e-08 -1.290871e-08 -1.342729e-08 -1.328988e-08 -1.451478e-08 -1.244135e-08
-1.171681e-08 -1.255720e-08 -1.218086e-08 -1.263194e-08 -1.183946e-08 -1.300545e-08 -1.284232e-08 -1.106830e-08 -1.468613e-08 -1.175047e-08
-1.216917e-08 -1.132090e-08 -1.127224e-08 -1.159734e-08 -1.179028e-08 -1.062730e-08 -1.164172e-08 -1.172867e-08 -1.089517e-08 -1.145649e-08
-1.156786e-08 -1.120138e-08 -1.191746e-08 -1.177578e-08 -1.079298e-08 -1.120475e-08 -1.113565e-08 -1.063824e-08 -1.290231e-08 -1.125787e-08
-1.185995e-08 -1.296060e-08 -1.267181e-08 -1.184562e-08 -1.230658e-08 -1.318452e-08 -1.190333e-08 -1.214436e-08 -1.172951e-08 -1.314423e-08
-1.299973e-08 -1.209093e-08 -1.372259e-08 -1.348366e-08 -1.251748e-08 -1.315432e-08 -1.182099e-08 -1.274139e-08 -1.193432e-08 -1.273228e-08
-1.310571e-08 -1.303430e-08 -1.248727e-08 -1.346796e-08 -1.240548e-08 -1.323772e-08 -1.225118e-08 -1.263447e-08 -1.188880e-08 -1.321551e-08
-1.240374e-08 -1.331270e-08 -1.338067e-08 -1.331325e-08 -1.409924e-08 -1.185680e-08 -1.413584e-08 -1.236337e-08 -1.301484e-08 -1.238261e-08
-1.268151e-08 -1.201863e-08 -1.285640e-08 -1.328958e-08 -1.240570e-08 -1.364661e-08 -1.374740e-08 -1.305766e-08 -1.237799e-08 -1.314639e-08
-1.274463e-08 -1.206154e-08 -1.262007e-08 -1.382174e-08 -1.263148e-08 -1.214827e-08 -1.325139e-08 -1.222214e-08 -1.271611e-08 -1.276483e-08
-1.195345e-08 -1.192919e-08 -1.248485e-08 -1.187416e-08 -1.139079e-08 -1.250270e-08 -1.104479e-08 -1.266441e-08 -1.266176e-08 -1.243094e-08
-1.238578e-08 -1.196914e-08 -1.241427e-08 -1.027917e-08 -1.075001e-08 -1.172599e-08 -1.302341e-08 -1.245411e-08 -1.083631e-08 -1.054485e-08
-1.089250e-08 -1.120561e-08 -1.068797e-08 -1.117745e-08 -1.149049e-08 -1.032286e-08 -1.125167e-08 -1.182884e-08 -1.216266e-08 -1.227810e-08
-1.245115e-08 -1.142700e-08 -1.273549e-08 -1.153004e-08 -1.237200e-08 -1.304939e-08 -1.267357e-08 -1.280265e-08 -1.400352e-08 -1.264992e-08
-1.240465e-08 -1.310748e-08 -1.344979e-08 -1.303832e-08 -1.270971e-08 -1.250804e-08 -1.294699e-08 -1.328741e-08 -1.212639e-08 -1.314934e-08
-1.250750e-08 -1.361993e-08 -1.377962e-08 -1.367509e-08 -1.349446e-08 -1.372231e-08 -1.209241e-08 -1.377279e-08 -1.242944e-08 -1.211349e-08
-1.257666e-08 -1.261422e-08 -1.319422e-08 -1.304613e-08 -1.304799e-08 -1.325498e-08 -1.285437e-08 -1.236436e-08 -1.207737e-08 -1.286962e-08
-1.312090e-08 -1.407673e-08 -1.388349e-08 -1.269747e-08 -1.433703e-08 -1.339002e-08 -1.285013e-08 -1.372815e-08 -1.368149e-08 -1.324218e-08
-1.258481e-08 -1.300979e-08 -1.221455e-08 -1.175240e-08 -1.204690e-08 -1.264547e-08 -1.224976e-08 -1.199629e-08 -1.219198e-08 -1.280487e-08
-1.270329e-08 -1.222871e-08 -1.231258e-08 -1.365250e-08 -1.203253e-08 -1.285006e-08 -1.199672e-08 -1.134269e-08 -1.225636e-08 -1.240390e-08
-1.258506e-08 -1.152699e-08 -1.336632e-08 -1.107738e-08 -1.193911e-08 -1.057075e-08 -1.154872e-08 -1.173957e-08 -1.304373e-08 -1.256466e-08
-1.016000e-08
-1.071900e-08 -1.006908e-08 -1.252657e-08 -1.052457e-08 -1.200593e-08 -1.158942e-08 -1.251991e-08 -1.160139e-08 -1.176768e-08 -1.114180e-08
-1.058928e-08 -1.229310e-08 -1.211434e-08 -1.159390e-08 -1.291131e-08 -1.116116e-08 -1.248404e-08 -1.113951e-08 -1.282362e-08 -1.425535e-08
-1.111514e-08 -1.280604e-08 -1.183645e-08 -1.145778e-08 -1.204084e-08 -1.155653e-08 -1.146659e-08 -1.228145e-08 -1.251093e-08 -1.195762e-08
-1.153556e-08 -1.246866e-08 -1.158320e-08 -1.329451e-08 -1.224657e-08 -1.259148e-08 -1.251211e-08 -1.186202e-08 -1.196376e-08 -1.333610e-08
-1.166018e-08 -1.197440e-08 -1.406209e-08 -1.332575e-08 -1.347403e-08 -1.341566e-08 -1.299664e-08 -1.329584e-08 -1.241413e-08 -1.194434e-08
-1.247777e-08 -1.221892e-08 -1.174483e-08 -1.182748e-08 -1.323801e-08 -1.221565e-08 -1.233611e-08 -1.306082e-08 -1.218091e-08 -1.434628e-08
-1.240817e-08 -1.326593e-08 -1.207196e-08 -1.152033e-08 -1.206199e-08 -1.209584e-08 -1.155198e-08 -1.167726e-08 -1.205939e-08 -1.215889e-08
-1.256060e-08 -1.175163e-08 -1.292254e-08 -1.206287e-08 -1.126918e-08 -1.133174e-08 -1.203235e-08 -1.145472e-08 -1.074988e-08 -1.407731e-08
-1.157695e-08 -1.089816e-08 -1.167224e-08 -1.285754e-08 -1.289285e-08 -1.156924e-08 -1.255641e-08 -1.095686e-08 -1.161892e-08 -1.014227e-08
-1.176392e-08 -1.103341e-08 -1.133275e-08 -1.129317e-08 -1.099028e-08 -1.152217e-08 -1.169121e-08 -1.006000e-08 -1.052924e-08 -1.111615e-08
-1.121728e-08 -1.069929e-08 -1.148823e-08 -1.208860e-08 -1.226496e-08 -1.092624e-08 -1.287311e-08 -1.164362e-08 -1.221490e-08 -1.197772e-08
-1.184012e-08 -1.158810e-08 -1.252192e-08 -1.172372e-08 -1.239786e-08 -1.218270e-08 -1.405706e-08 -1.364437e-08 -1.296380e-08 -1.275407e-08
-1.297999e-08 -1.219412e-08 -1.165008e-08 -1.251711e-08 -1.249191e-08 -1.294683e-08 -1.333530e-08 -1.338954e-08 -1.382013e-08 -1.223471e-08
-1.358703e-08 -1.387518e-08 -1.224649e-08 -1.381556e-08 -1.241522e-08 -1.352622e-08 -1.267870e-08 -1.439982e-08 -1.311490e-08 -1.225066e-08
-1.408592e-08 -1.273247e-08 -1.215963e-08 -1.349440e-08 -1.310482e-08 -1.221829e-08 -1.215138e-08 -1.380806e-08 -1.359445e-08 -1.336030e-08
-1.384827e-08 -1.256331e-08 -1.240102e-08 -1.197830e-08 -1.359188e-08 -1.269795e-08 -1.279371e-08 -1.291819e-08 -1.203171e-08 -1.197334e-08
-1.293496e-08 -1.211701e-08 -1.122570e-08 -1.185962e-08 -1.354877e-08 -1.191231e-08 -1.326112e-08 -1.249746e-08 -1.233717e-08 -1.266555e-08
-1.086132e-08 -1.250812e-08 -1.124159e-08 -1.096251e-08 -1.199216e-08 -1.231608e-08 -1.168131e-08 -1.200124e-08 -1.195417e-08 -1.138362e-08
-1.133583e-08 -1.195744e-08 -1.165512e-08 -1.167806e-08 -1.090091e-08 -1.140790e-08 -1.082866e-08 -1.136006e-08 -1.202989e-08 -1.180424e-08
-1.143861e-08 -1.210612e-08 -1.156444e-08 -1.297096e-08 -1.112571e-08 -1.058194e-08 -1.228031e-08 -1.202247e-08 -1.211537e-08 -1.210328e-08
-1.317933e-08 -1.203216e-08 -1.206270e-08 -1.179481e-08 -1.311627e-08 -1.159186e-08 -1.389859e-08 -1.241557e-08 -1.245935e-08 -1.309686e-08
-1.217509e-08 -1.290070e-08 -1.336161e-08 -1.337441e-08 -1.250137e-08 -1.164237e-08 -1.242659e-08 -1.276328e-08 -1.229356e-08 -1.327588e-08
-1.176794e-08 -1.217247e-08 -1.179027e-08 -1.284824e-08 -1.273415e-08 -1.324095e-08 -1.293073e-08 -1.369868e-08 -1.271419e-08 -1.265918e-08
-1.184781e-08 -1.220543e-08 -1.263276e-08 -1.392761e-08 -1.324088e-08 -1.238237e-08 -1.269432e-08 -1.256032e-08 -1.215001e-08 -1.238024e-08
-1.317371e-08 -1.268195e-08 -1.302537e-08 -1.204949e-08 -1.141559e-08 -1.141217e-08 -1.178273e-08 -1.437385e-08 -1.193009e-08 -1.308087e-08
-1.234271e-08 -1.088339e-08 -1.247981e-08 -1.224458e-08 -1.079187e-08 -1.178584e-08 -1.212998e-08 -1.187834e-08 -1.153799e-08 -1.112356e-08
-1.107832e-08 -1.265799e-08 -1.082986e-08 -1.170846e-08 -1.107077e-08 -1.021727e-08 -1.013617e-08 -1.109963e-08 -1.165763e-08 -1.007273e-08
-1.042359e-08 -1.129441e-08 -1.157258e-08 -1.040379e-08 -1.268835e-08 -1.244805e-08 -1.030617e-08 -1.155997e-08 -1.095242e-08 -1.131380e-08
-1.125238e-08 -1.171629e-08 -1.133837e-08 -1.221772e-08 -1.182928e-08 -1.189102e-08 -1.104772e-08 -1.121254e-08 -1.167095e-08 -1.180363e-08
-1.177871e-08 -1.245520e-08 -1.292288e-08 -1.417468e-08 -1.251714e-08 -1.391266e-08 -1.224082e-08 -1.288733e-08 -1.212965e-08 -1.196697e-08
-1.234158e-08 -1.169899e-08 -1.188960e-08 -1.146927e-08 -1.230921e-08 -1.227232e-08 -1.379219e-08 -1.181246e-08 -1.179886e-08 -1.361002e-08
-1.290600e-08 -1.361601e-08 -1.255995e-08 -1.189020e-08 -1.299909e-08 -1.432248e-08 -1.237491e-08 -1.292887e-08 -1.405038e-08 -1.376606e-08
-1.261073e-08 -1.154820e-08 -1.343512e-08 -1.377260e-08 -1.297232e-08 -1.213469e-08 -1.225188e-08 -1.214570e-08 -1.176705e-08 -1.297676e-08
-1.201759e-08 -1.291663e-08 -1.347239e-08 -1.288903e-08 -1.273008e-08 -1.182669e-08 -1.332477e-08 -1.241951e-08 -1.211231e-08 -1.169454e-08
-1.202682e-08 -1.234628e-08 -1.178395e-08 -1.177442e-08 -1.156778e-08 -1.353785e-08 -1.162056e-08 -1.149770e-08 -1.209616e-08 -1.172390e-08
-1.178507e-08 -1.222730e-08 -1.267883e-08 -1.202296e-08 -1.213043e-08 -1.129173e-08 -1.083192e-08 -1.070832e-08 -1.122544e-08 -1.160206e-08
-1.071900e-08
-1.045099e-08 -9.799044e-09 -9.899621e-09 -1.135151e-08 -1.037123e-08 -1.075011e-08 -1.149766e-08 -1.026742e-08 -1.021554e-08 -1.152180e-08
-1.086343e-08 -1.273878e-08 -1.159397e-08 -1.197791e-08 -1.090669e-08 -1.267067e-08 -1.261099e-08 -1.167911e-08 -1.128144e-08 -1.175697e-08
-1.120360e-08 -1.273460e-08 -1.040526e-08 -1.145854e-08 -1.186165e-08 -1.303532e-08 -1.210354e-08 -1.268027e-08 -1.139407e-08 -1.266841e-08
-1.205301e-08 -1.250531e-08 -1.259102e-08 -1.211323e-08 -1.265367e-08 -1.207723e-08 -1.165330e-08 -1.168078e-08 -1.209438e-08 -1.250366e-08
-1.199907e-08 -1.191969e-08 -1.221332e-08 -1.228453e-08 -1.209710e-08 -1.237121e-08 -1.262960e-08 -1.160633e-08 -1.185589e-08 -1.199071e-08
-1.285022e-08 -1.297807e-08 -1.177242e-08 -1.198549e-08 -1.260496e-08 -1.292399e-08 -1.269123e-08 -1.206558e-08 -1.290605e-08 -1.253323e-08
-1.166852e-08 -1.125016e-08 -1.152134e-08 -1.207189e-08 -1.194370e-08 -1.143509e-08 -1.194198e-08 -1.142791e-08 -1.192995e-08 -1.149206e-08
-1.193759e-08 -1.124500e-08 -1.072446e-08 -1.150881e-08 -1.082283e-08 -1.174203e-08 -1.246107e-08 -1.143259e-08 -1.058833e-08 -1.103788e-08
-1.168744e-08 -1.008029e-08 -1.128118e-08 -1.090401e-08 -9.072669e-09 -1.062238e-08 -1.007281e-08 -1.208442e-08 -1.063935e-08 -1.021874e-08
-1.234953e-08 -1.003667e-08 -1.131895e-08 -1.002979e-08 -1.080973e-08 -1.019925e-08 -1.032337e-08 -1.037098e-08 -1.261864e-08 -1.129570e-08
-1.248618e-08 -1.178054e-08 -1.108341e-08 -1.129718e-08 -1.139247e-08 -1.190460e-08 -1.144288e-08 -1.134310e-08 -1.251197e-08 -1.119892e-08
-1.208722e-08 -1.129470e-08 -1.220998e-08 -1.236255e-08 -1.194595e-08 -1.194134e-08 -1.177640e-08 -1.198490e-08 -1.114045e-08 -1.272274e-08
-1.227977e-08 -1.328736e-08 -1.198674e-08 -1.213340e-08 -1.309833e-08 -1.190081e-08 -1.192306e-08 -1.246504e-08 -1.258512e-08 -1.319237e-08
-1.314304e-08 -1.271088e-08 -1.198111e-08 -1.309435e-08 -1.354237e-08 -1.203311e-08 -1.225017e-08 -1.312018e-08 -1.245582e-08 -1.348938e-08
-1.266496e-08 -1.385042e-08 -1.227189e-08 -1.230935e-08 -1.205100e-08 -1.266536e-08 -1.321377e-08 -1.297750e-08 -1.308370e-08 -1.280147e-08
-1.251178e-08 -1.271214e-08 -1.315841e-08 -1.159576e-08 -1.213611e-08 -1.343048e-08 -1.161574e-08 -1.085300e-08 -1.196050e-08 -1.302527e-08
-1.153478e-08 -1.203060e-08 -1.342901e-08 -1.124794e-08 -1.224816e-08 -1.180017e-08 -1.134946e-08 -1.106439e-08 -1.174906e-08 -1.122067e-08
-1.150778e-08 -1.164221e-08 -1.115673e-08 -1.195752e-08 -1.114888e-08 -1.129036e-08 -1.109853e-08 -1.026555e-08 -9.638589e-09 -1.121414e-08
-1.161747e-08 -1.039999e-08 -1.071110e-08 -1.152984e-08 -1.238886e-08 -1.177466e-08 -1.093876e-08 -1.061029e-08 -1.150118e-08 -1.090154e-08
-1.125104e-08 -1.037755e-08 -1.146496e-08 -1.206053e-08 -1.100810e-08 -1.089528e-08 -1.096992e-08 -1.208431e-08 -1.161207e-08 -1.164853e-08
-1.207238e-08 -1.120492e-08 -1.122380e-08 -1.099596e-08 -1.134451e-08 -1.219863e-08 -1.257882e-08 -1.228877e-08 -1.193553e-08 -1.214526e-08
-1.193989e-08 -1.266462e-08 -1.184352e-08 -1.130964e-08 -1.160027e-08 -1.280368e-08 -1.164332e-08 -1.251860e-08 -1.158039e-08 -1.222250e-08
-1.266823e-08 -1.204718e-08 -1.232934e-08 -1.222178e-08 -1.184054e-08 -1.173040e-08 -1.184469e-08 -1.220207e-08 -1.220865e-08 -1.196390e-08
-1.262517e-08 -1.349229e-08 -1.172806e-08 -1.172698e-08 -1.163405e-08 -1.253122e-08 -1.190748e-08 -1.130364e-08 -1.156372e-08 -1.230778e-08
-1.176695e-08 -1.240686e-08 -1.192319e-08 -1.133674e-08 -1.105593e-08 -1.278304e-08 -1.095116e-08 -1.243935e-08 -1.237789e-08 -1.231403e-08
-1.139410e-08 -1.218994e-08 -1.136862e-08 -1.228375e-08 -1.190913e-08 -1.044658e-08 -1.109990e-08 -1.181300e-08 -1.125343e-08 -1.193485e-08
-1.014798e-08 -1.114596e-08 -1.085927e-08 -1.117866e-08 -1.053444e-08 -1.143385e-08 -1.188346e-08 -9.306276e-09 -1.084608e-08 -1.132143e-08
-9.558366e-09 -1.064384e-08 -1.056479e-08 -1.289718e-08 -1.084364e-08 -1.178728e-08 -1.060161e-08 -1.076026e-08 -1.123833e-08 -1.172273e-08
-1.083733e-08 -1.120758e-08 -1.180501e-08 -1.039654e-08 -1.086145e-08 -1.107413e-08 -1.119304e-08 -1.053936e-08 -1.086847e-08 -1.151346e-08
-1.086996e-08 -1.106743e-08 -1.172128e-08 -1.275394e-08 -1.308273e-08 -1.176947e-08 -1.251372e-08 -1.227588e-08 -1.199869e-08 -1.248437e-08
-1.166733e-08 -1.241333e-08 -1.284397e-08 -1.134348e-08 -1.142495e-08 -1.285569e-08 -1.158233e-08 -1.263150e-08 -1.172228e-08 -1.239133e-08
-1.341392e-08 -1.177198e-08 -1.238983e-08 -1.231638e-08 -1.271195e-08 -1.261843e-08 -1.134413e-08 -1.168079e-08 -1.367113e-08 -1.168118e-08
-1.255669e-08 -1.298292e-08 -1.262112e-08 -1.201827e-08 -1.263029e-08 -1.267592e-08 -1.215449e-08 -1.192700e-08 -1.237508e-08 -1.126841e-08
-1.200868e-08 -1.259636e-08 -1.155793e-08 -1.142366e-08 -1.112417e-08 -1.236852e-08 -1.075890e-08 -1.089819e-08 -1.218203e-08 -1.116666e-08
-1.091249e-08 -1.121888e-08 -1.223805e-08 -1.155338e-08 -1.147631e-08 -1.252991e-08 -1.023919e-08 -1.195943e-08 -1.035478e-08 -9.764321e-09
-1.167006e-08 -1.242194e-08 -1.076022e-08 -1.034136e-08 -1.016579e-08 -1.072481e-08 -9.780006e-09 -1.121980e-08 -1.079165e-08 -9.592966e-09
-1.045099e-08
-8.867532e-09 -1.127009e-08 -9.361453e-09 -1.006519e-08 -1.019474e-08 -9.724722e-09 -1.033098e-08 -1.213741e-08 -1.106064e-08 -9.841397e-09
-1.132978e-08 -1.097722e-08 -1.113361e-08 -1.061048e-08 -1.229815e-08 -1.191292e-08 -1.042285e-08 -1.108892e-08 -1.098027e-08 -1.065527e-08
-1.061567e-08 -1.188780e-08 -1.195766e-08 -1.180574e-08 -1.112951e-08 -1.066282e-08 -1.164483e-08 -1.072793e-08 -1.154942e-08 -1.206684e-08
-1.159040e-08 -1.155117e-08 -1.195140e-08 -1.118237e-08 -1.109263e-08 -1.192166e-08 -1.233688e-08 -1.190939e-08 -1.198629e-08 -1.202971e-08
-1.167435e-08 -1.155471e-08 -1.280946e-08 -1.276996e-08 -1.124959e-08 -1.168649e-08 -1.157446e-08 -1.144081e-08 -1.221782e-08 -1.219116e-08
-1.073985e-08 -1.187083e-08 -1.143595e-08 -1.287270e-08 -1.120903e-08 -1.148917e-08 -1.088929e-08 -1.149168e-08 -1.224284e-08 -1.179216e-08
-1.073348e-08 -1.177833e-08 -1.202696e-08 -1.218966e-08 -1.191545e-08 -1.136764e-08 -1.113107e-08 -1.182482e-08 -1.129602e-08 -1.111960e-08
-1.363188e-08 -1.146034e-08 -1.018644e-08 -1.125093e-08 -1.123164e-08 -1.140905e-08 -1.048885e-08 -1.093031e-08 -1.199115e-08 -9.931895e-09
-1.025507e-08 -1.190044e-08 -9.776950e-09 -1.117687e-08 -9.428434e-09 -1.004663e-08 -1.030106e-08 -1.039862e-08 -9.672791e-09 -1.190829e-08
-1.037139e-08 -1.105219e-08 -1.058216e-08 -9.856929e-09 -1.079289e-08 -9.996996e-09 -1.008651e-08 -1.081874e-08 -1.039619e-08 -1.137766e-08
-1.199932e-08 -9.977300e-09 -1.059584e-08 -1.119544e-08 -1.211705e-08 -1.152127e-08 -1.241308e-08 -1.197937e-08 -1.060855e-08 -1.092225e-08
-1.143799e-08 -1.285663e-08 -1.199382e-08 -1.219326e-08 -1.045265e-08 -1.162904e-08 -1.161812e-08 -1.178038e-08 -1.184442e-08 -1.221754e-08
-1.225246e-08 -1.134788e-08 -1.240752e-08 -1.207492e-08 -1.213294e-08 -1.189808e-08 -1.175211e-08 -1.292154e-08 -1.151436e-08 -1.121495e-08
-1.180503e-08 -1.158432e-08 -1.247111e-08 -1.211235e-08 -1.183318e-08 -1.262649e-08 -1.218114e-08 -1.207116e-08 -1.217800e-08 -1.203877e-08
-1.115571e-08 -1.156992e-08 -1.259408e-08 -1.142563e-08 -1.267128e-08 -1.167295e-08 -1.283631e-08 -1.214425e-08 -1.269978e-08 -1.150952e-08
-1.123347e-08 -1.125121e-08 -1.175601e-08 -1.284209e-08 -1.116331e-08 -1.247795e-08 -1.195141e-08 -1.182906e-08 -1.112876e-08 -1.095374e-08
-1.199245e-08 -1.197322e-08 -1.127065e-08 -1.098712e-08 -1.093520e-08 -1.086200e-08 -1.113571e-08 -1.162111e-08 -1.217626e-08 -1.103213e-08
-1.121795e-08 -1.067941e-08 -1.167723e-08 -1.028056e-08 -1.064497e-08 -1.174712e-08 -1.195771e-08 -1.058236e-08 -1.066121e-08 -9.978717e-09
-9.679925e-09 -1.080507e-08 -1.039349e-08 -1.095252e-08 -1.097494e-08 -9.732006e-09 -1.047146e-08 -1.115871e-08 -1.118116e-08 -1.040015e-08
-1.194469e-08 -1.118875e-08 -1.036622e-08 -1.073214e-08 -1.118466e-08 -1.076484e-08 -1.106629e-08 -1.090621e-08 -1.086416e-08 -1.140395e-08
-1.119051e-08 -1.049415e-08 -1.108655e-08 -1.298551e-08 -1.250246e-08 -1.118604e-08 -1.207031e-08 -1.050181e-08 -1.213528e-08 -1.139772e-08
-1.098440e-08 -1.128381e-08 -1.313313e-08 -1.195989e-08 -1.245510e-08 -1.056523e-08 -1.251207e-08 -1.266023e-08 -1.214840e-08 -1.291169e-08
-1.166647e-08 -1.258919e-08 -1.099773e-08 -1.183968e-08 -1.278006e-08 -1.241072e-08 -1.218351e-08 -1.143146e-08 -1.227258e-08 -1.131600e-08
-1.227293e-08 -1.231362e-08 -1.115117e-08 -1.147937e-08 -1.184667e-08 -1.109981e-08 -1.121858e-08 -1.239072e-08 -1.174699e-08 -1.187041e-08
-1.202162e-08 -1.128804e-08 -1.049240e-08 -1.182440e-08 -1.122214e-08 -1.110751e-08 -1.101561e-08 -1.105281e-08 -1.065089e-08 -1.177314e-08
-1.125087e-08 -1.097014e-08 -1.192595e-08 -1.057882e-08 -1.141119e-08 -1.113219e-08 -1.135465e-08 -1.348325e-08 -1.041063e-08 -1.267422e-08
-1.091337e-08 -9.640341e-09 -1.089358e-08 -9.726029e-09 -1.058225e-08 -1.104352e-08 -1.007543e-08 -1.187985e-08 -1.055230e-08 -1.007759e-08
-9.945281e-09 -9.858009e-09 -1.052147e-08 -1.171824e-08 -9.937523e-09 -1.194959e-08 -1.000137e-08 -9.915879e-09 -1.045064e-08 -1.061323e-08
-1.016353e-08 -1.027125e-08 -1.043408e-08 -1.095764e-08 -1.075870e-08 -1.095058e-08 -1.208112e-08 -1.056983e-08 -1.142894e-08 -1.073970e-08
-1.136299e-08 -1.140292e-08 -1.086663e-08 -1.051330e-08 -1.225717e-08 -1.191456e-08 -1.160346e-08 -1.201707e-08 -1.284136e-08 -1.133315e-08
-1.155702e-08 -1.085186e-08 -1.126833e-08 -1.159355e-08 -1.086828e-08 -1.221247e-08 -1.231733e-08 -1.170557e-08 -1.149726e-08 -1.306763e-08
-1.219404e-08 -1.331074e-08 -1.231999e-08 -1.134627e-08 -1.215292e-08 -1.268284e-08 -1.219238e-08 -1.130746e-08 -1.312287e-08 -1.204726e-08
-1.182545e-08 -1.216521e-08 -1.249490e-08 -1.158290e-08 -1.168995e-08 -1.255399e-08 -1.247451e-08 -1.171622e-08 -1.123615e-08 -1.317500e-08
-1.151687e-08 -1.248854e-08 -1.102509e-08 -1.200123e-08 -1.165046e-08 -1.207351e-08 -1.189363e-08 -1.085085e-08 -1.155524e-08 -1.097453e-08
-1.328226e-08 -1.221322e-08 -1.138439e-08 -1.001269e-08 -1.239146e-08 -1.108280e-08 -1.085822e-08 -1.008050e-08 -9.595072e-09 -9.960076e-09
-1.025958e-08 -9.851031e-09 -9.553827e-09 -1.124000e-08 -1.098303e-08 -1.108123e-08 -1.087361e-08 -9.384192e-09 -1.027588e-08 -9.737769e-09
-8.867532e-09
-1.084474e-08 -9.468287e-09 -9.703833e-09 -9.635962e-09 -9.123927e-09 -1.094903e-08 -1.056117e-08 -1.155921e-08 -9.504940e-09 -9.870789e-09
-1.007785e-08 -1.061049e-08 -1.118267e-08 -1.162861e-08 -1.113660e-08 -1.112598e-08 -1.061917e-08 -1.068904e-08 -1.116360e-08 -1.157020e-08
-1.070023e-08 -1.062968e-08 -1.077887e-08 -1.104390e-08 -1.024343e-08 -1.110228e-08 -1.130075e-08 -1.026059e-08 -1.078553e-08 -1.114814e-08
-1.145194e-08 -1.082025e-08 -1.235408e-08 -1.078721e-08 -1.100709e-08 -1.222138e-08 -1.252257e-08 -1.175275e-08 -1.191497e-08 -1.091594e-08
-1.212644e-08 -1.196035e-08 -1.144390e-08 -1.173784e-08 -1.101141e-08 -1.142256e-08 -1.224046e-08 -1.211590e-08 -1.093359e-08 -1.290883e-08
-1.134727e-08 -1.234721e-08 -1.185127e-08 -1.138698e-08 -1.201050e-08 -1.105417e-08 -1.126935e-08 -1.159883e-08 -1.206425e-08 -1.180560e-08
-1.182399e-08 -1.115312e-08 -1.073975e-08 -1.053546e-08 -1.126129e-08 -1.136980e-08 -1.172334e-08 -1.156786e-08 -1.137439e-08 -1.074761e-08
-1.099316e-08 -1.046331e-08 -1.027688e-08 -1.082974e-08 -1.275841e-08 -1.092936e-08 -1.203285e-08 -9.631790e-09 -1.000630e-08 -1.137772e-08
-1.085771e-08 -1.038811e-08 -9.377294e-09 -1.043974e-08 -1.018704e-08 -1.010896e-08 -1.147587e-08 -1.116561e-08 -9.578847e-09 -1.068459e-08
-9.312228e-09 -1.072349e-08 -9.457367e-09 -9.137817e-09 -1.014719e-08 -1.011304e-08 -9.368285e-09 -9.897561e-09 -1.093548e-08 -9.060698e-09
-1.063323e-08 -1.095500e-08 -9.947295e-09 -1.100073e-08 -9.644139e-09 -1.125831e-08 -1.132057e-08 -1.135281e-08 -1.219736e-08 -1.113949e-08
-1.153202e-08 -1.231470e-08 -1.124135e-08 -1.064729e-08 -1.285941e-08 -1.146322e-08 -1.066682e-08 -1.210285e-08 -1.211493e-08 -1.148094e-08
-1.251724e-08 -1.233558e-08 -1.120145e-08 -1.079470e-08 -1.339116e-08 -1.146228e-08 -1.187145e-08 -1.171365e-08 -1.114838e-08 -1.256165e-08
-1.166054e-08 -1.158677e-08 -1.271311e-08 -1.176425e-08 -1.249047e-08 -1.218943e-08 -1.277974e-08 -1.278654e-08 -1.158924e-08 -1.229537e-08
-1.221383e-08 -1.120541e-08 -1.090687e-08 -1.119528e-08 -1.358053e-08 -1.201461e-08 -1.278035e-08 -1.221212e-08 -1.081028e-08 -1.262612e-08
-1.200235e-08 -1.213090e-08 -1.092675e-08 -1.101188e-08 -1.217582e-08 -1.200452e-08 -1.063558e-08 -1.137366e-08 -1.177062e-08 -1.116340e-08
-1.073464e-08 -1.034367e-08 -1.197831e-08 -1.165305e-08 -1.074388e-08 -1.168104e-08 -1.073399e-08 -1.224292e-08 -1.271507e-08 -1.027460e-08
-1.099720e-08 -1.174571e-08 -1.035525e-08 -1.013490e-08 -1.018654e-08 -1.094536e-08 -9.794122e-09 -9.534838e-09 -1.094936e-08 -1.189935e-08
-9.576742e-09 -1.108236e-08 -1.120071e-08 -1.069590e-08 -1.121684e-08 -1.075223e-08 -1.008108e-08 -1.126819e-08 -1.054441e-08 -1.120658e-08
-1.026205e-08 -1.213174e-08 -1.023266e-08 -9.953189e-09 -1.139800e-08 -1.212707e-08 -1.087807e-08 -1.010173e-08 -1.034904e-08 -9.595609e-09
-1.103956e-08 -1.221945e-08 -1.191034e-08 -1.078303e-08 -1.019949e-08 -1.158383e-08 -1.170046e-08 -1.146746e-08 -1.109666e-08 -1.161514e-08
-1.059505e-08 -1.148558e-08 -1.109872e-08 -1.278183e-08 -1.251126e-08 -1.114040e-08 -1.093197e-08 -1.102268e-08 -1.079218e-08 -1.114013e-08
-1.023305e-08 -1.113714e-08 -1.108519e-08 -1.017581e-08 -1.262996e-08 -1.037046e-08 -1.083104e-08 -1.094183e-08 -1.129466e-08 -1.188875e-08
-1.140634e-08 -1.123471e-08 -1.164378e-08 -1.108778e-08 -1.195300e-08 -1.189203e-08 -1.077932e-08 -1.138239e-08 -1.221272e-08 -1.041020e-08
-1.085654e-08 -1.112071e-08 -1.015137e-08 -1.005044e-08 -1.062640e-08 -9.952743e-09 -1.028388e-08 -1.072693e-08 -1.098693e-08 -9.535806e-09
-1.045396e-08 -1.070869e-08 -1.136090e-08 -1.035891e-08 -9.697765e-09 -1.029285e-08 -1.246637e-08 -9.871100e-09 -1.138987e-08 -1.025141e-08
-1.009652e-08 -1.137261e-08 -1.010113e-08 -1.039112e-08 -9.787919e-09 -9.134618e-09 -9.245089e-09 -1.093358e-08 -1.081255e-08 -9.701803e-09
-1.038256e-08 -9.895007e-09 -9.885825e-09 -1.119665e-08 -8.622304e-09 -1.063410e-08 -1.019316e-08 -1.014157e-08 -9.855854e-09 -9.966641e-09
-1.030558e-08 -1.150264e-08 -9.653085e-09 -1.054960e-08 -1.159056e-08 -1.114012e-08 -1.052601e-08 -9.928957e-09 -1.145111e-08 -1.152346e-08
-1.136027e-08 -1.032853e-08 -1.088375e-08 -1.059817e-08 -1.197274e-08 -1.203503e-08 -1.043449e-08 -1.279004e-08 -1.074842e-08 -1.306922e-08
-1.157961e-08 -1.139962e-08 -1.181976e-08 -1.155167e-08 -1.099605e-08 -1.154994e-08 -1.199903e-08 -1.195990e-08 -1.146561e-08 -1.151551e-08
-1.115474e-08 -1.164683e-08 -1.135141e-08 -1.113065e-08 -1.147092e-08 -1.091401e-08 -1.130051e-08 -1.140254e-08 -1.176533e-08 -1.108845e-08
-1.055362e-08 -1.211125e-08 -1.120613e-08 -1.048959e-08 -1.126982e-08 -1.123085e-08 -1.060555e-08 -1.203366e-08 -1.058922e-08 -1.078857e-08
-1.093105e-08 -1.153224e-08 -1.067570e-08 -1.050827e-08 -1.010446e-08 -1.022372e-08 -1.087364e-08 -1.257125e-08 -1.119229e-08 -1.080339e-08
-1.038948e-08 -9.654896e-09 -1.067186e-08 -1.022611e-08 -1.080596e-08 -1.151075e-08 -8.771340e-09 -1.084578e-08 -1.094545e-08 -1.016114e-08
-1.120458e-08 -9.090026e-09 -1.115509e-08 -9.918694e-09 -9.526082e-09 -1.059124e-08 -1.228271e-08 -9.681459e-09 -1.052037e-08 -9.792843e-09
-1.084474e-08
-1.016244e-08 -1.182820e-08 -8.704653e-09 -9.219990e-09 -9.700854e-09 -9.636568e-09 -1.154919e-08 -1.020243e-08 -9.950626e-09 -1.100153e-08
-9.350845e-09 -1.008726e-08 -1.012246e-08 -1.081430e-08 -9.188422e-09 -1.065654e-08 -1.132440e-08 -1.028085e-08 -9.985899e-09 -9.019197e-09
-1.016221e-08 -1.062049e-08 -1.002417e-08 -9.849261e-09 -1.042936e-08 -1.101758e-08 -9.703857e-09 -1.063064e-08 -1.226996e-08 -1.236602e-08
-1.222530e-08 -1.069784e-08 -1.123196e-08 -1.209177e-08 -1.069627e-08 -1.262581e-08 -1.135640e-08 -1.206522e-08 -1.191023e-08 -9.891874e-09
-1.161858e-08 -1.143851e-08 -1.168326e-08 -1.025196e-08 -1.132537e-08 -1.155525e-08 -1.035047e-08 -1.075259e-08 -1.068053e-08 -1.123977e-08
-1.192314e-08 -1.153727e-08 -1.114946e-08 -1.103564e-08 -1.127477e-08 -1.147558e-08 -1.182513e-08 -1.048713e-08 -1.254017e-08 -1.194918e-08
-1.057942e-08 -1.167593e-08 -1.044234e-08 -1.032606e-08 -1.125029e-08 -1.140355e-08 -1.051927e-08 -1.192234e-08 -9.468408e-09 -1.146828e-08
-1.125742e-08 -1.008887e-08 -9.795472e-09 -1.078244e-08 -1.127738e-08 -1.077139e-08 -1.113279e-08 -9.659021e-09 -9.880604e-09 -1.008636e-08
-8.398981e-09 -9.743601e-09 -1.062739e-08 -9.638554e-09 -9.986754e-09 -1.019978e-08 -8.727786e-09 -1.048755e-08 -1.030763e-08 -1.133120e-08
-1.042922e-08 -9.320202e-09 -1.032024e-08 -9.806270e-09 -8.433299e-09 -9.824429e-09 -9.327510e-09 -8.878261e-09 -1.072496e-08 -1.003353e-08
-9.623972e-09 -9.138697e-09 -1.008447e-08 -9.688583e-09 -9.970381e-09 -1.008382e-08 -9.977410e-09 -1.027477e-08 -1.152878e-08 -1.180577e-08
-1.005732e-08 -1.185316e-08 -1.024420e-08 -1.064107e-08 -1.106195e-08 -1.084200e-08 -1.088130e-08 -1.065601e-08 -1.170425e-08 -1.027121e-08
-1.027195e-08 -1.094570e-08 -1.106129e-08 -1.150086e-08 -1.149962e-08 -1.114157e-08 -1.163889e-08 -1.153518e-08 -1.099846e-08 -1.128106e-08
-1.079141e-08 -1.094519e-08 -1.176793e-08 -1.110523e-08 -1.195568e-08 -1.265297e-08 -1.182844e-08 -1.154571e-08 -1.108999e-08 -1.135884e-08
-1.232846e-08 -1.154606e-08 -1.076748e-08 -1.152496e-08 -1.135997e-08 -1.160396e-08 -1.253901e-08 -1.078224e-08 -1.171662e-08 -9.774413e-09
-1.003888e-08 -1.062329e-08 -1.141387e-08 -1.114891e-08 -1.194213e-08 -1.268713e-08 -1.103337e-08 -1.137863e-08 -1.147107e-08 -1.047368e-08
-1.194853e-08 -1.114754e-08 -1.092271e-08 -1.007244e-08 -9.235671e-09 -1.100091e-08 -1.068057e-08 -1.034777e-08 -1.023652e-08 -1.069729e-08
-1.120570e-08 -1.131277e-08 -1.076386e-08 -1.027081e-08 -9.213522e-09 -1.039486e-08 -1.222293e-08 -1.248997e-08 -1.012585e-08 -1.019922e-08
-9.892202e-09 -9.088839e-09 -9.598341e-09 -1.128820e-08 -1.211052e-08 -1.042384e-08 -1.018868e-08 -9.069764e-09 -1.116825e-08 -9.931916e-09
-1.013738e-08 -9.762321e-09 -1.136580e-08 -1.057606e-08 -9.812889e-09 -9.655905e-09 -9.710425e-09 -1.071625e-08 -1.053047e-08 -1.066368e-08
-1.032756e-08 -9.087111e-09 -1.123133e-08 -9.956199e-09 -1.026422e-08 -9.646366e-09 -1.111168e-08 -1.003220e-08 -1.014795e-08 -1.060973e-08
-1.058230e-08 -1.063459e-08 -1.107979e-08 -1.041206e-08 -1.020212e-08 -1.106128e-08 -1.172638e-08 -1.074952e-08 -1.035564e-08 -1.074923e-08
-1.108342e-08 -1.070899e-08 -1.202188e-08 -1.124247e-08 -1.148260e-08 -1.155646e-08 -1.006583e-08 -1.126428e-08 -1.090399e-08 -1.105134e-08
-1.122885e-08 -1.238563e-08 -1.047765e-08 -1.151580e-08 -1.118027e-08 -1.067361e-08 -1.113315e-08 -1.008386e-08 -1.046894e-08 -1.120566e-08
-1.132758e-08 -1.071411e-08 -1.111111e-08 -1.027000e-08 -1.073685e-08 -1.126138e-08 -9.698451e-09 -1.107151e-08 -1.000137e-08 -1.003445e-08
-1.109078e-08 -9.875550e-09 -9.139629e-09 -9.925849e-09 -1.082482e-08 -1.072699e-08 -1.145375e-08 -1.073452e-08 -9.614536e-09 -9.278269e-09
-1.105876e-08 -9.120975e-09 -1.042776e-08 -1.007888e-08 -1.184624e-08 -1.010991e-08 -9.465222e-09 -8.893839e-09 -9.520703e-09 -1.020770e-08
-1.262795e-08 -1.000653e-08 -9.154843e-09 -1.112407e-08 -9.921737e-09 -9.672191e-09 -9.619965e-09 -8.938016e-09 -1.101326e-08 -9.282799e-09
-9.327922e-09 -9.832934e-09 -9.947915e-09 -1.069040e-08 -1.020927e-08 -1.089935e-08 -1.037562e-08 -1.038177e-08 -9.469581e-09 -1.084655e-08
-1.037942e-08 -1.064243e-08 -9.425335e-09 -1.093893e-08 -1.129502e-08 -1.236320e-08 -1.110693e-08 -1.233537e-08 -1.052573e-08 -1.090776e-08
-9.620485e-09 -1.082520e-08 -1.205010e-08 -1.003151e-08 -1.124606e-08 -1.131269e-08 -1.044007e-08 -1.152440e-08 -1.011943e-08 -1.098222e-08
-1.057850e-08 -1.163624e-08 -1.120536e-08 -1.114278e-08 -1.171224e-08 -1.143800e-08 -1.056288e-08 -1.204332e-08 -1.103117e-08 -1.137883e-08
-1.096359e-08 -1.057423e-08 -1.050159e-08 -1.109940e-08 -1.093992e-08 -1.030418e-08 -1.083082e-08 -1.225615e-08 -1.199649e-08 -1.110433e-08
-1.049313e-08 -1.091253e-08 -1.188578e-08 -1.178984e-08 -1.004485e-08 -1.123868e-08 -1.038417e-08 -1.025793e-08 -9.741381e-09 -9.717975e-09
-9.771951e-09 -9.856070e-09 -9.933772e-09 -1.031466e-08 -1.043679e-08 -9.658230e-09 -9.886083e-09 -1.128942e-08 -1.127699e-08 -1.009359e-08
-1.035542e-08 -9.361184e-09 -1.045262e-08 -1.069695e-08 -1.002599e-08 -9.853694e-09 -1.100958e-08 -1.040898e-08 -8.987151e-09 -8.558708e-09
-1.016244e-08
-1.135011e-08 -9.125487e-09 -9.765588e-09 -9.413747e-09 -9.310324e-09 -1.000085e-08 -8.383388e-09 -1.106124e-08 -1.047981e-08 -8.834014e-09
-1.140949e-08 -1.054755e-08 -9.784310e-09 -8.659909e-09 -1.078127e-08 -1.141935e-08 -1.177138e-08 -1.004426e-08 -1.009350e-08 -9.453653e-09
-1.020708e-08 -1.146517e-08 -1.109514e-08 -1.007954e-08 -9.612982e-09 -1.022303e-08 -1.015514e-08 -9.719341e-09 -1.061988e-08 -9.409736e-09
-1.072548e-08 -9.978450e-09 -9.774834e-09 -1.123106e-08 -1.046417e-08 -1.245763e-08 -1.075440e-08 -1.155590e-08 -9.946454e-09 -1.027075e-08
-1.049421e-08 -1.063511e-08 -1.088506e-08 -1.026148e-08 -1.016959e-08 -1.089623e-08 -1.050245e-08 -1.039762e-08 -1.158827e-08 -1.123247e-08
-1.090710e-08 -1.033617e-08 -1.074500e-08 -9.548656e-09 -1.032173e-08 -1.131695e-08 -1.083392e-08 -1.030211e-08 -1.071021e-08 -1.073716e-08
-1.062082e-08 -1.152910e-08 -9.859004e-09 -9.969992e-09 -9.717955e-09 -1.000242e-08 -8.993994e-09 -1.062350e-08 -1.023656e-08 -1.014776e-08
-9.867187e-09 -9.678021e-09 -1.013629e-08 -8.767969e-09 -9.466526e-09 -8.915381e-09 -1.107512e-08 -9.512347e-09 -9.984394e-09 -9.078613e-09
-9.368946e-09 -9.038498e-09 -9.332520e-09 -8.868326e-09 -9.784649e-09 -7.905258e-09 -9.829324e-09 -1.061101e-08 -9.566397e-09 -8.694318e-09
-9.034841e-09 -8.294439e-09 -8.656674e-09 -9.075127e-09 -9.974896e-09 -9.281909e-09 -9.362354e-09 -1.061404e-08 -9.909676e-09 -1.066551e-08
-9.497786e-09 -9.312500e-09 -9.585408e-09 -1.139887e-08 -1.100041e-08 -1.044193e-08 -9.000217e-09 -9.756795e-09 -9.934422e-09 -9.586596e-09
-1.087152e-08 -1.006870e-08 -1.140478e-08 -1.140279e-08 -1.097222e-08 -1.076229e-08 -1.017998e-08 -9.996270e-09 -1.089302e-08 -1.156315e-08
-1.016141e-08 -1.064852e-08 -1.012349e-08 -1.071351e-08 -1.177919e-08 -1.198151e-08 -1.098568e-08 -1.140273e-08 -1.135180e-08 -1.085823e-08
-1.144192e-08 -1.161438e-08 -1.133430e-08 -1.146677e-08 -1.037403e-08 -1.036764e-08 -1.063794e-08 -1.153129e-08 -1.053077e-08 -1.104346e-08
-1.048948e-08 -1.122594e-08 -1.143338e-08 -1.089690e-08 -1.116734e-08 -1.101915e-08 -1.161322e-08 -1.078628e-08 -1.033390e-08 -9.776609e-09
-1.087145e-08 -1.141572e-08 -1.105113e-08 -1.093598e-08 -9.788301e-09 -9.942990e-09 -9.865047e-09 -1.165254e-08 -1.009060e-08 -1.140548e-08
-1.038245e-08 -1.006601e-08 -1.012636e-08 -1.131723e-08 -1.095324e-08 -1.022780e-08 -9.556771e-09 -8.995696e-09 -1.117090e-08 -9.398658e-09
-1.043900e-08 -1.193045e-08 -9.227969e-09 -1.064576e-08 -1.043088e-08 -7.723346e-09 -8.398000e-09 -9.983492e-09 -9.087010e-09 -1.168777e-08
-1.155903e-08 -9.394217e-09 -1.022803e-08 -9.284153e-09 -9.444528e-09 -8.575438e-09 -8.760582e-09 -1.002396e-08 -8.896831e-09 -9.787608e-09
-9.477556e-09 -9.973523e-09 -9.445565e-09 -9.884640e-09 -8.918734e-09 -9.903313e-09 -9.945970e-09 -1.058831e-08 -9.776980e-09 -9.665102e-09
-9.769278e-09 -9.798105e-09 -1.041807e-08 -1.062722e-08 -9.118001e-09 -1.070490e-08 -9.569817e-09 -9.722899e-09 -1.139029e-08 -1.050288e-08
-1.022525e-08 -1.032750e-08 -1.053147e-08 -1.138535e-08 -1.147876e-08 -1.029327e-08 -1.022963e-08 -1.001837e-08 -1.122005e-08 -1.020322e-08
-1.091763e-08 -1.033587e-08 -9.845146e-09 -1.034691e-08 -1.016091e-08 -1.006588e-08 -1.084077e-08 -1.069771e-08 -1.029723e-08 -1.032984e-08
-1.097000e-08 -1.066756e-08 -9.678691e-09 -1.036093e-08 -1.034479e-08 -1.010982e-08 -1.111479e-08 -1.022364e-08 -1.073790e-08 -1.107741e-08
-1.185965e-08 -1.242265e-08 -1.047191e-08 -1.002279e-08 -1.039874e-08 -1.067149e-08 -9.286400e-09 -1.029920e-08 -9.385471e-09 -1.017567e-08
-1.060090e-08 -1.019537e-08 -1.220161e-08 -9.456204e-09 -1.055541e-08 -1.080370e-08 -1.166479e-08 -9.357495e-09 -9.586282e-09 -9.347037e-09
-7.770766e-09 -1.060313e-08 -9.190670e-09 -1.022716e-08 -9.486652e-09 -8.706190e-09 -9.080318e-09 -8.438071e-09 -8.320942e-09 -9.928656e-09
-8.943002e-09 -9.702570e-09 -7.579348e-09 -1.012168e-08 -1.138394e-08 -8.914554e-09 -1.161770e-08 -8.585295e-09 -1.050297e-08 -8.923647e-09
-9.298414e-09 -1.017895e-08 -9.655042e-09 -9.499849e-09 -1.002267e-08 -9.968340e-09 -9.709335e-09 -9.676462e-09 -9.831273e-09 -1.086898e-08
-1.011290e-08 -1.099187e-08 -8.926483e-09 -1.090119e-08 -9.726088e-09 -9.454692e-09 -1.039422e-08 -1.043282e-08 -1.068671e-08 -1.145664e-08
-1.170156e-08 -1.012165e-08 -9.314231e-09 -1.101794e-08 -1.164417e-08 -1.091963e-08 -1.049458e-08 -1.090327e-08 -1.085891e-08 -9.875597e-09
-1.099534e-08 -1.058149e-08 -1.071892e-08 -1.076703e-08 -1.033287e-08 -1.002373e-08 -1.074821e-08 -1.067464e-08 -1.191898e-08 -9.581316e-09
-9.840381e-09 -1.002257e-08 -1.092676e-08 -1.076184e-08 -9.752337e-09 -1.054689e-08 -9.662127e-09 -1.059880e-08 -1.135287e-08 -1.050651e-08
-1.090823e-08 -1.040909e-08 -1.073256e-08 -1.088510e-08 -1.156699e-08 -1.128916e-08 -1.004914e-08 -9.983368e-09 -9.948447e-09 -1.171257e-08
-8.789383e-09 -1.105452e-08 -9.351028e-09 -8.911706e-09 -9.238973e-09 -9.510865e-09 -1.175481e-08 -9.731159e-09 -8.395399e-09 -1.030478e-08
-9.916657e-09 -9.376122e-09 -8.782174e-09 -8.994323e-09 -1.049822e-08 -1.031691e-08 -8.456037e-09 -9.004844e-09 -9.577022e-09 -8.692699e-09
-1.135011e-08
-9.204676e-09 -8.118799e-09 -8.255807e-09 -1.018590e-08 -9.056485e-09 -8.487251e-09 -8.516003e-09 -7.908327e-09 -8.148864e-09 -9.799482e-09
-9.133218e-09 -9.515412e-09 -9.848325e-09 -7.814474e-09 -8.427484e-09 -8.906293e-09 -8.754900e-09 -9.878804e-09 -1.005456e-08 -1.057466e-08
-9.435161e-09 -9.509754e-09 -1.033088e-08 -8.845209e-09 -9.985691e-09 -1.091527e-08 -1.079691e-08 -1.054750e-08 -1.129864e-08 -9.866718e-09
-1.009693e-08 -1.004047e-08 -1.017471e-08 -9.888623e-09 -1.019484e-08 -1.041630e-08 -1.129507e-08 -1.080548e-08 -1.015111e-08 -1.055289e-08
-9.877136e-09 -9.459461e-09 -9.922497e-09 -1.177198e-08 -1.071966e-08 -1.039062e-08 -1.041238e-08 -1.016017e-08 -1.210537e-08 -1.010943e-08
-1.034993e-08 -9.976243e-09 -1.153754e-08 -1.023304e-08 -9.824973e-09 -9.374150e-09 -1.129982e-08 -1.034982e-08 -9.378543e-09 -1.111744e-08
-1.151782e-08 -1.204122e-08 -9.480943e-09 -1.022019e-08 -1.096760e-08 -1.027990e-08 -1.010172e-08 -1.080076e-08 -9.413977e-09 -8.698706e-09
-1.024110e-08 -9.538968e-09 -9.398636e-09 -8.854930e-09 -1.027855e-08 -9.851927e-09 -9.879801e-09 -7.957687e-09 -1.004740e-08 -1.103507e-08
-8.574472e-09 -9.436259e-09 -9.466928e-09 -1.056317e-08 -8.684697e-09 -9.157778e-09 -8.477218e-09 -8.938458e-09 -8.647089e-09 -8.051376e-09
-8.716516e-09 -7.944457e-09 -8.652268e-09 -7.850614e-09 -8.978517e-09 -8.448388e-09 -8.195149e-09 -1.035019e-08 -9.360004e-09 -8.939772e-09
-1.051202e-08 -9.069683e-09 -9.711830e-09 -9.338343e-09 -9.196612e-09 -8.982362e-09 -9.926425e-09 -1.048331e-08 -1.023048e-08 -8.403359e-09
-9.864549e-09 -9.926311e-09 -9.982494e-09 -1.009957e-08 -1.085144e-08 -9.322666e-09 -1.027292e-08 -9.731377e-09 -9.270596e-09 -9.930230e-09
-1.006164e-08 -9.733538e-09 -1.035554e-08 -1.044867e-08 -9.759443e-09 -9.549482e-09 -9.702828e-09 -9.770281e-09 -1.145810e-08 -1.071586e-08
-1.033626e-08 -1.062341e-08 -1.090250e-08 -1.144596e-08 -9.713773e-09 -1.023507e-08 -9.786849e-09 -9.744003e-09 -9.952647e-09 -1.073204e-08
-1.050630e-08 -1.074947e-08 -1.147831e-08 -1.014872e-08 -1.077256e-08 -1.037454e-08 -9.723508e-09 -9.601892e-09 -1.047999e-08 -1.047469e-08
-1.016534e-08 -1.024228e-08 -1.013760e-08 -9.877826e-09 -9.953344e-09 -9.097787e-09 -8.914301e-09 -1.004332e-08 -1.081542e-08 -9.325755e-09
-1.077184e-08 -9.251996e-09 -9.525429e-09 -8.924709e-09 -1.010458e-08 -1.001704e-08 -1.011101e-08 -9.216808e-09 -9.440101e-09 -9.863085e-09
-9.269054e-09 -1.021102e-08 -1.001128e-08 -1.155733e-08 -9.421247e-09 -1.054829e-08 -1.028388e-08 -8.796777e-09 -9.192023e-09 -9.941850e-09
-8.804864e-09 -9.252143e-09 -7.831503e-09 -8.205608e-09 -9.204783e-09 -8.834280e-09 -9.313516e-09 -9.248321e-09 -1.092782e-08 -9.219640e-09
-1.105439e-08 -8.756780e-09 -1.037058e-08 -8.937055e-09 -8.612945e-09 -8.882389e-09 -1.074017e-08 -1.022646e-08 -1.016560e-08 -8.996387e-09
-8.836061e-09 -9.125295e-09 -9.892120e-09 -1.066612e-08 -9.596042e-09 -9.667151e-09 -9.422683e-09 -1.002088e-08 -1.060567e-08 -1.004119e-08
-9.052335e-09 -1.032676e-08 -9.457152e-09 -1.066335e-08 -9.779032e-09 -9.645283e-09 -9.323103e-09 -1.047662e-08 -1.073950e-08 -1.046810e-08
-1.048282e-08 -9.328805e-09 -1.035165e-08 -1.026258e-08 -1.015493e-08 -1.044543e-08 -1.208517e-08 -9.984549e-09 -9.903323e-09 -1.002023e-08
-1.010320e-08 -1.014746e-08 -1.005334e-08 -1.023058e-08 -9.805405e-09 -1.064550e-08 -1.013262e-08 -1.109880e-08 -1.069292e-08 -1.004099e-08
-1.043732e-08 -1.104924e-08 -1.039601e-08 -1.032848e-08 -9.889667e-09 -1.008988e-08 -9.681782e-09 -1.009707e-08 -9.787981e-09 -1.095313e-08
-8.826210e-09 -8.779114e-09 -9.577025e-09 -8.765530e-09 -1.042245e-08 -9.075221e-09 -8.281678e-09 -9.116047e-09 -9.204775e-09 -9.418742e-09
-8.996261e-09 -9.525194e-09 -8.924022e-09 -8.376719e-09 -8.362214e-09 -8.528622e-09 -1.023810e-08 -9.471264e-09 -9.027366e-09 -8.197428e-09
-8.123048e-09 -8.764885e-09 -9.111918e-09 -1.079799e-08 -7.961938e-09 -9.080607e-09 -9.516995e-09 -1.013977e-08 -9.233717e-09 -9.372363e-09
-8.882183e-09 -1.129112e-08 -9.136305e-09 -9.244131e-09 -9.831910e-09 -1.079668e-08 -1.082297e-08 -1.024418e-08 -8.960783e-09 -1.005742e-08
-9.609368e-09 -1.028173e-08 -1.106954e-08 -1.070922e-08 -9.198730e-09 -9.465505e-09 -9.909609e-09 -1.042048e-08 -9.244574e-09 -9.462795e-09
-9.497454e-09 -1.090154e-08 -1.076222e-08 -9.586436e-09 -9.396039e-09 -9.772573e-09 -9.862016e-09 -1.098326e-08 -9.671730e-09 -1.080460e-08
-1.095778e-08 -1.016729e-08 -9.769948e-09 -1.033153e-08 -9.956480e-09 -1.007135e-08 -1.054116e-08 -1.121482e-08 -1.076020e-08 -9.403012e-09
-1.050526e-08 -1.042298e-08 -1.003616e-08 -1.157432e-08 -1.045874e-08 -9.030139e-09 -1.055293e-08 -1.109715e-08 -9.729415e-09 -1.237032e-08
-1.100745e-08 -9.521824e-09 -9.843472e-09 -1.113176e-08 -8.821364e-09 -9.616453e-09 -9.998112e-09 -9.339364e-09 -9.078687e-09 -8.486157e-09
-9.749425e-09 -8.369129e-09 -9.683783e-09 -9.194937e-09 -9.843879e-09 -8.904678e-09 -1.116785e-08 -9.474288e-09 -9.016090e-09 -9.416671e-09
-9.162691e-09 -9.751968e-09 -8.680573e-09 -8.219352e-09 -1.080452e-08 -9.293203e-09 -7.726157e-09 -8.760206e-09 -9.320636e-09 -8.782354e-09
-9.204676e-09
-9.506657e-09 -7.309673e-09 -9.322598e-09 -7.892710e-09 -9.546648e-09 -9.875340e-09 -8.036558e-09 -8.668883e-09 -8.971263e-09 -8.530751e-09
-8.310122e-09 -9.231264e-09 -8.245756e-09 -9.253907e-09 -1.073360e-08 -7.568275e-09 -8.026814e-09 -7.640042e-09 -9.454227e-09 -1.047610e-08
-9.523841e-09 -1.062815e-08 -9.795126e-09 -1.048234e-08 -9.271844e-09 -9.791346e-09 -1.033726e-08 -8.595471e-09 -1.002282e-08 -9.568049e-09
-8.420698e-09 -9.871876e-09 -1.032991e-08 -1.018832e-08 -9.183643e-09 -1.022412e-08 -9.214941e-09 -1.005621e-08 -9.327924e-09 -9.715482e-09
-9.865249e-09 -9.413701e-09 -1.020981e-08 -1.041796e-08 -9.575982e-09 -9.763288e-09 -9.673243e-09 -9.574465e-09 -1.027197e-08 -9.125252e-09
-1.008408e-08 -1.034335e-08 -9.947783e-09 -1.015643e-08 -9.493203e-09 -9.903859e-09 -9.762146e-09 -9.116857e-09 -8.733692e-09 -9.394589e-09
-8.925992e-09 -1.032906e-08 -9.191616e-09 -1.024931e-08 -8.709553e-09 -9.075067e-09 -1.007681e-08 -9.086514e-09 -9.395643e-09 -1.039599e-08
-8.125158e-09 -9.999620e-09 -8.688154e-09 -9.687025e-09 -7.791135e-09 -8.544504e-09 -8.978920e-09 -9.793140e-09 -9.795357e-09 -9.654219e-09
-8.042381e-09 -9.222140e-09 -9.972797e-09 -9.402373e-09 -9.041055e-09 -6.773071e-09 -8.737573e-09 -9.748647e-09 -7.484442e-09 -7.712789e-09
-9.735369e-09 -9.193371e-09 -7.932250e-09 -1.040994e-08 -7.704164e-09 -7.493110e-09 -1.038559e-08 -9.426736e-09 -8.373747e-09 -8.604649e-09
-9.248764e-09 -8.731271e-09 -8.561514e-09 -8.735540e-09 -1.040873e-08 -9.444340e-09 -9.420680e-09 -8.500675e-09 -1.015214e-08 -9.985367e-09
-9.542958e-09 -9.781972e-09 -1.088745e-08 -9.164168e-09 -9.156826e-09 -9.428075e-09 -9.398671e-09 -9.265404e-09 -1.053277e-08 -9.211442e-09
-9.798167e-09 -1.051270e-08 -9.501929e-09 -1.013536e-08 -1.069175e-08 -1.035668e-08 -9.817239e-09 -1.028069e-08 -9.572617e-09 -1.129166e-08
-9.233462e-09 -1.024496e-08 -9.591367e-09 -9.475436e-09 -9.960796e-09 -1.009057e-08 -9.604375e-09 -1.006556e-08 -9.892330e-09 -1.014584e-08
-1.117489e-08 -9.538341e-09 -9.849120e-09 -1.172577e-08 -9.157206e-09 -9.946014e-09 -1.098217e-08 -9.568481e-09 -1.138870e-08 -1.028641e-08
-9.740271e-09 -1.037911e-08 -8.031190e-09 -9.621473e-09 -9.020579e-09 -1.047696e-08 -1.038335e-08 -1.015780e-08 -1.192697e-08 -9.000402e-09
-9.455708e-09 -9.194117e-09 -1.075122e-08 -1.076410e-08 -1.004889e-08 -1.005227e-08 -1.030084e-08 -8.535994e-09 -1.000533e-08 -8.649379e-09
-8.363215e-09 -9.109122e-09 -7.713433e-09 -1.052568e-08 -7.621851e-09 -7.780234e-09 -7.580092e-09 -7.523248e-09 -9.055841e-09 -8.346657e-09
-7.913166e-09 -9.746507e-09 -7.850183e-09 -8.316132e-09 -7.901898e-09 -8.034708e-09 -1.031316e-08 -8.469303e-09 -9.502165e-09 -8.889703e-09
-9.433749e-09 -1.011728e-08 -9.122692e-09 -9.710198e-09 -1.050654e-08 -8.248065e-09 -1.028794e-08 -1.049088e-08 -9.750082e-09 -9.050159e-09
-9.689576e-09 -9.476960e-09 -8.886027e-09 -8.741846e-09 -8.526206e-09 -1.003066e-08 -9.507859e-09 -9.612296e-09 -1.016109e-08 -1.048836e-08
-9.039435e-09 -1.116370e-08 -9.142791e-09 -9.127842e-09 -9.684861e-09 -9.288418e-09 -1.003774e-08 -8.534155e-09 -9.751753e-09 -1.015448e-08
-1.055567e-08 -9.055319e-09 -1.131706e-08 -9.479187e-09 -9.766794e-09 -9.909813e-09 -9.507064e-09 -1.028190e-08 -8.830879e-09 -1.026546e-08
-1.015579e-08 -9.296073e-09 -1.182064e-08 -1.082810e-08 -9.343493e-09 -1.051368e-08 -8.829672e-09 -8.628267e-09 -9.035636e-09 -1.090601e-08
-1.015264e-08 -9.921212e-09 -9.864888e-09 -8.620539e-09 -9.615658e-09 -9.405775e-09 -1.020168e-08 -9.012471e-09 -9.335927e-09 -9.065162e-09
-1.119815e-08 -8.742962e-09 -9.410326e-09 -8.878772e-09 -9.237474e-09 -9.310620e-09 -8.012699e-09 -9.888020e-09 -8.283537e-09 -8.134897e-09
-8.373789e-09 -7.964747e-09 -9.483176e-09 -9.348448e-09 -8.152650e-09 -7.846864e-09 -8.525110e-09 -8.880324e-09 -7.753882e-09 -6.836949e-09
-7.586548e-09 -8.035370e-09 -8.630064e-09 -7.946144e-09 -8.254354e-09 -9.538610e-09 -7.759848e-09 -7.972716e-09 -8.094560e-09 -9.347450e-09
-8.906901e-09 -8.651516e-09 -9.801074e-09 -7.976475e-09 -1.033871e-08 -1.072813e-08 -1.027075e-08 -1.024532e-08 -1.075872e-08 -1.015455e-08
-9.498297e-09 -9.401893e-09 -9.332639e-09 -1.029592e-08 -1.010691e-08 -9.510043e-09 -1.123008e-08 -9.837947e-09 -9.572988e-09 -9.149695e-09
-1.008681e-08 -8.970686e-09 -9.201103e-09 -1.004557e-08 -9.408253e-09 -9.120151e-09 -1.011048e-08 -9.913824e-09 -9.597599e-09 -9.915674e-09
-9.578851e-09 -1.072605e-08 -9.555817e-09 -9.745690e-09 -9.311705e-09 -1.037196e-08 -9.113312e-09 -9.956922e-09 -9.230811e-09 -1.026185e-08
-1.003395e-08 -9.540776e-09 -1.013491e-08 -8.702350e-09 -1.001566e-08 -9.819854e-09 -1.042251e-08 -9.155588e-09 -1.045568e-08 -1.057698e-08
-9.299306e-09 -1.025556e-08 -9.624689e-09 -8.813029e-09 -1.067281e-08 -9.280149e-09 -9.883396e-09 -1.013677e-08 -9.180077e-09 -1.000746e-08
-8.254448e-09 -8.503220e-09 -8.656197e-09 -9.727309e-09 -9.176940e-09 -8.951280e-09 -1.081366e-08 -9.493403e-09 -8.318537e-09 -8.516683e-09
-8.473337e-09 -8.159961e-09 -8.785105e-09 -8.416405e-09 -7.772877e-09 -9.304849e-09 -1.073119e-08 -1.047945e-08 -8.607895e-09 -8.083913e-09
-9.506657e-09
-7.189243e-09 -6.700397e-09 -7.618943e-09 -7.761167e-09 -8.043926e-09 -9.089939e-09 -7.411181e-09 -9.427171e-09 -7.661987e-09 -8.349963e-09
-8.315259e-09 -9.485606e-09 -1.006649e-08 -8.499613e-09 -8.491600e-09 -9.417328e-09 -9.147155e-09 -9.386746e-09 -8.287607e-09 -8.639338e-09
-9.027104e-09 -8.193524e-09 -9.169881e-09 -8.030942e-09 -8.932743e-09 -9.637328e-09 -9.421344e-09 -1.023059e-08 -8.615864e-09 -9.354025e-09
-9.648222e-09 -8.645306e-09 -8.749445e-09 -8.886292e-09 -9.111809e-09 -1.054813e-08 -9.410910e-09 -9.880465e-09 -9.747105e-09 -9.251615e-09
-9.934868e-09 -9.595873e-09 -8.826787e-09 -9.934756e-09 -8.916977e-09 -1.035285e-08 -9.070544e-09 -9.839494e-09 -1.008288e-08 -1.008676e-08
-9.471191e-09 -9.524324e-09 -9.380467e-09 -9.190869e-09 -9.790475e-09 -8.868757e-09 -9.556288e-09 -1.050453e-08 -9.357493e-09 -9.358234e-09
-9.614689e-09 -8.156416e-09 -8.204417e-09 -9.078712e-09 -9.718576e-09 -8.708352e-09 -1.014512e-08 -1.011988e-08 -8.299876e-09 -8.255712e-09
-9.260417e-09 -8.845304e-09 -8.763522e-09 -1.040253e-08 -7.817334e-09 -8.011963e-09 -8.690371e-09 -7.853959e-09 -9.136499e-09 -9.268956e-09
-8.549004e-09 -8.414817e-09 -7.556678e-09 -8.340827e-09 -8.864562e-09 -8.482818e-09 -1.141458e-08 -7.787876e-09 -7.263961e-09 -7.823235e-09
-8.660598e-09 -8.405576e-09 -8.643340e-09 -7.431495e-09 -8.135265e-09 -6.226981e-09 -9.428589e-09 -1.011874e-08 -7.900516e-09 -9.528591e-09
-7.975442e-09 -8.421263e-09 -8.407159e-09 -8.118572e-09 -9.563056e-09 -8.222948e-09 -9.004888e-09 -9.934844e-09 -9.201074e-09 -9.279014e-09
-9.862184e-09 -9.009333e-09 -9.363160e-09 -9.993179e-09 -9.234871e-09 -9.099561e-09 -9.967533e-09 -8.738311e-09 -8.808689e-09 -8.257095e-09
-1.047835e-08 -1.013183e-08 -8.908713e-09 -9.746142e-09 -1.042070e-08 -1.012181e-08 -9.640759e-09 -8.368700e-09 -9.701172e-09 -8.977554e-09
-1.057499e-08 -1.070895e-08 -9.120001e-09 -9.356285e-09 -9.551708e-09 -9.630800e-09 -1.060984e-08 -9.158554e-09 -1.008355e-08 -8.894819e-09
-9.977249e-09 -9.400812e-09 -9.336233e-09 -9.126151e-09 -1.018141e-08 -9.739208e-09 -1.040139e-08 -8.781202e-09 -9.074372e-09 -1.047355e-08
-1.012316e-08 -8.411575e-09 -9.088058e-09 -9.680249e-09 -8.863690e-09 -1.008929e-08 -1.014672e-08 -9.811711e-09 -1.074359e-08 -9.631395e-09
-1.118149e-08 -1.000681e-08 -9.013038e-09 -9.340323e-09 -1.005629e-08 -7.873894e-09 -8.824095e-09 -9.177994e-09 -8.455998e-09 -8.711869e-09
-7.587619e-09 -8.632679e-09 -7.787428e-09 -7.290917e-09 -8.930471e-09 -7.889618e-09 -8.762949e-09 -9.083749e-09 -7.732089e-09 -8.616760e-09
-7.444194e-09 -8.209841e-09 -8.810029e-09 -8.411130e-09 -9.166641e-09 -7.802471e-09 -9.233363e-09 -9.047990e-09 -8.078826e-09 -7.483655e-09
-8.861027e-09 -8.188419e-09 -7.186305e-09 -8.246034e-09 -8.466274e-09 -9.693060e-09 -8.590711e-09 -1.049211e-08 -8.135796e-09 -9.160083e-09
-9.271123e-09 -7.717048e-09 -9.768438e-09 -9.446443e-09 -9.741274e-09 -9.486815e-09 -1.044648e-08 -9.396127e-09 -8.823161e-09 -8.885192e-09
-1.020409e-08 -8.396282e-09 -9.389752e-09 -1.041394e-08 -9.750411e-09 -9.399259e-09 -9.745130e-09 -1.051208e-08 -8.815772e-09 -1.013570e-08
-9.712287e-09 -9.434640e-09 -9.380931e-09 -9.842149e-09 -9.920881e-09 -1.060391e-08 -9.145724e-09 -8.737247e-09 -8.763470e-09 -9.102808e-09
-9.784949e-09 -9.228191e-09 -1.069040e-08 -8.283347e-09 -8.975098e-09 -1.014922e-08 -7.930403e-09 -1.018374e-08 -9.190172e-09 -8.836193e-09
-8.925112e-09 -9.220792e-09 -8.418419e-09 -8.327125e-09 -9.342354e-09 -8.128301e-09 -8.936007e-09 -8.160508e-09 -8.706549e-09 -8.699934e-09
-9.382187e-09 -8.188427e-09 -9.836320e-09 -9.962856e-09 -9.541192e-09 -1.027517e-08 -8.427311e-09 -9.498283e-09 -9.237254e-09 -7.674410e-09
-8.390916e-09 -8.619353e-09 -7.870596e-09 -7.834544e-09 -8.623073e-09 -9.048485e-09 -8.784173e-09 -8.858567e-09 -1.000841e-08 -9.266164e-09
-8.177691e-09 -7.319787e-09 -7.978416e-09 -7.517768e-09 -8.095083e-09 -8.767767e-09 -8.654616e-09 -8.667786e-09 -8.312360e-09 -7.867161e-09
-8.249118e-09 -8.100234e-09 -8.349073e-09 -9.806830e-09 -9.337653e-09 -9.937788e-09 -7.916381e-09 -9.570670e-09 -8.440527e-09 -8.378568e-09
-1.042262e-08 -8.143723e-09 -1.009366e-08 -1.026794e-08 -9.101266e-09 -9.560511e-09 -9.770401e-09 -1.043607e-08 -1.020090e-08 -9.700452e-09
-8.946216e-09 -9.436412e-09 -8.861876e-09 -9.507841e-09 -8.702911e-09 -9.373188e-09 -9.214089e-09 -9.476779e-09 -8.461132e-09 -1.048407e-08
-1.068108e-08 -9.532228e-09 -9.303023e-09 -9.182256e-09 -9.399176e-09 -1.057236e-08 -8.645805e-09 -1.001390e-08 -9.003166e-09 -1.040536e-08
-8.744689e-09 -9.186143e-09 -8.910177e-09 -1.012426e-08 -1.066740e-08 -8.731483e-09 -8.902190e-09 -9.635080e-09 -8.715907e-09 -9.457840e-09
-8.383309e-09 -9.569800e-09 -9.625652e-09 -9.217811e-09 -9.196353e-09 -8.341293e-09 -9.763429e-09 -8.307210e-09 -8.584228e-09 -7.997419e-09
-8.666117e-09 -9.077063e-09 -8.840609e-09 -9.140039e-09 -8.958224e-09 -9.324110e-09 -8.106748e-09 -8.467370e-09 -9.751163e-09 -7.343874e-09
-9.015964e-09 -7.316189e-09 -8.876833e-09 -8.552794e-09 -8.099926e-09 -7.026185e-09 -7.474024e-09 -7.731765e-09 -7.465797e-09 -8.767350e-09
-7.189243e-09
-6.666894e-09 -8.045327e-09 -7.658734e-09 -7.922462e-09 -7.754591e-09 -8.034498e-09 -7.138416e-09 -8.313235e-09 -8.629317e-09 -9.211571e-09
-8.494660e-09 -7.043286e-09 -6.267080e-09 -8.615332e-09 -1.066544e-08 -8.235996e-09 -8.817346e-09 -9.514515e-09 -8.309453e-09 -9.678886e-09
-6.982364e-09 -7.575477e-09 -8.946245e-09 -8.350696e-09 -7.441761e-09 -7.753731e-09 -8.069152e-09 -7.872187e-09 -9.714543e-09 -1.022690e-08
-8.233643e-09 -8.697299e-09 -1.010235e-08 -9.422795e-09 -8.696059e-09 -9.735707e-09 -8.585293e-09 -9.041597e-09 -9.430159e-09 -8.484620e-09
-8.363540e-09 -8.925620e-09 -7.951813e-09 -9.170129e-09 -9.710297e-09 -8.786925e-09 -1.006822e-08 -9.499519e-09 -9.668767e-09 -9.747020e-09
-8.640044e-09 -8.578353e-09 -9.304973e-09 -8.917397e-09 -9.263707e-09 -8.309677e-09 -9.201032e-09 -9.872816e-09 -9.041623e-09 -7.915875e-09
-7.896189e-09 -9.270045e-09 -8.994022e-09 -8.994490e-09 -8.800522e-09 -7.832551e-09 -8.946200e-09 -7.808159e-09 -7.886011e-09 -8.350528e-09
-9.334738e-09 -7.194564e-09 -8.953962e-09 -8.893072e-09 -7.876779e-09 -9.751665e-09 -8.612798e-09 -8.620328e-09 -7.006584e-09 -9.196728e-09
-8.969598e-09 -8.420387e-09 -8.221569e-09 -7.542464e-09 -7.139318e-09 -6.843435e-09 -6.313748e-09 -8.624933e-09 -8.059397e-09 -8.773323e-09
-8.339440e-09 -7.278788e-09 -6.730191e-09 -7.173502e-09 -7.570525e-09 -7.917920e-09 -6.150381e-09 -8.071758e-09 -9.348909e-09 -8.382930e-09
-7.463702e-09 -7.786087e-09 -7.755569e-09 -8.538188e-09 -7.709924e-09 -8.069513e-09 -9.139387e-09 -8.256325e-09 -8.786137e-09 -8.151257e-09
-9.547466e-09 -9.243320e-09 -8.011249e-09 -9.071486e-09 -8.101776e-09 -9.657627e-09 -9.444276e-09 -8.778933e-09 -8.637120e-09 -8.787953e-09
-9.288104e-09 -8.383037e-09 -9.091930e-09 -1.066495e-08 -9.179928e-09 -8.864162e-09 -8.779917e-09 -8.620535e-09 -9.897653e-09 -1.026709e-08
-8.807642e-09 -9.776180e-09 -1.002219e-08 -9.591727e-09 -9.590360e-09 -8.631138e-09 -9.919217e-09 -9.249413e-09 -9.100659e-09 -9.124932e-09
-9.677614e-09 -9.148825e-09 -8.633442e-09 -8.133546e-09 -9.340783e-09 -9.488841e-09 -9.189398e-09 -1.015890e-08 -1.001785e-08 -8.740527e-09
-9.820738e-09 -9.359311e-09 -9.726095e-09 -9.563073e-09 -8.556026e-09 -9.866804e-09 -9.458939e-09 -8.652060e-09 -9.036103e-09 -9.459610e-09
-8.282954e-09 -8.763146e-09 -9.503257e-09 -1.027591e-08 -8.310669e-09 -7.721494e-09 -1.057959e-08 -8.557541e-09 -8.268398e-09 -6.951220e-09
-7.695593e-09 -1.016088e-08 -8.872981e-09 -9.754480e-09 -8.401360e-09 -8.338433e-09 -7.449883e-09 -7.605933e-09 -7.122846e-09 -9.308428e-09
-6.447840e-09 -8.723804e-09 -9.393329e-09 -8.972513e-09 -6.506116e-09 -9.933550e-09 -9.793341e-09 -7.114949e-09 -8.502194e-09 -8.061623e-09
-8.938861e-09 -8.824071e-09 -7.960982e-09 -8.193052e-09 -8.203341e-09 -8.171568e-09 -9.048037e-09 -9.565176e-09 -9.449747e-09 -7.872544e-09
-8.306248e-09 -7.500588e-09 -8.258655e-09 -8.646858e-09 -9.641306e-09 -9.834452e-09 -8.796643e-09 -9.488622e-09 -8.311741e-09 -8.935907e-09
-8.648818e-09 -9.296325e-09 -8.500211e-09 -9.472046e-09 -9.370790e-09 -9.159823e-09 -1.017361e-08 -8.105835e-09 -8.419401e-09 -1.067627e-08
-1.038608e-08 -9.480509e-09 -9.545506e-09 -8.917396e-09 -9.912475e-09 -9.150988e-09 -1.045829e-08 -9.336211e-09 -9.228088e-09 -9.631738e-09
-8.644686e-09 -1.029071e-08 -9.765329e-09 -1.029232e-08 -8.972058e-09 -9.247141e-09 -8.233757e-09 -8.311140e-09 -1.021097e-08 -8.038955e-09
-8.788676e-09 -9.145926e-09 -8.646878e-09 -9.017184e-09 -9.354235e-09 -9.587206e-09 -7.484315e-09 -9.203653e-09 -8.914589e-09 -9.199028e-09
-8.769423e-09 -8.672054e-09 -8.679849e-09 -8.462590e-09 -7.402635e-09 -7.483256e-09 -9.477790e-09 -8.283515e-09 -9.169145e-09 -8.099319e-09
-6.514716e-09 -7.670494e-09 -8.250544e-09 -7.854191e-09 -5.984054e-09 -7.766853e-09 -7.760584e-09 -8.611605e-09 -8.384128e-09 -7.936841e-09
-7.786169e-09 -8.560289e-09 -7.106385e-09 -7.770113e-09 -8.165027e-09 -7.771232e-09 -6.949608e-09 -8.324510e-09 -6.508504e-09 -7.988249e-09
-8.216340e-09 -7.433533e-09 -8.626456e-09 -7.703927e-09 -8.451461e-09 -7.208915e-09 -7.815693e-09 -9.932552e-09 -8.217261e-09 -8.429516e-09
-9.599971e-09 -9.372089e-09 -9.694784e-09 -7.782827e-09 -8.309126e-09 -8.112800e-09 -1.104445e-08 -1.030195e-08 -9.086836e-09 -8.869869e-09
-1.042131e-08 -8.006651e-09 -8.784149e-09 -8.659973e-09 -9.520404e-09 -8.608207e-09 -1.064329e-08 -9.144292e-09 -9.044122e-09 -9.031873e-09
-9.715467e-09 -9.039105e-09 -7.905069e-09 -9.346881e-09 -9.862252e-09 -9.003168e-09 -9.961258e-09 -9.239328e-09 -8.498410e-09 -9.161131e-09
-8.732271e-09 -8.676465e-09 -8.733355e-09 -9.206841e-09 -7.606358e-09 -9.395841e-09 -8.626865e-09 -8.447732e-09 -9.450516e-09 -9.032751e-09
-1.010488e-08 -8.754094e-09 -8.225453e-09 -8.173725e-09 -8.272508e-09 -7.947246e-09 -8.887148e-09 -8.493863e-09 -9.368051e-09 -7.867155e-09
-9.642549e-09 -7.801678e-09 -9.533159e-09 -8.786579e-09 -8.649859e-09 -7.335844e-09 -8.935673e-09 -8.335793e-09 -6.396598e-09 -8.501566e-09
-7.920495e-09 -6.573342e-09 -6.684289e-09 -7.124873e-09 -7.688571e-09 -6.621149e-09 -6.142118e-09 -7.904151e-09 -7.779011e-09 -8.849981e-09
-6.666894e-09
-7.946775e-09 -8.258706e-09 -6.495407e-09 -9.372932e-09 -8.974850e-09 -6.884547e-09 -6.737301e-09 -6.770108e-09 -7.593010e-09 -8.535299e-09
-6.817157e-09 -8.743815e-09 -8.603991e-09 -6.672648e-09 -8.874363e-09 -9.254649e-09 -7.886066e-09 -7.890244e-09 -7.442222e-09 -9.117366e-09
-7.849123e-09 -6.900734e-09 -8.212602e-09 -8.279470e-09 -7.822110e-09 -7.988628e-09 -7.688925e-09 -7.127572e-09 -8.959371e-09 -8.345067e-09
-8.555920e-09 -7.929416e-09 -8.540668e-09 -8.430698e-09 -7.958785e-09 -9.985274e-09 -8.278621e-09 -8.360776e-09 -8.111821e-09 -8.156425e-09
-8.499986e-09 -8.143354e-09 -8.636595e-09 -8.476836e-09 -7.994426e-09 -8.221158e-09 -8.269569e-09 -8.519200e-09 -9.136923e-09 -1.007457e-08
-9.197367e-09 -9.888430e-09 -7.881269e-09 -8.074883e-09 -8.241760e-09 -7.959980e-09 -8.672153e-09 -8.889981e-09 -8.495746e-09 -7.771461e-09
-8.791123e-09 -8.205242e-09 -7.497597e-09 -8.252420e-09 -8.745584e-09 -7.859177e-09 -7.529459e-09 -8.901794e-09 -8.953491e-09 -7.689569e-09
-7.174920e-09 -7.784942e-09 -9.696620e-09 -7.216984e-09 -8.241407e-09 -8.489404e-09 -8.587594e-09 -8.453235e-09 -7.071657e-09 -9.150170e-09
-7.184313e-09 -7.214231e-09 -6.208158e-09 -8.263541e-09 -7.478625e-09 -7.157907e-09 -6.708705e-09 -7.376858e-09 -6.951005e-09 -8.054492e-09
-6.561395e-09 -6.420259e-09 -7.029280e-09 -8.009859e-09 -7.127336e-09 -6.985784e-09 -7.341631e-09 -5.834361e-09 -5.933211e-09 -6.746561e-09
-7.042896e-09 -7.792047e-09 -8.038604e-09 -8.620947e-09 -7.361658e-09 -9.363402e-09 -8.291103e-09 -7.315031e-09 -8.289480e-09 -7.072060e-09
-7.524272e-09 -9.195451e-09 -1.031257e-08 -8.688222e-09 -8.660333e-09 -9.293235e-09 -8.549446e-09 -8.476376e-09 -8.450868e-09 -9.076295e-09
-9.342283e-09 -8.067555e-09 -1.042336e-08 -8.123082e-09 -8.277332e-09 -9.601093e-09 -8.803759e-09 -8.945610e-09 -9.580719e-09 -8.284148e-09
-9.490265e-09 -8.664368e-09 -1.009471e-08 -9.116687e-09 -9.815872e-09 -9.127720e-09 -8.210530e-09 -8.807414e-09 -9.324890e-09 -8.596154e-09
-9.786691e-09 -8.202837e-09 -8.648680e-09 -7.911207e-09 -8.978279e-09 -8.468021e-09 -8.789624e-09 -8.181476e-09 -8.144963e-09 -7.920566e-09
-8.343370e-09 -9.650297e-09 -8.240094e-09 -9.105039e-09 -9.641408e-09 -8.323563e-09 -7.791613e-09 -7.875794e-09 -9.170316e-09 -8.872331e-09
-6.559301e-09 -7.320468e-09 -7.841964e-09 -7.983164e-09 -9.037788e-09 -7.507523e-09 -7.489954e-09 -7.985800e-09 -7.178198e-09 -7.438043e-09
-9.177733e-09 -7.839795e-09 -7.020480e-09 -7.696261e-09 -8.051063e-09 -8.469728e-09 -9.226977e-09 -6.536231e-09 -7.813918e-09 -7.794326e-09
-8.564819e-09 -8.139820e-09 -7.457261e-09 -6.936104e-09 -6.792544e-09 -6.974410e-09 -8.363931e-09 -7.664028e-09 -8.526252e-09 -7.682396e-09
-9.858493e-09 -8.401152e-09 -8.001330e-09 -8.367786e-09 -8.060538e-09 -9.303995e-09 -6.821542e-09 -8.495735e-09 -8.050840e-09 -8.494080e-09
-7.083916e-09 -8.090464e-09 -7.610092e-09 -7.971647e-09 -7.965915e-09 -8.332893e-09 -9.072274e-09 -8.198962e-09 -9.251521e-09 -8.604592e-09
-8.341092e-09 -8.333810e-09 -8.661588e-09 -8.833774e-09 -1.017215e-08 -7.921646e-09 -9.202437e-09 -7.490044e-09 -8.221424e-09 -8.060701e-09
-8.830962e-09 -7.269480e-09 -7.854433e-09 -8.343679e-09 -7.893017e-09 -8.250005e-09 -8.963593e-09 -9.933894e-09 -8.158064e-09 -9.371334e-09
-8.690354e-09 -8.609527e-09 -9.405507e-09 -9.636826e-09 -8.819625e-09 -8.375843e-09 -9.324901e-09 -8.725803e-09 -8.678861e-09 -8.604000e-09
-1.079990e-08 -9.110551e-09 -9.588606e-09 -7.850882e-09 -8.837604e-09 -8.071162e-09 -8.791859e-09 -8.124300e-09 -7.075545e-09 -9.945482e-09
-7.356340e-09 -7.567023e-09 -7.418078e-09 -7.557400e-09 -8.570993e-09 -7.694051e-09 -9.118342e-09 -7.826968e-09 -9.297167e-09 -6.940491e-09
-9.300952e-09 -7.515911e-09 -8.170173e-09 -8.611837e-09 -9.307868e-09 -6.943483e-09 -8.253951e-09 -8.563974e-09 -7.670049e-09 -6.686907e-09
-6.936370e-09 -9.063471e-09 -7.666905e-09 -7.079539e-09 -6.266189e-09 -8.981985e-09 -7.959844e-09 -7.994920e-09 -8.870934e-09 -7.486226e-09
-7.392850e-09 -6.446664e-09 -8.479940e-09 -8.817238e-09 -7.439579e-09 -8.850987e-09 -7.632424e-09 -1.008368e-08 -7.781723e-09 -9.370106e-09
-8.504997e-09 -9.118706e-09 -8.708805e-09 -7.785528e-09 -8.768638e-09 -1.048879e-08 -9.460241e-09 -8.487238e-09 -8.009714e-09 -7.207122e-09
-7.419390e-09 -7.847480e-09 -8.402542e-09 -8.495302e-09 -8.071624e-09 -8.729002e-09 -8.347801e-09 -7.505975e-09 -7.944998e-09 -7.933720e-09
-8.649466e-09 -8.164567e-09 -8.809539e-09 -8.212051e-09 -8.473649e-09 -8.345851e-09 -8.134681e-09 -8.364409e-09 -9.213615e-09 -9.144494e-09
-8.154744e-09 -9.276883e-09 -8.851601e-09 -8.280511e-09 -7.941176e-09 -9.294545e-09 -8.268670e-09 -7.790901e-09 -8.560895e-09 -9.406580e-09
-8.821716e-09 -8.714706e-09 -7.216942e-09 -7.835934e-09 -8.036405e-09 -7.999335e-09 -7.295029e-09 -8.301378e-09 -8.510864e-09 -8.166113e-09
-9.123002e-09 -8.929404e-09 -8.262393e-09 -7.074995e-09 -7.777267e-09 -7.246059e-09 -7.998538e-09 -8.851543e-09 -8.460702e-09 -7.904096e-09
-8.095732e-09 -8.482636e-09 -7.376527e-09 -9.419532e-09 -7.749569e-09 -9.647022e-09 -8.554689e-09 -6.801436e-09 -8.658803e-09 -7.489780e-09
-7.946775e-09
-6.895191e-09 -6.227355e-09 -7.119702e-09 -7.941356e-09 -7.730581e-09 -7.467958e-09 -7.531151e-09 -7.402955e-09 -6.516406e-09 -6.699326e-09
-7.712038e-09 -6.888734e-09 -8.260835e-09 -6.994014e-09 -6.810604e-09 -7.718037e-09 -6.816693e-09 -9.162562e-09 -7.267426e-09 -8.278878e-09
-7.000894e-09 -8.244126e-09 -8.200068e-09 -7.790764e-09 -7.653951e-09 -7.764477e-09 -6.856036e-09 -8.475364e-09 -7.182926e-09 -7.329199e-09
-8.180908e-09 -8.145430e-09 -8.576114e-09 -9.015687e-09 -7.307912e-09 -8.960434e-09 -7.893232e-09 -7.625851e-09 -7.972308e-09 -9.057449e-09
-9.242231e-09 -9.198220e-09 -7.363193e-09 -8.856070e-09 -7.472866e-09 -8.683788e-09 -9.395711e-09 -8.608492e-09 -8.543537e-09 -8.171704e-09
-8.563320e-09 -7.137769e-09 -9.365350e-09 -7.959695e-09 -7.173173e-09 -9.927844e-09 -8.427448e-09 -8.074536e-09 -6.568786e-09 -8.118286e-09
-8.944284e-09 -7.893372e-09 -7.301391e-09 -8.342260e-09 -8.442377e-09 -9.329225e-09 -8.662423e-09 -8.607347e-09 -7.831152e-09 -6.982804e-09
-9.091862e-09 -8.017092e-09 -9.198827e-09 -6.746216e-09 -7.067396e-09 -7.856783e-09 -7.634083e-09 -7.194161e-09 -6.335220e-09 -5.604672e-09
-7.562992e-09 -6.970799e-09 -7.115919e-09 -7.875228e-09 -8.001577e-09 -7.481051e-09 -6.854421e-09 -6.318451e-09 -7.123846e-09 -6.377794e-09
-6.363692e-09 -8.488573e-09 -6.238066e-09 -7.246089e-09 -9.639974e-09 -6.961265e-09 -6.745982e-09 -8.728911e-09 -6.641141e-09 -7.958208e-09
-8.214129e-09 -7.966038e-09 -7.160788e-09 -9.009300e-09 -9.149381e-09 -7.188146e-09 -7.871276e-09 -8.641894e-09 -7.167273e-09 -8.092797e-09
-7.665470e-09 -7.073027e-09 -8.294605e-09 -8.172298e-09 -7.459426e-09 -8.033445e-09 -8.519387e-09 -6.833127e-09 -7.869495e-09 -8.848300e-09
-7.841405e-09 -8.439965e-09 -8.155577e-09 -7.278087e-09 -8.393923e-09 -9.020769e-09 -8.892710e-09 -8.071296e-09 -8.664848e-09 -8.684427e-09
-7.810264e-09 -9.609397e-09 -8.382707e-09 -7.683985e-09 -8.141240e-09 -8.244220e-09 -9.309645e-09 -7.885185e-09 -8.223722e-09 -8.879906e-09
-9.233801e-09 -8.799847e-09 -9.065155e-09 -8.574495e-09 -9.144315e-09 -7.426161e-09 -8.215893e-09 -8.436622e-09 -8.453324e-09 -7.582103e-09
-7.680764e-09 -8.934683e-09 -7.851050e-09 -7.062013e-09 -7.449648e-09 -7.762858e-09 -8.272705e-09 -5.952446e-09 -7.985660e-09 -8.453937e-09
-9.762648e-09 -8.445891e-09 -8.438561e-09 -8.457476e-09 -8.606905e-09 -7.537809e-09 -8.711790e-09 -6.357900e-09 -7.495358e-09 -7.532316e-09
-8.142752e-09 -6.721491e-09 -7.480346e-09 -7.405655e-09 -6.766453e-09 -6.491710e-09 -7.844066e-09 -7.604907e-09 -6.944885e-09 -8.520261e-09
-7.795564e-09 -6.670753e-09 -7.426455e-09 -6.226786e-09 -1.007540e-08 -7.561792e-09 -7.618950e-09 -8.043322e-09 -6.667368e-09 -8.279421e-09
-7.796579e-09 -6.764854e-09 -7.846506e-09 -7.391295e-09 -7.383565e-09 -5.741519e-09 -7.953052e-09 -8.414760e-09 -6.772698e-09 -8.030406e-09
-8.794717e-09 -7.221046e-09 -8.130451e-09 -8.036263e-09 -7.647878e-09 -8.140765e-09 -7.351071e-09 -9.590682e-09 -8.024755e-09 -6.990734e-09
-6.804761e-09 -8.130538e-09 -7.125579e-09 -9.259273e-09 -7.942556e-09 -7.661487e-09 -8.699885e-09 -8.656598e-09 -8.986463e-09 -7.744916e-09
-7.937802e-09 -8.223075e-09 -8.339716e-09 -7.585701e-09 -7.427797e-09 -8.867238e-09 -8.266919e-09 -8.712323e-09 -8.482476e-09 -8.187770e-09
-8.739430e-09 -8.002540e-09 -8.321444e-09 -9.711889e-09 -7.752650e-09 -8.273514e-09 -7.564891e-09 -8.158515e-09 -8.153413e-09 -7.329587e-09
-7.700586e-09 -8.279083e-09 -8.023934e-09 -7.876548e-09 -8.243017e-09 -8.391738e-09 -7.753230e-09 -8.899322e-09 -8.585956e-09 -7.890606e-09
-7.773582e-09 -7.800673e-09 -7.798748e-09 -8.447789e-09 -8.101487e-09 -9.267619e-09 -7.638337e-09 -8.557102e-09 -8.352298e-09 -7.190160e-09
-5.733007e-09 -5.936955e-09 -5.855682e-09 -8.034847e-09 -5.559773e-09 -6.652099e-09 -7.562494e-09 -6.618674e-09 -6.934120e-09 -6.016704e-09
-6.692002e-09 -8.638819e-09 -6.452434e-09 -6.811053e-09 -8.257817e-09 -7.317942e-09 -7.335991e-09 -7.109326e-09 -7.353589e-09 -6.704177e-09
-8.791338e-09 -7.578913e-09 -8.986905e-09 -7.240681e-09 -8.095511e-09 -7.247833e-09 -7.438749e-09 -8.641563e-09 -8.223211e-09 -7.223028e-09
-7.992996e-09 -8.871743e-09 -8.501929e-09 -6.822159e-09 -8.403414e-09 -9.002128e-09 -7.908451e-09 -7.608900e-09 -8.874118e-09 -7.761764e-09
-8.639648e-09 -8.131456e-09 -8.151502e-09 -7.214598e-09 -8.730120e-09 -7.895316e-09 -8.093521e-09 -9.506196e-09 -8.492115e-09 -8.354960e-09
-8.201211e-09 -9.373683e-09 -9.046482e-09 -7.624624e-09 -7.948382e-09 -7.874500e-09 -9.298435e-09 -8.615472e-09 -7.513236e-09 -8.070383e-09
-8.384135e-09 -7.267909e-09 -8.213417e-09 -9.168587e-09 -9.018505e-09 -8.444593e-09 -8.018542e-09 -7.733547e-09 -7.732163e-09 -8.892822e-09
-8.784743e-09 -8.233234e-09 -8.106385e-09 -7.090542e-09 -7.455982e-09 -6.968685e-09 -7.786384e-09 -7.891971e-09 -6.741535e-09 -6.974879e-09
-8.570709e-09 -8.250812e-09 -8.383148e-09 -7.266659e-09 -7.734067e-09 -8.175676e-09 -7.048973e-09 -6.377492e-09 -7.529795e-09 -7.852770e-09
-6.118759e-09 -7.401094e-09 -6.590701e-09 -8.249327e-09 -7.785217e-09 -5.923574e-09 -8.469438e-09 -6.540110e-09 -7.311710e-09 -8.611271e-09
-6.895191e-09
-5.942916e-09 -6.192149e-09 -6.085270e-09 -6.429645e-09 -6.682418e-09 -7.617545e-09 -7.305327e-09 -6.866622e-09 -6.102505e-09 -6.876485e-09
-7.138434e-09 -6.933412e-09 -8.126396e-09 -6.873345e-09 -6.190839e-09 -7.774546e-09 -7.478508e-09 -7.286168e-09 -6.900648e-09 -6.533657e-09
-8.386962e-09 -6.637575e-09 -7.521479e-09 -6.851030e-09 -7.300770e-09 -7.531008e-09 -8.587068e-09 -8.567712e-09 -8.491766e-09 -6.344640e-09
-8.989243e-09 -8.112619e-09 -8.270448e-09 -7.372304e-09 -7.894662e-09 -7.519817e-09 -7.066884e-09 -8.154978e-09 -7.498323e-09 -8.310093e-09
-8.197223e-09 -6.906034e-09 -8.372953e-09 -6.861631e-09 -8.501766e-09 -9.407720e-09 -8.664133e-09 -8.288287e-09 -7.289179e-09 -7.325976e-09
-6.920272e-09 -7.689359e-09 -8.270749e-09 -7.524903e-09 -7.757439e-09 -7.376531e-09 -9.205039e-09 -8.763949e-09 -8.994976e-09 -8.298364e-09
-7.461264e-09 -7.066516e-09 -7.666967e-09 -7.822678e-09 -6.971490e-09 -7.990386e-09 -8.631427e-09 -8.007645e-09 -7.823767e-09 -6.712053e-09
-9.074232e-09 -8.847928e-09 -6.199108e-09 -6.981085e-09 -7.121469e-09 -8.898406e-09 -6.915592e-09 -7.435703e-09 -5.903040e-09 -6.829821e-09
-8.018513e-09 -6.682392e-09 -6.021570e-09 -8.220916e-09 -5.186131e-09 -6.589035e-09 -8.389154e-09 -6.638126e-09 -7.775182e-09 -6.866130e-09
-6.047481e-09 -7.057244e-09 -7.500145e-09 -7.051440e-09 -7.245500e-09 -5.965626e-09 -6.083396e-09 -6.928074e-09 -6.729528e-09 -7.897859e-09
-5.859749e-09 -5.922328e-09 -7.739570e-09 -6.464592e-09 -6.427005e-09 -7.038965e-09 -6.258170e-09 -6.812313e-09 -7.589203e-09 -8.093441e-09
-7.530180e-09 -7.259064e-09 -8.278646e-09 -8.168162e-09 -7.155385e-09 -7.700773e-09 -7.753304e-09 -8.310162e-09 -8.747564e-09 -7.970552e-09
-6.548094e-09 -8.000794e-09 -8.699054e-09 -8.956859e-09 -7.608937e-09 -7.456673e-09 -7.541150e-09 -8.309859e-09 -8.645135e-09 -8.425141e-09
-7.423952e-09 -7.563680e-09 -7.872026e-09 -8.960597e-09 -7.571941e-09 -8.245265e-09 -7.113337e-09 -8.592495e-09 -7.737632e-09 -9.273737e-09
-8.216142e-09 -6.646587e-09 -8.413367e-09 -8.772989e-09 -7.923620e-09 -8.315674e-09 -8.095622e-09 -8.437577e-09 -7.296526e-09 -8.184928e-09
-7.452334e-09 -7.980276e-09 -7.968449e-09 -7.388187e-09 -8.954244e-09 -8.554824e-09 -7.912461e-09 -6.985240e-09 -7.043896e-09 -6.576313e-09
-7.845876e-09 -6.903072e-09 -8.033510e-09 -6.999591e-09 -6.651060e-09 -6.738430e-09 -6.411673e-09 -9.006060e-09 -7.169835e-09 -6.617425e-09
-5.818307e-09 -6.546441e-09 -7.151847e-09 -6.683149e-09 -6.075663e-09 -6.064703e-09 -5.837274e-09 -7.219199e-09 -8.901829e-09 -7.586432e-09
-6.774159e-09 -8.077708e-09 -7.024307e-09 -6.312842e-09 -6.386445e-09 -6.397391e-09 -6.244390e-09 -6.658259e-09 -7.217692e-09 -6.244844e-09
-5.889126e-09 -6.419209e-09 -8.256516e-09 -6.736521e-09 -6.539056e-09 -7.052366e-09 -6.288612e-09 -9.080002e-09 -7.183548e-09 -8.469986e-09
-7.201887e-09 -8.595874e-09 -6.194090e-09 -5.568708e-09 -7.784998e-09 -7.561392e-09 -8.909829e-09 -7.877246e-09 -8.361748e-09 -6.976848e-09
-7.137261e-09 -7.479554e-09 -7.352542e-09 -7.552027e-09 -7.559192e-09 -7.181578e-09 -7.608463e-09 -7.775201e-09 -7.641183e-09 -7.639970e-09
-7.297316e-09 -7.476540e-09 -7.360472e-09 -8.952289e-09 -7.403870e-09 -7.159581e-09 -7.401390e-09 -8.019341e-09 -8.524620e-09 -7.889910e-09
-6.842205e-09 -7.637499e-09 -8.417445e-09 -7.172963e-09 -8.613687e-09 -7.726370e-09 -7.533062e-09 -8.556924e-09 -6.832058e-09 -8.077921e-09
-7.207513e-09 -8.161311e-09 -7.721699e-09 -7.121174e-09 -6.022144e-09 -8.378302e-09 -7.454038e-09 -7.988985e-09 -6.950492e-09 -7.490677e-09
-7.243096e-09 -7.766078e-09 -7.114808e-09 -7.901594e-09 -7.550097e-09 -6.969158e-09 -7.728895e-09 -6.768675e-09 -6.701601e-09 -5.606199e-09
-5.734782e-09 -7.015677e-09 -8.798160e-09 -5.974959e-09 -5.143268e-09 -6.204939e-09 -5.874031e-09 -6.864850e-09 -6.720979e-09 -6.128584e-09
-7.976229e-09 -6.845608e-09 -6.909274e-09 -6.417318e-09 -6.775243e-09 -6.296919e-09 -6.597205e-09 -6.303351e-09 -9.679783e-09 -5.819493e-09
-7.231757e-09 -6.273927e-09 -5.920443e-09 -6.196556e-09 -7.233992e-09 -7.890372e-09 -7.705514e-09 -6.348561e-09 -6.480716e-09 -7.419354e-09
-8.102337e-09 -8.346992e-09 -7.548991e-09 -7.783535e-09 -7.098693e-09 -6.932996e-09 -7.026637e-09 -7.284344e-09 -8.637214e-09 -8.003596e-09
-9.949733e-09 -7.669023e-09 -7.712877e-09 -7.592030e-09 -8.857324e-09 -7.278879e-09 -7.018497e-09 -8.522858e-09 -6.370515e-09 -8.058477e-09
-7.075510e-09 -8.648180e-09 -7.500081e-09 -8.615639e-09 -7.547712e-09 -7.419347e-09 -8.471929e-09 -6.908561e-09 -7.959546e-09 -8.150195e-09
-7.018902e-09 -7.283655e-09 -6.358990e-09 -7.690180e-09 -8.055614e-09 -7.958440e-09 -8.350692e-09 -7.793500e-09 -9.639174e-09 -7.414062e-09
-7.637770e-09 -6.982051e-09 -8.107603e-09 -7.673644e-09 -7.431808e-09 -7.727315e-09 -6.319720e-09 -6.126573e-09 -8.070442e-09 -7.922721e-09
-7.797246e-09 -6.592240e-09 -6.322395e-09 -6.740257e-09 -6.319151e-09 -8.882485e-09 -6.730075e-09 -6.595479e-09 -7.553891e-09 -6.890323e-09
-6.894599e-09 -6.875512e-09 -7.168146e-09 -6.916062e-09 -6.306689e-09 -5.659519e-09 -6.416859e-09 -6.528056e-09 -6.369248e-09 -6.058077e-09
-5.942916e-09
-6.298401e-09 -6.260994e-09 -6.348829e-09 -5.678294e-09 -6.825214e-09 -5.612204e-09 -6.572708e-09 -5.501008e-09 -5.664179e-09 -5.799594e-09
-7.824385e-09 -6.887449e-09 -5.927517e-09 -7.857023e-09 -7.715474e-09 -6.641939e-09 -5.742265e-09 -7.272690e-09 -7.559326e-09 -7.406310e-09
-7.100114e-09 -7.604341e-09 -7.250205e-09 -6.851559e-09 -7.953506e-09 -6.342667e-09 -7.547458e-09 -7.433629e-09 -5.984433e-09 -7.284137e-09
-9.129315e-09 -7.796751e-09 -8.442128e-09 -7.706384e-09 -6.692650e-09 -6.877154e-09 -6.875382e-09 -7.202084e-09 -7.656857e-09 -6.810171e-09
-6.290380e-09 -7.398554e-09 -6.879353e-09 -7.606922e-09 -7.820288e-09 -6.623734e-09 -6.578680e-09 -8.242904e-09 -8.065490e-09 -6.799270e-09
-7.047239e-09 -7.537118e-09 -8.228388e-09 -7.677424e-09 -7.717069e-09 -7.144595e-09 -7.926512e-09 -8.487647e-09 -6.974241e-09 -8.213636e-09
-6.669061e-09 -7.305791e-09 -8.183739e-09 -6.248530e-09 -8.329114e-09 -7.276837e-09 -8.720097e-09 -7.592174e-09 -6.188337e-09 -6.524254e-09
-7.110652e-09 -7.353513e-09 -6.266347e-09 -7.734523e-09 -6.195033e-09 -6.350774e-09 -6.460196e-09 -9.199469e-09 -6.428467e-09 -7.206479e-09
-6.497550e-09 -7.196742e-09 -5.595430e-09 -8.923399e-09 -6.249683e-09 -6.731586e-09 -7.513949e-09 -7.558064e-09 -5.476596e-09 -5.310325e-09
-6.117261e-09 -4.884802e-09 -5.406465e-09 -5.423681e-09 -6.051767e-09 -8.450150e-09 -7.450506e-09 -6.820162e-09 -7.106435e-09 -5.853602e-09
-7.444175e-09 -8.674932e-09 -6.167584e-09 -6.391096e-09 -7.634062e-09 -6.883164e-09 -5.690724e-09 -6.076903e-09 -5.988441e-09 -7.664444e-09
-6.559404e-09 -6.701078e-09 -7.716253e-09 -6.994201e-09 -7.666655e-09 -6.939649e-09 -7.144489e-09 -8.335938e-09 -6.665113e-09 -6.996702e-09
-6.893306e-09 -8.014127e-09 -7.502909e-09 -6.948722e-09 -7.570552e-09 -7.044978e-09 -7.988675e-09 -7.574528e-09 -7.870955e-09 -7.399393e-09
-8.290306e-09 -6.905086e-09 -7.773498e-09 -7.472349e-09 -8.687543e-09 -7.371943e-09 -8.606906e-09 -7.918660e-09 -6.596938e-09 -8.142139e-09
-7.620167e-09 -7.886249e-09 -8.408073e-09 -8.533437e-09 -6.926982e-09 -6.758030e-09 -7.331360e-09 -7.058707e-09 -8.146710e-09 -6.990911e-09
-6.330251e-09 -8.116781e-09 -7.823765e-09 -8.254737e-09 -6.826604e-09 -7.370606e-09 -8.166103e-09 -7.274221e-09 -7.856622e-09 -6.447462e-09
-6.160511e-09 -5.865382e-09 -7.728218e-09 -7.762542e-09 -7.343920e-09 -7.496932e-09 -7.615558e-09 -7.755006e-09 -6.495036e-09 -8.402187e-09
-7.195417e-09 -5.060381e-09 -7.111912e-09 -6.443730e-09 -6.487715e-09 -7.663644e-09 -6.005975e-09 -6.573460e-09 -6.428214e-09 -6.627770e-09
-6.081995e-09 -7.200633e-09 -7.644558e-09 -7.089071e-09 -5.557785e-09 -8.350287e-09 -5.589763e-09 -9.249737e-09 -6.142818e-09 -4.959522e-09
-6.168003e-09 -6.617769e-09 -5.694782e-09 -6.675048e-09 -6.464739e-09 -6.063842e-09 -6.810879e-09 -7.977703e-09 -7.352060e-09 -7.074841e-09
-7.224892e-09 -7.050953e-09 -6.384230e-09 -7.912520e-09 -8.106887e-09 -7.520863e-09 -7.812448e-09 -7.768068e-09 -8.009934e-09 -7.708711e-09
-8.033979e-09 -8.556639e-09 -7.073839e-09 -7.756173e-09 -7.579377e-09 -7.704334e-09 -7.468981e-09 -6.544420e-09 -7.550398e-09 -7.484044e-09
-7.383341e-09 -7.774852e-09 -7.024353e-09 -8.029840e-09 -6.890253e-09 -7.588759e-09 -7.178020e-09 -7.722345e-09 -7.295413e-09 -6.786442e-09
-7.329605e-09 -6.824093e-09 -7.936220e-09 -7.129143e-09 -6.872632e-09 -8.047049e-09 -7.863025e-09 -7.583600e-09 -6.706621e-09 -6.743617e-09
-7.735381e-09 -7.629751e-09 -6.560162e-09 -6.812412e-09 -7.825588e-09 -6.955505e-09 -7.542420e-09 -7.547921e-09 -6.251628e-09 -7.637877e-09
-6.953016e-09 -6.835037e-09 -6.823450e-09 -6.502853e-09 -7.574173e-09 -6.955876e-09 -7.573958e-09 -5.693615e-09 -6.503592e-09 -7.750655e-09
-7.297837e-09 -4.920334e-09 -5.983360e-09 -7.312869e-09 -8.603176e-09 -5.674914e-09 -7.156878e-09 -5.130939e-09 -4.490784e-09 -5.905129e-09
-5.896762e-09 -5.727346e-09 -5.793107e-09 -7.433547e-09 -8.568764e-09 -5.206532e-09 -5.368493e-09 -6.436872e-09 -6.064692e-09 -8.575536e-09
-5.403410e-09 -7.583000e-09 -9.351662e-09 -7.347241e-09 -6.777702e-09 -7.923876e-09 -5.438304e-09 -6.954334e-09 -6.985390e-09 -6.272961e-09
-6.672067e-09 -7.184541e-09 -9.522826e-09 -6.661761e-09 -8.986155e-09 -7.921060e-09 -7.246664e-09 -7.205440e-09 -7.725396e-09 -6.193443e-09
-6.765879e-09 -6.249804e-09 -8.487429e-09 -6.526803e-09 -7.238933e-09 -9.313973e-09 -7.034072e-09 -7.313328e-09 -7.264926e-09 -7.631641e-09
-7.094495e-09 -6.651600e-09 -6.878685e-09 -6.802019e-09 -8.369443e-09 -8.563179e-09 -7.626504e-09 -7.262503e-09 -7.679746e-09 -8.163492e-09
-8.596541e-09 -5.874210e-09 -6.683090e-09 -8.840305e-09 -8.243840e-09 -7.707441e-09 -7.275697e-09 -6.173698e-09 -7.257007e-09 -8.507818e-09
-7.273130e-09 -7.551299e-09 -6.290456e-09 -7.477950e-09 -6.060171e-09 -6.456848e-09 -8.799315e-09 -6.545271e-09 -8.489316e-09 -6.674901e-09
-7.160717e-09 -6.802261e-09 -6.676426e-09 -6.689246e-09 -7.035342e-09 -7.710644e-09 -6.439785e-09 -5.689134e-09 -5.859255e-09 -6.331884e-09
-7.904444e-09 -7.691478e-09 -5.632047e-09 -6.177407e-09 -4.281193e-09 -6.109313e-09 -6.125104e-09 -6.371420e-09 -7.910335e-09 -8.273459e-09
-6.298401e-09
-7.131186e-09 -6.726533e-09 -6.776933e-09 -5.822505e-09 -7.248471e-09 -6.065889e-09 -5.525383e-09 -6.008745e-09 -7.620304e-09 -4.543947e-09
-6.859704e-09 -6.404776e-09 -6.521653e-09 -6.347228e-09 -6.556314e-09 -6.002982e-09 -8.653142e-09 -7.562124e-09 -8.696911e-09 -7.390945e-09
-7.126749e-09 -6.477482e-09 -7.725221e-09 -5.604583e-09 -6.684244e-09 -7.104797e-09 -7.445594e-09 -5.568884e-09 -5.797013e-09 -6.062889e-09
-6.803630e-09 -6.741589e-09 -7.523743e-09 -6.180893e-09 -7.931070e-09 -6.361442e-09 -7.449265e-09 -6.674968e-09 -6.358065e-09 -6.110566e-09
-7.726474e-09 -6.855252e-09 -7.477134e-09 -6.951451e-09 -7.985189e-09 -7.476046e-09 -7.207783e-09 -7.314659e-09 -6.717136e-09 -7.245550e-09
-7.422051e-09 -7.200270e-09 -5.893328e-09 -6.160386e-09 -6.730552e-09 -6.453367e-09 -7.996364e-09 -8.024338e-09 -7.960780e-09 -6.642844e-09
-7.511097e-09 -8.726588e-09 -6.621455e-09 -7.716657e-09 -8.605157e-09 -7.183480e-09 -6.868729e-09 -5.295103e-09 -5.922665e-09 -6.500219e-09
-6.515486e-09 -6.657761e-09 -7.238807e-09 -6.350986e-09 -8.093981e-09 -8.314975e-09 -7.055769e-09 -6.339911e-09 -7.138341e-09 -7.420113e-09
-7.222334e-09 -7.223706e-09 -6.744798e-09 -6.173862e-09 -4.965667e-09 -5.610262e-09 -5.864878e-09 -5.300588e-09 -5.275309e-09 -6.657974e-09
-6.416088e-09 -7.499770e-09 -5.133399e-09 -6.184128e-09 -5.629990e-09 -6.055931e-09 -7.514146e-09 -5.585282e-09 -5.150235e-09 -7.017678e-09
-7.492042e-09 -6.590574e-09 -6.675506e-09 -6.718167e-09 -6.766486e-09 -6.611244e-09 -7.902066e-09 -6.367436e-09 -7.964931e-09 -6.554849e-09
-6.057409e-09 -7.994188e-09 -6.582001e-09 -5.530876e-09 -6.035876e-09 -7.354188e-09 -7.679135e-09 -7.080935e-09 -6.273959e-09 -5.710358e-09
-6.490971e-09 -6.203651e-09 -7.708540e-09 -7.331628e-09 -6.839616e-09 -7.193609e-09 -6.326474e-09 -6.546291e-09 -6.216340e-09 -7.346370e-09
-6.744911e-09 -8.041705e-09 -8.357566e-09 -7.901250e-09 -7.365311e-09 -8.356408e-09 -8.874952e-09 -8.234367e-09 -8.474577e-09 -6.962482e-09
-8.181205e-09 -6.438343e-09 -8.241744e-09 -7.713445e-09 -7.601002e-09 -8.919552e-09 -7.642144e-09 -6.613728e-09 -7.107758e-09 -8.310933e-09
-6.267026e-09 -7.951651e-09 -9.617069e-09 -7.028092e-09 -8.323345e-09 -5.806337e-09 -7.818098e-09 -6.265623e-09 -6.628263e-09 -6.134937e-09
-7.941146e-09 -5.985000e-09 -6.240439e-09 -6.012879e-09 -6.159491e-09 -6.884314e-09 -6.150732e-09 -6.542180e-09 -5.648211e-09 -6.404586e-09
-6.755022e-09 -7.176055e-09 -6.299503e-09 -6.227685e-09 -5.894240e-09 -7.829947e-09 -7.052481e-09 -5.470248e-09 -6.205514e-09 -5.441118e-09
-5.789828e-09 -5.679689e-09 -7.293922e-09 -7.283888e-09 -6.072479e-09 -4.988795e-09 -4.998582e-09 -6.044572e-09 -6.433937e-09 -8.183103e-09
-7.176155e-09 -6.509181e-09 -5.584593e-09 -6.283420e-09 -5.465728e-09 -7.933957e-09 -6.007678e-09 -6.528371e-09 -6.031466e-09 -6.306246e-09
-6.720663e-09 -7.807643e-09 -7.349121e-09 -6.565797e-09 -6.610957e-09 -7.400953e-09 -5.554847e-09 -7.146390e-09 -7.277243e-09 -5.868550e-09
-7.761223e-09 -6.720031e-09 -7.160684e-09 -7.102443e-09 -6.647886e-09 -7.110870e-09 -7.029055e-09 -6.465272e-09 -6.079510e-09 -6.632290e-09
-6.209944e-09 -7.655515e-09 -6.290085e-09 -7.173754e-09 -6.764416e-09 -6.990675e-09 -7.616777e-09 -7.003429e-09 -7.251523e-09 -7.019669e-09
-8.159597e-09 -7.483101e-09 -6.852899e-09 -7.419324e-09 -7.594431e-09 -6.355241e-09 -7.613047e-09 -6.961237e-09 -7.020657e-09 -6.684001e-09
-6.717379e-09 -7.220511e-09 -7.228591e-09 -7.152482e-09 -7.369157e-09 -6.426024e-09 -7.180835e-09 -7.296432e-09 -6.961892e-09 -6.654396e-09
-8.500696e-09 -5.643872e-09 -6.840285e-09 -5.708555e-09 -7.192852e-09 -6.697285e-09 -6.838077e-09 -7.569990e-09 -5.984414e-09 -6.097736e-09
-5.714430e-09 -5.782541e-09 -5.764066e-09 -5.802671e-09 -5.655238e-09 -5.163523e-09 -5.638031e-09 -4.233826e-09 -5.395504e-09 -5.830845e-09
-5.937545e-09 -6.329341e-09 -6.461359e-09 -6.463793e-09 -5.499745e-09 -4.755778e-09 -5.885537e-09 -5.861962e-09 -5.181423e-09 -5.290543e-09
-8.603080e-09 -7.040127e-09 -7.618868e-09 -6.000597e-09 -6.374311e-09 -6.411620e-09 -5.863062e-09 -8.718172e-09 -6.532428e-09 -6.609744e-09
-6.565631e-09 -6.205900e-09 -7.341505e-09 -7.537500e-09 -7.942254e-09 -5.589760e-09 -7.054374e-09 -7.220366e-09 -7.471781e-09 -6.729459e-09
-7.884050e-09 -7.791454e-09 -7.914197e-09 -6.155349e-09 -7.151115e-09 -7.890608e-09 -8.708500e-09 -6.441901e-09 -7.389891e-09 -5.858983e-09
-7.208120e-09 -7.105867e-09 -6.356718e-09 -7.204820e-09 -5.965381e-09 -7.337511e-09 -7.042027e-09 -8.353908e-09 -6.400569e-09 -7.545149e-09
-6.604866e-09 -6.796886e-09 -6.753825e-09 -8.586007e-09 -4.866107e-09 -6.439731e-09 -7.949180e-09 -7.042126e-09 -6.012988e-09 -8.408819e-09
-6.178360e-09 -6.794430e-09 -6.849682e-09 -5.770296e-09 -8.068317e-09 -7.426262e-09 -6.400537e-09 -8.264778e-09 -6.493634e-09 -6.037851e-09
-5.866761e-09 -6.593491e-09 -4.989786e-09 -6.811710e-09 -4.795138e-09 -5.393426e-09 -4.655427e-09 -7.879326e-09 -6.035814e-09 -6.287141e-09
-5.759274e-09 -4.973195e-09 -5.789623e-09 -5.959661e-09 -5.095115e-09 -7.294111e-09 -5.258546e-09 -7.633530e-09 -5.333424e-09 -5.542569e-09
-7.131186e-09
-4.690574e-09 -5.422016e-09 -5.798592e-09 -4.530193e-09 -6.728748e-09 -4.507066e-09 -5.176005e-09 -6.320790e-09 -5.242693e-09 -5.427273e-09
-5.586018e-09 -5.485737e-09 -5.698573e-09 -6.380414e-09 -7.228499e-09 -6.117846e-09 -6.132338e-09 -7.175775e-09 -5.308711e-09 -4.711869e-09
-5.572546e-09 -6.208987e-09 -6.973157e-09 -4.523467e-09 -7.338073e-09 -6.207706e-09 -6.764040e-09 -5.589660e-09 -7.467653e-09 -7.517840e-09
-4.564054e-09 -5.501759e-09 -6.301692e-09 -5.951422e-09 -6.058235e-09 -7.000259e-09 -6.511116e-09 -7.151792e-09 -5.538532e-09 -6.938689e-09
-6.882601e-09 -6.443980e-09 -5.582459e-09 -6.240642e-09 -7.823275e-09 -7.105818e-09 -5.960686e-09 -7.820572e-09 -5.766835e-09 -7.646340e-09
-6.268578e-09 -5.660167e-09 -7.124701e-09 -6.008150e-09 -7.189706e-09 -6.760109e-09 -5.699424e-09 -5.309986e-09 -6.271185e-09 -7.457200e-09
-6.053393e-09 -5.447921e-09 -6.581526e-09 -6.145648e-09 -4.825879e-09 -6.542059e-09 -6.409781e-09 -5.997678e-09 -5.201169e-09 -5.896110e-09
-7.953273e-09 -6.044020e-09 -6.224337e-09 -6.515831e-09 -6.843425e-09 -5.199501e-09 -5.139591e-09 -6.236966e-09 -5.109605e-09 -5.934768e-09
-5.206628e-09 -5.297489e-09 -3.753969e-09 -5.666073e-09 -7.065589e-09 -5.790332e-09 -6.291055e-09 -6.853909e-09 -4.569876e-09 -5.914986e-09
-3.805033e-09 -4.120149e-09 -5.735680e-09 -5.477470e-09 -5.818444e-09 -5.971115e-09 -4.609446e-09 -5.547777e-09 -5.978568e-09 -5.479175e-09
-5.917764e-09 -6.035538e-09 -6.625954e-09 -6.161162e-09 -6.603254e-09 -5.561189e-09 -6.104289e-09 -6.001395e-09 -7.552674e-09 -6.898785e-09
-6.400718e-09 -7.107488e-09 -7.792279e-09 -8.127746e-09 -6.335464e-09 -6.202397e-09 -6.669030e-09 -6.122239e-09 -6.597925e-09 -5.961824e-09
-6.006450e-09 -8.082778e-09 -6.331673e-09 -6.252461e-09 -6.887138e-09 -6.200661e-09 -6.004676e-09 -7.330675e-09 -6.331671e-09 -7.640100e-09
-6.635261e-09 -7.999135e-09 -5.837634e-09 -6.505200e-09 -6.426408e-09 -7.719045e-09 -7.793772e-09 -6.376645e-09 -7.257116e-09 -5.966970e-09
-7.312252e-09 -7.091446e-09 -6.412503e-09 -6.271874e-09 -6.464818e-09 -6.258900e-09 -6.390486e-09 -6.415712e-09 -5.477261e-09 -7.712893e-09
-8.586928e-09 -6.357499e-09 -5.992875e-09 -8.060641e-09 -6.631584e-09 -5.024916e-09 -5.621725e-09 -6.860750e-09 -7.701490e-09 -5.631676e-09
-6.471415e-09 -5.508222e-09 -5.596061e-09 -5.719173e-09 -5.938784e-09 -6.327388e-09 -7.592679e-09 -5.507637e-09 -5.784477e-09 -4.944785e-09
-5.657856e-09 -4.696957e-09 -7.217203e-09 -5.023507e-09 -4.677759e-09 -5.108433e-09 -5.093613e-09 -5.669589e-09 -5.729506e-09 -4.639634e-09
-4.579733e-09 -3.712325e-09 -4.580366e-09 -3.963156e-09 -7.585759e-09 -5.963706e-09 -5.177107e-09 -6.400123e-09 -5.402622e-09 -6.316317e-09
-5.301084e-09 -3.896570e-09 -5.455551e-09 -5.177695e-09 -4.893493e-09 -7.628333e-09 -5.415965e-09 -7.269202e-09 -6.025182e-09 -5.908309e-09
-7.088901e-09 -7.029785e-09 -7.268167e-09 -6.106368e-09 -5.384448e-09 -7.124578e-09 -6.344778e-09 -6.716550e-09 -6.972297e-09 -5.988762e-09
-5.879730e-09 -7.058066e-09 -6.552656e-09 -5.984665e-09 -6.669818e-09 -6.490517e-09 -7.141388e-09 -6.056586e-09 -5.690591e-09 -6.522217e-09
-5.956722e-09 -6.180721e-09 -5.691957e-09 -6.487396e-09 -6.848862e-09 -6.353829e-09 -5.701011e-09 -7.687969e-09 -6.093447e-09 -6.987838e-09
-6.953345e-09 -5.507990e-09 -6.627589e-09 -6.573456e-09 -6.743996e-09 -6.836441e-09 -7.262440e-09 -5.716144e-09 -7.250971e-09 -7.374857e-09
-6.796553e-09 -5.902100e-09 -5.218658e-09 -6.398668e-09 -5.774697e-09 -5.396725e-09 -7.853682e-09 -6.648465e-09 -5.884115e-09 -5.344370e-09
-8.231281e-09 -6.708017e-09 -4.879627e-09 -7.665061e-09 -4.786353e-09 -4.909222e-09 -5.414396e-09 -4.668439e-09 -6.414813e-09 -5.903251e-09
-5.318817e-09 -4.790402e-09 -6.293330e-09 -5.462468e-09 -6.128891e-09 -5.404956e-09 -4.495200e-09 -6.884983e-09 -6.317153e-09 -5.861841e-09
-3.825488e-09 -5.755823e-09 -5.505559e-09 -6.764417e-09 -4.928841e-09 -5.207315e-09 -4.306325e-09 -4.273758e-09 -6.172797e-09 -4.559327e-09
-5.104222e-09 -6.403420e-09 -6.090045e-09 -7.066014e-09 -7.087972e-09 -6.958761e-09 -6.636627e-09 -6.092146e-09 -6.371099e-09 -6.517329e-09
-7.607863e-09 -6.902180e-09 -7.034211e-09 -7.818091e-09 -4.521647e-09 -5.513368e-09 -6.425322e-09 -7.143008e-09 -6.502531e-09 -5.686955e-09
-6.586633e-09 -5.800937e-09 -6.762600e-09 -5.120042e-09 -7.522235e-09 -5.413451e-09 -6.110424e-09 -7.823175e-09 -5.684848e-09 -7.166998e-09
-6.272830e-09 -6.823798e-09 -7.545162e-09 -6.198964e-09 -7.035130e-09 -6.959733e-09 -7.131000e-09 -7.196550e-09 -6.735607e-09 -6.597501e-09
-6.211305e-09 -6.690675e-09 -5.339329e-09 -6.165140e-09 -5.836740e-09 -5.319194e-09 -7.368176e-09 -7.895308e-09 -7.386193e-09 -7.033313e-09
-7.112023e-09 -7.447997e-09 -7.969020e-09 -6.121229e-09 -7.322212e-09 -5.015949e-09 -6.657485e-09 -8.011895e-09 -7.385292e-09 -7.238354e-09
-5.171008e-09 -6.101377e-09 -6.708913e-09 -6.201677e-09 -5.799135e-09 -5.845066e-09 -4.498183e-09 -4.561681e-09 -4.993419e-09 -6.675338e-09
-6.222642e-09 -4.452187e-09 -5.728745e-09 -4.216072e-09 -5.534616e-09 -7.125163e-09 -6.421689e-09 -5.325304e-09 -5.080484e-09 -5.828615e-09
-4.690574e-09
-5.013972e-09 -6.897930e-09 -5.017876e-09 -6.108245e-09 -5.358451e-09 -5.220702e-09 -4.254773e-09 -5.414114e-09 -5.804850e-09 -6.673474e-09
-6.672299e-09 -6.446199e-09 -5.287401e-09 -6.700714e-09 -5.310446e-09 -4.454375e-09 -5.613200e-09 -6.013007e-09 -4.807464e-09 -6.579254e-09
-6.197029e-09 -5.198528e-09 -6.362173e-09 -4.559980e-09 -4.760825e-09 -5.175405e-09 -5.958993e-09 -6.438918e-09 -7.447847e-09 -6.525467e-09
-5.366103e-09 -6.190054e-09 -5.681601e-09 -5.565847e-09 -5.358669e-09 -5.496265e-09 -6.544816e-09 -5.589121e-09 -7.432147e-09 -5.553405e-09
-6.289074e-09 -6.106453e-09 -6.402839e-09 -5.400022e-09 -5.918268e-09 -5.754668e-09 -6.071561e-09 -5.448388e-09 -6.552432e-09 -5.504289e-09
-5.035623e-09 -5.900333e-09 -4.938249e-09 -4.886732e-09 -6.489063e-09 -7.560854e-09 -6.661278e-09 -6.283474e-09 -5.399796e-09 -5.953130e-09
-5.382452e-09 -6.878713e-09 -6.510969e-09 -5.975984e-09 -6.338857e-09 -5.423103e-09 -6.445301e-09 -6.221233e-09 -5.337900e-09 -4.557692e-09
-5.855927e-09 -5.990705e-09 -4.839727e-09 -6.215078e-09 -5.922025e-09 -6.699397e-09 -5.846624e-09 -5.520566e-09 -6.684989e-09 -5.007669e-09
-5.206134e-09 -5.348148e-09 -4.567895e-09 -7.372537e-09 -4.500716e-09 -5.267024e-09 -3.886266e-09 -5.407394e-09 -4.478878e-09 -5.418843e-09
-5.753512e-09 -5.557349e-09 -4.285373e-09 -4.216810e-09 -5.362212e-09 -5.144762e-09 -4.963812e-09 -6.377655e-09 -5.126358e-09 -4.998078e-09
-6.925732e-09 -5.894499e-09 -5.206754e-09 -5.855605e-09 -6.524568e-09 -5.957386e-09 -6.052829e-09 -6.101049e-09 -4.385186e-09 -6.735448e-09
-5.723379e-09 -5.359430e-09 -5.370831e-09 -6.745816e-09 -6.849223e-09 -5.092406e-09 -7.683495e-09 -6.842833e-09 -6.019398e-09 -5.372414e-09
-5.689240e-09 -5.943344e-09 -5.872400e-09 -6.510671e-09 -6.755770e-09 -6.706770e-09 -6.249353e-09 -7.182541e-09 -6.913560e-09 -5.635410e-09
-6.545582e-09 -5.757384e-09 -8.060717e-09 -5.444112e-09 -6.371471e-09 -7.451766e-09 -6.317332e-09 -5.507380e-09 -5.799134e-09 -7.440658e-09
-5.720114e-09 -6.456394e-09 -6.524164e-09 -5.978155e-09 -7.273215e-09 -6.382825e-09 -6.392241e-09 -6.259858e-09 -5.312982e-09 -7.769319e-09
-5.811581e-09 -5.319239e-09 -5.394891e-09 -6.972342e-09 -6.082026e-09 -6.039655e-09 -7.039632e-09 -5.982047e-09 -7.121169e-09 -6.092751e-09
-6.225754e-09 -4.601623e-09 -5.828086e-09 -6.804244e-09 -6.254512e-09 -5.107008e-09 -8.349736e-09 -4.841843e-09 -7.431888e-09 -6.532472e-09
-6.712301e-09 -5.078533e-09 -7.052686e-09 -7.992552e-09 -6.524580e-09 -5.200476e-09 -5.529857e-09 -6.469135e-09 -6.299846e-09 -4.320909e-09
-5.692449e-09 -4.254610e-09 -5.781336e-09 -4.325180e-09 -5.960743e-09 -4.887748e-09 -4.648570e-09 -2.951930e-09 -6.545082e-09 -5.601362e-09
-4.265998e-09 -6.087520e-09 -5.134095e-09 -6.141254e-09 -5.659228e-09 -4.565849e-09 -4.662585e-09 -4.043986e-09 -5.205269e-09 -4.709615e-09
-4.992979e-09 -6.323980e-09 -5.840297e-09 -5.131714e-09 -6.283741e-09 -4.726150e-09 -5.690981e-09 -4.978035e-09 -6.121353e-09 -6.694381e-09
-6.959189e-09 -4.539328e-09 -5.363714e-09 -6.814172e-09 -6.463230e-09 -6.725387e-09 -6.502958e-09 -5.395325e-09 -5.990797e-09 -6.012716e-09
-5.819093e-09 -6.133927e-09 -5.936335e-09 -6.365456e-09 -5.248591e-09 -7.149847e-09 -6.138905e-09 -6.705841e-09 -6.571730e-09 -6.854080e-09
-5.514897e-09 -7.737455e-09 -6.458603e-09 -6.871731e-09 -5.448797e-09 -6.648528e-09 -5.116839e-09 -6.584820e-09 -5.605191e-09 -6.697486e-09
-6.218689e-09 -6.837028e-09 -6.031442e-09 -6.304205e-09 -4.242205e-09 -5.557327e-09 -5.373714e-09 -5.597498e-09 -7.015508e-09 -5.940663e-09
-5.546268e-09 -6.142425e-09 -4.925959e-09 -5.485357e-09 -6.839496e-09 -5.325459e-09 -5.316219e-09 -7.578048e-09 -5.504607e-09 -6.484608e-09
-5.397836e-09 -5.023628e-09 -4.542767e-09 -6.227669e-09 -4.960513e-09 -5.608939e-09 -6.161956e-09 -4.870666e-09 -3.985095e-09 -5.604202e-09
-5.322815e-09 -5.603002e-09 -4.497993e-09 -4.867772e-09 -5.131914e-09 -5.170087e-09 -5.385240e-09 -5.950338e-09 -4.502252e-09 -4.525070e-09
-5.814616e-09 -6.224493e-09 -4.515643e-09 -4.742822e-09 -5.828642e-09 -7.517378e-09 -7.325516e-09 -6.388407e-09 -7.414739e-09 -6.381773e-09
-7.224706e-09 -5.535060e-09 -4.654029e-09 -6.153046e-09 -6.193892e-09 -6.894548e-09 -4.811782e-09 -8.006818e-09 -6.526875e-09 -6.846051e-09
-6.456506e-09 -5.038530e-09 -6.689358e-09 -6.938868e-09 -7.345557e-09 -6.062363e-09 -5.134318e-09 -6.083114e-09 -6.770755e-09 -6.853334e-09
-5.969603e-09 -5.706493e-09 -5.241934e-09 -5.878887e-09 -7.061871e-09 -6.313583e-09 -5.484410e-09 -6.945127e-09 -6.818619e-09 -5.835502e-09
-5.783221e-09 -5.013437e-09 -6.555746e-09 -5.117399e-09 -6.106610e-09 -6.605232e-09 -5.431662e-09 -7.427390e-09 -6.682560e-09 -5.283355e-09
-5.976700e-09 -6.944505e-09 -6.964731e-09 -5.658585e-09 -5.274270e-09 -4.983269e-09 -6.455181e-09 -5.978838e-09 -5.651817e-09 -5.152850e-09
-6.209643e-09 -5.512857e-09 -5.470042e-09 -5.009463e-09 -5.390623e-09 -5.812306e-09 -4.727662e-09 -4.444948e-09 -6.794448e-09 -6.301509e-09
-6.351329e-09 -3.972275e-09 -4.198009e-09 -5.441958e-09 -4.101151e-09 -4.617440e-09 -6.234105e-09 -4.770115e-09 -5.630758e-09 -5.266935e-09
-5.013972e-09
-4.382113e-09 -3.817538e-09 -5.843727e-09 -5.545384e-09 -4.489034e-09 -3.830066e-09 -5.274597e-09 -4.577844e-09 -5.440676e-09 -7.016543e-09
-6.877064e-09 -4.969335e-09 -6.586385e-09 -6.737828e-09 -6.575367e-09 -4.369365e-09 -5.103601e-09 -5.003186e-09 -6.118102e-09 -6.358179e-09
-6.543606e-09 -6.066883e-09 -6.345402e-09 -5.605985e-09 -4.612297e-09 -3.621943e-09 -6.792638e-09 -6.252485e-09 -6.557657e-09 -4.522676e-09
-5.190612e-09 -5.206629e-09 -5.123425e-09 -6.183351e-09 -6.229898e-09 -4.481171e-09 -5.798539e-09 -5.957193e-09 -5.411675e-09 -4.892585e-09
-5.245726e-09 -5.665595e-09 -6.293334e-09 -5.381581e-09 -5.580132e-09 -5.513692e-09 -5.926918e-09 -5.692721e-09 -5.320551e-09 -4.952812e-09
-5.547314e-09 -7.180070e-09 -5.452430e-09 -4.729128e-09 -4.728899e-09 -5.818092e-09 -4.223436e-09 -5.250925e-09 -5.547072e-09 -6.436835e-09
-4.589989e-09 -5.141228e-09 -5.069878e-09 -5.834785e-09 -5.759717e-09 -5.286230e-09 -5.448284e-09 -5.832644e-09 -6.086694e-09 -4.671374e-09
-6.709639e-09 -6.564930e-09 -6.079396e-09 -5.336667e-09 -4.952025e-09 -6.127151e-09 -7.249934e-09 -5.386470e-09 -4.868642e-09 -5.414200e-09
-4.054620e-09 -5.235534e-09 -5.252238e-09 -5.060655e-09 -4.869230e-09 -5.951434e-09 -3.999464e-09 -5.483108e-09 -4.638147e-09 -4.309657e-09
-5.115337e-09 -3.647010e-09 -5.448557e-09 -5.245345e-09 -5.853729e-09 -5.391165e-09 -6.764411e-09 -5.741809e-09 -4.712477e-09 -5.498375e-09
-4.356494e-09 -6.329401e-09 -6.558108e-09 -6.236262e-09 -7.098976e-09 -6.372405e-09 -5.581212e-09 -7.158038e-09 -5.866178e-09 -5.124738e-09
-5.143912e-09 -5.161593e-09 -6.410097e-09 -4.572984e-09 -6.340513e-09 -5.405635e-09 -6.124894e-09 -5.211071e-09 -6.071024e-09 -7.332036e-09
-5.367238e-09 -6.499571e-09 -6.430981e-09 -5.112554e-09 -5.556186e-09 -6.632426e-09 -6.407320e-09 -6.112818e-09 -5.809595e-09 -6.306158e-09
-6.569060e-09 -6.047885e-09 -6.071554e-09 -5.742576e-09 -6.449223e-09 -5.621422e-09 -5.700069e-09 -5.237057e-09 -6.238828e-09 -5.704648e-09
-4.596726e-09 -6.247080e-09 -5.662828e-09 -5.635464e-09 -6.042018e-09 -4.464701e-09 -5.796869e-09 -4.822408e-09 -6.341311e-09 -7.840089e-09
-6.065327e-09 -5.935327e-09 -3.962188e-09 -6.140734e-09 -5.428067e-09 -5.630850e-09 -6.832289e-09 -5.325314e-09 -6.774061e-09 -6.624023e-09
-5.436126e-09 -5.552064e-09 -5.842923e-09 -5.803632e-09 -6.338178e-09 -6.169935e-09 -6.871591e-09 -5.994044e-09 -4.919871e-09 -6.815946e-09
-3.954105e-09 -4.042250e-09 -8.126016e-09 -4.752908e-09 -5.725109e-09 -4.712109e-09 -6.451662e-09 -6.362060e-09 -5.100792e-09 -6.816425e-09
-5.112346e-09 -4.824022e-09 -4.624185e-09 -6.195128e-09 -5.485401e-09 -3.851925e-09 -3.759176e-09 -3.457928e-09 -6.912817e-09 -4.824523e-09
-6.520771e-09 -4.296814e-09 -5.262895e-09 -7.165895e-09 -7.227138e-09 -5.363529e-09 -5.033812e-09 -5.166692e-09 -5.405580e-09 -4.192048e-09
-5.979055e-09 -6.018909e-09 -5.004094e-09 -5.006297e-09 -5.163006e-09 -5.309335e-09 -5.042315e-09 -4.851687e-09 -5.976704e-09 -6.066347e-09
-5.957856e-09 -5.617785e-09 -5.052459e-09 -5.461935e-09 -4.889616e-09 -6.500072e-09 -5.179551e-09 -5.768470e-09 -6.167454e-09 -5.734492e-09
-6.475612e-09 -6.030776e-09 -6.410872e-09 -5.281484e-09 -6.910570e-09 -5.671475e-09 -6.563816e-09 -5.810049e-09 -6.259238e-09 -6.536432e-09
-6.119269e-09 -6.577656e-09 -5.776110e-09 -6.855180e-09 -6.206727e-09 -4.920705e-09 -5.601780e-09 -5.621521e-09 -6.489941e-09 -4.916667e-09
-5.557462e-09 -5.573174e-09 -4.004967e-09 -6.337542e-09 -6.032724e-09 -6.072087e-09 -7.934102e-09 -6.292769e-09 -4.147074e-09 -5.035675e-09
-6.036918e-09 -7.073250e-09 -5.443882e-09 -6.406101e-09 -5.829135e-09 -5.496245e-09 -4.771315e-09 -4.574519e-09 -4.958693e-09 -4.353539e-09
-5.743463e-09 -5.407903e-09 -3.086594e-09 -4.757061e-09 -5.614349e-09 -4.147400e-09 -4.424346e-09 -5.610826e-09 -4.638819e-09 -4.798407e-09
-3.712666e-09 -3.695419e-09 -4.100658e-09 -3.948513e-09 -6.735842e-09 -5.059373e-09 -6.171151e-09 -3.539085e-09 -5.102120e-09 -7.153160e-09
-4.770424e-09 -6.403161e-09 -6.545436e-09 -5.925383e-09 -4.401089e-09 -4.807586e-09 -4.514125e-09 -5.905780e-09 -6.481856e-09 -6.038541e-09
-6.277860e-09 -5.114841e-09 -4.539802e-09 -5.404912e-09 -3.456859e-09 -4.624172e-09 -5.895969e-09 -6.073778e-09 -6.947035e-09 -5.955518e-09
-4.799357e-09 -4.158367e-09 -5.211136e-09 -5.370258e-09 -4.642362e-09 -5.364839e-09 -5.015209e-09 -5.686541e-09 -5.813574e-09 -6.853878e-09
-6.338394e-09 -5.674144e-09 -5.573666e-09 -5.636645e-09 -4.977123e-09 -6.239941e-09 -6.437805e-09 -5.504763e-09 -5.941737e-09 -5.265433e-09
-5.475517e-09 -5.154522e-09 -5.709911e-09 -4.641143e-09 -6.484389e-09 -5.582302e-09 -5.692737e-09 -5.579633e-09 -5.293028e-09 -4.282877e-09
-6.083179e-09 -5.543349e-09 -4.195551e-09 -5.639746e-09 -5.482640e-09 -5.895591e-09 -4.246359e-09 -5.002420e-09 -5.270795e-09 -4.819830e-09
-6.156156e-09 -4.819101e-09 -5.540729e-09 -5.394423e-09 -5.817098e-09 -5.632199e-09 -4.557958e-09 -4.868012e-09 -5.216002e-09 -5.425017e-09
-3.688700e-09 -7.247311e-09 -3.578273e-09 -6.528897e-09 -3.914244e-09 -6.020858e-09 -4.383610e-09 -2.807873e-09 -3.440973e-09 -5.808138e-09
-4.382113e-09
-5.045983e-09 -3.238018e-09 -3.733678e-09 -6.270840e-09 -4.844423e-09 -5.162890e-09 -4.648306e-09 -6.194590e-09 -4.859945e-09 -6.256332e-09
-5.496274e-09 -6.702846e-09 -5.784295e-09 -4.297345e-09 -3.854805e-09 -4.265509e-09 -5.344692e-09 -3.905063e-09 -5.212705e-09 -4.420181e-09
-5.227780e-09 -5.372966e-09 -4.281294e-09 -4.956778e-09 -5.287788e-09 -4.420685e-09 -4.421361e-09 -5.060337e-09 -4.834054e-09 -3.506160e-09
-5.955668e-09 -5.234127e-09 -5.200731e-09 -4.503420e-09 -5.656652e-09 -5.949344e-09 -5.650192e-09 -5.356575e-09 -5.229850e-09 -6.421160e-09
-6.014749e-09 -5.704743e-09 -5.046360e-09 -4.921896e-09 -6.454424e-09 -4.065313e-09 -5.696932e-09 -6.183239e-09 -5.950950e-09 -5.354503e-09
-5.418419e-09 -5.398970e-09 -6.137323e-09 -6.046944e-09 -5.567132e-09 -5.630644e-09 -5.173169e-09 -4.707921e-09 -5.100570e-09 -5.300260e-09
-4.779751e-09 -5.563551e-09 -4.648163e-09 -5.394718e-09 -4.619878e-09 -5.871943e-09 -3.932174e-09 -6.062169e-09 -4.247375e-09 -5.129480e-09
-4.858157e-09 -6.619421e-09 -5.319125e-09 -3.121539e-09 -5.436779e-09 -5.203502e-09 -5.212657e-09 -4.330363e-09 -3.603615e-09 -5.964081e-09
-4.482335e-09 -5.164269e-09 -4.360954e-09 -3.053970e-09 -5.965957e-09 -5.122137e-09 -4.844617e-09 -3.578459e-09 -3.350534e-09 -5.443834e-09
-5.549039e-09 -6.285699e-09 -4.664573e-09 -4.105499e-09 -4.673502e-09 -5.438274e-09 -5.569785e-09 -3.311260e-09 -3.933446e-09 -4.375715e-09
-5.364730e-09 -4.560402e-09 -4.978935e-09 -4.149049e-09 -4.222118e-09 -4.020020e-09 -5.273765e-09 -7.088816e-09 -5.705927e-09 -6.285612e-09
-3.857282e-09 -3.379207e-09 -4.174315e-09 -4.308482e-09 -6.287492e-09 -5.929491e-09 -6.283275e-09 -5.710003e-09 -4.094736e-09 -6.101070e-09
-3.850917e-09 -4.951050e-09 -5.349014e-09 -5.071431e-09 -5.906966e-09 -6.791732e-09 -5.629281e-09 -6.638346e-09 -4.638538e-09 -5.621249e-09
-5.435760e-09 -6.198717e-09 -5.659496e-09 -5.566825e-09 -5.719471e-09 -4.814968e-09 -6.221964e-09 -4.114497e-09 -5.194443e-09 -6.077735e-09
-4.942136e-09 -4.410901e-09 -6.086006e-09 -4.890181e-09 -7.430929e-09 -4.712511e-09 -5.276008e-09 -4.728158e-09 -5.172766e-09 -5.980775e-09
-4.648014e-09 -5.899589e-09 -4.834784e-09 -4.593772e-09 -4.733459e-09 -4.960288e-09 -5.277754e-09 -5.728794e-09 -4.726844e-09 -5.255979e-09
-6.018476e-09 -5.202915e-09 -4.888493e-09 -6.271507e-09 -5.398947e-09 -5.296646e-09 -5.338789e-09 -4.479097e-09 -4.135378e-09 -5.615583e-09
-3.585806e-09 -4.232373e-09 -6.136485e-09 -4.517417e-09 -5.683040e-09 -4.928982e-09 -4.868767e-09 -5.369170e-09 -5.363081e-09 -4.374970e-09
-5.373867e-09 -4.964135e-09 -5.655439e-09 -4.290286e-09 -3.919245e-09 -3.546725e-09 -3.771493e-09 -6.029371e-09 -6.065845e-09 -6.182184e-09
-4.424088e-09 -5.622633e-09 -5.619341e-09 -4.684066e-09 -4.484765e-09 -6.702128e-09 -3.965321e-09 -5.505522e-09 -4.077913e-09 -4.346939e-09
-5.293600e-09 -4.586426e-09 -4.406928e-09 -5.688065e-09 -5.508538e-09 -5.936612e-09 -6.886813e-09 -6.273063e-09 -4.709312e-09 -5.191362e-09
-5.316551e-09 -4.865993e-09 -5.988122e-09 -5.290811e-09 -4.807124e-09 -6.615991e-09 -4.274252e-09 -5.555472e-09 -4.874236e-09 -6.366911e-09
-6.210542e-09 -5.888412e-09 -6.243754e-09 -5.647407e-09 -5.487490e-09 -5.673685e-09 -4.884516e-09 -5.069380e-09 -4.541710e-09 -5.201862e-09
-4.366558e-09 -6.187651e-09 -6.000887e-09 -6.094475e-09 -5.285501e-09 -5.083042e-09 -5.736921e-09 -4.964318e-09 -4.349951e-09 -5.427850e-09
-5.302125e-09 -3.959495e-09 -7.279963e-09 -4.091541e-09 -5.395478e-09 -5.346462e-09 -4.662992e-09 -4.482125e-09 -5.924548e-09 -4.714338e-09
-5.615379e-09 -7.372883e-09 -6.546419e-09 -4.442497e-09 -5.067617e-09 -3.381692e-09 -6.717448e-09 -4.239174e-09 -4.616288e-09 -4.679360e-09
-2.878872e-09 -4.748030e-09 -3.765345e-09 -3.027273e-09 -4.896655e-09 -4.782169e-09 -4.434115e-09 -5.442313e-09 -4.394419e-09 -3.707520e-09
-5.080780e-09 -3.628322e-09 -5.587520e-09 -3.776133e-09 -5.394460e-09 -5.456714e-09 -3.148602e-09 -3.693801e-09 -4.891934e-09 -3.601932e-09
-4.965062e-09 -5.073502e-09 -5.272956e-09 -5.017831e-09 -4.942325e-09 -5.006720e-09 -6.861888e-09 -4.844730e-09 -6.403381e-09 -6.042413e-09
-6.305156e-09 -4.912873e-09 -5.633241e-09 -4.898187e-09 -5.146799e-09 -4.939780e-09 -6.468345e-09 -5.901905e-09 -4.148681e-09 -4.844349e-09
-4.834668e-09 -6.420801e-09 -5.411602e-09 -6.360283e-09 -5.100349e-09 -7.315770e-09 -4.998267e-09 -4.450486e-09 -4.409597e-09 -5.421471e-09
-5.279218e-09 -6.024018e-09 -5.743256e-09 -5.177367e-09 -5.312241e-09 -6.037453e-09 -5.304055e-09 -4.508738e-09 -5.122596e-09 -4.414717e-09
-4.590101e-09 -4.992626e-09 -5.495817e-09 -5.430979e-09 -6.209905e-09 -5.555522e-09 -6.234214e-09 -7.269114e-09 -4.530295e-09 -5.407914e-09
-5.902065e-09 -7.718728e-09 -5.755297e-09 -4.511367e-09 -4.690169e-09 -4.109312e-09 -4.965858e-09 -5.962697e-09 -4.490730e-09 -4.862312e-09
-5.403790e-09 -4.285995e-09 -4.854187e-09 -5.982072e-09 -3.503272e-09 -3.791211e-09 -6.787900e-09 -3.568923e-09 -4.519153e-09 -4.866721e-09
-5.234183e-09 -5.894895e-09 -5.618801e-09 -4.854682e-09 -5.006834e-09 -3.106233e-09 -5.888268e-09 -5.047732e-09 -6.483208e-09 -3.726714e-09
-5.045983e-09
-3.470493e-09 -2.519638e-09 -3.391763e-09 -5.178784e-09 -4.426928e-09 -6.461217e-09 -5.123856e-09 -4.467436e-09 -2.695749e-09 -2.506589e-09
-4.268633e-09 -5.507317e-09 -6.042468e-09 -3.844084e-09 -2.939135e-09 -4.312165e-09 -5.393215e-09 -3.847564e-09 -4.712602e-09 -6.156807e-09
-4.421888e-09 -3.654515e-09 -6.274290e-09 -4.495407e-09 -4.147432e-09 -3.969350e-09 -3.917487e-09 -5.082606e-09 -5.423177e-09 -4.175545e-09
-5.741391e-09 -5.374330e-09 -4.133350e-09 -3.415934e-09 -5.913428e-09 -4.471392e-09 -5.308244e-09 -4.535043e-09 -3.840568e-09 -5.144722e-09
-6.129401e-09 -4.228837e-09 -4.006475e-09 -4.998726e-09 -4.515960e-09 -4.851829e-09 -5.004296e-09 -4.861611e-09 -6.144009e-09 -4.797458e-09
-4.914999e-09 -3.845241e-09 -4.032322e-09 -4.844089e-09 -5.443501e-09 -6.407578e-09 -4.551107e-09 -3.803180e-09 -4.252112e-09 -4.173315e-09
-4.003898e-09 -5.311366e-09 -5.843138e-09 -5.842102e-09 -4.766162e-09 -5.073398e-09 -5.016508e-09 -5.231415e-09 -3.873424e-09 -5.034356e-09
-3.842778e-09 -3.516351e-09 -4.869094e-09 -5.969930e-09 -3.047893e-09 -4.112196e-09 -5.621033e-09 -4.082657e-09 -4.072671e-09 -2.307878e-09
-4.422013e-09 -3.440827e-09 -3.725159e-09 -7.208679e-09 -3.609484e-09 -5.345524e-09 -4.506158e-09 -4.861587e-09 -5.075624e-09 -2.922127e-09
-4.937572e-09 -4.140761e-09 -3.665168e-09 -3.370970e-09 -3.694313e-09 -3.073535e-09 -3.164801e-09 -4.952042e-09 -4.630201e-09 -4.421359e-09
-6.785852e-09 -4.959713e-09 -3.347917e-09 -5.744158e-09 -5.464402e-09 -3.484886e-09 -4.596095e-09 -3.811690e-09 -3.693539e-09 -5.509463e-09
-4.981286e-09 -4.982853e-09 -3.346416e-09 -6.270890e-09 -4.998007e-09 -7.395709e-09 -4.994002e-09 -4.316864e-09 -4.315188e-09 -5.157623e-09
-4.965274e-09 -5.177764e-09 -5.083571e-09 -5.830800e-09 -6.333546e-09 -4.806642e-09 -3.907953e-09 -5.662466e-09 -4.282413e-09 -5.363899e-09
-4.546438e-09 -4.824887e-09 -5.722786e-09 -5.529520e-09 -5.430418e-09 -4.642405e-09 -6.196751e-09 -5.860541e-09 -4.429623e-09 -5.120322e-09
-4.031854e-09 -4.816996e-09 -4.949208e-09 -7.054937e-09 -4.103335e-09 -5.651623e-09 -5.168280e-09 -5.176528e-09 -4.018572e-09 -3.572347e-09
-5.256623e-09 -5.201026e-09 -4.087424e-09 -6.290252e-09 -5.025973e-09 -5.819858e-09 -4.313950e-09 -3.763238e-09 -5.244684e-09 -6.622608e-09
-5.246342e-09 -3.663540e-09 -5.421664e-09 -4.352969e-09 -5.023301e-09 -5.162349e-09 -4.492219e-09 -5.684807e-09 -3.589407e-09 -3.250791e-09
-2.055213e-09 -3.052002e-09 -5.308198e-09 -4.460030e-09 -4.075494e-09 -5.188010e-09 -5.674313e-09 -2.869915e-09 -3.670552e-09 -3.873733e-09
-6.268284e-09 -5.270019e-09 -2.352913e-09 -4.768026e-09 -3.640848e-09 -3.603707e-09 -4.128646e-09 -3.180681e-09 -4.886765e-09 -5.945610e-09
-5.037723e-09 -4.188431e-09 -5.569705e-09 -4.399811e-09 -3.443264e-09 -3.699122e-09 -5.167372e-09 -4.059535e-09 -6.402000e-09 -5.802177e-09
-3.406363e-09 -4.459735e-09 -4.876448e-09 -4.213421e-09 -5.332816e-09 -3.897482e-09 -4.331060e-09 -4.529825e-09 -5.362551e-09 -4.608423e-09
-5.376310e-09 -5.517306e-09 -5.255599e-09 -3.623719e-09 -6.248330e-09 -5.855755e-09 -4.780920e-09 -4.308634e-09 -5.548101e-09 -4.149998e-09
-5.009330e-09 -4.876842e-09 -4.675268e-09 -4.957474e-09 -5.030149e-09 -6.020672e-09 -4.842954e-09 -4.770543e-09 -5.143022e-09 -6.250520e-09
-4.920244e-09 -4.178144e-09 -5.913985e-09 -4.885216e-09 -5.256541e-09 -5.099935e-09 -5.398211e-09 -5.106260e-09 -4.352151e-09 -4.798800e-09
-4.663104e-09 -4.907911e-09 -6.159519e-09 -4.062223e-09 -4.120929e-09 -4.570758e-09 -5.831455e-09 -4.353860e-09 -5.892359e-09 -5.503644e-09
-3.982581e-09 -5.150028e-09 -4.956830e-09 -4.849701e-09 -4.341569e-09 -4.524040e-09 -5.372309e-09 -3.717857e-09 -5.674920e-09 -5.460976e-09
-5.018151e-09 -3.674061e-09 -2.878788e-09 -4.124800e-09 -3.010712e-09 -4.846617e-09 -4.940629e-09 -3.672905e-09 -3.439736e-09 -5.273508e-09
-3.046870e-09 -4.627078e-09 -4.458703e-09 -4.432486e-09 -4.130841e-09 -5.325335e-09 -5.753753e-09 -4.131721e-09 -5.706970e-09 -3.407527e-09
-4.821212e-09 -3.415954e-09 -3.861844e-09 -4.605384e-09 -4.904973e-09 -5.296190e-09 -5.543504e-09 -5.187446e-09 -7.013526e-09 -5.791234e-09
-5.489467e-09 -5.993577e-09 -4.252589e-09 -5.277401e-09 -5.630974e-09 -4.838515e-09 -4.752196e-09 -4.684817e-09 -3.664127e-09 -5.471799e-09
-5.112649e-09 -4.898881e-09 -5.965165e-09 -3.666113e-09 -5.197808e-09 -5.825372e-09 -5.595020e-09 -5.253144e-09 -5.424256e-09 -5.566813e-09
-5.208484e-09 -5.080560e-09 -5.748288e-09 -5.769383e-09 -4.297555e-09 -4.477660e-09 -4.210119e-09 -5.492120e-09 -5.150056e-09 -4.824718e-09
-5.199851e-09 -5.126494e-09 -4.444069e-09 -5.279348e-09 -4.951037e-09 -5.649699e-09 -5.619762e-09 -6.316359e-09 -5.315639e-09 -4.668307e-09
-5.333169e-09 -4.322111e-09 -4.273629e-09 -3.471079e-09 -4.539337e-09 -3.375514e-09 -5.358554e-09 -5.741398e-09 -4.328899e-09 -4.255144e-09
-2.884005e-09 -5.795370e-09 -6.793356e-09 -2.999855e-09 -5.535203e-09 -3.513282e-09 -5.249650e-09 -3.635428e-09 -3.974038e-09 -5.165172e-09
-3.284389e-09 -4.741840e-09 -4.319491e-09 -3.692457e-09 -5.866699e-09 -5.706191e-09 -2.199849e-09 -4.613396e-09 -3.460931e-09 -4.021527e-09
-3.470493e-09
-2.107226e-09 -3.469365e-09 -4.621564e-09 -3.607167e-09 -3.785215e-09 -3.238419e-09 -3.698531e-09 -4.631836e-09 -2.701497e-09 -3.082151e-09
-4.288220e-09 -2.781469e-09 -4.105814e-09 -4.013192e-09 -5.518639e-09 -4.002380e-09 -3.820526e-09 -4.208387e-09 -3.654231e-09 -4.718617e-09
-3.461679e-09 -5.339706e-09 -4.735627e-09 -4.125870e-09 -4.085167e-09 -4.348626e-09 -5.292284e-09 -5.867749e-09 -4.010485e-09 -4.112799e-09
-4.532290e-09 -3.155454e-09 -4.056071e-09 -3.504346e-09 -4.461563e-09 -5.112714e-09 -5.771005e-09 -5.824743e-09 -4.620991e-09 -5.386374e-09
-5.087960e-09 -6.157459e-09 -3.935025e-09 -4.072360e-09 -4.351587e-09 -5.005800e-09 -4.582951e-09 -3.976504e-09 -5.493920e-09 -4.025797e-09
-4.185025e-09 -4.509365e-09 -5.159098e-09 -5.629801e-09 -4.192588e-09 -4.539282e-09 -3.678206e-09 -3.917342e-09 -5.663425e-09 -5.301535e-09
-4.897880e-09 -4.095876e-09 -5.161040e-09 -5.022498e-09 -4.686652e-09 -4.219180e-09 -4.207312e-09 -4.560814e-09 -3.870568e-09 -4.651656e-09
-3.031630e-09 -3.034427e-09 -4.016205e-09 -5.274378e-09 -3.821966e-09 -4.137761e-09 -3.744506e-09 -3.905715e-09 -4.261376e-09 -3.442209e-09
-3.929154e-09 -3.808936e-09 -3.171708e-09 -2.996637e-09 -6.479006e-09 -3.788284e-09 -2.575734e-09 -4.444974e-09 -4.660878e-09 -5.575869e-09
-4.678756e-09 -3.206315e-09 -4.794777e-09 -5.282015e-09 -4.764057e-09 -3.268132e-09 -3.203535e-09 -3.542475e-09 -2.939146e-09 -4.764667e-09
-5.862048e-09 -5.520191e-09 -3.856498e-09 -2.916940e-09 -3.253774e-09 -4.333556e-09 -3.923114e-09 -5.172106e-09 -4.937795e-09 -4.237695e-09
-3.725297e-09 -5.877509e-09 -5.409813e-09 -4.812437e-09 -3.414729e-09 -3.908255e-09 -6.133936e-09 -4.969868e-09 -4.462812e-09 -4.818066e-09
-2.867345e-09 -4.675332e-09 -3.839769e-09 -4.784463e-09 -5.733892e-09 -4.319319e-09 -4.596693e-09 -5.192204e-09 -3.557115e-09 -4.632791e-09
-4.217928e-09 -4.257960e-09 -4.664981e-09 -3.606283e-09 -5.006898e-09 -4.151370e-09 -4.675599e-09 -4.305080e-09 -3.817898e-09 -4.129523e-09
-5.050711e-09 -3.556016e-09 -4.617401e-09 -3.821057e-09 -5.344341e-09 -4.364357e-09 -4.928161e-09 -4.285100e-09 -4.615249e-09 -4.510710e-09
-3.807404e-09 -3.577233e-09 -4.769143e-09 -4.615130e-09 -4.757872e-09 -4.171899e-09 -4.487828e-09 -4.324964e-09 -4.169669e-09 -4.335477e-09
-4.783948e-09 -4.688607e-09 -4.710834e-09 -3.354713e-09 -5.443852e-09 -3.138982e-09 -3.244279e-09 -3.577353e-09 -4.861370e-09 -3.116646e-09
-3.737573e-09 -4.012794e-09 -3.940739e-09 -3.940569e-09 -3.010484e-09 -4.476322e-09 -3.611879e-09 -2.411083e-09 -4.215819e-09 -4.266369e-09
-2.270910e-09 -3.562270e-09 -3.644705e-09 -2.658166e-09 -4.877466e-09 -2.897944e-09 -3.081935e-09 -3.676775e-09 -4.552626e-09 -3.354542e-09
-5.522689e-09 -3.053136e-09 -2.952508e-09 -4.375908e-09 -3.044148e-09 -5.764478e-09 -4.353067e-09 -4.564759e-09 -4.646828e-09 -4.072282e-09
-4.732936e-09 -3.381800e-09 -4.436334e-09 -3.249032e-09 -3.797304e-09 -3.539107e-09 -5.264779e-09 -5.223254e-09 -2.885289e-09 -4.920848e-09
-3.261878e-09 -4.768795e-09 -5.064676e-09 -4.276167e-09 -3.330461e-09 -5.576414e-09 -3.408339e-09 -4.760174e-09 -3.809733e-09 -4.978050e-09
-4.777728e-09 -3.280251e-09 -6.266573e-09 -5.415799e-09 -4.860069e-09 -3.908806e-09 -4.698157e-09 -5.075755e-09 -4.389527e-09 -4.548202e-09
-5.279710e-09 -5.340571e-09 -4.661665e-09 -5.571371e-09 -4.457802e-09 -3.937750e-09 -4.804512e-09 -3.981824e-09 -3.378647e-09 -5.112767e-09
-4.127122e-09 -3.829523e-09 -4.492385e-09 -3.475346e-09 -4.174506e-09 -4.195745e-09 -3.868208e-09 -4.056464e-09 -4.913121e-09 -2.688085e-09
-4.596068e-09 -3.387710e-09 -4.487516e-09 -4.472408e-09 -2.310258e-09 -4.227617e-09 -3.020974e-09 -3.072311e-09 -4.504124e-09 -6.156410e-09
-3.729541e-09 -3.947674e-09 -4.011241e-09 -4.071601e-09 -4.608247e-09 -3.403201e-09 -2.285645e-09 -3.358459e-09 -3.958232e-09 -3.805610e-09
-4.265563e-09 -2.871339e-09 -3.293122e-09 -3.692192e-09 -3.538426e-09 -5.063860e-09 -3.812575e-09 -4.438716e-09 -3.714486e-09 -6.271980e-09
-5.252789e-09 -2.995667e-09 -2.945733e-09 -5.823724e-09 -4.962632e-09 -4.104352e-09 -4.312584e-09 -3.431604e-09 -3.624230e-09 -5.444892e-09
-4.914930e-09 -5.999839e-09 -5.425781e-09 -4.448136e-09 -5.390632e-09 -4.831403e-09 -3.501927e-09 -5.754632e-09 -4.581616e-09 -3.147184e-09
-5.596942e-09 -6.034114e-09 -5.261385e-09 -3.458923e-09 -5.476731e-09 -3.475153e-09 -5.555582e-09 -5.173073e-09 -4.097342e-09 -4.372988e-09
-4.356966e-09 -4.094041e-09 -5.612858e-09 -4.653330e-09 -5.943674e-09 -3.752800e-09 -4.834710e-09 -3.004026e-09 -4.655334e-09 -4.193600e-09
-4.328299e-09 -4.855117e-09 -4.116883e-09 -5.377688e-09 -3.091040e-09 -5.124198e-09 -4.829102e-09 -4.673038e-09 -5.142374e-09 -4.570136e-09
-3.277228e-09 -4.786643e-09 -4.470014e-09 -3.438709e-09 -3.127599e-09 -4.225836e-09 -2.904961e-09 -4.274777e-09 -4.872967e-09 -5.348850e-09
-4.235659e-09 -4.700353e-09 -4.215521e-09 -2.996593e-09 -4.960630e-09 -3.734511e-09 -3.554311e-09 -4.141244e-09 -5.100679e-09 -2.473186e-09
-5.452128e-09 -4.674567e-09 -3.290486e-09 -4.415821e-09 -3.279440e-09 -3.381379e-09 -4.166321e-09 -4.065047e-09 -4.510194e-09 -4.190488e-09
-2.107226e-09
-2.383344e-09 -4.310141e-09 -4.422215e-09 -5.377871e-09 -3.208848e-09 -3.439990e-09 -2.413040e-09 -2.863180e-09 -4.101925e-09 -2.691259e-09
-4.581053e-09 -3.810535e-09 -2.931461e-09 -2.978248e-09 -3.666152e-09 -4.252408e-09 -2.750649e-09 -4.971985e-09 -4.316931e-09 -3.991545e-09
-4.197183e-09 -2.384031e-09 -3.982312e-09 -3.273504e-09 -2.581894e-09 -3.973610e-09 -4.880412e-09 -4.207662e-09 -3.910454e-09 -3.224950e-09
-4.410769e-09 -3.602192e-09 -4.126617e-09 -3.540093e-09 -4.790774e-09 -4.388925e-09 -2.977995e-09 -4.378935e-09 -4.617658e-09 -4.498604e-09
-3.588531e-09 -4.513988e-09 -4.900313e-09 -4.911016e-09 -3.744900e-09 -3.227857e-09 -4.228264e-09 -3.955115e-09 -5.139925e-09 -6.015686e-09
-3.681374e-09 -5.047960e-09 -3.602877e-09 -2.840572e-09 -3.277072e-09 -3.835540e-09 -5.562065e-09 -4.145466e-09 -4.992156e-09 -4.310346e-09
-2.776036e-09 -4.111205e-09 -3.265081e-09 -3.950506e-09 -3.537292e-09 -3.410321e-09 -3.692589e-09 -3.770166e-09 -2.657131e-09 -4.033301e-09
-4.833796e-09 -4.329420e-09 -3.540326e-09 -5.357935e-09 -4.263156e-09 -5.729590e-09 -3.468439e-09 -1.478723e-09 -5.518897e-09 -3.954185e-09
-3.307506e-09 -3.234297e-09 -3.466147e-09 -3.923212e-09 -4.051818e-09 -1.963343e-09 -3.354631e-09 -5.446474e-09 -3.898050e-09 -4.324042e-09
-5.452133e-09 -3.255618e-09 -3.189926e-09 -3.101433e-09 -3.055357e-09 -4.562615e-09 -2.879553e-09 -1.391527e-09 -3.874925e-09 -4.501999e-09
-4.674924e-09 -3.924476e-09 -2.820191e-09 -5.577501e-09 -5.555477e-09 -4.099302e-09 -2.787687e-09 -4.550014e-09 -4.065696e-09 -4.333624e-09
-5.016819e-09 -3.738245e-09 -4.457096e-09 -3.898000e-09 -6.391402e-09 -3.863122e-09 -3.733785e-09 -2.828122e-09 -4.060691e-09 -4.091907e-09
-4.296178e-09 -5.479043e-09 -6.322187e-09 -4.517714e-09 -3.172030e-09 -4.086026e-09 -4.973828e-09 -3.743486e-09 -3.669586e-09 -5.725189e-09
-3.003300e-09 -4.610225e-09 -3.334772e-09 -3.469562e-09 -3.828820e-09 -4.510613e-09 -4.094810e-09 -3.028519e-09 -4.193400e-09 -4.826677e-09
-4.331293e-09 -4.725595e-09 -3.262765e-09 -3.687396e-09 -4.192261e-09 -4.654168e-09 -3.127216e-09 -3.286782e-09 -4.157442e-09 -3.289212e-09
-2.378875e-09 -4.270610e-09 -3.728957e-09 -4.626006e-09 -4.472648e-09 -3.711979e-09 -3.071735e-09 -3.549915e-09 -6.505811e-09 -4.153338e-09
-4.230342e-09 -3.946883e-09 -4.041161e-09 -5.570058e-09 -4.728355e-09 -5.411414e-09 -4.045049e-09 -2.777163e-09 -2.248218e-09 -4.175480e-09
-4.087395e-09 -5.329653e-09 -4.422173e-09 -3.209752e-09 -3.886813e-09 -3.195062e-09 -4.101018e-09 -3.437615e-09 -3.473485e-09 -3.118428e-09
-4.174330e-09 -2.479435e-09 -4.800088e-09 -3.468415e-09 -5.031518e-09 -2.952504e-09 -3.133926e-09 -3.958272e-09 -3.977755e-09 -4.294642e-09
-2.443009e-09 -4.996239e-09 -3.289040e-09 -4.488201e-09 -2.818489e-09 -3.384195e-09 -2.827935e-09 -4.698606e-09 -3.655218e-09 -2.943822e-09
-2.371386e-09 -2.756203e-09 -4.781042e-09 -3.915696e-09 -3.876577e-09 -4.869872e-09 -4.010302e-09 -2.938124e-09 -4.571228e-09 -3.863406e-09
-4.463830e-09 -4.729555e-09 -3.883148e-09 -3.291585e-09 -3.253992e-09 -3.251983e-09 -5.443483e-09 -3.884468e-09 -3.616184e-09 -4.086763e-09
-4.478062e-09 -5.528392e-09 -3.624940e-09 -5.080778e-09 -3.550979e-09 -3.419657e-09 -4.101072e-09 -3.978471e-09 -3.856384e-09 -2.893209e-09
-4.608280e-09 -3.883743e-09 -4.958544e-09 -4.574506e-09 -5.819955e-09 -3.057791e-09 -5.262249e-09 -3.793433e-09 -4.832867e-09 -4.409081e-09
-4.373387e-09 -4.680660e-09 -2.651874e-09 -3.765740e-09 -5.384357e-09 -4.290483e-09 -3.482858e-09 -3.660998e-09 -3.587579e-09 -2.297531e-09
-4.041338e-09 -3.223995e-09 -3.727168e-09 -4.195670e-09 -6.071249e-09 -4.524632e-09 -4.874252e-09 -6.309417e-09 -5.898710e-09 -4.642217e-09
-4.894511e-09 -3.140888e-09 -3.496960e-09 -4.049019e-09 -5.344694e-09 -4.140237e-09 -3.796297e-09 -3.727267e-09 -2.603907e-09 -2.440593e-09
-2.949406e-09 -3.719677e-09 -3.775274e-09 -2.901980e-09 -3.217814e-09 -4.202056e-09 -3.147898e-09 -1.636024e-09 -2.284435e-09 -4.036909e-09
-3.445802e-09 -3.606583e-09 -3.317133e-09 -3.506758e-09 -4.051640e-09 -3.515095e-09 -3.432399e-09 -3.323299e-09 -3.217400e-09 -4.980968e-09
-3.489210e-09 -4.815615e-09 -4.182973e-09 -3.542849e-09 -4.139537e-09 -4.477875e-09 -4.506293e-09 -4.716868e-09 -3.988406e-09 -4.325650e-09
-4.046518e-09 -5.090110e-09 -4.687936e-09 -3.364500e-09 -4.692893e-09 -4.152734e-09 -4.028788e-09 -3.762082e-09 -3.804006e-09 -4.740049e-09
-4.747295e-09 -3.910197e-09 -3.991165e-09 -4.315670e-09 -4.719523e-09 -4.236724e-09 -4.078004e-09 -3.641923e-09 -4.581404e-09 -3.633500e-09
-3.888621e-09 -4.128624e-09 -4.640473e-09 -3.963987e-09 -3.845325e-09 -3.776203e-09 -3.036697e-09 -4.561020e-09 -3.199444e-09 -3.952029e-09
-4.036704e-09 -3.426557e-09 -3.399671e-09 -2.904943e-09 -4.383165e-09 -3.271089e-09 -4.224399e-09 -3.918461e-09 -4.673765e-09 -3.784898e-09
-4.147517e-09 -3.343620e-09 -5.486056e-09 -3.103435e-09 -3.597598e-09 -4.794702e-09 -3.240252e-09 -3.282383e-09 -3.411622e-09 -2.601310e-09
-3.215736e-09 -3.112207e-09 -3.746891e-09 -3.616567e-09 -3.139029e-09 -2.648689e-09 -2.080521e-09 -3.486893e-09 -3.125132e-09 -2.855577e-09
-2.383344e-09
-2.461419e-09 -2.821267e-09 -2.354209e-09 -3.691049e-09 -3.811742e-09 -4.569400e-09 -4.930310e-09 -4.203271e-09 -2.788606e-09 -2.502616e-09
-3.127769e-09 -2.175143e-09 -4.877194e-09 -3.338623e-09 -3.345399e-09 -4.540213e-09 -4.155819e-09 -2.063742e-09 -2.243872e-09 -2.987052e-09
-3.305734e-09 -3.341506e-09 -4.395079e-09 -2.351692e-09 -4.676184e-09 -3.415504e-09 -4.502827e-09 -3.549750e-09 -4.050682e-09 -3.864575e-09
-4.740633e-09 -4.564680e-09 -2.771316e-09 -4.133339e-09 -3.454018e-09 -4.405729e-09 -4.266691e-09 -3.776893e-09 -4.234046e-09 -3.730010e-09
-4.004410e-09 -4.305017e-09 -4.892885e-09 -4.487138e-09 -4.723389e-09 -3.929787e-09 -4.479568e-09 -4.210692e-09 -4.007909e-09 -5.103928e-09
-4.152616e-09 -3.309280e-09 -4.203841e-09 -4.055725e-09 -4.007009e-09 -2.977709e-09 -2.996460e-09 -4.144651e-09 -3.970440e-09 -3.844620e-09
-5.221905e-09 -3.395573e-09 -3.591553e-09 -4.224445e-09 -5.298937e-09 -2.010521e-09 -3.456950e-09 -4.965065e-09 -3.311820e-09 -3.005392e-09
-3.116294e-09 -4.212382e-09 -5.095309e-09 -4.603538e-09 -3.176795e-09 -3.811730e-09 -3.861121e-09 -3.033124e-09 -5.453597e-09 -1.938852e-09
-4.117031e-09 -4.876665e-09 -2.266682e-09 -3.678383e-09 -2.038184e-09 -3.349413e-09 -4.036050e-09 -2.952669e-09 -1.376559e-09 -1.650019e-09
-2.486684e-09 -4.036691e-09 -4.378288e-09 -2.779569e-09 -3.423503e-09 -3.840513e-09 -2.916084e-09 -3.437221e-09 -4.377639e-09 -4.133241e-09
-4.136831e-09 -4.403720e-09 -3.424791e-09 -3.767806e-09 -2.796140e-09 -3.791017e-09 -4.241185e-09 -3.294492e-09 -2.869991e-09 -3.620429e-09
-2.120394e-09 -4.540784e-09 -2.938639e-09 -3.221311e-09 -3.539321e-09 -3.478585e-09 -4.691689e-09 -3.201526e-09 -4.791255e-09 -3.732920e-09
-5.434259e-09 -4.200465e-09 -2.858317e-09 -4.657625e-09 -4.119434e-09 -4.751337e-09 -3.212009e-09 -3.240553e-09 -2.890624e-09 -5.132636e-09
-4.348479e-09 -4.061600e-09 -4.100057e-09 -3.805799e-09 -3.869371e-09 -4.723825e-09 -2.479407e-09 -3.330485e-09 -3.676775e-09 -4.660897e-09
-4.338868e-09 -2.812535e-09 -3.903845e-09 -4.083339e-09 -3.835891e-09 -5.080300e-09 -3.285520e-09 -5.310599e-09 -4.064258e-09 -3.391756e-09
-3.845299e-09 -3.753946e-09 -3.309462e-09 -2.904462e-09 -4.528402e-09 -2.765222e-09 -4.272160e-09 -2.995582e-09 -3.543778e-09 -1.892501e-09
-3.374262e-09 -2.905599e-09 -5.062974e-09 -3.822706e-09 -2.158415e-09 -2.109756e-09 -4.113367e-09 -3.437486e-09 -3.461977e-09 -2.894001e-09
-3.835847e-09 -4.167207e-09 -3.714529e-09 -3.389448e-09 -4.213732e-09 -3.252993e-09 -2.525735e-09 -3.517525e-09 -3.484396e-09 -5.323651e-09
-2.759307e-09 -2.545249e-09 -2.471466e-09 -3.990160e-09 -2.388988e-09 -3.149089e-09 -3.129664e-09 -2.747375e-09 -3.628952e-09 -3.698128e-09
-2.803676e-09 -3.253752e-09 -3.915803e-09 -3.586768e-09 -4.156744e-09 -2.651503e-09 -4.588242e-09 -3.110211e-09 -4.320070e-09 -2.679764e-09
-3.578136e-09 -4.578057e-09 -4.141673e-09 -3.742504e-09 -4.150131e-09 -4.616567e-09 -3.050691e-09 -4.214969e-09 -3.320150e-09 -3.453184e-09
-3.705285e-09 -3.434721e-09 -3.680533e-09 -3.052406e-09 -3.604724e-09 -2.885477e-09 -3.843131e-09 -4.711049e-09 -2.417830e-09 -4.780908e-09
-3.208960e-09 -4.561633e-09 -2.962377e-09 -3.828279e-09 -4.128966e-09 -4.177190e-09 -4.837026e-09 -3.914909e-09 -3.349622e-09 -3.716146e-09
-3.770671e-09 -3.938888e-09 -3.666936e-09 -4.294517e-09 -3.129359e-09 -2.506446e-09 -4.779377e-09 -4.283691e-09 -3.295518e-09 -4.340946e-09
-1.848475e-09 -5.186899e-09 -4.579719e-09 -3.898959e-09 -3.580858e-09 -4.090739e-09 -2.713343e-09 -3.636581e-09 -3.237990e-09 -4.248059e-09
-2.516498e-09 -2.411127e-09 -4.285643e-09 -3.498178e-09 -5.631140e-09 -4.316548e-09 -2.516404e-09 -3.714354e-09 -2.907586e-09 -4.592628e-09
-3.670711e-09 -1.646433e-09 -4.473810e-09 -4.199431e-09 -3.239445e-09 -2.858126e-09 -3.011401e-09 -3.460463e-09 -4.205320e-09 -3.353939e-09
-2.047710e-09 -3.928845e-09 -2.006854e-09 -3.172488e-09 -2.698425e-09 -4.328903e-09 -4.001662e-09 -2.372404e-09 -2.557780e-09 -5.260422e-09
-3.079861e-09 -2.817015e-09 -2.245340e-09 -2.510672e-09 -4.340698e-09 -2.095191e-09 -4.446576e-09 -4.224409e-09 -4.510397e-09 -2.967507e-09
-2.082345e-09 -4.302449e-09 -2.277296e-09 -4.852277e-09 -2.326250e-09 -3.965789e-09 -2.192419e-09 -3.954018e-09 -2.939585e-09 -2.706096e-09
-2.697806e-09 -2.831428e-09 -4.125936e-09 -3.346415e-09 -3.419878e-09 -3.677940e-09 -2.561389e-09 -3.367915e-09 -4.020415e-09 -3.827951e-09
-3.614918e-09 -3.756925e-09 -5.058525e-09 -2.832279e-09 -4.530015e-09 -5.669734e-09 -3.572187e-09 -5.103617e-09 -4.608172e-09 -4.203866e-09
-4.925608e-09 -3.628757e-09 -2.769158e-09 -3.526244e-09 -2.464414e-09 -2.764331e-09 -3.287061e-09 -3.021351e-09 -3.176243e-09 -3.041555e-09
-2.797852e-09 -2.560816e-09 -3.323229e-09 -2.670967e-09 -3.877161e-09 -5.075095e-09 -3.535829e-09 -4.222321e-09 -3.305506e-09 -2.257769e-09
-3.080112e-09 -3.667949e-09 -2.739320e-09 -3.020964e-09 -3.550792e-09 -3.978002e-09 -5.231006e-09 -3.327428e-09 -3.708611e-09 -3.609564e-09
-2.224954e-09 -4.513912e-09 -3.711251e-09 -4.023677e-09 -3.598868e-09 -3.713827e-09 -2.498346e-09 -3.227639e-09 -2.940377e-09 -2.807304e-09
-2.461419e-09
-5.660386e-10 -2.363843e-09 -2.384181e-09 -3.750980e-09 -2.511712e-09 -2.881070e-09 -2.494769e-09 -2.506370e-09 -2.760877e-09 -3.595975e-09
-3.499339e-09 -2.907817e-09 -4.021979e-09 -2.441956e-09 -3.886357e-09 -4.549139e-09 -2.782394e-09 -2.107848e-09 -3.058646e-09 -3.847376e-09
-2.554090e-09 -3.181210e-09 -3.626370e-09 -1.903843e-09 -3.891298e-09 -3.025051e-09 -2.025257e-09 -3.335683e-09 -3.682575e-09 -2.832564e-09
-2.410584e-09 -2.921457e-09 -3.965857e-09 -3.176665e-09 -2.645801e-09 -2.864075e-09 -2.190782e-09 -2.886162e-09 -3.494298e-09 -2.616510e-09
-4.176619e-09 -3.456719e-09 -3.966830e-09 -3.460033e-09 -3.759014e-09 -2.492235e-09 -3.260130e-09 -3.372761e-09 -3.583393e-09 -3.280206e-09
-2.588813e-09 -3.608637e-09 -3.297758e-09 -3.742778e-09 -2.875873e-09 -3.119563e-09 -2.753508e-09 -2.969793e-09 -3.268097e-09 -4.816846e-09
-4.765381e-09 -2.945756e-09 -4.191847e-09 -3.375191e-09 -5.209444e-09 -2.929982e-09 -3.896989e-09 -2.042720e-09 -4.019700e-09 -2.427095e-09
-3.036573e-09 -4.443708e-09 -3.912795e-09 -3.749649e-09 -2.757527e-09 -2.977867e-09 -4.115285e-09 -3.333344e-09 -3.662239e-09 -3.959734e-09
-3.455335e-09 -4.379669e-09 -2.240198e-09 -2.818922e-09 -2.013027e-09 -3.854867e-09 -2.459977e-09 -4.254346e-09 -2.864667e-09 -3.068088e-09
-5.110373e-09 -2.601483e-09 -3.047560e-09 -4.722607e-09 -3.133962e-09 -1.872031e-09 -4.034024e-09 -4.241526e-09 -2.039304e-09 -2.978605e-09
-4.012418e-09 -1.144080e-09 -4.022753e-09 -3.118831e-09 -2.337835e-09 -3.373537e-09 -4.814094e-09 -3.067175e-09 -1.732236e-09 -3.019368e-09
-2.316842e-09 -4.830304e-09 -2.360889e-09 -2.952922e-09 -2.447528e-09 -4.244632e-09 -5.252117e-09 -4.191556e-09 -3.868412e-09 -3.220179e-09
-4.911905e-09 -3.986584e-09 -3.312054e-09 -4.311855e-09 -3.614592e-09 -2.991079e-09 -4.796004e-09 -3.106668e-09 -3.920430e-09 -3.533685e-09
-5.011974e-09 -3.763766e-09 -3.680111e-09 -4.813269e-09 -4.023930e-09 -3.614995e-09 -3.337669e-09 -4.053595e-09 -4.805996e-09 -4.152013e-09
-3.557610e-09 -4.093391e-09 -3.269465e-09 -3.199963e-09 -2.387830e-09 -3.928911e-09 -4.164697e-09 -3.312110e-09 -2.817075e-09 -2.514933e-09
-4.384471e-09 -3.737120e-09 -2.544192e-09 -4.613837e-09 -2.537816e-09 -3.917809e-09 -2.539045e-09 -4.063674e-09 -3.284687e-09 -2.652508e-09
-3.430399e-09 -4.411026e-09 -3.181953e-09 -2.378768e-09 -1.195023e-09 -5.146763e-09 -3.585771e-09 -2.728611e-09 -2.160961e-09 -3.221080e-09
-1.080204e-09 -2.723225e-09 -4.286218e-09 -3.601409e-09 -3.216349e-09 -2.770834e-09 -4.826350e-09 -3.597386e-09 -2.779046e-09 -1.785087e-09
-3.363258e-09 -3.777997e-09 -4.284020e-09 -3.531906e-09 -3.815941e-09 -2.604364e-09 -3.479829e-09 -2.888130e-09 -2.898669e-09 -1.771980e-09
-1.316109e-09 -1.326660e-09 -2.137030e-09 -1.197732e-09 -3.019411e-09 -3.171294e-09 -3.606497e-09 -2.918938e-09 -3.458698e-09 -4.185958e-09
-2.671198e-09 -3.294325e-09 -2.504321e-09 -1.444881e-09 -3.241394e-09 -3.225668e-09 -2.936039e-09 -2.540806e-09 -2.632341e-09 -2.743054e-09
-2.001608e-09 -3.235717e-09 -1.647677e-09 -2.888028e-09 -4.607893e-09 -3.080109e-09 -2.450501e-09 -4.117324e-09 -3.073272e-09 -2.962842e-09
-3.603591e-09 -3.204396e-09 -3.808395e-09 -3.681160e-09 -3.671132e-09 -3.334529e-09 -4.118436e-09 -3.581393e-09 -3.706160e-09 -3.075322e-09
-3.383303e-09 -2.373718e-09 -4.301042e-09 -3.206352e-09 -4.088271e-09 -3.248220e-09 -2.734011e-09 -4.285548e-09 -4.360764e-09 -3.129973e-09
-2.885889e-09 -3.650871e-09 -3.383837e-09 -3.020966e-09 -2.879000e-09 -4.262461e-09 -2.323224e-09 -2.787257e-09 -4.187829e-09 -1.483103e-09
-2.693112e-09 -4.159130e-09 -4.928056e-09 -2.217608e-09 -2.755927e-09 -3.427084e-09 -3.103184e-09 -2.710760e-09 -3.347046e-09 -8.136163e-10
-4.155983e-09 -4.007057e-09 -3.408315e-09 -3.337462e-09 -2.599720e-09 -2.456583e-09 -2.437455e-09 -3.749373e-09 -5.253268e-09 -2.438637e-09
-1.327841e-09 -3.235465e-09 -3.942054e-09 -4.091721e-09 -2.116485e-09 -3.820221e-09 -3.597447e-09 -4.562740e-09 -5.358272e-10 -1.987963e-09
-2.637158e-09 -2.997013e-09 -1.951722e-09 -3.106657e-09 -2.694051e-09 -5.233613e-09 -2.942865e-09 -2.884586e-09 -4.490373e-09 -4.129691e-09
-3.510501e-09 -2.951480e-09 -3.515210e-09 -2.907475e-09 -4.062475e-09 -5.332099e-09 -4.738573e-09 -3.223432e-09 -3.083927e-09 -3.470331e-09
-3.189153e-09 -4.026356e-09 -3.032759e-09 -3.115294e-09 -3.306596e-09 -4.020859e-09 -2.404163e-09 -3.838555e-09 -3.231732e-09 -2.286569e-09
-3.168403e-09 -2.721450e-09 -3.273191e-09 -2.711695e-09 -3.106311e-09 -3.616310e-09 -3.179228e-09 -3.451278e-09 -3.759203e-09 -3.644523e-09
-2.553286e-09 -3.201618e-09 -3.296526e-09 -3.482181e-09 -2.687428e-09 -2.563040e-09 -3.299583e-09 -1.803673e-09 -4.962332e-09 -3.176745e-09
-3.090787e-09 -5.165795e-09 -2.938852e-09 -1.653525e-09 -3.745560e-09 -2.717432e-09 -3.017663e-09 -3.090064e-09 -3.590064e-09 -2.808435e-09
-1.947901e-09 -2.141170e-09 -3.663330e-09 -2.980163e-09 -4.502057e-09 -3.229206e-09 -3.045945e-09 -2.712477e-09 -2.217318e-09 -3.057610e-09
-2.724491e-09 -2.638151e-09 -2.967773e-09 -3.042169e-09 -3.244849e-09 -2.973825e-09 -5.576650e-09 -3.170308e-09 -2.533547e-09 -2.691924e-09
-5.660386e-10
-3.088974e-09 -2.567598e-09 -2.675788e-09 -3.083487e-09 -3.417473e-09 -1.141772e-09 -2.638234e-09 -1.261169e-09 -1.770831e-09 -4.059726e-09
-1.466597e-09 -1.757997e-09 -3.549131e-09 -2.532070e-09 -3.908867e-09 -2.158683e-09 -2.212677e-09 -3.005125e-09 -3.275923e-09 -1.261716e-09
-2.055915e-09 -1.943723e-09 -1.140146e-09 -3.328603e-09 -4.325386e-09 -1.973798e-09 -3.048413e-09 -8.249790e-10 -2.987699e-09 -2.694959e-09
-2.348004e-09 -2.116417e-09 -2.735199e-09 -2.653900e-09 -2.320085e-09 -1.779510e-09 -4.104515e-09 -3.607299e-09 -2.715387e-09 -2.508612e-09
-2.296985e-09 -3.654242e-09 -2.889221e-09 -4.127915e-09 -2.857884e-09 -2.475930e-09 -3.608529e-09 -3.766743e-09 -2.119015e-09 -2.053802e-09
-1.710889e-09 -3.044275e-09 -2.733155e-09 -2.543638e-09 -2.324502e-09 -3.657887e-09 -3.060243e-09 -1.497717e-09 -1.296116e-09 -3.640697e-09
-1.533668e-09 -2.272172e-09 -1.811336e-09 -3.031505e-09 -4.121169e-09 -4.845130e-09 -3.382125e-09 -3.192554e-09 -2.701583e-09 -2.697862e-09
-1.656031e-09 -2.741470e-09 -2.712517e-09 -1.501375e-09 -1.868752e-09 -9.990423e-10 -2.166717e-09 -2.311721e-09 -1.584299e-09 -3.997708e-09
-2.106294e-09 -1.894534e-09 -4.069586e-09 -1.883636e-09 -5.090123e-09 -2.715872e-09 -2.439900e-09 -1.818830e-09 -2.355591e-09 -5.244534e-10
-2.015672e-09 -4.323751e-09 -3.452477e-09 -2.033847e-09 -4.483064e-09 -3.012074e-09 -3.052274e-09 -5.138258e-09 -4.908822e-10 -1.131183e-09
-5.043310e-09 -2.721576e-09 -3.897777e-09 -3.477789e-09 -4.552916e-09 -2.670633e-09 -3.306725e-09 -3.889766e-09 -3.879460e-09 -2.140946e-09
-4.313066e-09 -3.149903e-09 -2.611614e-09 -3.662287e-09 -3.083635e-09 -3.241858e-09 -3.893551e-09 -3.025769e-09 -3.228525e-09 -3.839582e-09
-3.614390e-09 -2.282703e-09 -3.332722e-09 -2.085629e-09 -3.071704e-09 -2.976938e-09 -2.816027e-09 -3.001415e-09 -3.819772e-09 -3.815331e-09
-3.299289e-09 -2.929809e-09 -4.969687e-09 -2.961434e-09 -2.559528e-09 -4.009739e-09 -2.187023e-09 -4.032478e-09 -3.567708e-09 -3.095360e-09
-3.369844e-09 -3.167088e-09 -3.255945e-09 -3.474010e-09 -2.962970e-09 -3.266972e-09 -2.808422e-09 -4.319411e-09 -3.289358e-09 -2.151452e-09
-2.754874e-09 -2.330722e-09 -4.032872e-09 -3.811962e-09 -3.514828e-09 -2.045634e-09 -2.909568e-09 -1.648450e-09 -3.489806e-09 -2.866130e-09
-2.905974e-09 -2.550351e-09 -2.318073e-09 -4.553240e-09 -1.323859e-09 -2.772952e-09 -9.622610e-10 -1.845605e-09 -3.517111e-09 -2.814929e-09
-1.787380e-09 -4.576001e-09 -2.685783e-09 -3.226362e-09 -2.290401e-09 -2.526241e-09 -2.911284e-09 -2.073928e-09 -3.186405e-09 -3.402700e-09
-9.171792e-10 -2.056773e-09 -1.630673e-09 -1.865436e-09 -1.810604e-09 -2.845576e-09 -3.311890e-09 -1.169055e-09 -1.830324e-09 -3.412942e-09
-3.697311e-09 -4.564960e-09 -5.008449e-09 -3.672340e-09 -5.590968e-09 -1.180873e-09 -4.196817e-09 -1.440384e-09 -3.223429e-09 -1.378680e-09
-2.091781e-09 -2.918804e-09 -3.531454e-09 -1.593945e-09 -3.008761e-09 -3.596250e-09 -3.622131e-09 -2.967857e-09 -2.886710e-09 -3.495978e-09
-3.438771e-09 -3.058498e-09 -3.037351e-09 -3.316604e-09 -2.751154e-09 -2.628699e-09 -3.984351e-09 -1.462454e-09 -2.607124e-09 -2.636774e-09
-2.230744e-09 -3.709844e-09 -3.230033e-09 -2.219114e-09 -3.521805e-09 -1.751673e-09 -2.390008e-09 -4.026016e-09 -2.329626e-09 -2.982843e-09
-2.504978e-09 -3.477700e-09 -2.742736e-09 -2.428834e-09 -2.236415e-09 -1.934788e-09 -2.048914e-09 -3.198938e-09 -1.795976e-09 -3.029539e-09
-2.933910e-09 -1.971155e-09 -3.747116e-09 -2.767734e-09 -2.742226e-09 -2.273119e-09 -2.141824e-09 -3.063825e-09 -2.378107e-09 -2.010963e-09
-2.743136e-09 -1.565191e-09 -3.412020e-09 -1.773388e-09 -3.432762e-09 -1.802905e-09 -2.902940e-09 -3.024984e-09 -4.634236e-09 -4.058142e-09
-1.917136e-09 -3.670913e-09 -2.980311e-09 -3.155514e-09 -4.005344e-09 -2.123439e-09 -3.369961e-09 -2.242046e-09 -9.872149e-10 -3.261385e-09
-4.091326e-09 -3.701871e-09 -3.811156e-09 -7.224346e-10 -3.467947e-09 -3.404121e-09 -3.811083e-09 -2.491374e-09 -2.633451e-09 -3.745057e-09
-3.193432e-09 -1.178843e-09 -2.172712e-09 -2.997294e-09 -9.667441e-10 -3.489414e-09 -4.291878e-09 -3.064128e-09 -1.311261e-09 -2.352293e-09
-1.923331e-09 -3.482717e-09 -2.848345e-09 -1.542900e-09 -4.019126e-09 -3.507477e-09 -2.509924e-09 -4.111059e-09 -3.485008e-09 -2.344219e-09
-3.940408e-09 -2.874457e-09 -3.820563e-09 -3.421064e-09 -3.447051e-09 -2.000816e-09 -3.514009e-09 -3.897692e-09 -3.495859e-09 -2.238278e-09
-2.787403e-09 -2.980294e-09 -3.707181e-09 -2.811960e-09 -8.900453e-10 -2.461479e-09 -3.717117e-09 -2.865943e-09 -3.540257e-09 -3.320810e-09
-2.408285e-09 -2.665252e-09 -4.039879e-09 -3.063081e-09 -3.454739e-09 -3.692056e-09 -3.209030e-09 -3.514464e-09 -2.899386e-09 -2.116968e-09
-2.774342e-09 -3.360125e-09 -3.194824e-09 -3.298391e-09 -4.772990e-09 -2.922253e-09 -2.679840e-09 -4.448260e-09 -3.278851e-09 -2.670030e-09
-2.521636e-09 -3.784348e-09 -3.088720e-09 -2.041806e-09 -1.210950e-09 -2.185823e-09 -3.032904e-09 -1.359123e-09 -1.058178e-09 -9.870523e-10
-5.697756e-10 -2.511231e-09 -3.028743e-09 -8.185970e-10 -1.343329e-09 -2.818197e-09 -3.843900e-09 -1.442588e-09 -3.261079e-09 -3.533570e-09
-3.088974e-09
-1.168684e-09 -2.252819e-09 -8.063535e-10 -2.378471e-09 -3.394342e-09 -2.015280e-09 -2.531522e-09 -1.014980e-09 -3.265685e-09 -4.690827e-10
-2.314108e-09 -2.053069e-09 -2.933545e-09 -1.631115e-09 -1.784410e-09 -2.740600e-09 -2.779049e-09 -2.515085e-09 -2.882543e-09 -2.826749e-09
-9.161887e-10 -3.212581e-09 -2.045113e-09 -2.900175e-09 -2.809166e-09 -2.665320e-09 -1.050981e-09 -2.389262e-09 -2.318759e-09 -3.417957e-09
-3.975943e-09 -2.728169e-09 -2.796973e-09 -2.739947e-09 -2.111119e-09 -3.337239e-09 -1.870272e-09 -2.775458e-09 -3.271090e-09 -2.497558e-09
-3.153627e-09 -1.976304e-09 -2.755249e-09 -2.666985e-09 -2.640084e-09 -3.152818e-09 -2.801468e-09 -2.262967e-09 -3.252463e-09 -2.519798e-09
-2.518518e-09 -2.034774e-09 -4.062929e-09 -3.289506e-09 -3.195981e-09 -1.834225e-09 -2.758987e-09 -3.483133e-09 -2.759531e-09 -1.649123e-09
-2.395974e-09 -3.308645e-09 -2.126382e-09 -2.784428e-09 -3.189261e-09 -2.188340e-09 -1.682522e-09 -5.907759e-10 -2.267830e-09 -2.918219e-09
-3.607183e-09 -3.903031e-09 -2.009163e-09 -6.700986e-10 -3.772552e-09 -2.086799e-09 -3.439387e-09 -2.311926e-09 -2.559904e-09 -1.515811e-09
-5.826573e-10 -3.191219e-09 -2.770239e-09 -2.797242e-09 -3.502221e-09 -2.947579e-09 -1.057883e-09 -1.557164e-09 -1.455655e-09 -2.028035e-09
-3.223350e-09 -4.856187e-10 -2.086423e-09 -2.196918e-10 -1.360516e-09 -2.451719e-09 -2.941033e-09 -2.039520e-09 -2.782151e-09 -1.776582e-09
-4.603360e-09 -2.675877e-09 -2.583540e-09 -2.232724e-10 -2.813532e-09 -2.691636e-09 -1.746945e-09 -2.219007e-09 -2.567939e-09 -3.246071e-09
-4.574570e-09 -3.058659e-09 -2.314792e-09 -3.183452e-09 -1.614630e-09 -1.911548e-09 -2.299421e-09 -2.301072e-09 -3.462317e-09 -2.775953e-09
-4.405756e-09 -2.491924e-09 -3.719245e-09 -2.921014e-09 -1.334721e-09 -4.055639e-09 -2.052051e-09 -3.181576e-09 -2.548475e-09 -2.423105e-09
-2.187991e-09 -2.075445e-09 -2.979916e-09 -2.620898e-09 -1.149085e-09 -3.122641e-09 -4.621301e-09 -3.357894e-09 -2.607929e-09 -1.911756e-09
-1.957591e-09 -2.991397e-09 -2.760192e-09 -3.433509e-09 -3.343642e-09 -2.221884e-09 -2.559518e-09 -2.188049e-09 -3.764149e-09 -1.754915e-09
-1.731284e-09 -1.813572e-09 -1.375164e-09 -2.607367e-09 -1.946790e-09 -3.497365e-09 -2.309263e-09 -2.372705e-09 -2.622298e-09 -2.679344e-09
-2.310535e-09 -2.628500e-09 -2.044771e-09 -3.027879e-09 -8.590944e-10 -3.227840e-09 -3.184192e-09 -2.244915e-09 -6.659604e-10 -2.634480e-09
-3.985662e-09 -2.237087e-09 -1.991052e-09 -2.569336e-09 -1.150838e-09 -1.118582e-09 -2.904942e-09 -3.367517e-09 2.080362e-10 -2.999139e-09
-1.652753e-09 -2.294490e-09 -1.675089e-09 -1.553228e-09 -2.276968e-09 -4.017906e-09 -1.905790e-09 -4.827035e-10 -1.499621e-09 -6.855904e-10
-3.223455e-09 -2.114515e-09 -1.095614e-09 -3.616093e-09 -2.540583e-09 -1.730546e-09 -1.897850e-09 -1.929773e-09 -1.995942e-09 -1.265916e-09
-2.944154e-09 -3.148806e-09 -2.683787e-09 -2.942396e-09 -2.577513e-09 -2.905827e-09 -2.668828e-09 -2.103716e-09 -2.644140e-09 -2.975905e-09
-2.509524e-09 -1.437533e-09 -2.650713e-09 -2.316033e-09 -2.228078e-09 -3.362137e-09 -1.933524e-09 -1.746346e-09 -2.544124e-09 -1.913168e-09
-6.474266e-10 -3.213692e-09 -2.052873e-09 -2.140896e-09 -3.146113e-09 -2.284455e-09 -1.472923e-09 -3.721880e-09 -2.234817e-09 -3.076043e-09
-3.524460e-09 -3.611361e-09 -2.317888e-09 -2.108950e-09 -1.668742e-09 -1.338112e-09 -2.947695e-09 -1.698837e-09 -2.990931e-09 -1.741235e-09
-3.952188e-09 -2.265555e-09 -3.787731e-09 -2.250778e-09 -2.460851e-09 -1.939447e-09 -2.251896e-09 -3.366524e-09 -1.818847e-09 -1.869597e-09
-3.683632e-09 -2.489291e-09 -1.144871e-09 -2.640645e-09 -8.469008e-10 -1.882025e-09 -2.108674e-09 -2.416427e-09 -2.178410e-09 -2.422165e-09
-5.946989e-10 -2.582910e-09 -1.451837e-09 -2.209264e-09 -1.883518e-09 -2.627433e-09 -2.139863e-09 -3.101105e-09 -1.360677e-09 -3.432133e-09
-1.871200e-09 -9.861925e-10 -1.898430e-09 -2.825580e-09 -2.237866e-09 -2.100200e-09 -3.819310e-09 -1.399881e-09 -3.166664e-09 -2.658354e-09
-1.253190e-09 -2.420316e-09 -1.693171e-09 -4.610282e-09 -3.224412e-09 -3.466814e-09 -2.030776e-09 -1.096749e-09 -2.775922e-09 -4.001477e-09
-3.226072e-09 -1.538451e-09 -1.877582e-09 -4.006484e-09 -1.637760e-09 -3.255783e-09 -4.730981e-09 -2.847422e-09 -3.642703e-09 -2.357529e-09
-2.865006e-09 -2.661438e-09 -2.270374e-09 -1.243363e-09 -4.115268e-09 -2.164623e-09 -1.522471e-09 -3.279512e-09 -2.593762e-09 -2.933717e-09
-2.688442e-09 -2.277849e-09 -3.012957e-09 -2.760774e-09 -2.460618e-09 -2.659315e-09 -1.684762e-09 -1.947752e-09 -2.143541e-09 -2.012055e-09
-1.639119e-09 -3.207236e-09 -2.580584e-09 -2.328524e-09 -1.002528e-09 -3.293042e-09 -2.650697e-09 -2.168743e-09 -2.595385e-09 -1.493697e-09
-2.095637e-09 -1.782842e-09 -3.006895e-09 -1.305811e-09 -3.560005e-09 -2.744713e-09 -3.038132e-09 -3.265598e-09 -2.012491e-09 -1.870681e-09
-2.502441e-09 -2.734494e-09 -3.514559e-09 -3.104444e-09 -1.865138e-09 -3.165087e-09 -3.030972e-09 -7.910018e-10 -1.709115e-09 -1.370301e-09
-8.964518e-10 -2.288008e-09 -2.728818e-09 -2.098542e-09 -2.431235e-09 -3.609224e-09 -2.801314e-09 -3.253110e-09 -1.942563e-09 -1.612234e-09
-1.168684e-09
-2.343945e-09 -2.261710e-09 -4.634023e-11 -9.416452e-10 -1.955806e-09 -1.151550e-09 -2.528163e-09 -1.775831e-09 -7.319067e-10 -1.675396e-09
-1.661857e-09 -9.101607e-10 -2.044193e-09 -2.140126e-09 -1.049345e-09 -9.125556e-10 -1.899260e-09 -1.749591e-09 -2.673372e-09 -3.742332e-09
-1.257318e-09 -2.561735e-09 -1.498302e-09 -2.206700e-09 -2.198161e-09 -2.923203e-09 -2.330621e-09 -2.055537e-09 -2.555795e-09 -2.925583e-09
-4.404757e-10 -1.599842e-09 -2.140320e-09 -2.117286e-09 -1.674147e-09 -1.638583e-09 -2.482097e-09 -1.585994e-09 -2.847720e-09 -2.176783e-09
-1.438781e-09 -3.079727e-09 -1.917824e-09 -2.473459e-09 -1.935876e-09 -2.665927e-09 -4.265990e-09 -2.589127e-09 -2.256188e-09 -1.122866e-09
-1.627579e-09 -1.459155e-09 -1.867984e-09 -2.114247e-09 -1.692966e-09 -2.738817e-09 -2.150337e-09 -3.660928e-09 -1.750756e-09 -1.928360e-09
-3.131564e-09 -2.890913e-09 -3.508132e-09 -1.495592e-09 -1.652919e-09 -2.483548e-09 -1.594944e-09 -4.970923e-09 -2.918284e-09 -2.170435e-09
-1.633279e-09 -2.061294e-09 -1.261751e-10 -3.632098e-09 2.456651e-10 -1.412359e-09 -1.899787e-09 -2.155331e-09 -2.580580e-09 -1.151561e-09
-2.134590e-09 -3.272026e-09 -1.084492e-09 2.113097e-10 -2.476952e-09 -2.151238e-09 -2.156251e-09 -2.449639e-09 -3.256054e-09 -1.932265e-09
-7.501959e-10 -3.137892e-09 -8.224488e-10 -1.033280e-09 -2.824848e-09 -4.151299e-10 -1.274323e-09 -2.701429e-09 -1.379576e-09 -1.421927e-09
-2.135039e-09 -1.372776e-09 -4.229934e-09 -1.347257e-09 -1.633720e-09 -2.348339e-09 -2.166967e-09 -1.739023e-09 -2.131543e-09 -1.821304e-09
-1.882237e-09 -1.749885e-09 -6.496055e-10 -2.694442e-09 -1.286543e-09 -3.189598e-09 -1.106895e-09 -1.974900e-09 -3.029833e-09 -1.901734e-09
-2.194090e-09 -2.477866e-09 -1.381152e-09 -1.499225e-09 -3.675082e-09 -1.407200e-09 -1.897691e-09 -3.500149e-09 -1.217497e-09 -2.913621e-09
-2.468050e-09 -1.613379e-09 -2.585357e-09 -2.418269e-09 -1.900367e-09 -2.283024e-09 -3.313999e-09 -3.207049e-09 -2.918634e-09 -2.347125e-09
-1.538391e-09 -2.094252e-09 -3.176354e-09 -1.735546e-09 -2.745946e-09 -1.373375e-09 -3.393699e-09 -2.176997e-09 -1.956121e-09 -2.756167e-09
-1.911199e-09 -2.077497e-09 -1.457766e-09 -2.158337e-09 -3.096787e-09 -7.603102e-10 -1.878257e-09 -3.129805e-09 -1.686450e-09 -1.694959e-09
-1.878140e-09 -1.140965e-09 -1.120090e-09 -1.045282e-09 -2.347913e-09 -2.323806e-09 -2.301958e-09 -1.463866e-09 -1.534064e-09 -2.412999e-09
-1.351743e-09 -2.016824e-09 -2.492330e-09 -1.147016e-09 -1.490479e-09 -2.078394e-09 -2.709739e-09 -2.411891e-09 -1.407576e-10 -1.033536e-09
-2.213660e-09 -4.016378e-09 -2.433349e-09 -1.644382e-09 -3.481465e-09 -1.169625e-09 -1.687629e-10 -3.168145e-09 -2.235654e-09 -1.715558e-09
-2.397543e-09 -1.536312e-09 -3.565143e-09 -2.156130e-09 -1.336625e-09 -4.071670e-09 -2.162940e-09 -2.709312e-09 -2.626656e-09 -1.552410e-09
-2.309352e-09 -9.351540e-10 -1.198065e-09 -2.453348e-09 -3.032544e-09 -2.704821e-09 -3.183778e-09 -2.079988e-09 -7.177975e-10 -2.435502e-09
-3.158858e-09 -1.746751e-09 -1.740315e-09 -2.101089e-09 -2.767328e-09 -1.861819e-09 -2.571662e-09 -2.217351e-09 -2.600834e-09 -7.663601e-10
-1.507409e-09 -2.482088e-09 -2.785335e-09 -2.323494e-09 -2.258005e-09 -1.879732e-09 -2.684108e-09 -1.013770e-09 -3.618909e-09 -3.022429e-09
-2.245544e-09 -3.164839e-09 -2.700763e-09 -2.732039e-09 -2.368707e-09 -2.056368e-09 -1.108078e-09 -1.880101e-09 -3.060023e-09 -1.254359e-09
-3.280526e-09 -1.512485e-09 -1.333279e-09 -1.786635e-09 -2.604254e-09 -2.726201e-09 -1.628313e-09 -3.051079e-09 -7.393977e-10 -1.438941e-09
-1.438114e-09 -2.234701e-09 -1.708553e-09 -2.057039e-10 -6.443112e-10 -3.938878e-09 -3.142592e-09 -2.268682e-09 -1.701505e-09 -1.555261e-09
-2.719313e-09 -2.015682e-09 -1.064500e-09 -2.157809e-09 -1.353650e-09 -1.878873e-09 -2.452884e-09 -8.717397e-11 -3.064191e-09 -2.905404e-09
-1.475626e-09 -1.529810e-09 3.253794e-10 -8.531480e-10 -1.431425e-09 -2.269815e-09 -2.764966e-09 -1.090088e-09 -2.122563e-09 -2.591753e-09
-4.475913e-10 -1.095822e-09 -2.594977e-09 -1.294376e-09 -2.497792e-09 -1.632314e-09 -2.615863e-09 -1.523389e-09 -1.343042e-09 -3.314041e-09
-1.160942e-09 -3.109491e-09 -1.069978e-09 -1.749805e-09 -1.612512e-09 -1.163171e-09 -6.600043e-10 -1.822299e-09 -2.968970e-09 -1.199553e-09
-1.304442e-09 -9.131032e-10 -1.208784e-09 -1.145438e-09 -2.936103e-09 -2.334317e-09 -1.429231e-09 -3.086631e-09 -2.707752e-09 -1.246121e-09
-2.355566e-09 -1.518135e-09 -3.023269e-09 -2.727366e-09 -2.390408e-09 -1.819772e-09 -2.163796e-09 -2.770814e-09 -3.220268e-09 -2.751996e-09
-3.415837e-09 -2.525756e-09 -3.064063e-09 -9.421884e-10 -2.541668e-10 -1.871750e-09 -2.967804e-09 -2.104526e-09 -2.277718e-09 -3.722817e-09
-3.147387e-09 -2.817506e-09 -2.665035e-09 -1.743283e-09 -1.703785e-09 -1.752766e-09 -2.957798e-09 -2.592281e-09 -1.122475e-09 -1.513171e-09
-1.325653e-09 -9.033373e-10 -1.061920e-09 -3.590116e-09 -2.143228e-09 -2.512407e-09 -2.572091e-09 -2.576888e-09 -1.345091e-09 -2.905900e-09
-1.529902e-09 -2.954272e-09 -2.854506e-09 -4.515019e-10 -1.268805e-09 -2.302081e-09 -1.656548e-09 -7.476106e-10 -4.159681e-09 -1.223108e-09
-2.343945e-09
-2.648379e-09 -2.493389e-09 -1.328683e-09 -2.802431e-09 -2.432076e-09 -1.390327e-09 -1.454660e-09 6.649044e-10 -1.627514e-09 -2.155159e-09
-5.074382e-11 -2.335639e-09 -1.367274e-09 -8.909322e-10 -3.362804e-09 -1.052656e-09 -2.427454e-09 6.371986e-10 -2.623511e-09 -2.146642e-09
-1.172751e-10 -1.681284e-09 -2.076058e-09 -2.715850e-09 -2.537398e-09 -2.223738e-09 -2.713460e-09 -2.056447e-09 -1.443956e-09 -2.088254e-09
-1.766245e-09 -3.038523e-09 -1.103111e-09 -8.974073e-10 -2.436287e-09 -2.379792e-09 -1.444238e-09 -1.978172e-09 -2.183618e-09 -8.814993e-10
-1.514014e-09 -1.157647e-09 -2.175125e-09 -2.901995e-09 -1.521805e-09 -1.683504e-09 -1.268290e-09 -2.416774e-09 -1.170823e-09 -2.084956e-09
-9.342287e-10 -2.432807e-09 -2.202269e-09 -1.590622e-09 -1.436641e-09 -1.930941e-09 -2.127297e-09 -1.951671e-09 -2.849645e-09 -1.276552e-10
-2.370059e-09 -2.289760e-09 -3.605645e-09 -1.659700e-09 -1.364137e-09 -1.229171e-09 -2.922875e-09 -5.353716e-10 -8.028410e-10 -7.217413e-10
-1.130212e-09 -1.342362e-09 -1.885544e-09 -1.518559e-09 -3.545179e-09 -1.383800e-09 -3.641118e-10 -1.658682e-09 -1.969908e-09 -1.782222e-10
-2.662822e-09 -1.686567e-09 -6.977232e-10 -1.702882e-09 8.761805e-10 -1.256432e-09 -3.096699e-09 -1.694105e-09 -1.736224e-09 -7.982657e-10
1.365812e-09 -6.986132e-10 -2.299400e-09 -1.309134e-09 -3.168810e-09 -1.502191e-09 -4.891805e-10 1.191904e-09 -2.297514e-09 -1.823248e-09
-1.233942e-09 -9.643548e-10 9.703719e-11 -2.754473e-09 -7.109387e-10 -2.645372e-09 -8.074978e-10 -8.693650e-10 -2.542245e-09 -2.411246e-09
-3.931431e-09 -6.563651e-10 -9.295124e-11 -5.951039e-11 -2.225180e-09 -2.710109e-09 -2.297581e-09 -1.710057e-09 -2.935189e-09 -2.651772e-09
-1.991841e-09 -2.607337e-09 -3.388572e-09 -2.953887e-09 -2.446424e-09 -1.245800e-09 -2.098338e-09 -1.260401e-09 -2.167387e-09 -7.626418e-10
-1.452809e-09 -2.181927e-09 -2.111030e-09 -2.201218e-09 -2.045549e-09 -1.484417e-09 -1.948228e-09 -2.738411e-09 -1.594194e-09 -2.387323e-09
-2.522303e-09 -2.034389e-09 -1.980986e-09 -1.986898e-09 -1.724412e-09 -1.929789e-09 -1.686621e-09 -3.049003e-09 -2.564216e-09 -8.550932e-10
-1.496356e-09 -1.551838e-09 -1.393816e-09 -1.767615e-09 -2.730479e-09 -2.126877e-09 -2.158818e-09 5.672361e-11 -1.852332e-09 -2.009354e-09
-9.341422e-10 -2.010947e-09 -2.833752e-09 -2.021239e-09 -2.494309e-09 -2.614948e-09 -9.174762e-10 -3.715105e-09 -1.256025e-09 -1.721115e-09
-1.182797e-09 -2.987015e-09 -2.326084e-09 -1.091837e-09 -1.191315e-09 -1.806339e-09 -2.591769e-09 -1.875150e-09 -1.242390e-09 -5.947428e-10
-1.913682e-09 -1.330878e-10 -1.484080e-09 -2.007045e-09 -7.237053e-10 -1.372067e-09 5.791625e-10 -2.587989e-09 -2.559109e-10 -1.685145e-09
-3.780216e-10 -1.787335e-09 -1.642265e-09 -2.423337e-09 -1.878768e-09 -1.636593e-09 -2.231096e-09 -1.587844e-09 -1.945139e-09 -1.952751e-09
-2.281280e-09 -1.946663e-09 -2.620712e-09 1.887321e-10 -2.221149e-09 -1.995868e-09 -1.778758e-09 -4.343307e-10 -2.333434e-09 -1.614676e-09
-2.281493e-09 -1.768542e-09 -1.628136e-09 -1.199612e-09 -1.647164e-09 -9.061821e-10 -2.656368e-09 -2.416947e-09 -9.652058e-10 -1.493541e-09
-1.542426e-09 -1.543643e-09 -1.219352e-09 -1.867082e-09 -6.544950e-10 -1.285146e-09 -1.335445e-09 -2.865890e-09 -1.744399e-09 -1.320346e-09
-2.061277e-09 -1.946678e-09 -1.467100e-09 -3.145951e-09 -1.475128e-09 -3.664005e-09 -2.696311e-09 -1.123176e-09 -1.682474e-09 -7.441934e-10
-3.363687e-09 -1.589060e-09 -2.787701e-09 -1.600724e-10 -1.436990e-09 -1.363473e-09 -1.245546e-09 -6.323661e-10 -3.463001e-09 -2.014959e-09
-2.858646e-09 -2.045792e-09 -1.904710e-09 -2.487589e-09 -2.626314e-09 -1.174253e-09 -1.898756e-09 -2.402213e-09 -2.063290e-09 -3.116661e-09
-3.256454e-10 -1.159329e-09 -1.918168e-09 -1.971688e-09 -1.265926e-09 -1.634862e-09 -1.350790e-09 -1.074126e-09 -3.268997e-09 -2.451363e-09
-1.871502e-09 -1.332471e-09 -8.873409e-10 -7.348014e-10 -2.034515e-09 -1.180702e-09 -1.675463e-09 -4.060194e-09 -8.167356e-10 -2.923463e-09
-1.466862e-09 -1.912042e-09 -6.360710e-10 -2.340788e-09 -1.117555e-09 -1.471122e-09 -1.896493e-09 -2.671357e-09 -2.232282e-09 -4.049941e-09
-2.112359e-09 -1.236031e-09 -4.118276e-09 -2.136366e-09 -2.661124e-09 -1.414936e-09 -1.828481e-09 -2.935272e-09 -2.659724e-09 -1.941944e-09
-2.871865e-09 -2.005225e-09 -2.531797e-09 -2.211981e-09 -2.231843e-09 -2.086561e-09 -1.688421e-09 -5.533924e-10 -1.680216e-09 -1.878078e-09
-2.340935e-09 -3.112897e-09 -1.857060e-09 -2.434149e-10 -2.580078e-09 -3.304888e-09 -9.936457e-10 -1.794066e-09 -8.286223e-10 -2.658804e-09
-1.878048e-09 -3.307230e-10 -1.547230e-09 -2.247063e-09 -2.315744e-09 -2.582755e-09 -1.963730e-09 -2.924405e-09 -1.121915e-09 -1.555652e-09
-1.324822e-09 -1.857484e-09 -1.011858e-09 -1.541028e-09 -2.273530e-10 -4.067325e-09 -1.442868e-09 -1.567278e-09 -2.384734e-09 -6.471850e-10
-3.466788e-10 -1.560170e-09 -2.403323e-09 -7.675665e-10 -2.406410e-09 -1.469843e-09 -3.652871e-09 -3.536286e-09 -2.864972e-09 -2.394067e-09
-2.341138e-09 -1.914628e-11 -5.051061e-10 -3.208529e-09 -3.910122e-10 -7.214807e-10 -1.984343e-09 -2.474191e-09 -2.354458e-09 -1.595695e-09
-2.648379e-09
2.674152e-10 -2.724562e-09 -2.005224e-09 -1.642948e-09 -1.396189e-09 -2.661144e-09 -8.656882e-10 -1.534784e-09 -2.619571e-10 -2.630318e-11
-1.605073e-09 -1.994224e-10 -1.329986e-09 -2.230583e-09 -1.503704e-09 -2.916872e-09 -2.589960e-09 -1.145994e-09 -1.300580e-09 -1.734095e-09
-2.504517e-09 -4.042540e-11 -2.084317e-09 -7.732998e-10 -1.808165e-09 -1.379099e-09 -1.345628e-09 -1.136920e-09 -1.491625e-09 -1.097490e-09
-2.911650e-09 -9.995715e-10 -1.738924e-09 -9.594446e-10 -8.431325e-10 -1.395871e-09 -1.077542e-09 -1.280071e-09 -4.538270e-10 -8.510669e-10
-1.129858e-09 -6.267067e-10 -1.176700e-09 -8.428386e-10 -1.810915e-09 -2.062610e-09 -1.116806e-09 -7.674202e-10 -8.505934e-10 -6.271902e-10
-1.740945e-09 -8.185397e-10 -1.277293e-09 -1.243939e-09 -1.486342e-09 -1.381410e-09 -2.484263e-09 -1.470162e-09 -2.469590e-09 -1.198872e-09
-7.692515e-10 -3.270523e-09 -3.800662e-10 -1.089802e-09 -2.126174e-09 -1.265197e-09 -1.699912e-09 -3.726282e-10 -1.419384e-09 -1.345521e-09
-2.889564e-09 -9.851889e-10 -1.657685e-09 -2.386646e-09 -8.178873e-10 -1.817651e-09 3.490633e-10 -2.389465e-09 -8.320564e-10 -1.173367e-10
-1.521801e-09 -2.681532e-09 -9.155179e-10 -9.970286e-10 -2.172738e-09 -2.760535e-09 -2.265024e-09 -1.601952e-09 -7.724736e-10 3.295896e-10
-2.389821e-09 -1.570332e-09 1.358518e-09 -2.104941e-10 -1.385596e-09 -1.930113e-09 4.281837e-10 -2.299128e-09 -3.317512e-10 -2.721531e-10
-1.327024e-09 -1.874080e-09 5.854476e-10 -6.679597e-10 -2.469876e-09 -3.454560e-09 -8.244145e-10 -1.881871e-09 -3.468722e-09 -1.703987e-09
-2.284515e-09 -2.464826e-10 -2.403042e-09 -6.396330e-10 -1.270040e-09 -1.267639e-09 -1.017159e-09 -1.958644e-09 -1.833506e-09 -2.678063e-09
-2.344081e-09 -1.684182e-09 -1.298556e-09 -1.681849e-09 -1.053607e-09 -1.219241e-09 -2.508912e-09 -2.532252e-09 -1.099072e-09 -1.284964e-09
-5.690232e-10 -2.036706e-09 -9.284331e-10 -1.906290e-09 -1.429494e-09 -1.814171e-09 -1.045647e-09 -1.923447e-09 -1.661330e-09 -1.770661e-09
-9.132992e-10 -9.566218e-10 -2.656163e-09 -1.737736e-09 -1.496538e-09 -9.395171e-10 -2.324398e-09 -2.579735e-09 -1.697543e-09 -1.530467e-09
-3.253994e-09 -3.068764e-10 -2.148872e-09 -1.240481e-09 -1.470100e-09 -2.049217e-09 -2.483759e-09 -1.829157e-09 -1.029979e-09 -9.514523e-10
-1.820966e-09 -1.603166e-09 -1.504000e-09 -1.459588e-09 -2.513067e-09 -1.067816e-09 -2.239902e-09 -7.972652e-10 -2.070352e-09 -1.274160e-09
-1.211802e-09 3.580714e-10 -1.233680e-09 -1.332425e-09 5.111443e-10 -1.665542e-09 -1.573933e-09 -2.271656e-09 -2.734050e-10 -1.448950e-09
-1.428709e-10 -4.739121e-10 -9.152504e-10 -1.467928e-09 -9.463227e-10 -1.405892e-10 -2.668168e-09 -9.441666e-10 -2.569282e-10 -1.195766e-09
-6.966290e-10 5.268276e-11 -6.970129e-10 -3.104304e-10 -2.063659e-09 -1.617471e-09 -8.559748e-10 3.470484e-10 -1.283419e-09 -1.204745e-09
-2.619601e-09 -2.012420e-09 -1.950962e-11 2.119190e-11 -1.020541e-09 -1.517307e-09 -1.771805e-09 -1.884253e-09 -2.469003e-09 -2.542860e-09
-2.604381e-09 -8.092713e-10 -7.710081e-10 -2.090939e-09 -1.052269e-09 -1.068083e-09 -9.533684e-10 -1.898356e-09 -1.680661e-09 -1.096900e-10
-1.250564e-09 -1.798917e-09 -1.357970e-09 -1.398648e-09 -1.199761e-09 -1.968220e-09 -1.330694e-09 -2.256513e-09 -2.353705e-09 -7.679213e-10
-2.021475e-09 -1.076416e-09 -1.326635e-09 -2.312256e-09 -3.152668e-09 -4.533219e-10 -1.361769e-09 -3.120511e-09 -1.152575e-09 -3.337997e-09
-2.155542e-09 -3.203886e-09 -1.933802e-10 -2.811629e-09 -2.287614e-09 -1.712251e-09 2.087931e-10 -1.260221e-09 -3.022477e-09 -8.788959e-10
-2.957866e-09 -1.486631e-09 -4.607110e-10 -1.159799e-09 2.394139e-10 2.286431e-10 -2.621484e-09 -1.270066e-09 -3.138398e-09 -2.475794e-09
-1.891960e-09 -3.980141e-09 -1.026870e-09 -2.100085e-09 -9.734050e-10 -2.631798e-09 -7.512859e-10 -1.101031e-09 2.199747e-10 -3.460143e-10
-2.338254e-09 -1.894154e-09 -2.292052e-10 -1.335595e-09 -2.215029e-09 7.272191e-10 -3.871344e-10 -9.053661e-11 -2.183453e-09 -9.177314e-10
-8.449614e-10 -2.341156e-09 -9.203578e-10 -1.778163e-09 -3.458524e-09 -2.345774e-09 -1.794101e-09 -1.361672e-09 -6.369995e-10 -9.129703e-10
-1.298845e-09 -2.324519e-09 -2.646689e-09 -9.321718e-10 -9.328550e-10 -5.891265e-10 -1.051853e-09 -5.778097e-10 -2.660619e-09 -1.009441e-09
-1.320819e-09 -1.416862e-09 -2.372385e-09 -9.820370e-10 -1.505414e-09 -1.307385e-09 -2.012480e-09 -2.481628e-09 -4.345543e-10 -2.227708e-09
-1.441710e-09 -1.954531e-09 -1.507413e-09 -1.918277e-09 -1.414377e-09 -1.203231e-09 -1.485686e-09 -2.327678e-09 -1.502537e-09 -2.553062e-09
-2.388648e-09 -1.045019e-09 -2.125804e-09 -6.697070e-10 -2.624316e-09 -7.236160e-10 -1.874219e-09 -1.080652e-09 -5.820803e-10 -2.374626e-09
-2.150653e-09 -1.521102e-09 -7.490608e-10 -1.946400e-09 -2.497250e-09 1.943435e-10 -1.723014e-09 -9.601807e-10 -1.971695e-09 -9.566148e-10
-1.813355e-09 -3.406359e-10 -1.326152e-09 -3.040765e-09 -1.410522e-09 -2.789322e-09 -1.822014e-09 -8.907621e-10 -1.766544e-09 -1.790526e-09
-1.677952e-09 -2.175333e-09 -2.060640e-09 -1.844480e-09 -1.504387e-09 -6.892026e-10 -2.602600e-10 -2.225878e-09 -2.688052e-09 -6.394815e-10
2.674152e-10
2.053781e-10 -2.621774e-09 -1.484439e-10 -2.854286e-09 -1.302325e-09 -1.405785e-09 -4.290444e-10 -1.160715e-09 -1.873288e-09 1.763456e-10
-7.817782e-10 -1.551265e-09 -1.899782e-09 -7.453045e-10 -1.767991e-09 -6.211663e-10 -1.163736e-09 -2.524898e-09 -1.706771e-09 -1.951026e-09
-1.877408e-09 -8.849443e-10 -1.204094e-09 -1.783463e-10 -6.115449e-10 -3.819522e-11 -4.848598e-10 -2.223237e-10 -1.453336e-09 -6.929766e-10
-1.095011e-09 -1.672858e-09 -1.326445e-09 -1.438681e-09 4.505503e-11 1.396638e-11 -1.458185e-09 -2.095058e-09 -9.042032e-10 -3.771874e-10
-1.922178e-09 -1.590464e-09 -6.349544e-10 -1.699041e-09 -2.323101e-09 -1.189660e-09 -1.274366e-09 -6.763973e-10 -6.582937e-10 -6.392504e-10
-1.077673e-09 -2.085093e-09 8.572842e-10 -9.884435e-10 -1.415681e-09 -1.079189e-09 -3.458476e-09 -1.718725e-09 -5.872546e-10 -1.492666e-09
1.827984e-11 -1.092457e-09 -6.173737e-10 -4.541626e-10 -1.503290e-09 -4.989482e-10 -1.581067e-09 5.490132e-10 -8.670440e-10 -1.690576e-09
-2.190298e-10 -2.765710e-09 -1.595910e-09 6.125820e-10 -1.901924e-09 -2.258271e-09 5.048961e-11 -2.186665e-09 -1.626129e-09 -1.236157e-09
-1.633228e-09 -5.585958e-10 -6.159892e-10 -1.955344e-09 -2.293268e-09 -1.241238e-09 -7.433441e-10 -1.545649e-09 -4.054027e-10 -2.231463e-11
-2.016364e-09 -2.321480e-09 3.436955e-10 -2.238585e-09 -3.941309e-10 -6.693859e-10 -1.278213e-09 -1.296739e-09 -2.005784e-10 -2.409671e-09
-5.708509e-10 -1.129116e-09 -1.639562e-09 -2.442724e-09 -1.411935e-09 -7.787120e-10 -1.455215e-09 -2.440638e-10 3.357529e-11 -2.899161e-09
-1.415061e-09 1.377013e-10 -5.383940e-10 -1.697300e-09 -1.243291e-09 -1.256189e-09 -1.690274e-09 -1.042557e-09 -1.321580e-09 -6.189723e-11
-1.118299e-09 -9.227133e-10 -1.928035e-09 -1.312041e-09 -9.366768e-10 -2.169444e-09 1.058972e-10 -3.622847e-10 -7.342500e-10 -1.317335e-09
-9.723758e-10 -1.600513e-09 -7.281871e-10 -3.496344e-10 -1.148734e-09 -2.791820e-10 -2.010408e-09 -2.152144e-10 -1.277493e-09 -1.149460e-09
-1.080804e-09 -1.519241e-09 -6.533751e-10 -2.917407e-09 -2.537526e-09 -1.736986e-09 -1.145655e-09 -1.329046e-09 -4.485190e-10 -1.060920e-09
-2.319799e-09 -1.151263e-09 -1.123347e-09 -1.973184e-09 -1.758673e-09 -1.823103e-10 1.503186e-11 -8.646969e-11 -1.969912e-09 -2.130516e-09
-4.793230e-10 -1.617820e-09 -2.174814e-09 -1.567463e-09 -1.849944e-09 -1.259818e-09 -9.783613e-10 -4.315184e-10 -1.568465e-09 -1.920357e-09
-1.072683e-09 -1.189801e-09 -2.876384e-11 -2.149692e-09 -1.204152e-09 -1.796610e-09 -2.049380e-10 -4.794007e-10 -6.545521e-10 -1.243601e-09
6.844910e-10 -6.230186e-10 -3.950569e-10 7.106477e-11 -6.927901e-10 3.015361e-10 -2.854806e-10 -3.617928e-10 1.116975e-09 -3.090903e-10
-2.089559e-09 -2.802496e-10 -4.818348e-10 -4.189778e-10 -8.128613e-10 -1.254542e-09 -9.909134e-10 -2.046261e-09 -2.032130e-10 -1.018751e-09
6.139976e-10 -5.541943e-10 -1.158216e-09 -2.704638e-10 -6.578428e-10 -5.820509e-10 -2.279501e-09 -1.288970e-09 -2.830221e-10 -6.645606e-10
-9.946141e-10 -2.624961e-09 -4.071292e-11 -1.257033e-10 -5.831806e-10 -9.493593e-10 -2.661984e-09 -1.748294e-09 -2.263112e-09 -9.860056e-10
-8.794932e-10 -1.830806e-09 -1.251864e-09 -1.547418e-09 -3.650790e-10 -1.574248e-09 -1.530421e-09 -2.528999e-09 -4.424115e-10 -1.126184e-09
-7.328473e-10 -8.505511e-10 -2.685192e-10 -1.921622e-09 -4.940149e-10 -9.771367e-10 -1.306451e-09 -2.260471e-09 -1.677399e-10 -1.360747e-09
-2.172035e-09 -1.183521e-09 -1.742801e-09 -2.037821e-09 -1.447644e-09 -1.349380e-09 -2.145725e-09 -1.098657e-09 -2.086954e-10 1.083916e-10
-2.088632e-09 -1.494546e-09 -2.676254e-09 -1.446422e-09 -6.688516e-11 -1.908459e-09 -3.498449e-09 -9.429441e-10 -7.335249e-10 -2.091328e-10
-1.710901e-09 -3.156150e-09 -1.511150e-10 -9.038681e-10 -3.626766e-11 7.158645e-11 1.235494e-09 -1.370519e-09 -1.186536e-09 1.442438e-10
8.556463e-11 -2.102422e-09 -3.296853e-09 1.537206e-10 -2.141738e-09 -6.121098e-10 -1.191073e-09 -1.665625e-09 2.578993e-10 -5.743822e-10
-8.758749e-10 -8.781094e-10 -9.289773e-10 -1.603072e-09 -1.423301e-09 -6.739587e-10 -8.637173e-10 -2.395057e-09 -1.056326e-09 -3.133652e-09
-1.286347e-09 -1.233530e-09 1.104080e-09 -5.952402e-10 -1.173009e-09 -9.709021e-10 -2.726521e-09 -1.361176e-09 -1.534484e-09 -1.653341e-09
-3.401237e-10 -1.792271e-09 -2.140069e-09 -1.207384e-09 -1.325613e-09 -2.559062e-09 -5.719833e-10 -1.060490e-09 -1.028749e-09 -1.427044e-09
-1.277546e-09 -1.473447e-09 -1.555855e-09 -1.345763e-09 -8.434974e-10 -1.166570e-09 -2.023264e-09 -6.260597e-10 -6.233840e-10 -7.422263e-10
-6.808694e-10 -1.104148e-09 -3.522548e-10 -1.768920e-09 -1.189682e-09 -2.275140e-09 -5.865485e-10 -1.464092e-09 -3.939574e-10 -2.080023e-09
-1.661686e-09 -3.143869e-10 5.262054e-11 -1.883761e-10 -2.457685e-09 -8.340962e-10 -8.493530e-10 -1.364457e-09 -6.011956e-10 -2.707327e-10
-1.047856e-09 -3.861450e-09 -1.147684e-09 4.886442e-10 -1.762188e-09 -8.201471e-10 -1.398721e-09 -3.084186e-09 -1.131441e-09 -1.487403e-09
-2.239302e-09 1.053892e-10 -3.955839e-10 1.538113e-10 -3.119049e-10 -1.270524e-09 -2.006828e-09 -1.092477e-09 -1.657165e-09 -8.641556e-10
2.053781e-10
-1.572274e-09 -5.546872e-10 -1.544776e-09 -1.398962e-09 6.246090e-10 1.067806e-09 5.850577e-10 -3.915185e-10 1.448162e-10 -1.460371e-09
-1.602400e-09 2.670368e-10 3.109138e-10 -9.659630e-10 -4.827089e-10 -2.864908e-11 -1.518835e-09 -5.653605e-10 -1.970279e-10 -1.108856e-09
-1.509887e-09 -1.027624e-09 -1.624958e-09 3.493773e-10 -1.155399e-09 -8.440499e-10 -6.681278e-10 -8.186454e-10 2.664149e-10 -1.003922e-09
-4.075451e-10 -1.170892e-09 1.240481e-10 -5.933968e-10 -2.542202e-10 -1.341870e-09 -8.829177e-10 -1.861044e-09 -1.090386e-09 -5.369358e-10
-1.541246e-09 5.958380e-11 -9.656757e-10 -1.514623e-09 -3.302911e-10 -1.157631e-09 -1.166145e-09 -5.242247e-10 -1.140097e-09 -5.632317e-10
-3.085777e-10 -3.106306e-10 2.044831e-10 -2.261790e-10 -1.074811e-09 -8.819923e-10 -1.134599e-10 -1.724803e-09 -1.707458e-09 -6.552268e-10
-4.192234e-10 -1.287461e-09 -2.747684e-09 -2.004177e-09 -1.225820e-09 -2.402123e-09 -1.014651e-09 -1.975280e-09 2.376818e-10 -1.151847e-09
-1.878148e-09 4.904145e-10 -1.080306e-09 -1.477292e-09 -2.162894e-09 -7.461013e-10 -1.706468e-09 -1.400031e-09 -2.879279e-10 -2.238134e-09
-2.446941e-09 -7.914245e-10 6.832128e-10 -4.179206e-10 -2.092467e-09 1.102918e-09 -2.835911e-09 2.199722e-09 -1.602940e-11 -3.110562e-09
-1.922418e-09 1.440359e-09 -8.504908e-10 -6.693630e-10 -1.636202e-09 7.125384e-11 -2.433240e-09 -6.819327e-10 -2.560093e-09 -8.355703e-10
-1.372019e-09 -4.325296e-10 4.500853e-10 3.532180e-10 -1.852063e-09 -1.107029e-09 3.354944e-10 -2.808361e-10 -1.366791e-09 -1.912662e-09
-2.905720e-10 -9.919116e-10 2.920544e-10 -9.217105e-10 -6.668366e-10 9.239957e-10 -1.191963e-10 -7.013155e-10 -1.175115e-09 -4.323925e-10
-1.332057e-09 -1.398931e-09 -8.867656e-10 -1.197255e-09 -1.057502e-09 -1.112832e-09 -1.829310e-09 -1.033483e-09 -1.800966e-10 -1.761942e-09
-9.771862e-10 -6.985544e-10 -7.678460e-10 -6.549510e-10 -9.889587e-10 -1.000873e-09 -7.135854e-10 3.404401e-10 -2.323876e-09 -1.340158e-09
-1.865948e-09 -1.451010e-09 -3.712918e-10 -1.080472e-09 2.799250e-10 -2.029619e-10 -4.339069e-10 -1.543757e-09 -4.488864e-10 -1.229734e-09
-1.048691e-09 -9.210399e-10 -5.579168e-10 -9.027634e-10 1.293979e-09 -2.327187e-09 -2.248674e-09 -1.438381e-09 -2.168816e-10 -7.129084e-10
-1.373170e-09 5.084006e-10 -8.848535e-10 -1.705035e-10 -2.201734e-10 -4.786608e-10 -2.627651e-09 -2.690534e-09 -7.883820e-10 -3.640249e-10
-3.382204e-10 1.210894e-11 3.979606e-10 -9.126574e-11 -3.599415e-10 1.449035e-10 -1.190419e-09 5.666771e-10 -7.271397e-10 -2.098891e-10
-1.211375e-10 -4.559473e-10 -1.401512e-09 -1.165414e-10 2.664286e-10 5.546963e-10 -3.711020e-10 -6.349894e-10 -5.248401e-10 -1.539116e-09
1.809898e-09 -1.212870e-10 -5.116071e-10 -1.361149e-09 -4.560602e-11 -1.182195e-09 -9.489948e-10 -1.416222e-09 -3.414814e-10 9.214829e-10
5.442429e-10 4.507067e-10 -5.276954e-10 -3.533733e-10 3.816476e-10 -8.329524e-10 1.665645e-10 -8.789948e-10 -3.884461e-10 -2.201323e-10
-1.176368e-09 -1.295298e-09 -1.417483e-09 -1.457425e-09 -1.102497e-10 -1.519193e-09 -6.230736e-11 -3.523156e-10 -3.577219e-10 -1.634946e-09
-1.484044e-09 -1.490300e-09 -3.285175e-10 -6.731746e-10 -1.776583e-09 -1.061332e-09 -5.724297e-11 -5.387262e-10 2.134911e-11 -7.321680e-10
-1.328675e-09 -3.588354e-10 -9.541780e-10 7.285125e-10 -1.608215e-09 -2.489288e-10 -1.232201e-09 -1.169624e-09 -8.105708e-10 -1.849846e-09
-3.305098e-10 -3.534663e-10 -9.225209e-10 -9.099643e-10 2.420984e-10 -9.201639e-10 -1.864350e-10 -4.272468e-10 1.701583e-09 -1.514466e-09
-7.043108e-10 1.283345e-09 -6.167241e-10 5.954717e-10 -4.221145e-10 -2.166804e-09 1.367532e-09 5.033763e-10 -2.866434e-09 -1.306706e-09
1.350803e-09 -9.955643e-10 -6.714627e-10 -3.607294e-09 -2.391803e-10 -4.861654e-11 -9.306496e-10 1.032739e-09 -2.475123e-09 1.297658e-09
-5.335166e-10 -4.360988e-10 1.359924e-09 -1.916089e-09 -3.370363e-10 1.543522e-09 3.231521e-10 -2.059376e-09 -6.492025e-10 -4.461987e-10
-3.325229e-10 -7.106668e-10 -2.387692e-09 -7.800923e-10 -4.483723e-11 2.299681e-10 -1.110888e-09 -3.607411e-10 -1.370535e-09 -1.335653e-09
-8.611461e-10 -1.172874e-09 -5.787195e-10 -8.514608e-10 -1.055322e-09 1.378543e-09 -4.936646e-10 -5.863921e-10 -7.196621e-10 -1.145431e-09
-1.471020e-09 3.499673e-10 -5.995830e-10 -2.518809e-12 -1.789096e-09 2.845537e-10 -3.122292e-10 -1.863252e-09 -7.952602e-10 -3.074530e-10
-1.914820e-09 -1.122548e-09 -1.296290e-09 -3.814415e-10 -5.899332e-10 -1.298359e-09 -8.772955e-11 4.366838e-11 -1.045970e-09 -1.395803e-09
-3.653749e-10 -8.174961e-10 -9.990434e-10 -8.926853e-10 -9.435754e-10 -1.378742e-09 -1.419517e-09 -2.236473e-09 -1.059105e-09 -7.997306e-10
-6.574103e-10 -1.918784e-09 -9.148165e-10 -8.896712e-10 -1.461026e-10 -1.863435e-09 -1.546346e-09 2.053891e-10 -1.597541e-09 -5.443323e-10
9.305643e-11 -4.911160e-10 7.850849e-12 -5.553125e-10 -2.366263e-09 7.634259e-10 -2.519710e-11 -9.003796e-10 -3.338227e-10 -2.000668e-09
-3.685115e-11 -6.616949e-10 -1.314441e-09 5.593378e-12 -1.673470e-09 -2.351170e-10 -2.527785e-10 -1.054297e-09 1.141845e-09 3.334395e-10
-1.572274e-09
3.595503e-10 1.530793e-09 -3.380618e-10 -9.277563e-10 5.472898e-10 -1.511893e-09 -2.928479e-10 -1.539110e-09 6.409615e-10 -7.523664e-10
-5.511286e-10 1.307452e-10 -2.570850e-10 2.181134e-10 -3.435142e-10 1.190083e-10 1.152271e-10 2.153029e-09 -7.784755e-10 6.553962e-10
5.861627e-10 -9.452461e-10 1.079202e-09 -2.016670e-10 -3.912039e-10 -1.797774e-09 -5.510918e-11 -4.949531e-11 -2.283630e-10 -1.833902e-09
-1.086651e-09 -6.114214e-10 -1.374007e-09 -1.010975e-09 -1.156643e-09 6.032861e-10 -1.608639e-10 5.619353e-10 5.792146e-10 -5.572916e-10
5.500981e-11 4.170378e-10 -1.027309e-10 -1.647810e-09 -7.694371e-10 -8.587038e-10 -7.664600e-10 -1.146656e-09 -2.391857e-10 -5.962026e-10
4.648193e-11 -1.049442e-09 -1.787500e-09 -7.605389e-10 -6.832169e-10 2.322353e-11 -1.538333e-10 2.678949e-10 -9.475624e-11 -7.084617e-10
1.137721e-10 -9.072140e-11 3.493998e-10 -3.751880e-10 -2.158282e-09 -7.770163e-10 -5.628133e-10 1.795814e-10 -4.386825e-10 -8.833780e-10
-5.188561e-10 1.122562e-09 -4.029750e-10 9.789299e-10 5.265380e-10 2.549718e-10 -2.451806e-09 7.310961e-10 -2.064902e-10 7.652740e-11
1.063365e-09 1.453399e-10 -3.732272e-10 -1.844473e-09 3.643655e-10 4.679966e-10 -9.539490e-10 1.655985e-09 -8.241367e-10 -8.076976e-11
-1.685601e-10 -4.535546e-11 -5.037779e-10 -5.376734e-10 -1.189393e-09 9.004283e-10 -1.674222e-09 3.387948e-10 -2.562251e-10 -8.948335e-10
-1.864363e-09 -9.115151e-10 -1.675004e-09 -8.316031e-10 -9.178682e-10 -1.191686e-09 -1.337713e-09 3.659184e-10 -1.554000e-09 -2.385643e-09
-5.557947e-10 -5.004632e-10 -8.253668e-10 1.251982e-10 -8.209015e-11 3.427442e-10 -3.046655e-09 2.183979e-11 -3.606184e-10 -9.545450e-10
-7.796973e-10 -6.830135e-10 -1.540982e-10 3.316657e-10 5.523223e-10 -1.513870e-09 3.216345e-10 -1.089329e-09 -9.308969e-10 -6.265186e-10
-7.260330e-10 5.209314e-12 -3.454897e-10 4.079260e-10 -1.566540e-09 -9.188792e-10 -9.867390e-11 -1.257587e-09 -8.313232e-10 -1.295159e-09
-8.612715e-10 -6.176370e-10 7.947139e-11 -3.103929e-10 -3.981434e-10 -9.727366e-10 -6.911689e-10 -6.088473e-10 -1.702360e-10 -1.438775e-09
-2.073533e-10 -5.531166e-11 -7.917410e-10 -8.409448e-10 1.594998e-10 4.890975e-10 -7.876952e-10 -6.622230e-10 -3.472296e-10 2.474730e-10
-1.425112e-10 -1.976681e-10 2.186843e-10 -2.523914e-10 -3.219207e-10 -2.068481e-09 1.090109e-10 6.351390e-10 -1.366490e-09 -1.931171e-09
6.068121e-10 -4.327644e-10 -8.671098e-10 9.074550e-10 -9.051357e-10 -9.557600e-10 -3.246337e-10 -1.816896e-10 8.788471e-10 -1.235167e-09
8.103291e-10 4.213419e-10 -2.348409e-09 -9.697748e-10 -1.229338e-09 3.888793e-10 -1.630039e-09 -1.526281e-09 4.603539e-10 -7.477623e-11
-5.725522e-10 -9.517590e-10 1.164800e-09 -6.574235e-10 -3.371348e-10 -6.070346e-10 3.774691e-10 -3.250630e-10 -4.346353e-10 -3.320181e-10
-4.016845e-10 1.531653e-10 -6.040295e-10 -2.694656e-10 -1.980803e-09 -1.401689e-09 -6.865283e-11 -1.242633e-09 2.129822e-11 3.974965e-10
-7.001588e-10 3.146562e-10 -1.258035e-09 -2.036607e-10 6.839192e-11 1.447886e-10 -8.803314e-10 -1.097670e-09 -1.570487e-09 -8.531243e-11
-2.985164e-10 8.950193e-11 -6.782171e-10 -2.145467e-09 -6.402971e-11 -1.202233e-09 -7.438478e-10 -5.948262e-10 -2.497708e-10 -7.638621e-10
1.612399e-10 -1.627014e-09 -1.425454e-09 -6.169099e-10 -9.323931e-10 -1.740204e-09 1.923950e-10 -1.433691e-09 2.994430e-10 5.767769e-10
-1.125928e-09 -1.238678e-09 -1.089780e-09 -1.733691e-10 -1.060267e-09 -1.268537e-09 -4.262748e-10 -8.028798e-10 -4.778891e-10 5.220662e-10
-1.417329e-10 3.188352e-10 -1.048471e-09 -1.593358e-10 -4.850924e-10 2.475589e-10 1.408615e-10 -2.562873e-11 -2.068596e-09 4.372451e-10
1.203962e-10 -1.069070e-09 7.262306e-10 -1.144438e-09 -1.305540e-10 -1.074005e-09 -9.408612e-10 -6.308316e-10 1.236236e-10 -1.754855e-10
-9.824105e-10 7.098282e-10 -3.763967e-10 -1.295466e-09 -2.820123e-10 -1.386989e-09 -6.267426e-10 -7.640972e-10 -5.024449e-10 -1.961900e-09
4.010602e-10 -6.623093e-10 3.633953e-11 4.350639e-10 1.751439e-09 -9.734192e-10 -1.034149e-09 2.351845e-10 9.171116e-11 -9.968848e-10
-1.084980e-09 1.294009e-09 -1.351433e-09 2.052682e-09 -2.059416e-09 -1.213891e-09 -3.168860e-10 -2.025390e-09 -1.189398e-09 -1.331312e-09
1.873755e-10 -5.579083e-10 -4.099349e-10 -7.073144e-10 1.170478e-09 3.851727e-10 4.063042e-10 -4.654105e-10 -1.231426e-09 -6.362564e-10
-1.410270e-09 -1.446065e-09 7.073817e-11 4.301244e-11 -1.596600e-09 -2.421121e-10 -1.435936e-09 -6.303403e-10 -2.490368e-10 -8.936410e-10
-2.003689e-10 -2.591571e-10 6.729433e-10 -6.259533e-10 6.055785e-10 4.209492e-10 1.338367e-10 -1.348075e-09 -6.029903e-10 -1.301328e-09
-3.616177e-10 -4.135898e-10 -4.733327e-10 -6.544128e-10 4.933265e-11 -2.968459e-10 -1.454424e-10 -1.678529e-09 -3.805160e-10 5.209018e-10
-9.506048e-10 -1.519465e-10 -1.884143e-10 -1.587952e-09 7.552938e-10 -4.116700e-10 -1.172105e-09 1.075697e-09 2.326189e-10 -4.492608e-10
7.798608e-10 -6.307538e-10 -1.152272e-09 -1.437292e-10 -4.631329e-10 -1.342153e-09 -1.397582e-09 2.098296e-11 -1.087342e-09 -5.065879e-10
3.595503e-10
2.240261e-10 6.558968e-11 -1.043056e-09 -1.298398e-09 1.243306e-09 4.138056e-10 6.444705e-10 -5.530474e-11 -2.859268e-12 -7.498944e-10
9.898998e-10 -1.633722e-09 -5.874110e-10 6.822921e-10 -1.616263e-11 6.897745e-10 -9.100585e-10 5.611620e-10 6.044725e-10 -1.589319e-09
-2.901731e-10 -6.075040e-10 -7.630360e-10 6.937438e-10 -7.218859e-10 1.505809e-09 -1.784132e-09 2.434684e-10 -1.649184e-10 -7.575471e-10
-5.857625e-10 -7.234252e-10 3.414507e-10 -1.041508e-09 4.374347e-10 6.004002e-10 -2.631844e-10 -5.980365e-10 -8.702739e-10 1.070218e-09
1.316234e-10 -6.093676e-10 -2.286590e-10 -1.147341e-10 -1.675619e-09 -9.573638e-12 2.477230e-10 5.344707e-10 2.482928e-10 7.232187e-10
-1.271619e-09 6.475950e-11 2.461973e-10 -1.388512e-09 -9.637567e-10 -5.467408e-10 1.754162e-10 8.337789e-10 1.541909e-09 -6.801230e-10
-1.571436e-10 -1.137598e-10 1.717911e-09 1.166973e-09 -1.076542e-09 -1.611203e-09 -7.679469e-10 3.483632e-10 -1.207658e-09 6.912721e-10
-9.545681e-10 -3.197455e-10 -6.122298e-10 4.213515e-10 6.184243e-10 4.582343e-10 -4.739226e-10 -5.078696e-10 4.466286e-10 1.684180e-09
1.079486e-09 2.063692e-09 -3.724747e-10 -5.263995e-10 4.651433e-10 5.099778e-10 1.498120e-09 9.546542e-10 -4.536516e-10 -1.723584e-09
-4.332671e-10 -1.037171e-10 4.481706e-10 -2.769740e-11 -6.592074e-10 -2.919526e-11 2.119036e-09 1.729838e-12 6.585765e-11 8.073018e-10
-7.684887e-10 -5.946193e-11 5.981435e-10 -5.443612e-10 1.691500e-09 4.135516e-10 5.106291e-10 -1.281879e-09 -5.555650e-10 -1.161569e-09
-1.430185e-09 1.208506e-10 -4.130138e-10 -1.494327e-09 2.156529e-11 -1.186882e-09 4.008137e-10 -1.500837e-10 -2.096821e-10 -2.547648e-10
7.927822e-11 3.830082e-10 -8.145560e-10 -1.458193e-09 -2.040565e-10 4.948779e-10 -1.636771e-10 -1.978405e-10 -6.911434e-10 -6.373563e-11
-9.159556e-10 -1.500477e-10 7.086883e-11 2.779157e-10 1.912663e-11 -2.486888e-10 -3.864523e-10 -6.844088e-10 7.112005e-10 8.073062e-10
1.908405e-10 -1.437428e-09 4.533936e-10 -1.365723e-09 -9.381199e-10 -7.920006e-10 6.733904e-10 1.121415e-10 -1.068580e-09 6.987674e-10
7.185450e-10 -2.561188e-10 -4.652963e-10 -4.214649e-10 1.185628e-10 1.101077e-09 -1.991461e-10 -6.452496e-10 -1.201138e-09 -8.997068e-10
-1.359129e-09 6.419061e-10 -4.331626e-10 -5.345012e-10 4.045531e-10 1.285481e-09 -1.741097e-09 6.302585e-10 4.067936e-10 1.028644e-09
-5.509126e-10 -2.059018e-10 5.368601e-10 -6.133316e-10 1.447373e-10 3.614031e-10 8.621494e-10 -4.979564e-10 5.743798e-11 -1.965549e-10
-8.076012e-10 4.757528e-12 -4.204781e-10 1.420874e-10 -5.912008e-10 -5.358622e-10 1.821246e-10 6.345613e-10 -4.914356e-10 4.488328e-10
-4.506728e-12 1.254629e-09 -6.428860e-10 -1.388054e-09 -3.977678e-10 -1.124218e-09 5.777869e-10 -2.098184e-09 2.454745e-10 -1.588815e-09
-1.211586e-10 6.902652e-10 -1.401552e-11 4.783485e-10 8.020066e-10 8.355260e-10 -7.562767e-10 -7.908297e-10 -6.254315e-10 6.369669e-10
-1.407820e-09 -9.832920e-10 5.953440e-11 1.138552e-09 -3.332734e-11 5.839172e-11 4.238909e-10 1.928222e-09 -9.950745e-10 4.673502e-10
4.133638e-10 -6.196597e-11 -9.222416e-10 1.998057e-10 5.559577e-10 2.473415e-10 5.599888e-10 -4.172077e-10 -6.620045e-10 6.209299e-10
-1.296134e-09 9.237196e-11 5.238606e-10 -9.435982e-11 2.133319e-10 -1.593257e-10 3.231218e-10 8.515118e-10 -2.203882e-10 8.683141e-10
1.863187e-10 -6.337901e-10 -9.150817e-10 -1.838610e-09 4.579702e-10 1.401993e-10 1.651195e-11 -3.327242e-10 -4.438080e-10 7.376219e-10
-1.455260e-09 3.664199e-10 -1.158285e-09 -1.328556e-09 1.057904e-09 4.979062e-10 -6.168713e-10 -5.030029e-10 -1.290502e-09 2.136129e-09
-1.028073e-09 -1.699418e-10 3.914273e-11 -1.960445e-09 -1.555865e-10 6.635396e-10 -5.584156e-10 -1.530412e-09 1.136864e-09 -3.029716e-10
-1.183180e-09 -2.491064e-10 9.604217e-11 -7.730594e-10 1.850957e-09 -1.027261e-10 -3.292932e-10 -2.130315e-10 -1.104322e-09 4.117628e-10
5.816337e-10 3.372196e-10 -2.162034e-10 2.604694e-10 5.320107e-10 -1.557846e-09 -9.447548e-10 -3.325093e-10 -1.702437e-09 5.312404e-10
9.567170e-10 1.260022e-09 3.247316e-10 -1.545258e-10 -6.113036e-10 -1.384283e-09 -1.930976e-09 -6.645313e-10 1.665117e-09 2.917437e-10
-1.872496e-10 -1.624266e-10 -4.861020e-10 5.872558e-11 -3.260488e-10 5.233092e-11 -9.738158e-10 -7.510521e-10 -1.357104e-09 6.802375e-10
-3.508518e-10 3.678992e-10 1.256178e-10 -7.386785e-10 -5.737383e-10 -3.665240e-10 -1.467016e-09 1.051429e-09 -4.249251e-10 5.233401e-11
1.416553e-10 1.309221e-10 -3.606398e-10 4.337569e-10 -9.084091e-10 -8.698596e-10 8.297912e-10 3.409660e-10 -1.477776e-10 9.464478e-10
8.967038e-10 3.869728e-10 3.273234e-10 1.283837e-10 -1.752560e-10 -7.596828e-10 -2.381789e-11 -8.661127e-11 -1.619108e-09 1.936197e-10
-6.199194e-10 5.982821e-10 -6.905396e-10 1.030324e-09 -1.017503e-09 7.338065e-10 8.247787e-10 3.637737e-10 1.273787e-09 1.677601e-10
1.035284e-09 2.751663e-10 -1.883588e-10 -3.843804e-10 1.277772e-09 -5.528726e-10 4.338438e-10 7.018868e-10 -5.349563e-10 -9.880893e-11
2.240261e-10
6.983791e-10 1.182107e-09 1.273102e-09 -8.205092e-10 2.053198e-09 -1.026659e-09 7.300589e-10 6.157502e-10 7.291185e-10 6.542176e-10
9.486505e-10 8.655406e-10 2.923680e-10 -1.330817e-11 1.360727e-09 1.648874e-09 -5.775345e-10 1.681913e-09 1.002226e-10 -1.419217e-09
6.816269e-10 1.484558e-09 1.636431e-09 -1.637274e-09 -5.688289e-10 -4.268018e-10 1.496877e-09 -4.009484e-10 9.978093e-10 4.643387e-10
-4.794364e-10 1.525627e-10 2.949938e-10 7.176499e-10 -1.261423e-09 -1.268226e-10 3.056880e-10 -4.864633e-10 -2.801895e-10 -2.599118e-10
4.368581e-10 5.333554e-10 -3.914920e-11 2.841350e-10 5.121542e-10 8.886360e-10 -1.146748e-09 1.440249e-09 -1.402290e-09 7.762291e-10
4.935923e-10 3.441920e-10 4.126185e-10 6.302965e-10 1.467704e-09 7.235226e-10 -2.092736e-10 -6.040721e-10 5.114803e-11 8.348946e-10
8.088039e-10 1.492350e-09 -4.286978e-10 -3.598606e-10 5.714615e-10 1.123886e-09 7.828612e-10 4.523558e-10 2.225660e-11 7.267031e-11
-8.904950e-10 -7.781571e-10 3.319542e-10 -7.746466e-10 2.553128e-10 7.449978e-10 -4.606650e-10 -7.437144e-10 -2.132521e-09 1.504124e-09
-6.514913e-10 -1.452453e-09 -2.616279e-09 6.881798e-10 1.655429e-10 -1.462338e-09 1.006711e-09 6.309471e-10 -1.636080e-09 -5.897013e-11
2.561650e-09 -5.823023e-10 1.304137e-09 2.196441e-09 -1.225531e-09 -2.104076e-09 7.665324e-10 1.315577e-09 -9.218739e-10 -1.443191e-09
1.603704e-09 -1.072754e-09 1.103394e-09 -1.376816e-09 9.772988e-10 1.333641e-09 -5.414751e-10 -6.173794e-10 -3.981024e-10 6.169448e-10
4.885364e-10 2.004262e-10 -5.367135e-10 1.108019e-09 -1.599423e-10 3.568892e-10 -3.210392e-10 -2.533743e-10 3.355686e-10 1.714112e-10
-2.602420e-10 1.313345e-09 6.696955e-10 -2.861572e-10 4.820102e-10 3.244046e-10 -6.383811e-10 3.463006e-10 4.686557e-10 7.447269e-10
-3.872596e-10 9.145489e-10 3.406424e-10 3.669707e-10 -1.303725e-09 3.506229e-10 7.330226e-10 9.648318e-10 4.137000e-11 -9.401694e-11
-1.328633e-09 1.978161e-10 -5.352355e-10 -8.900223e-12 -4.606748e-11 -1.082265e-09 7.839449e-10 8.962611e-10 9.329815e-12 1.795904e-10
7.462915e-10 2.886365e-10 -8.558895e-11 3.586006e-11 2.229986e-10 4.030317e-10 -8.276155e-10 9.421859e-10 8.972816e-10 -6.034730e-10
-1.048210e-09 1.128436e-09 1.141359e-09 -2.290950e-10 -4.430937e-10 6.085842e-10 8.226612e-11 -6.626522e-10 -4.878610e-11 8.146729e-10
-7.767076e-10 1.610630e-10 6.365142e-10 -1.622068e-10 2.595733e-10 -5.685329e-10 8.682177e-11 -1.618369e-09 1.240974e-09 2.745725e-10
1.136724e-09 4.719666e-10 2.000266e-09 1.763552e-09 -2.401830e-10 -1.640126e-10 1.137996e-10 2.352019e-09 -1.836336e-09 -4.510589e-11
-1.982238e-10 -3.500423e-11 1.184668e-09 2.808574e-10 4.769038e-10 1.141183e-09 -4.777149e-10 -1.055389e-09 -2.726178e-10 1.424706e-09
-5.580740e-10 -4.015805e-10 1.079415e-09 9.956530e-11 -8.443951e-10 1.089536e-09 -2.771054e-11 -5.683357e-10 7.936221e-12 7.385644e-11
-6.041719e-10 -4.940039e-10 1.446857e-10 -1.179529e-10 -2.267782e-10 3.191610e-10 2.166140e-09 -1.993254e-10 1.446748e-09 7.251871e-11
8.952292e-10 -1.466203e-09 -3.624319e-10 8.797723e-10 7.533192e-10 -2.637457e-10 5.934648e-10 1.372564e-09 1.253935e-10 -1.076752e-09
6.932703e-10 7.576362e-10 7.390362e-10 8.294563e-10 -3.614515e-10 -6.381031e-10 9.873345e-10 7.459378e-11 -3.638877e-10 -5.004276e-10
1.772720e-10 9.027305e-11 1.650383e-09 -9.767450e-10 4.875673e-10 5.862975e-10 -9.243298e-10 1.770790e-09 5.132486e-10 8.835730e-10
1.441975e-09 8.444873e-10 6.507830e-10 -4.178475e-10 9.371811e-10 6.347640e-10 -6.845727e-10 -7.258514e-10 1.867784e-09 2.168999e-10
4.140496e-10 6.404124e-10 -7.742250e-10 1.345001e-09 -1.715017e-09 1.146145e-09 1.288244e-09 1.025597e-09 -2.094199e-09 1.000210e-09
-1.104981e-09 -6.333784e-10 1.232204e-10 5.698745e-10 -3.898268e-10 4.928801e-10 7.371512e-10 -1.072215e-09 -6.486956e-10 2.722378e-10
5.833628e-11 1.913551e-11 1.824297e-10 -5.020812e-10 2.233712e-10 3.222283e-10 6.580623e-10 3.434890e-10 -1.826574e-10 9.686278e-10
9.864755e-10 7.482755e-10 -4.849203e-10 8.329950e-10 -2.754774e-11 -1.077593e-09 -1.077506e-09 -8.453774e-10 3.777291e-10 1.099288e-09
-7.101488e-10 7.607520e-10 9.192148e-11 9.976923e-10 -2.202639e-09 -6.759520e-10 3.108710e-10 8.128594e-10 -1.497040e-10 -2.221104e-10
7.220437e-10 1.007892e-09 1.708879e-10 2.742247e-10 6.170942e-10 7.149670e-10 3.469277e-10 7.608672e-10 -2.081284e-10 2.450878e-10
1.047383e-09 -3.473340e-10 4.113067e-10 7.205223e-10 -3.297484e-10 -4.119592e-10 -1.002150e-10 3.349578e-10 -3.745106e-10 6.280929e-10
-5.384594e-10 -6.276658e-11 -5.241486e-10 -9.366272e-10 -1.910441e-10 3.014852e-10 9.840166e-10 -2.334568e-10 8.310481e-10 -1.015703e-09
1.099105e-09 4.312982e-10 1.768791e-10 1.415624e-09 3.829029e-10 -1.141911e-09 2.082403e-09 -2.841306e-10 5.457289e-10 3.040620e-10
3.301028e-10 1.098572e-09 1.087926e-12 1.253976e-09 2.043392e-10 4.139139e-10 -1.278813e-09 1.909722e-10 2.373306e-10 -8.094062e-11
6.983791e-10
1.934791e-10 5.939328e-10 -4.022895e-10 -3.657147e-10 -9.928347e-10 2.592806e-09 -3.803020e-11 7.507892e-10 -6.566774e-10 2.164667e-09
4.209836e-10 1.023553e-09 5.447288e-10 9.560633e-10 1.200930e-09 2.582982e-09 7.650184e-10 -1.032501e-09 1.591745e-10 3.847304e-10
8.918384e-10 5.911028e-10 -1.220496e-10 1.510293e-09 6.140747e-11 1.633648e-09 4.786640e-10 1.292141e-09 5.449798e-10 1.657285e-09
9.879108e-10 -5.371693e-10 -3.167957e-10 2.049320e-10 -6.051057e-10 3.866067e-10 3.732378e-10 4.342048e-10 1.080560e-09 -8.324858e-10
2.648244e-10 -1.215180e-09 -6.693710e-10 2.013083e-09 5.653428e-10 -7.270737e-10 6.270375e-11 3.297459e-10 5.671266e-10 1.741914e-09
9.850908e-10 6.354061e-10 -2.236233e-10 1.536672e-09 -9.616885e-11 7.432641e-10 2.506743e-10 2.144444e-10 1.317139e-09 -2.576034e-11
-2.984802e-10 1.520361e-10 1.016424e-09 1.108554e-09 -8.050390e-11 3.365226e-10 5.287728e-10 9.845706e-11 2.649075e-10 1.092119e-09
-2.964161e-10 2.296963e-10 4.438745e-10 2.483071e-10 1.903671e-09 1.006620e-09 2.063569e-09 1.632703e-09 -5.829543e-10 1.771696e-09
1.543866e-09 5.273891e-10 1.439037e-09 2.713580e-09 1.591537e-09 7.322740e-10 -5.012741e-10 -6.335545e-10 -1.811074e-11 2.367436e-10
7.555043e-10 2.349400e-10 -4.981985e-10 4.439341e-10 2.124047e-09 -1.223834e-09 -5.919571e-10 1.118025e-09 6.863921e-10 1.587409e-09
1.677566e-10 9.538965e-10 -2.380413e-11 2.142352e-09 7.506529e-10 1.480888e-09 -4.572539e-10 6.163133e-10 -7.016076e-11 -2.770978e-10
7.165677e-10 1.208878e-09 7.693202e-10 1.376665e-09 4.865428e-10 -2.968810e-12 1.638598e-09 1.130706e-09 6.410974e-10 -4.946861e-10
1.235826e-09 1.222737e-09 -5.375623e-11 6.330340e-10 -1.322453e-09 1.897438e-09 8.863782e-10 2.828710e-10 4.422852e-10 3.416931e-10
-4.919844e-10 1.986943e-09 1.066375e-09 1.259549e-09 1.165871e-09 1.729950e-10 7.147294e-10 8.502562e-11 8.272587e-10 3.193772e-10
9.001025e-10 1.831379e-09 9.705099e-10 6.331408e-10 7.604982e-10 -5.174958e-10 8.888861e-10 3.302659e-10 1.154054e-09 3.493273e-10
1.462659e-09 2.068758e-11 1.434638e-09 7.955168e-10 2.967802e-10 1.393944e-09 7.245848e-10 -4.324874e-10 1.451438e-09 -5.681798e-11
2.524790e-10 -7.042668e-10 1.374784e-09 1.289785e-09 5.515063e-10 3.178608e-10 6.537370e-10 2.657716e-09 9.687594e-10 4.887546e-10
4.135235e-11 1.043450e-09 2.195874e-09 1.371145e-09 1.623924e-09 6.390684e-10 1.454815e-09 2.083799e-10 3.668034e-10 -8.496759e-11
-4.106192e-10 -1.786277e-09 4.870668e-10 -3.831010e-10 -5.520004e-10 1.478988e-09 6.996366e-10 -1.710965e-11 3.046422e-10 -1.289492e-09
-8.304971e-10 8.739950e-10 1.352912e-10 1.719922e-09 7.088530e-10 -1.011879e-09 1.376916e-09 -2.845317e-11 -9.432853e-10 8.164573e-10
8.177197e-10 5.015793e-10 1.180631e-09 2.256766e-09 7.908911e-10 3.646161e-10 6.683449e-10 9.395665e-10 4.650007e-10 -1.096612e-10
2.663207e-10 -7.967482e-10 -2.022092e-10 4.054083e-10 9.018764e-10 9.474065e-10 -2.948891e-10 4.857307e-10 9.825084e-10 -6.182508e-10
5.226027e-10 8.296419e-10 -7.349540e-10 1.105573e-09 5.553892e-10 1.795212e-10 5.082521e-10 4.592754e-10 1.888026e-09 5.715707e-10
4.789514e-10 -3.581841e-10 -3.797498e-10 -5.860882e-10 1.069098e-09 -1.208138e-09 -4.615065e-10 1.346154e-10 1.761374e-09 1.092311e-09
8.642528e-10 1.597157e-10 6.943003e-10 1.127370e-09 1.276764e-10 1.068928e-09 6.335005e-10 -4.129609e-10 6.512218e-10 1.673467e-09
-1.046035e-09 -9.614183e-10 -2.938121e-10 1.440226e-09 -4.444131e-10 1.823219e-09 1.452509e-10 1.473841e-09 8.091181e-10 8.541561e-10
6.957424e-11 4.925257e-10 3.022848e-10 4.378240e-11 -4.146631e-11 -5.288112e-10 1.790137e-09 6.597793e-11 -8.227330e-10 2.313498e-10
8.039865e-10 4.037999e-10 -7.592979e-10 2.229865e-10 1.287654e-10 7.738539e-10 -4.664261e-10 5.974054e-10 -6.921752e-10 -3.207457e-11
-8.685122e-10 2.942407e-10 1.468372e-09 -1.148534e-10 1.352892e-09 1.383179e-09 -1.585382e-10 1.482755e-11 9.042498e-10 7.858227e-10
3.533145e-10 1.661586e-09 5.192312e-10 1.856844e-09 -8.180316e-10 1.274156e-09 5.003994e-10 -1.198175e-09 -8.111778e-10 2.439494e-10
1.044134e-09 6.270724e-10 1.245560e-10 6.646479e-10 9.062004e-10 2.285424e-10 1.319414e-09 1.832180e-09 3.963038e-10 1.525459e-09
1.265330e-09 1.292153e-09 1.409696e-09 1.691125e-09 -3.159938e-10 1.088058e-09 9.443696e-10 -4.966585e-10 1.375173e-09 7.202322e-10
1.426574e-09 1.662018e-10 3.319890e-10 1.419117e-09 -9.657172e-11 1.126016e-09 1.342515e-09 1.030366e-09 9.099228e-10 5.613184e-10
1.378002e-09 1.331269e-09 -2.982319e-10 2.701562e-10 1.498013e-09 8.007324e-10 1.871477e-10 -2.626551e-10 -7.076470e-10 -3.713795e-10
2.297898e-10 -6.027243e-10 -2.650823e-10 3.762792e-10 -1.479030e-10 -1.955180e-09 1.213222e-09 8.278613e-10 -5.549084e-10 1.021156e-09
-3.213816e-10 9.703734e-11 7.492564e-10 1.218918e-09 1.866779e-09 7.570358e-10 -3.392551e-11 3.081276e-11 1.190523e-09 -2.302201e-10
1.934791e-10
-1.010018e-10 1.126467e-09 2.266296e-09 1.083954e-09 -3.659894e-10 -4.877225e-10 1.079199e-09 1.428117e-09 6.303254e-12 2.249886e-10
9.747171e-10 5.499008e-10 1.766359e-10 3.436655e-10 1.319177e-09 9.799093e-10 1.174310e-09 6.018388e-10 -8.811350e-10 2.509898e-10
1.731789e-09 1.340155e-09 1.395249e-09 1.812464e-09 9.794787e-11 4.956202e-11 6.668022e-10 -6.380230e-10 8.898908e-10 4.836136e-10
1.083393e-09 2.954506e-10 1.556069e-09 -2.524860e-10 3.659736e-10 3.528104e-12 2.037557e-09 4.542291e-10 1.457841e-09 1.099689e-09
1.518715e-09 1.345734e-09 6.455754e-10 6.668592e-10 1.578018e-09 7.079481e-10 2.449346e-12 9.539891e-10 -2.687787e-10 1.610085e-09
8.715200e-10 1.417392e-09 -1.744275e-10 9.969708e-10 5.205583e-10 5.816669e-10 9.129448e-10 2.538084e-09 4.559191e-10 1.083972e-09
1.780049e-09 -4.122822e-10 1.189933e-09 1.457990e-09 5.357182e-10 1.364633e-09 3.584693e-10 1.388876e-09 9.557438e-10 6.636253e-10
-8.532619e-11 1.985785e-09 7.762813e-10 1.231642e-09 -9.333304e-10 1.872259e-09 2.342057e-10 3.035215e-10 1.917926e-09 -1.583637e-09
-1.053762e-10 1.781929e-09 -3.144062e-10 -7.046464e-10 -2.018779e-09 -5.364333e-10 -1.343976e-10 6.522965e-10 1.704001e-09 -1.437601e-09
-8.961620e-10 8.445307e-10 -3.413073e-10 9.085983e-10 -1.405139e-09 1.139384e-09 4.071933e-10 1.260906e-09 1.371137e-10 1.585215e-09
6.557692e-10 2.387680e-09 1.756824e-10 1.546363e-09 1.450170e-09 2.186754e-09 1.569287e-11 4.041139e-10 2.469085e-09 1.131439e-09
1.159474e-10 1.388976e-10 6.085084e-10 -7.963445e-12 1.016510e-09 9.719329e-11 -7.105509e-11 5.727829e-10 1.555019e-09 1.290263e-09
1.218182e-09 1.094523e-10 7.968022e-10 1.287718e-09 9.564552e-10 2.672786e-09 1.988307e-09 8.023089e-10 1.309963e-09 1.828579e-09
1.336388e-09 7.029288e-10 3.858488e-10 1.282057e-09 3.207065e-10 -3.933729e-10 3.240236e-10 3.641287e-10 -4.860826e-10 2.901716e-10
1.714877e-09 -2.192393e-10 5.389006e-10 1.474794e-09 5.700816e-11 4.976081e-10 1.091682e-09 9.953974e-10 6.391436e-10 1.185674e-09
1.905900e-09 2.238395e-11 1.394414e-09 1.694750e-09 2.050818e-09 -7.325224e-11 2.145580e-11 6.468956e-10 -4.211474e-10 2.818403e-10
-5.222736e-10 3.319567e-10 1.095015e-10 8.827960e-10 4.906922e-10 3.902258e-10 -5.406200e-10 3.372286e-10 1.372212e-09 1.240239e-09
-5.874115e-10 2.374674e-09 2.018124e-09 -4.158856e-10 -5.140926e-10 1.442951e-09 5.685499e-10 -2.241832e-10 9.018604e-10 2.363742e-10
1.288877e-09 1.181663e-09 1.735530e-09 7.231869e-10 2.480156e-09 1.480669e-09 -3.887997e-11 -7.713967e-10 9.695923e-10 1.893924e-09
-1.005891e-09 1.397953e-09 1.970477e-10 1.223288e-09 -2.833787e-10 -4.155263e-10 1.646578e-10 2.704269e-09 7.378617e-10 1.712692e-09
1.726438e-09 -1.330676e-10 4.420949e-10 1.663054e-09 6.415299e-10 1.561977e-09 1.004481e-10 5.652826e-10 9.784905e-10 1.193383e-09
1.503951e-09 1.311353e-09 1.624857e-09 -1.114254e-10 7.221848e-10 2.150267e-10 -7.674406e-10 4.505449e-10 -1.105393e-10 4.427048e-10
5.456482e-10 3.574251e-10 2.000395e-09 2.640416e-10 1.074738e-09 -5.416964e-10 5.640770e-10 1.746556e-09 6.663352e-10 -4.673215e-10
1.467304e-09 2.978677e-10 5.214995e-10 8.575067e-10 1.165728e-09 -4.047391e-10 1.049110e-09 1.246581e-09 7.710430e-10 2.141006e-10
6.900671e-10 1.080328e-09 1.082407e-09 8.190990e-10 1.817380e-09 9.168594e-10 7.448868e-10 7.999177e-10 2.117828e-10 5.814190e-11
8.387178e-10 1.185409e-09 -8.085306e-10 6.939120e-10 -2.608558e-11 2.198772e-09 1.231962e-09 -9.401571e-10 2.958168e-09 2.901565e-09
2.104081e-09 9.781334e-10 1.716304e-09 -1.733236e-10 -1.072406e-09 1.385879e-09 -2.850011e-10 1.276729e-09 1.037370e-09 1.198864e-09
2.918056e-10 1.273544e-09 -1.185639e-09 8.023693e-10 -9.539212e-10 9.381117e-10 6.374162e-10 1.452060e-10 -7.587847e-11 1.439459e-09
1.540009e-09 -1.337014e-09 4.134970e-10 1.587499e-10 4.786803e-10 6.240624e-10 2.136998e-09 1.578144e-09 1.963728e-09 3.003119e-10
1.525672e-09 6.344471e-10 1.197669e-09 4.338334e-10 2.641370e-09 2.306267e-09 1.424436e-09 -8.095519e-10 1.391715e-09 -1.540972e-09
1.242171e-09 1.047014e-09 -2.103097e-10 1.264875e-09 1.863660e-09 -7.170510e-10 -1.932016e-10 1.669195e-09 3.438504e-10 1.323119e-09
8.671480e-10 8.810406e-10 1.824584e-09 1.006903e-09 1.429441e-09 1.005345e-09 1.008456e-09 1.691244e-09 1.583854e-09 1.402169e-09
2.393117e-09 2.790258e-10 1.529398e-09 9.118122e-10 1.629188e-09 -4.417053e-10 -3.213108e-10 1.378132e-09 1.784478e-09 4.613303e-10
-9.305945e-10 -3.179741e-10 1.288940e-09 8.569352e-10 1.506523e-09 8.726112e-10 1.274789e-09 -8.815791e-10 2.012006e-09 1.349202e-09
-8.555020e-11 -4.634045e-11 1.960537e-09 -2.687646e-10 7.062446e-10 1.122909e-09 6.876178e-10 -5.884625e-10 6.307138e-10 1.373248e-10
6.607094e-10 -2.042216e-10 1.207912e-09 2.122788e-10 4.411182e-10 2.453407e-10 -1.248189e-09 -2.906110e-10 1.348962e-09 2.266954e-10
-1.010018e-10
1.168734e-09 9.087135e-10 -5.088350e-10 1.240128e-09 -7.109799e-10 1.268987e-09 1.481824e-09 1.568847e-09 1.788106e-09 1.236296e-09
2.758838e-10 1.296187e-09 2.360012e-09 1.869875e-09 1.202169e-09 2.198640e-10 1.217715e-09 1.955668e-09 1.753684e-09 1.395256e-09
2.701804e-09 2.836892e-10 7.779117e-10 5.018186e-10 1.437022e-09 1.588242e-09 2.263198e-09 2.499451e-09 1.674215e-09 1.173026e-11
1.277450e-09 2.050044e-09 3.507719e-09 -1.261666e-10 1.925020e-09 1.281303e-09 1.860065e-09 9.018050e-10 2.487629e-09 1.430759e-09
2.125682e-09 1.052296e-09 1.827086e-09 1.914720e-09 7.619512e-10 1.617341e-09 5.256391e-10 5.199656e-10 1.597922e-09 1.406759e-09
2.331524e-09 1.883054e-09 1.596324e-09 8.641979e-10 2.296572e-09 1.250274e-09 2.673829e-09 1.667445e-09 1.789509e-09 1.157262e-09
2.832192e-09 1.204152e-09 7.658880e-10 2.200611e-09 6.824372e-10 3.141898e-09 8.218295e-10 3.259881e-10 1.089086e-09 7.059740e-10
1.088725e-09 1.107884e-10 1.844432e-09 1.851770e-09 2.868814e-10 9.357061e-10 4.918425e-10 1.763460e-09 4.438115e-10 -5.652022e-10
-2.063205e-10 2.086526e-09 4.105844e-10 8.944114e-10 1.519098e-09 2.258674e-09 1.674744e-09 1.079207e-09 1.386134e-09 2.458894e-09
5.977988e-10 2.849433e-10 6.352619e-10 2.441905e-09 1.150763e-09 4.675115e-10 -8.026861e-10 1.016957e-09 5.256984e-10 2.172486e-09
1.957804e-09 6.374520e-10 1.493288e-09 2.295884e-09 1.990617e-10 1.663451e-09 5.971870e-10 -3.854050e-10 1.213499e-09 1.411213e-09
2.459539e-09 1.403971e-09 5.761662e-10 3.009072e-10 4.998513e-10 4.281209e-10 1.706569e-09 8.366225e-10 -4.046301e-10 1.250892e-09
-3.099607e-10 1.546431e-09 1.189894e-09 2.339276e-09 3.048080e-10 1.304327e-09 2.132438e-09 3.307097e-10 1.450336e-09 9.745297e-10
2.300475e-09 2.368871e-09 1.089719e-09 1.353429e-09 4.006628e-10 1.719345e-10 7.707885e-10 1.457573e-10 8.257618e-10 1.479670e-09
6.701410e-10 5.397263e-10 1.253081e-09 1.651495e-09 9.984010e-10 6.898782e-10 3.355982e-10 8.438334e-10 2.162159e-09 9.147946e-10
1.072757e-09 1.265592e-09 7.219365e-10 5.171476e-10 8.199012e-10 1.415504e-09 9.623061e-10 1.497837e-09 1.603916e-09 9.516468e-10
6.466602e-10 1.332058e-09 1.464308e-09 6.673034e-10 9.429740e-10 2.255876e-09 1.205724e-09 7.110783e-10 1.484487e-09 1.824931e-09
9.825131e-10 3.317473e-10 1.601932e-09 -7.869437e-10 9.693114e-10 1.512140e-09 -5.777356e-10 9.961307e-10 1.127881e-09 4.965419e-10
7.465098e-10 -7.889652e-10 -6.884779e-10 -1.810373e-10 8.906908e-11 1.163831e-09 1.898241e-09 2.609622e-09 2.071096e-09 1.518879e-09
-5.700289e-10 1.159516e-09 -8.545064e-10 7.046374e-10 2.162470e-09 8.966909e-10 8.295291e-10 -3.649771e-10 1.200358e-09 1.503531e-09
1.401478e-09 2.049875e-09 2.468693e-09 2.814905e-09 2.577679e-10 1.431260e-09 1.952800e-09 1.790621e-09 1.381320e-11 9.627613e-10
9.298502e-10 1.489337e-10 1.108958e-09 -2.102654e-10 2.020790e-09 1.411517e-09 2.137374e-09 9.203605e-10 2.325631e-09 6.338674e-10
1.585937e-09 1.423088e-09 1.590360e-09 1.020656e-09 1.398795e-09 9.327680e-10 1.437689e-09 -4.541280e-10 1.243215e-09 -2.324116e-10
8.755663e-11 1.413132e-09 5.020038e-10 1.588939e-09 1.205333e-09 1.017345e-09 4.932994e-10 7.355196e-10 1.786897e-09 1.419249e-09
3.259483e-09 4.260381e-10 -5.304611e-10 6.098980e-10 1.914618e-11 1.394012e-09 -6.146014e-10 1.232215e-10 1.288862e-09 8.905098e-10
2.098340e-09 2.865442e-09 4.976928e-10 6.167341e-10 6.305327e-10 4.246916e-10 1.029901e-09 2.478273e-09 1.965847e-09 -9.148575e-10
2.133540e-09 1.884398e-09 7.243321e-10 3.630563e-09 5.468651e-10 1.557111e-09 -3.242825e-10 3.787469e-10 -1.934812e-10 8.910017e-10
1.958194e-09 -4.377039e-11 -1.189989e-11 -1.034752e-09 6.503321e-10 4.404470e-10 1.259236e-09 -9.769948e-10 1.164719e-09 7.243754e-10
4.059887e-10 9.994517e-10 5.280999e-10 5.358347e-10 1.363453e-09 7.588450e-10 1.586053e-09 9.467568e-10 1.205536e-09 -8.706286e-10
-6.585741e-10 1.055181e-09 -1.072455e-10 1.722847e-09 1.319208e-09 8.104528e-10 1.063740e-09 2.875664e-09 6.014742e-10 1.911212e-09
2.176627e-09 1.455227e-09 1.549710e-09 1.326839e-09 1.545593e-09 -1.017455e-10 6.685624e-10 3.482685e-10 2.166337e-09 7.075916e-11
5.507830e-10 4.222790e-10 1.153278e-09 3.347106e-10 5.500855e-10 1.188602e-09 1.595332e-10 2.101314e-09 1.944926e-09 1.362022e-09
6.443099e-10 4.947955e-10 1.155047e-09 1.003523e-09 2.100093e-09 1.311062e-09 8.143414e-10 1.299182e-09 1.395801e-09 -1.367636e-10
1.646899e-09 4.989504e-11 1.183800e-09 4.739851e-10 2.382192e-09 1.309529e-09 2.626930e-09 3.047988e-10 1.613482e-09 -1.730660e-10
1.987607e-10 4.726934e-10 -1.267460e-10 4.721502e-10 8.376637e-10 1.463503e-09 2.111301e-09 2.526461e-09 2.124898e-09 6.179258e-10
7.059922e-10 -8.035168e-11 1.409686e-09 2.105177e-09 1.857987e-09 2.517261e-09 2.047898e-09 6.403904e-10 2.311126e-09 -1.155508e-09
1.168734e-09
8.340386e-10 2.534422e-09 2.121999e-09 2.587576e-09 1.517640e-10 2.546506e-09 4.425137e-10 2.467686e-09 2.013937e-09 1.241168e-09
2.322248e-09 1.435854e-09 8.474957e-10 2.528500e-09 1.754353e-09 6.129016e-10 3.749032e-10 1.036353e-09 7.059362e-10 -7.999163e-10
6.276465e-10 1.272097e-09 9.969842e-10 2.665090e-09 9.978409e-10 9.644531e-10 1.021537e-10 8.049737e-10 1.290148e-09 6.959775e-10
3.643086e-10 2.181772e-09 2.288363e-09 9.557707e-10 1.710431e-09 1.202462e-09 6.929103e-10 5.924574e-10 2.867247e-09 1.887061e-09
1.270336e-09 8.234444e-10 1.850797e-09 2.104413e-09 1.647938e-09 2.077073e-09 3.761610e-10 1.788736e-09 2.032886e-10 6.888873e-10
1.722700e-09 1.481027e-09 2.568860e-09 4.179362e-10 2.431433e-09 2.166039e-09 1.860343e-09 1.470064e-09 9.664490e-10 7.326093e-10
1.382999e-09 1.533542e-09 1.865654e-09 7.140697e-10 6.565242e-10 7.066703e-10 2.443693e-09 7.662006e-10 1.169180e-09 8.659289e-10
1.107912e-09 1.329657e-09 5.694164e-10 2.008089e-09 6.299287e-10 2.587701e-09 6.050724e-10 2.586657e-09 2.116937e-09 9.572353e-10
1.447091e-09 2.422057e-09 1.446656e-09 2.514111e-09 3.268932e-09 -5.872568e-11 8.343113e-10 2.401036e-09 1.838877e-09 1.478075e-09
1.046633e-09 8.323258e-10 1.188906e-09 2.235184e-09 2.364433e-09 1.186989e-09 7.465898e-10 1.884662e-09 3.343696e-09 -1.701007e-09
1.124896e-09 1.568249e-09 5.712095e-10 7.280254e-10 1.381147e-09 9.051239e-10 1.290566e-09 1.684383e-10 2.442041e-09 1.145677e-09
3.455855e-10 1.481854e-09 1.009036e-09 3.521204e-09 1.393932e-09 2.048409e-09 7.688161e-10 1.274508e-09 9.170290e-10 1.876718e-09
3.185431e-09 2.091398e-09 -8.405571e-11 2.461490e-09 2.073965e-09 1.788483e-09 3.111924e-09 2.287323e-09 1.938409e-09 2.481023e-09
8.015715e-10 1.134309e-09 2.005159e-09 8.498040e-10 1.964785e-09 1.469305e-09 1.376067e-09 1.704677e-09 1.617624e-09 1.512439e-09
1.058816e-09 1.528356e-09 1.450461e-09 1.412804e-09 1.073976e-09 1.181684e-09 2.445377e-09 5.212454e-10 1.534909e-09 9.795332e-10
8.991054e-10 9.287378e-10 2.723270e-09 2.112551e-09 2.217869e-09 1.332371e-09 1.893075e-09 8.482484e-10 6.250045e-10 8.037276e-10
1.070643e-09 4.873139e-10 3.249193e-10 8.770054e-10 1.466538e-09 1.699282e-09 1.439624e-09 -5.092937e-11 -2.470361e-11 2.415161e-09
7.762584e-10 2.786212e-09 -7.587769e-11 1.520216e-09 7.812731e-10 6.534430e-10 1.196765e-09 1.743845e-09 3.605847e-09 1.828901e-09
1.080333e-09 1.641042e-09 3.084204e-09 1.753229e-10 5.994210e-10 -7.566843e-10 2.540010e-09 2.219431e-09 2.810519e-09 1.023058e-09
1.384394e-09 2.451010e-09 2.569777e-09 9.484669e-10 1.400251e-09 1.098232e-10 1.683350e-09 2.145173e-11 2.304141e-09 1.680770e-09
9.817603e-10 2.221493e-09 1.488314e-09 1.910004e-09 1.180729e-09 1.936751e-09 2.100676e-09 9.380865e-10 1.918849e-09 1.135272e-09
2.317428e-09 1.670133e-09 3.892974e-10 9.303614e-10 7.641093e-10 -4.093375e-10 2.442982e-09 5.212341e-10 2.313193e-09 2.094139e-09
1.574302e-10 8.076408e-10 1.941146e-09 1.593737e-09 8.277497e-10 2.125657e-09 8.410828e-10 2.895541e-09 1.587697e-10 8.077190e-10
1.309360e-09 1.273058e-09 2.102545e-09 6.371861e-10 8.023173e-10 1.268768e-09 2.630531e-09 4.730376e-10 9.317773e-10 9.080814e-10
9.442999e-10 2.261162e-09 3.132295e-09 1.562180e-09 6.042714e-10 8.832761e-10 3.018417e-09 1.859415e-09 1.210182e-09 1.743748e-09
1.189201e-09 2.361780e-09 1.979298e-09 2.919801e-09 -4.152469e-10 2.355929e-09 -1.702178e-10 2.899526e-10 1.271136e-09 -7.265020e-10
9.426693e-11 6.485949e-10 1.487303e-09 1.536788e-09 7.305982e-10 1.339294e-09 1.280221e-09 2.431369e-09 -3.839633e-10 1.322526e-09
2.093108e-09 1.224114e-09 1.706582e-09 2.672855e-09 1.654763e-09 1.205147e-09 1.756367e-09 6.628847e-10 1.828051e-09 1.456238e-09
1.858408e-09 1.567594e-09 3.098483e-09 -3.505310e-10 1.303441e-09 5.871242e-10 2.078053e-09 1.318143e-09 3.270117e-09 1.540733e-09
4.868991e-10 8.985532e-10 1.191132e-09 1.198448e-09 2.173974e-09 2.186120e-09 1.757842e-10 1.700262e-09 -3.859010e-10 8.196508e-10
2.234451e-09 -6.032758e-10 1.014246e-09 1.277110e-09 1.167868e-09 1.644541e-09 2.768893e-09 1.279276e-09 1.700453e-09 3.091578e-09
1.469232e-09 1.894933e-09 2.730844e-09 1.385049e-09 1.362690e-09 1.838687e-09 2.582643e-09 1.590172e-09 2.556002e-09 1.726690e-09
9.490266e-11 1.419318e-09 6.015365e-10 1.277685e-09 1.525135e-09 7.843009e-10 9.399839e-10 1.659169e-09 2.438265e-09 2.367567e-09
1.050021e-09 1.548427e-09 9.274899e-10 6.631660e-10 8.542913e-10 1.524991e-09 1.440867e-09 4.904466e-11 1.108034e-09 2.435847e-09
1.210323e-09 -1.070230e-10 -8.421856e-12 2.721717e-09 1.479162e-09 3.491981e-10 1.574973e-09 2.418459e-10 -3.317882e-10 8.844904e-10
2.208123e-09 6.812462e-10 3.079001e-10 7.295204e-10 -3.834362e-11 9.437459e-10 2.388602e-09 1.199196e-09 1.222237e-09 5.579540e-10
8.340386e-10
2.241726e-09 1.732768e-09 2.386032e-09 4.363168e-10 2.996160e-09 1.712976e-09 -8.515691e-10 1.366460e-09 -2.112927e-10 3.722803e-09
8.853112e-10 5.564497e-10 1.150379e-09 2.945082e-09 1.989155e-09 7.940058e-10 1.453023e-09 1.829105e-09 7.398960e-10 3.596885e-10
5.250828e-11 -7.785987e-10 1.243856e-09 3.091544e-09 1.314430e-09 1.505970e-09 1.198846e-09 1.083429e-09 2.249970e-09 2.124288e-09
1.320382e-09 3.780193e-09 3.279313e-09 3.080024e-09 2.122561e-09 1.660388e-09 1.428788e-09 7.467429e-10 3.114235e-09 1.417247e-09
2.214158e-09 5.837451e-10 2.846891e-09 1.965200e-09 3.769283e-10 2.394918e-09 1.049143e-09 1.951894e-09 2.378940e-09 1.908724e-09
1.389717e-09 1.751872e-09 2.794777e-09 1.985630e-09 1.635177e-09 2.693823e-09 2.668995e-09 3.959841e-10 1.393322e-09 1.536670e-09
-4.338740e-11 2.573249e-09 2.815577e-09 1.080231e-09 1.810477e-09 1.489745e-09 1.343031e-09 1.730551e-09 1.612234e-09 2.831073e-09
2.138911e-09 2.466598e-09 2.270981e-09 1.435718e-09 2.177647e-09 2.322565e-09 1.734718e-09 1.717511e-09 1.972330e-09 1.549999e-09
1.944278e-09 2.015308e-09 1.040472e-09 1.804109e-09 1.378435e-09 2.135652e-09 3.618263e-09 1.325990e-09 2.851898e-09 1.433329e-09
2.451149e-09 1.027351e-09 1.359237e-09 2.513091e-09 -5.621146e-10 8.210195e-10 6.981316e-10 1.313657e-09 2.971587e-09 1.399583e-09
9.187640e-10 1.062507e-09 2.218464e-09 1.325720e-09 3.164631e-09 1.809371e-09 2.740124e-09 3.222415e-09 3.548006e-09 1.566123e-10
1.021493e-09 6.321907e-10 2.230157e-09 2.004889e-09 1.610424e-09 1.143887e-09 1.816529e-09 1.697031e-09 1.759035e-09 2.249367e-09
2.213873e-09 2.212175e-09 2.203762e-09 1.473598e-09 2.665056e-09 2.819060e-09 1.076357e-09 1.335159e-10 1.142921e-09 2.759589e-09
2.171788e-09 2.434806e-09 1.315702e-09 8.635621e-10 2.799673e-09 1.114300e-09 4.975598e-10 3.349780e-09 1.971025e-09 9.584102e-10
1.950439e-09 2.490947e-09 2.075377e-09 2.072374e-09 2.236339e-09 2.149087e-09 2.710735e-09 1.638517e-09 8.893349e-10 2.208420e-09
2.767613e-09 1.527662e-09 1.797871e-09 1.954207e-09 1.610058e-09 9.071640e-10 6.290325e-10 2.737719e-09 1.963101e-09 9.121218e-10
2.763840e-09 2.281137e-09 1.481904e-09 1.459032e-09 1.278432e-09 1.042270e-09 2.024090e-09 1.493219e-09 1.754421e-09 1.274213e-09
1.116363e-10 1.232158e-09 5.636845e-10 1.091514e-09 1.674538e-09 3.196147e-09 1.362724e-09 2.500039e-09 5.397013e-10 2.118303e-09
2.123108e-09 8.449464e-10 2.565741e-09 1.161157e-09 5.658763e-10 2.234336e-09 2.009808e-09 1.640669e-09 7.968676e-10 2.396042e-09
2.508171e-09 1.530477e-09 1.597298e-09 7.092624e-10 1.904847e-09 1.373538e-09 3.342760e-09 1.173981e-09 1.161057e-09 9.173958e-10
2.137953e-09 2.343267e-09 5.620541e-12 1.816611e-09 2.261836e-10 2.566125e-09 1.025143e-09 4.469847e-10 2.774277e-09 9.796471e-10
1.017808e-09 2.041199e-09 9.066234e-10 2.625417e-09 1.903146e-09 1.151734e-09 2.202782e-09 2.252189e-09 1.485883e-09 1.897892e-09
1.681969e-09 2.129961e-09 1.589350e-09 3.520358e-09 1.198271e-09 2.319544e-09 1.703054e-09 1.826760e-09 2.252990e-09 2.219180e-09
2.790634e-09 1.491841e-09 2.393891e-09 2.960319e-09 2.877148e-09 1.191217e-09 2.190922e-09 1.317349e-09 1.850202e-09 1.927635e-09
1.923639e-09 2.056132e-09 2.888343e-09 1.726311e-09 1.180444e-09 1.939529e-09 2.080875e-10 2.711692e-09 6.805765e-10 1.907211e-09
2.251285e-09 6.413083e-10 2.081427e-09 1.628164e-09 1.008369e-09 6.623437e-10 5.719586e-10 1.281189e-09 1.379268e-09 2.157227e-09
7.469165e-10 1.874637e-09 -8.548914e-11 2.166661e-09 7.870607e-10 1.154266e-09 3.919444e-09 1.467014e-09 5.034612e-10 3.541821e-09
1.472870e-09 1.765699e-09 1.635156e-09 3.877033e-10 2.192765e-09 2.258680e-09 2.518799e-09 7.590604e-10 5.185044e-10 7.159582e-10
1.000262e-09 3.476418e-09 3.859706e-10 2.539159e-10 1.442723e-09 3.062343e-09 6.517941e-10 1.574875e-09 1.726802e-09 8.400134e-10
1.520699e-09 7.769731e-10 -2.395626e-10 1.685616e-09 1.124179e-09 1.828370e-09 3.150091e-09 1.601632e-09 6.308975e-11 6.467685e-10
1.793352e-09 1.597319e-09 1.938838e-09 3.093455e-09 1.804291e-09 2.097987e-09 1.147421e-09 2.853239e-09 2.520921e-09 2.444161e-09
1.917943e-09 1.496819e-09 1.356457e-09 1.294047e-09 2.231464e-09 4.198206e-10 3.070502e-09 1.954953e-09 1.837201e-09 1.967526e-09
1.783488e-09 1.852552e-09 2.016196e-09 1.250535e-09 2.984805e-09 2.869684e-09 2.110214e-09 1.809070e-09 8.617420e-10 2.553089e-09
-3.803101e-11 1.424153e-09 1.482325e-09 1.273120e-09 9.204770e-10 1.486901e-09 1.761341e-09 2.738873e-09 2.971034e-09 2.350939e-09
2.608229e-09 1.515535e-09 8.731778e-10 2.117310e-09 7.596075e-10 2.210266e-09 9.717274e-10 2.146405e-09 9.886968e-10 1.337255e-09
7.146632e-10 1.243535e-10 1.675494e-10 1.362282e-09 6.537086e-10 1.883244e-09 2.146032e-09 3.191453e-09 1.208033e-09 6.123576e-11
2.241726e-09
1.318584e-09 -2.913797e-10 1.752848e-09 2.666945e-09 2.026896e-09 1.773658e-09 2.291721e-09 1.778900e-09 3.013031e-09 2.023812e-09
2.076669e-09 4.274610e-09 2.238798e-09 3.844711e-10 2.370423e-09 2.203721e-09 2.920238e-09 1.616869e-09 1.416288e-09 1.160868e-09
1.404693e-09 2.013374e-09 1.717166e-09 1.727476e-09 1.587885e-09 5.822613e-11 3.722197e-09 2.359180e-09 1.153699e-09 2.701248e-09
8.219991e-10 2.063507e-09 2.331158e-09 1.775550e-09 2.851363e-09 1.857777e-09 2.409635e-09 1.880562e-09 1.891811e-09 1.635987e-09
1.556096e-09 1.553368e-09 2.807098e-09 2.023307e-09 2.000790e-09 3.134429e-09 1.629658e-09 2.390964e-09 3.212568e-09 1.241085e-09
3.122879e-09 1.896463e-09 2.810395e-09 1.637127e-09 2.147547e-09 3.225080e-09 2.483299e-09 2.720443e-09 1.698546e-09 1.954894e-09
2.365614e-09 2.858421e-09 3.031245e-09 1.429898e-09 2.074329e-09 1.453821e-09 1.438575e-09 3.011947e-09 2.002928e-09 2.655705e-09
3.019598e-09 1.007076e-09 2.374063e-09 4.443798e-09 3.555511e-09 1.931733e-09 1.720390e-09 1.575214e-09 1.042262e-09 1.758676e-09
3.027011e-09 1.508580e-09 2.904119e-09 1.964313e-09 3.958057e-09 2.114924e-09 2.740502e-09 2.123888e-09 2.143530e-09 3.569353e-10
1.764774e-09 1.040866e-09 1.920248e-10 1.600812e-09 1.125699e-09 2.309215e-09 1.946696e-09 2.608080e-09 1.536209e-09 3.852035e-09
1.363285e-09 1.601322e-09 1.191902e-09 2.383099e-09 1.291870e-09 5.131436e-10 1.706814e-09 2.334698e-09 9.313722e-10 2.586890e-09
2.223405e-09 3.461107e-10 1.669635e-09 3.431889e-09 1.678139e-09 2.739655e-09 1.875309e-09 1.813432e-09 2.870345e-09 1.114079e-09
1.044660e-09 3.187591e-09 2.835113e-09 1.881174e-09 2.881993e-09 3.272183e-09 1.360289e-09 2.790544e-09 2.315763e-09 1.110848e-09
2.943458e-09 1.959878e-09 2.291761e-09 2.270995e-09 2.169470e-09 2.614183e-09 1.247417e-09 1.360474e-09 2.195152e-09 2.603643e-09
2.575782e-09 2.036015e-09 1.646601e-09 2.899233e-09 1.772130e-09 2.613628e-09 2.190949e-09 2.750207e-09 1.674214e-09 1.885041e-09
3.342780e-09 1.939131e-09 1.589498e-09 -4.127430e-12 1.574502e-09 1.158199e-09 2.505363e-09 2.925114e-09 2.495193e-09 1.076997e-09
1.894057e-09 8.638842e-10 1.951623e-09 2.715242e-09 2.833178e-09 1.974763e-09 1.485083e-09 -1.195940e-10 2.127663e-09 1.614280e-09
2.907871e-09 7.133943e-10 2.557748e-09 1.072653e-09 3.023800e-09 2.190363e-09 2.364660e-09 1.109984e-09 2.390202e-09 2.321479e-09
1.866645e-09 1.174431e-09 1.601276e-09 2.013586e-09 5.333771e-10 7.705148e-10 3.088255e-09 2.378339e-09 3.448508e-09 6.354281e-10
4.408132e-09 1.503102e-09 1.668795e-09 8.108927e-10 2.638677e-09 1.271505e-10 1.074327e-09 2.868592e-09 2.424508e-09 1.835001e-09
2.267277e-09 1.251364e-09 2.171958e-09 2.865632e-09 2.270405e-09 2.122198e-09 1.781827e-09 1.536814e-09 3.006287e-09 1.787279e-09
2.464039e-09 2.053963e-09 2.162198e-09 2.337488e-09 2.717436e-09 7.653942e-10 2.302863e-09 2.308729e-09 2.787482e-09 1.102839e-09
2.264009e-09 2.907682e-09 2.453929e-09 1.758738e-09 2.521142e-09 3.490853e-09 2.598588e-09 1.467178e-09 2.271172e-09 1.360682e-09
2.728515e-09 1.564633e-09 1.477362e-09 1.536729e-09 1.956321e-09 2.245337e-09 1.765298e-09 3.058051e-09 3.024794e-09 2.555975e-09
3.694816e-09 2.497264e-09 1.099357e-09 3.228423e-09 2.843586e-09 8.647512e-10 1.182817e-09 1.778750e-09 2.776026e-09 2.371235e-09
2.434088e-09 1.727679e-09 3.313818e-09 1.100071e-09 1.736584e-09 2.369177e-09 3.317724e-10 1.630602e-09 2.834608e-09 6.260650e-10
3.264716e-09 1.136132e-09 4.202683e-10 2.957426e-09 2.010903e-09 1.929313e-09 -5.605810e-10 2.210265e-09 3.638876e-09 1.723626e-09
1.177052e-09 2.132345e-10 2.178655e-09 8.957075e-10 3.901739e-10 1.380392e-09 1.395174e-09 4.591409e-11 -3.057979e-10 2.741261e-09
3.808419e-10 1.157077e-09 1.710679e-09 2.987462e-09 1.667559e-09 3.830555e-09 2.928264e-09 1.891638e-09 8.588290e-10 3.272015e-09
3.410885e-09 2.159320e-09 2.551938e-09 1.834212e-09 2.236092e-09 2.529307e-09 3.597737e-09 3.010259e-09 2.362719e-09 2.608490e-09
2.912680e-09 1.385586e-09 2.985522e-09 2.821409e-09 2.043180e-09 1.280392e-09 1.541232e-09 2.023238e-09 2.250194e-09 3.547354e-09
1.923484e-09 1.554502e-09 2.140985e-09 2.311678e-09 1.459175e-09 2.088080e-09 2.788822e-09 2.495805e-09 1.538695e-09 1.558371e-09
1.869742e-09 2.360351e-09 3.156973e-09 3.923360e-09 2.251669e-09 3.165097e-09 2.587014e-09 1.939023e-09 2.283027e-09 1.691661e-09
1.600609e-09 1.783350e-09 1.158732e-09 2.144024e-09 2.159822e-09 3.583178e-10 2.742260e-09 1.869914e-09 7.561686e-10 3.105127e-09
2.147070e-09 2.505857e-09 2.267559e-09 2.117601e-09 4.038744e-09 7.691332e-10 2.468645e-09 1.119018e-09 3.316136e-09 2.755044e-09
2.273455e-09 7.810279e-10 2.815431e-09 8.638232e-10 1.216109e-09 2.340412e-09 1.965478e-09 3.193663e-09 2.466936e-09 1.209611e-09
1.318584e-09
2.351658e-09 2.046940e-09 1.206383e-09 2.432095e-09 1.366058e-09 2.020140e-09 1.919489e-09 2.771570e-09 2.546291e-09 2.357634e-09
3.333772e-09 3.022256e-09 1.170165e-09 2.333356e-09 1.541931e-09 2.183577e-09 2.521250e-09 1.303276e-09 2.827336e-09 2.575411e-09
8.715071e-10 2.176614e-09 3.844817e-09 2.106870e-09 2.945526e-09 2.261896e-09 2.363763e-09 1.779636e-09 2.211217e-09 2.746972e-09
2.393790e-09 2.673740e-09 3.942935e-09 1.638127e-09 1.872682e-09 2.437136e-09 2.848531e-09 3.805732e-09 2.747272e-09 3.132440e-09
2.320370e-09 2.847353e-09 2.421442e-09 2.938825e-09 2.184563e-09 3.296109e-09 1.887284e-09 1.449875e-09 2.776498e-09 2.106773e-09
3.781874e-09 3.131137e-09 1.475886e-09 2.769285e-09 3.372758e-09 2.228695e-09 1.279798e-09 1.805465e-09 1.479092e-09 2.364458e-09
3.962685e-09 2.700727e-09 1.509825e-09 4.009283e-09 1.560843e-09 1.920978e-09 3.847902e-09 8.613752e-10 2.420697e-09 1.986819e-09
2.564445e-09 1.066449e-09 2.000177e-09 2.037011e-09 2.536201e-09 1.459192e-09 3.428104e-09 2.013019e-09 -6.227622e-11 2.793676e-09
3.236663e-09 8.147756e-10 6.198497e-10 2.345536e-09 -8.600367e-10 3.184166e-09 2.436803e-09 1.907201e-09 1.755272e-09 1.570599e-09
3.457676e-09 1.721785e-09 1.647756e-09 1.995776e-09 1.518634e-09 3.021025e-09 2.627959e-09 3.655437e-09 1.615445e-09 3.524808e-09
3.958252e-09 2.456982e-09 1.762560e-09 2.496742e-09 1.501281e-10 3.155959e-09 2.669567e-09 4.079042e-09 2.437532e-09 2.019492e-09
1.437014e-09 2.864526e-09 2.222895e-09 2.962362e-09 2.899452e-09 2.719015e-09 2.962127e-09 2.050143e-09 2.988060e-09 3.510566e-09
2.062061e-09 3.826810e-09 3.006315e-09 2.485699e-09 2.841856e-09 1.683275e-09 1.989044e-09 2.360015e-09 2.050680e-09 1.549374e-09
2.825155e-09 1.170949e-09 1.755604e-09 1.834865e-09 1.903438e-09 3.135139e-09 2.139697e-09 1.929892e-09 2.231354e-09 2.026451e-09
2.501114e-09 4.403704e-09 2.984081e-09 2.914796e-09 2.208003e-09 2.405210e-09 1.768235e-09 1.154792e-09 2.086521e-09 3.325990e-09
3.664457e-09 2.010639e-09 2.371173e-09 3.309738e-09 3.089123e-09 2.659337e-09 3.305161e-09 2.745806e-09 2.152440e-09 2.801239e-09
1.688250e-09 4.130375e-09 3.509000e-09 5.310900e-10 1.641516e-09 1.222867e-09 1.214962e-09 1.561508e-09 2.676481e-09 2.119540e-09
2.350123e-09 3.134518e-09 1.415349e-09 3.070509e-09 2.749413e-09 5.312581e-10 9.111920e-10 2.109753e-09 1.397564e-09 2.563076e-09
2.089426e-09 4.577815e-10 1.653052e-09 3.105842e-09 2.599421e-09 1.804951e-09 1.377098e-09 2.706231e-09 1.561441e-09 1.248696e-09
3.734453e-09 2.182238e-09 2.744400e-09 3.062695e-09 2.134259e-09 3.619446e-09 1.630243e-09 2.723968e-09 2.671327e-09 4.289415e-09
3.518634e-09 1.436196e-09 4.430335e-09 1.221919e-09 3.458144e-09 4.522501e-09 9.531442e-10 7.886043e-10 1.975012e-09 4.003313e-09
1.766180e-09 3.126804e-09 3.693801e-09 3.467339e-09 2.191959e-09 1.902620e-09 3.491047e-09 3.393152e-09 3.912988e-09 2.334225e-09
2.924827e-09 1.904663e-09 2.645359e-09 1.799716e-09 1.922961e-09 1.304428e-09 2.388846e-09 3.054836e-09 2.405155e-09 2.929433e-09
2.342097e-09 2.724812e-09 2.816099e-09 3.375511e-09 2.643660e-09 3.609464e-09 3.662119e-09 1.747130e-09 2.081054e-09 1.997877e-09
2.220610e-09 3.079447e-09 3.251672e-09 1.591934e-09 1.226620e-09 3.204615e-09 2.568528e-09 2.334413e-09 1.837720e-09 1.630975e-09
2.248459e-09 2.673995e-09 1.703222e-09 3.239236e-09 3.064586e-09 3.371533e-09 3.185874e-09 3.922679e-09 2.795192e-09 9.441142e-10
2.993477e-09 2.185246e-09 1.858755e-09 2.342307e-09 3.258128e-10 3.740695e-09 2.757930e-09 7.108483e-10 2.300182e-09 1.840763e-09
2.585017e-09 1.778480e-09 3.345278e-09 3.133392e-09 2.788593e-09 1.583112e-09 3.529201e-09 3.648688e-09 1.893798e-09 3.489866e-09
3.039669e-09 2.290199e-09 1.636930e-09 3.197473e-09 2.858312e-09 2.900173e-10 5.137491e-10 4.541795e-09 1.602586e-09 9.681846e-10
1.859697e-09 1.269061e-09 1.217848e-09 2.261155e-09 2.731783e-09 3.147706e-09 2.631808e-09 2.664674e-09 1.907033e-09 3.088451e-09
1.694297e-09 2.109677e-09 3.628805e-09 1.396964e-09 3.169008e-09 1.006099e-09 2.827283e-09 1.516599e-09 3.360393e-09 3.223664e-09
1.908035e-09 2.248314e-09 1.772082e-09 3.130418e-09 1.976664e-09 3.042964e-09 2.576213e-09 3.379930e-09 1.876964e-09 2.845038e-09
3.369846e-09 3.297997e-09 3.754560e-09 2.302885e-09 1.680892e-09 2.158550e-09 2.719198e-09 3.473788e-09 3.474400e-09 2.089487e-09
2.526855e-09 2.361183e-09 3.521712e-09 1.024829e-09 1.308454e-09 3.898906e-09 1.971237e-09 2.552011e-09 2.464083e-09 4.029428e-09
2.744311e-09 1.602545e-09 1.787699e-09 1.549662e-09 2.361355e-09 1.628244e-09 3.234848e-09 1.887763e-09 1.458084e-09 2.082429e-09
1.400968e-09 3.768675e-09 1.466812e-09 1.830597e-09 3.072959e-09 4.778186e-10 2.114310e-09 2.274868e-09 3.242574e-09 1.347917e-09
2.351658e-09
2.580351e-09 1.340518e-09 3.186308e-09 2.899309e-09 1.962357e-09 3.192180e-09 1.132178e-09 1.898838e-09 3.434454e-09 2.343321e-09
3.233093e-09 9.577575e-10 2.752768e-09 1.400773e-09 2.357806e-09 2.089722e-09 1.847209e-09 2.274783e-09 1.918041e-09 2.382241e-09
2.142454e-09 2.676867e-09 2.764667e-09 3.264563e-09 2.944619e-09 3.608364e-09 3.715746e-09 3.393228e-09 4.190785e-09 3.191985e-09
2.525627e-09 4.013879e-09 3.083444e-09 1.940237e-09 3.468276e-09 1.830135e-09 3.597139e-09 2.499305e-09 2.742175e-09 3.832053e-09
3.347752e-09 2.714811e-09 3.775281e-09 2.263859e-09 3.293729e-09 3.793268e-09 2.576589e-09 1.503247e-09 2.883555e-09 2.900138e-09
2.351327e-09 2.613972e-09 2.510814e-09 2.882708e-09 3.487442e-09 2.354188e-09 3.295679e-09 3.809729e-09 3.432172e-09 1.497776e-09
3.457371e-09 3.318249e-09 3.639342e-09 4.065495e-09 2.996678e-09 3.641347e-09 3.122963e-09 1.822414e-09 3.377529e-09 3.470816e-09
3.819739e-09 2.164045e-09 2.449558e-09 3.917631e-09 1.673965e-09 1.751771e-09 1.380240e-09 3.618337e-09 2.230746e-09 2.982630e-09
2.207600e-09 2.743221e-09 1.517184e-09 2.391760e-09 2.833470e-09 2.399061e-09 3.845894e-09 7.838619e-12 2.074687e-09 2.621960e-09
1.759510e-09 1.942804e-09 6.893228e-10 2.016119e-09 2.862096e-09 2.505119e-09 2.410683e-09 3.235208e-09 4.249752e-09 2.140391e-09
3.407417e-09 1.760878e-09 3.220806e-09 2.242803e-09 3.797954e-09 3.856282e-09 3.221297e-09 4.067311e-09 1.874760e-09 2.021890e-09
3.464596e-09 2.108416e-09 2.642535e-09 3.511008e-09 2.794991e-09 3.523292e-09 3.104379e-09 3.138636e-09 2.608780e-09 3.296341e-09
3.000024e-09 3.490780e-09 2.724281e-09 3.924195e-09 2.525395e-09 2.229303e-09 3.757345e-09 2.455785e-09 2.803943e-09 2.342509e-09
3.082842e-09 2.542756e-09 2.686060e-09 3.452125e-09 1.711518e-09 2.477157e-09 2.356233e-09 2.127503e-09 2.532627e-09 2.582540e-09
2.546676e-09 1.052899e-09 3.423694e-09 3.354619e-09 3.602054e-09 2.307140e-09 3.208174e-09 1.607365e-09 3.021708e-09 2.081870e-09
2.569815e-09 2.336717e-09 4.077733e-09 3.639490e-09 2.711231e-09 2.320077e-09 3.525136e-09 2.649385e-09 3.343655e-09 1.121938e-09
3.358931e-09 2.591181e-09 9.084103e-10 3.232591e-09 2.559431e-09 2.991993e-09 2.885611e-09 2.630314e-09 1.252628e-09 2.407149e-09
1.726293e-09 3.133708e-09 2.875964e-09 1.003084e-09 2.191956e-09 1.739692e-09 9.496247e-10 2.094692e-09 1.821186e-09 2.938620e-09
8.801693e-10 4.165772e-09 1.685751e-09 3.572351e-09 1.019184e-09 4.034481e-09 2.267522e-09 2.168374e-09 1.671846e-09 1.150030e-09
6.704682e-10 1.411212e-09 1.642681e-09 1.981740e-09 2.913713e-09 2.086134e-09 1.631886e-09 3.152624e-09 3.232805e-09 3.628640e-09
3.456404e-09 2.051997e-09 3.005950e-09 2.481416e-09 3.471093e-09 1.611050e-09 2.467838e-09 2.961081e-09 3.636875e-09 3.472769e-09
2.356288e-09 2.307353e-09 2.439389e-09 2.259324e-09 3.270156e-09 2.719514e-09 3.489300e-09 2.178351e-09 2.518840e-09 2.960391e-09
2.808071e-09 3.183006e-09 2.956293e-09 1.505548e-09 2.387091e-09 2.818983e-09 3.008167e-09 2.043300e-09 2.990287e-09 3.353015e-09
3.233279e-09 3.210492e-09 3.153210e-09 2.746928e-09 2.314260e-09 3.543369e-09 2.124757e-09 3.200268e-09 2.576296e-09 3.169746e-09
2.201265e-09 3.183314e-09 5.489617e-09 2.035262e-09 3.627808e-09 4.226776e-09 3.023624e-09 3.687360e-09 2.774947e-09 3.662210e-09
1.991564e-09 1.719266e-09 4.082685e-09 3.415408e-09 2.572726e-09 1.090685e-09 3.045081e-09 2.568068e-09 2.990361e-09 2.680332e-09
2.738172e-09 2.903292e-09 1.555494e-09 2.002653e-09 3.994979e-09 3.389382e-09 4.411745e-09 2.539090e-09 2.279601e-09 3.590153e-09
4.515223e-09 3.464395e-09 1.394664e-09 3.490114e-09 2.184289e-09 2.462662e-09 2.971672e-09 2.146396e-09 3.807734e-09 3.025368e-09
2.975067e-09 2.954351e-09 2.564419e-09 2.519442e-09 2.806070e-09 3.400547e-09 4.217731e-09 2.713814e-09 3.147511e-09 4.018801e-09
2.051819e-09 2.485061e-09 2.813439e-09 2.628969e-09 2.114106e-09 4.102205e-09 1.187936e-09 3.038485e-09 1.852517e-09 2.340267e-09
3.637613e-09 1.639112e-09 3.731872e-09 1.809030e-09 2.919467e-09 4.437648e-09 3.262353e-09 2.201050e-09 3.380959e-09 3.378331e-09
2.792483e-09 2.159720e-09 2.802959e-09 3.410223e-09 4.049657e-09 3.773622e-09 3.452894e-09 4.269306e-09 3.851556e-09 3.227838e-09
4.485037e-09 3.761656e-09 2.510016e-09 3.058610e-09 3.721223e-09 1.840556e-09 2.544808e-09 2.518582e-09 2.960894e-09 1.553451e-09
2.593270e-09 2.625090e-09 3.826215e-09 2.572436e-09 4.469765e-09 2.513184e-09 2.903062e-09 2.896455e-09 3.195787e-09 2.918315e-09
3.346538e-09 4.018008e-09 2.733171e-09 2.655794e-09 2.833277e-09 3.399005e-09 2.976152e-09 1.062192e-09 2.343037e-09 3.605876e-09
2.462707e-09 2.076435e-09 3.841588e-09 -2.758373e-10 1.275811e-09 1.394388e-09 2.212746e-09 2.793225e-09 1.783879e-09 9.612663e-10
2.580351e-09
3.834666e-09 1.990275e-09 3.035566e-09 3.266907e-09 1.387238e-09 2.526631e-09 3.740110e-09 3.143495e-09 3.128612e-09 1.700524e-09
5.233337e-09 1.644759e-09 3.407414e-09 3.901215e-09 2.262503e-09 3.840045e-09 2.318345e-09 1.735306e-09 2.895093e-09 3.633592e-09
2.270413e-09 3.340116e-09 3.219905e-09 3.822653e-09 4.353315e-09 4.116937e-09 1.967332e-09 3.509677e-09 4.353855e-09 4.791963e-09
3.906081e-09 2.290119e-09 4.023032e-09 4.736248e-09 3.223358e-09 3.047560e-09 4.110245e-09 3.805339e-09 4.076135e-09 3.488322e-09
3.523168e-09 3.746280e-09 3.510872e-09 2.607529e-09 4.573903e-09 2.466958e-09 2.850440e-09 4.440603e-09 3.585966e-09 2.329474e-09
3.422342e-09 3.067749e-09 3.513815e-09 2.773878e-09 3.079045e-09 2.722867e-09 3.349616e-09 3.236527e-09 2.821594e-09 3.831745e-09
2.045304e-09 3.558396e-09 3.979940e-09 3.082378e-09 3.263685e-09 2.656570e-09 1.950649e-09 2.698233e-09 3.232884e-09 3.414978e-09
2.204638e-09 2.683962e-09 2.410918e-09 2.597459e-09 2.652044e-09 3.365653e-09 3.103776e-09 2.525480e-09 3.145298e-09 2.070944e-09
1.476619e-09 2.755280e-09 3.427042e-09 3.544560e-09 5.127596e-09 2.989553e-09 3.618953e-09 1.358231e-09 3.323430e-09 2.729774e-09
1.418696e-09 3.108479e-09 8.192265e-10 1.473519e-09 3.459077e-09 1.959313e-09 2.480419e-09 2.554330e-09 2.281614e-09 1.288275e-09
2.786147e-09 3.399453e-09 1.876959e-09 2.573791e-09 3.638536e-09 1.667151e-09 2.888626e-09 3.094214e-09 3.474891e-09 4.387181e-09
3.801722e-09 5.393451e-09 2.731307e-09 2.485609e-09 2.733321e-09 1.967602e-09 3.503712e-09 2.632355e-09 3.536453e-09 4.111719e-09
2.411064e-09 2.836765e-09 3.448377e-09 3.409908e-09 3.668748e-09 2.730140e-09 2.558120e-09 3.090301e-09 3.571466e-09 3.025810e-09
3.869464e-09 3.362841e-09 2.968847e-09 3.585500e-09 2.314543e-09 2.589486e-09 3.253308e-09 3.032336e-09 3.331238e-09 3.957254e-09
3.638269e-09 2.689010e-09 3.323368e-09 1.944959e-09 3.579051e-09 3.804868e-09 3.648329e-09 3.238968e-09 3.065207e-09 3.250382e-09
3.725924e-09 3.647810e-09 4.695865e-09 2.689571e-09 3.300161e-09 1.871137e-09 2.578218e-09 3.311275e-09 3.221244e-09 2.066330e-09
2.080523e-09 1.810679e-09 2.531106e-09 3.965252e-09 2.522311e-09 1.710346e-09 2.674862e-09 2.222467e-09 3.802822e-09 3.011899e-09
2.185108e-09 3.622954e-09 1.361388e-09 3.714173e-09 2.191407e-09 2.868982e-09 2.482764e-09 1.641504e-09 3.622575e-09 2.767735e-09
2.123103e-09 3.283464e-09 1.883322e-09 2.741796e-09 3.494962e-09 3.648247e-09 3.222577e-09 2.920368e-09 3.035222e-09 1.592759e-09
4.561397e-09 4.211001e-09 2.837546e-09 2.210063e-09 2.535109e-09 2.863474e-09 2.269453e-09 3.765788e-09 1.989481e-09 2.470500e-09
2.060063e-09 4.304590e-09 3.062999e-09 3.195060e-09 3.568108e-09 2.505407e-09 2.940826e-09 1.713941e-09 2.809174e-09 3.233089e-09
2.336896e-09 3.256484e-09 3.032581e-09 3.196216e-09 3.034409e-09 3.536217e-09 2.817333e-09 2.006989e-09 1.930111e-09 2.319114e-09
2.751616e-09 4.319411e-09 2.623797e-09 2.440883e-09 2.797196e-09 3.673421e-09 4.064694e-09 4.366963e-09 3.445559e-09 4.307179e-09
2.930513e-09 4.445239e-09 3.040992e-09 3.734615e-09 4.688008e-09 4.175743e-09 2.162412e-09 4.750131e-09 4.030696e-09 1.759931e-09
3.081827e-09 4.853017e-09 4.279880e-09 4.310998e-09 2.330673e-09 1.892435e-09 4.360338e-09 4.707703e-09 2.575269e-09 1.876358e-09
2.831091e-09 9.605706e-10 3.827551e-09 2.766638e-09 4.486558e-09 3.222484e-09 2.737907e-09 1.214942e-09 3.703890e-09 2.814884e-09
2.945169e-09 3.827919e-09 3.675728e-09 3.682699e-09 2.984903e-09 3.062909e-09 2.685467e-09 3.303049e-09 2.476565e-09 8.735185e-10
2.074810e-09 3.124295e-09 2.058337e-09 4.170891e-09 2.914681e-09 1.645201e-09 3.268599e-09 1.154421e-09 1.854857e-09 4.910520e-09
4.468909e-09 3.098132e-09 1.707065e-09 2.219096e-09 2.885187e-09 3.260115e-09 2.816715e-09 2.855335e-09 1.786983e-09 4.337830e-09
1.799491e-09 2.128685e-09 2.013011e-09 2.959164e-09 4.715775e-09 1.753770e-09 3.367192e-09 1.782365e-09 3.038461e-09 4.221753e-09
4.465381e-09 2.925078e-09 2.325257e-09 4.460845e-09 3.428030e-09 4.030261e-09 2.976311e-09 2.499505e-09 2.262081e-09 2.285060e-09
4.083951e-09 3.103647e-09 2.447855e-09 2.372387e-09 3.373221e-09 3.814797e-09 4.326895e-09 3.130273e-09 3.345759e-09 3.047579e-09
3.545546e-09 4.523037e-09 2.346188e-09 3.188884e-09 3.032733e-09 3.514638e-09 3.557605e-09 2.817989e-09 3.683124e-09 3.182193e-09
4.983461e-09 4.124770e-09 2.726135e-09 4.099149e-09 3.204589e-09 2.696840e-09 2.119250e-09 2.482047e-09 4.188387e-09 2.604420e-09
3.237804e-09 3.011426e-09 2.175998e-09 3.789798e-09 2.317502e-09 2.338249e-09 2.109058e-09 3.427263e-09 4.857739e-09 2.686639e-09
1.693552e-09 3.109548e-09 2.007021e-09 2.217720e-09 2.822188e-09 1.731929e-09 2.667301e-09 2.646851e-09 4.893199e-09 3.632245e-09
3.834666e-09
1.683805e-09 5.173664e-09 3.654442e-09 1.352284e-09 3.133078e-09 6.888178e-10 2.821085e-09 3.437948e-09 3.967017e-09 3.655887e-09
3.021154e-09 3.424912e-09 3.228443e-09 3.656093e-09 3.430448e-09 3.624701e-09 2.789490e-09 2.206760e-09 2.400053e-09 1.919317e-09
4.615043e-09 1.937948e-09 3.149098e-09 2.083222e-09 3.986051e-09 3.474742e-09 2.996988e-09 3.353877e-09 4.461253e-09 4.620615e-09
3.566271e-09 4.399699e-09 2.662469e-09 3.568782e-09 3.844720e-09 3.365276e-09 2.620549e-09 2.405288e-09 3.311581e-09 2.210960e-09
2.801495e-09 3.280675e-09 3.621945e-09 3.684275e-09 4.444491e-09 2.924986e-09 3.650524e-09 2.676816e-09 5.664475e-09 2.941743e-09
4.223989e-09 3.335828e-09 4.044486e-09 4.753337e-09 3.669985e-09 3.772445e-09 3.488247e-09 4.224827e-09 3.659770e-09 3.996438e-09
3.704567e-09 3.030863e-09 4.400059e-09 2.471886e-09 3.961560e-09 1.338970e-09 2.160743e-09 4.668398e-09 2.824078e-09 2.811518e-09
3.585021e-09 1.798188e-09 3.206771e-09 2.745101e-09 3.696807e-09 3.565065e-09 3.091982e-09 3.068896e-09 3.486696e-09 4.027187e-09
2.951052e-09 4.226474e-09 7.636947e-10 2.061789e-09 2.739511e-09 3.820435e-09 2.161363e-09 4.412338e-09 1.862514e-09 1.252926e-09
2.237160e-09 3.225758e-09 2.848551e-09 2.000728e-09 2.560193e-09 5.357861e-09 3.242803e-09 2.475404e-09 2.336976e-09 3.948641e-09
4.158616e-09 1.839339e-09 5.209889e-09 3.318408e-09 3.672685e-09 3.806171e-09 3.690362e-09 4.911277e-09 2.599197e-09 1.776437e-09
4.094006e-09 4.090535e-09 3.851883e-09 4.668010e-09 3.181889e-09 3.869570e-09 3.824618e-09 2.717592e-09 2.871955e-09 5.657100e-09
3.467290e-09 2.896585e-09 4.268716e-09 4.030502e-09 3.138568e-09 3.361035e-09 3.070836e-09 3.496305e-09 3.422255e-09 4.290556e-09
4.514222e-09 2.042601e-09 2.710265e-09 3.850364e-09 3.377414e-09 4.018832e-09 4.123587e-09 4.445681e-09 4.087393e-09 4.126625e-09
3.901234e-09 2.407069e-09 2.805566e-09 2.707358e-09 3.376925e-09 3.622305e-09 3.053764e-09 4.133380e-09 3.429498e-09 3.297144e-09
2.136941e-09 2.588844e-09 4.165241e-09 3.642229e-09 3.328705e-09 2.709304e-09 1.749942e-09 2.701080e-09 3.585411e-09 3.275523e-09
1.956926e-09 1.860741e-09 3.362202e-09 3.456816e-09 2.591705e-09 3.092811e-09 4.493619e-09 3.305776e-09 2.496600e-09 3.825166e-09
4.079034e-09 2.847011e-09 3.489998e-09 4.539563e-09 4.374373e-09 2.170425e-09 3.201081e-09 2.243637e-09 3.898612e-09 2.876756e-09
2.073252e-09 2.643064e-09 2.294107e-09 2.977127e-09 3.104310e-09 3.391491e-09 3.346657e-09 1.447063e-09 3.229157e-09 4.237116e-09
4.270700e-09 3.089869e-09 3.161754e-09 3.685581e-09 3.592535e-09 3.685299e-09 1.343802e-09 1.436262e-09 4.148754e-09 2.965229e-09
3.661821e-09 4.075438e-09 3.184622e-09 3.463667e-09 3.056686e-09 3.291883e-09 3.018764e-09 3.177894e-09 3.722787e-09 3.216349e-09
2.813429e-09 4.120005e-09 2.721012e-09 4.259354e-09 3.195934e-09 4.092910e-09 4.444970e-09 2.966868e-09 3.402289e-09 4.567967e-09
4.967579e-09 4.273351e-09 4.456313e-09 3.171476e-09 3.709536e-09 3.576956e-09 4.874340e-09 2.292897e-09 3.128098e-09 4.520846e-09
3.328021e-09 2.762505e-09 3.634419e-09 3.946266e-09 3.857294e-09 3.671990e-09 2.307554e-09 3.462778e-09 4.028948e-09 3.974178e-09
4.002743e-09 3.071659e-09 3.335367e-09 2.840231e-09 2.347221e-09 5.617065e-09 2.654330e-09 4.348044e-09 3.606932e-09 3.816901e-09
2.206571e-09 3.183037e-09 1.984786e-09 3.667949e-09 1.593674e-09 1.753548e-09 2.943527e-09 1.432631e-09 3.974920e-09 3.230254e-09
4.291519e-09 2.379069e-09 1.444240e-09 3.827059e-09 3.478726e-09 2.958447e-09 1.472086e-09 2.262622e-09 3.267002e-09 3.605001e-09
1.546949e-09 1.830748e-09 4.619009e-09 1.033088e-09 1.841392e-09 3.863096e-09 1.993740e-09 2.806659e-09 3.149513e-09 3.635258e-09
2.416800e-09 1.307233e-09 4.006899e-09 5.066017e-09 1.840569e-09 4.520826e-09 2.989285e-09 4.599578e-09 3.793976e-09 2.751843e-09
3.055960e-09 4.487573e-09 4.684411e-09 3.261289e-09 5.053168e-09 2.273889e-09 2.787766e-09 4.276715e-09 2.939198e-09 4.232673e-09
4.053979e-09 3.457263e-09 2.507823e-09 3.756507e-09 5.450148e-09 3.823169e-09 3.423609e-09 3.498685e-09 3.511792e-09 4.232433e-09
3.494983e-09 4.966042e-09 5.091773e-09 4.337383e-09 2.875939e-09 3.382773e-09 3.823778e-09 3.646051e-09 5.315911e-09 2.982818e-09
4.761701e-09 4.189392e-09 4.543958e-09 5.336986e-09 4.384897e-09 3.076025e-09 3.198947e-09 4.518169e-09 2.918324e-09 4.689606e-09
3.241773e-09 1.557036e-09 3.771310e-09 2.858163e-09 4.415779e-09 4.067562e-09 4.349861e-09 2.959004e-09 3.510602e-09 2.244091e-09
1.992988e-09 3.535674e-09 2.988806e-09 3.936425e-09 2.728593e-09 2.556054e-09 1.994001e-09 3.659020e-09 3.647954e-09 3.436708e-09
3.286416e-09 2.979093e-09 5.190911e-09 3.528793e-09 3.542085e-09 2.638131e-09 4.233727e-09 4.141503e-09 2.775300e-09 2.207758e-09
1.683805e-09
2.365373e-09 4.379834e-09 3.141710e-09 3.054308e-09 3.178726e-09 3.252144e-09 3.577586e-09 3.526040e-09 3.484037e-09 3.883555e-09
4.999453e-09 2.121019e-09 3.711485e-09 4.344936e-09 3.802651e-09 2.244374e-09 3.280255e-09 3.531632e-09 3.406497e-09 4.186040e-09
3.083198e-09 2.421935e-09 4.950948e-09 3.150793e-09 4.572863e-09 3.612923e-09 3.111940e-09 4.794510e-09 3.599312e-09 2.008973e-09
3.912839e-09 6.136769e-09 4.174096e-09 4.000707e-09 4.057854e-09 4.710740e-09 5.140699e-09 4.470815e-09 4.177128e-09 4.079217e-09
3.983135e-09 4.816738e-09 3.096644e-09 4.281035e-09 3.015377e-09 4.330055e-09 4.591989e-09 3.606720e-09 4.740451e-09 3.775823e-09
4.577885e-09 4.153507e-09 4.364956e-09 4.035452e-09 4.981153e-09 4.337438e-09 3.465751e-09 4.431576e-09 3.617900e-09 3.281690e-09
2.911950e-09 3.946858e-09 4.517911e-09 4.172520e-09 3.011725e-09 4.061752e-09 3.922669e-09 3.475513e-09 5.702117e-09 3.754719e-09
5.061639e-09 2.995893e-09 4.816157e-09 4.012241e-09 2.746795e-09 4.421824e-09 4.101011e-09 4.146601e-09 4.007448e-09 4.607406e-09
2.114988e-09 5.322413e-09 4.454703e-09 2.842357e-09 2.094058e-09 2.456076e-09 3.071879e-09 2.919359e-09 3.595621e-09 2.462903e-09
2.995488e-09 4.787340e-09 3.206916e-09 2.740453e-09 4.498785e-09 3.590934e-09 3.637484e-09 4.050532e-09 3.100995e-09 3.168982e-09
3.345654e-09 3.685149e-09 2.262460e-09 3.503900e-09 2.153967e-09 4.194725e-09 4.676352e-09 4.314512e-09 3.990156e-09 4.355065e-09
1.797583e-09 2.668032e-09 3.479553e-09 4.466130e-09 3.027279e-09 4.001769e-09 4.055722e-09 4.174256e-09 2.995575e-09 4.565461e-09
4.643978e-09 3.599427e-09 3.761852e-09 5.333985e-09 2.895852e-09 4.264594e-09 3.214538e-09 4.897753e-09 3.974483e-09 4.918885e-09
3.734800e-09 5.190798e-09 3.768285e-09 3.579030e-09 4.293842e-09 2.789299e-09 4.832510e-09 3.460636e-09 3.899307e-09 3.281453e-09
3.760434e-09 4.068829e-09 3.838190e-09 3.003838e-09 4.202108e-09 5.060770e-09 2.608899e-09 3.905876e-09 2.794378e-09 4.381307e-09
4.365625e-09 5.030532e-09 4.949108e-09 3.212987e-09 3.740519e-09 3.639386e-09 4.490877e-09 4.369463e-09 4.273806e-09 4.291814e-09
2.672828e-09 4.472829e-09 3.687878e-09 5.205311e-09 4.426200e-09 4.111199e-09 2.623779e-09 3.839108e-09 3.962043e-09 2.517861e-09
3.290753e-09 4.916494e-09 2.958284e-09 4.350481e-09 3.496228e-09 2.445647e-09 3.110338e-09 1.817800e-09 2.956242e-09 2.304150e-09
2.747017e-09 3.016503e-09 2.214001e-09 3.843289e-09 5.053954e-09 3.274977e-09 4.249900e-09 3.215029e-09 3.546760e-09 2.709996e-09
2.728414e-09 4.106148e-09 3.673159e-09 3.638273e-09 4.701620e-09 2.548277e-09 3.605640e-09 4.746516e-09 3.079855e-09 4.026891e-09
4.941999e-09 3.044943e-09 2.788219e-09 4.919172e-09 4.328106e-09 2.828942e-09 2.846420e-09 4.098707e-09 3.736969e-09 4.205969e-09
3.672767e-09 3.457836e-09 4.680852e-09 4.861196e-09 4.183521e-09 4.378176e-09 4.715577e-09 5.161412e-09 3.440695e-09 4.910193e-09
4.558980e-09 3.167692e-09 4.234823e-09 3.865564e-09 5.072808e-09 4.103511e-09 5.000533e-09 4.067760e-09 3.230477e-09 2.373971e-09
4.175587e-09 4.601049e-09 4.560909e-09 4.091085e-09 3.132927e-09 3.848822e-09 3.877012e-09 3.959616e-09 4.121470e-09 4.730073e-09
3.122400e-09 4.134546e-09 3.789923e-09 3.675756e-09 3.296007e-09 4.295542e-09 3.958096e-09 4.720183e-09 4.241093e-09 2.076502e-09
5.449763e-09 2.475673e-09 3.667727e-09 3.280301e-09 2.857456e-09 2.603386e-09 2.772046e-09 4.671010e-09 4.372503e-09 2.076765e-09
3.041834e-09 3.247168e-09 3.787656e-09 5.393044e-09 4.735015e-09 2.257528e-09 1.071612e-09 3.916838e-09 3.678506e-09 2.794726e-09
3.459930e-09 4.213924e-09 2.046505e-09 4.108074e-09 2.105324e-09 4.097635e-09 6.580495e-09 3.075863e-09 3.632731e-09 4.073172e-09
3.562432e-09 4.179493e-09 2.985407e-09 3.242098e-09 2.925139e-09 4.814993e-09 3.092664e-09 2.936740e-09 3.960777e-09 2.025794e-09
2.932601e-09 4.821163e-09 3.875678e-09 3.896857e-09 4.021196e-09 1.949474e-09 3.061549e-09 3.317077e-09 2.948662e-09 4.627775e-09
4.627334e-09 3.975844e-09 4.887336e-09 3.336623e-09 4.676148e-09 4.639043e-09 2.879755e-09 4.242844e-09 3.099421e-09 3.854900e-09
4.238246e-09 4.280656e-09 3.795847e-09 3.996968e-09 5.482933e-09 3.106710e-09 5.356719e-09 4.192566e-09 3.615249e-09 4.434376e-09
3.598683e-09 4.119461e-09 3.689318e-09 6.011322e-09 5.558132e-09 4.416733e-09 4.151097e-09 3.304901e-09 2.249699e-09 4.311338e-09
4.671517e-09 3.470374e-09 4.179717e-09 2.855630e-09 4.176060e-09 4.147451e-09 3.643852e-09 3.604629e-09 3.798088e-09 3.258858e-09
3.894733e-09 3.968740e-09 3.242236e-09 3.851784e-09 3.224117e-09 3.845516e-09 4.541529e-09 3.921190e-09 3.186627e-09 3.728269e-09
2.473242e-09 4.265248e-09 3.682989e-09 3.671176e-09 3.188241e-09 2.750830e-09 2.691210e-09 3.237693e-09 1.665213e-09 1.567067e-09
2.365373e-09
4.249886e-09 4.465570e-09 4.857407e-09 3.966738e-09 3.488091e-09 4.052251e-09 3.043304e-09 3.736830e-09 4.314568e-09 5.645441e-09
2.551004e-09 4.284152e-09 3.235329e-09 2.093127e-09 5.025155e-09 2.928095e-09 4.746839e-09 4.192616e-09 4.651959e-09 5.537010e-09
3.749405e-09 3.724123e-09 4.005295e-09 4.002856e-09 4.156222e-09 3.000132e-09 4.067593e-09 4.462564e-09 3.749677e-09 3.286345e-09
3.739272e-09 4.771973e-09 4.229686e-09 3.240609e-09 4.603357e-09 4.364532e-09 4.490407e-09 4.071319e-09 4.705338e-09 5.202910e-09
3.686713e-09 4.681218e-09 4.260642e-09 4.231223e-09 4.395174e-09 4.531982e-09 4.144274e-09 4.436667e-09 5.006006e-09 5.548905e-09
4.831805e-09 4.359308e-09 4.626612e-09 4.766399e-09 4.253411e-09 3.972192e-09 5.776247e-09 4.097902e-09 5.267509e-09 4.739934e-09
5.110965e-09 4.685308e-09 3.814756e-09 4.182154e-09 4.938645e-09 3.399392e-09 3.948937e-09 4.534698e-09 4.382291e-09 5.507987e-09
4.639165e-09 5.046091e-09 4.078191e-09 5.342857e-09 3.673795e-09 4.106572e-09 4.337820e-09 3.627752e-09 4.972595e-09 3.617888e-09
4.792545e-09 3.180392e-09 3.582330e-09 3.264426e-09 2.458498e-09 4.763441e-09 3.765317e-09 4.259383e-09 4.399640e-09 2.892558e-09
5.503477e-09 3.269491e-09 1.928578e-09 2.332830e-09 3.350818e-09 2.557349e-09 4.328220e-09 3.202815e-09 3.763629e-09 3.721006e-09
4.093835e-09 2.920274e-09 4.605985e-09 3.039857e-09 4.048759e-09 6.303220e-09 3.613342e-09 3.895762e-09 3.903201e-09 5.068907e-09
3.719093e-09 3.753085e-09 3.636401e-09 4.598181e-09 4.220564e-09 4.619340e-09 4.652500e-09 3.954815e-09 3.197806e-09 4.175074e-09
3.768656e-09 3.938027e-09 3.513923e-09 5.272387e-09 4.205684e-09 5.705788e-09 5.169109e-09 3.184370e-09 4.004611e-09 4.110303e-09
4.692446e-09 5.394443e-09 4.225468e-09 4.887854e-09 4.065361e-09 3.643532e-09 4.947425e-09 4.849156e-09 3.488318e-09 4.398644e-09
5.536811e-09 4.635609e-09 5.246978e-09 3.425012e-09 4.278093e-09 6.079730e-09 3.594637e-09 4.859130e-09 3.256744e-09 4.692245e-09
4.187426e-09 3.570754e-09 3.188834e-09 4.706336e-09 5.212728e-09 3.901814e-09 5.093181e-09 3.460435e-09 5.160498e-09 4.951910e-09
3.903429e-09 3.196601e-09 2.604935e-09 4.341296e-09 2.169432e-09 4.524062e-09 4.932570e-09 3.964332e-09 3.293594e-09 3.163546e-09
3.528992e-09 4.126267e-09 3.496271e-09 3.869992e-09 1.289488e-09 4.184360e-09 3.970812e-09 9.762950e-10 2.702538e-09 2.595923e-09
3.391600e-09 4.166913e-09 2.690308e-09 2.827084e-09 3.325426e-09 4.377730e-09 4.339397e-09 3.370764e-09 3.393910e-09 2.645916e-09
4.282045e-09 4.235230e-09 3.399796e-09 5.367815e-09 4.385100e-09 4.562716e-09 4.186351e-09 3.057565e-09 4.070410e-09 4.988340e-09
4.853024e-09 4.669476e-09 3.402611e-09 4.638909e-09 5.019429e-09 4.088187e-09 3.597398e-09 4.153430e-09 3.283163e-09 3.949440e-09
4.310579e-09 3.262700e-09 5.069937e-09 3.998250e-09 4.657960e-09 4.305498e-09 4.789932e-09 4.391115e-09 4.890107e-09 3.324624e-09
5.002030e-09 5.480938e-09 4.944851e-09 4.079240e-09 3.521144e-09 5.086874e-09 4.541227e-09 4.528067e-09 5.676551e-09 4.404871e-09
4.480867e-09 3.891093e-09 3.961979e-09 5.612957e-09 4.462932e-09 4.935586e-09 3.929049e-09 5.138487e-09 4.468230e-09 3.610165e-09
3.858000e-09 5.873511e-09 5.294708e-09 3.815758e-09 5.933088e-09 4.898993e-09 3.488559e-09 5.342490e-09 3.882176e-09 4.772087e-09
4.422583e-09 3.208064e-09 3.392059e-09 4.661649e-09 3.676091e-09 3.175891e-09 3.130176e-09 3.811043e-09 5.659992e-09 4.529908e-09
5.196214e-09 3.720068e-09 3.285749e-09 3.802452e-09 5.735673e-09 2.605504e-09 2.349246e-09 2.969174e-09 2.826965e-09 3.050743e-09
3.202818e-09 2.378236e-09 3.061046e-09 4.990854e-09 4.095131e-09 2.813025e-09 3.708895e-09 4.409888e-09 3.882764e-09 2.445175e-09
4.309675e-09 1.902923e-09 2.519872e-09 4.767986e-09 5.285363e-09 4.215759e-09 4.230178e-09 3.776241e-09 4.802537e-09 3.954966e-09
4.855416e-09 4.476476e-09 4.370817e-09 4.866508e-09 2.700907e-09 4.831336e-09 4.584783e-09 5.343855e-09 4.079681e-09 4.268632e-09
3.725224e-09 4.326607e-09 3.161604e-09 6.140269e-09 4.932977e-09 4.496653e-09 3.954366e-09 5.453904e-09 4.397087e-09 4.371542e-09
5.845405e-09 5.628350e-09 3.834890e-09 4.973893e-09 3.837016e-09 3.540241e-09 5.285608e-09 5.416462e-09 5.117791e-09 5.295270e-09
5.831823e-09 5.109777e-09 4.243797e-09 5.086494e-09 4.396566e-09 4.210951e-09 4.328589e-09 5.058016e-09 5.004611e-09 3.567386e-09
5.359311e-09 3.385992e-09 4.580743e-09 4.199002e-09 3.868436e-09 3.367185e-09 5.895967e-09 4.131928e-09 3.884104e-09 3.205935e-09
4.230557e-09 2.630918e-09 2.854041e-09 3.574038e-09 3.823371e-09 4.523997e-09 3.060280e-09 5.314153e-09 3.364217e-09 3.735307e-09
5.339674e-09 3.297468e-09 4.661904e-09 4.214632e-09 5.192802e-09 2.141702e-09 4.416077e-09 3.485991e-09 3.610540e-09 3.281409e-09
4.249886e-09
4.552764e-09 4.097672e-09 2.911641e-09 5.636131e-09 3.688677e-09 1.935092e-09 2.801255e-09 4.110971e-09 3.903372e-09 4.987350e-09
4.743875e-09 4.636675e-09 4.375177e-09 4.384847e-09 4.574931e-09 5.028006e-09 4.864594e-09 3.544031e-09 3.794510e-09 3.759788e-09
3.917104e-09 5.906531e-09 4.438396e-09 5.268366e-09 4.207136e-09 4.613682e-09 3.092596e-09 3.968665e-09 5.068243e-09 3.499834e-09
4.369625e-09 4.398038e-09 3.974260e-09 6.202509e-09 4.769715e-09 5.455323e-09 4.594301e-09 4.620418e-09 4.655930e-09 5.239032e-09
2.928506e-09 5.139466e-09 5.624956e-09 4.935501e-09 4.601698e-09 4.444094e-09 6.019457e-09 4.202455e-09 5.102252e-09 3.124654e-09
3.883800e-09 4.823525e-09 4.928056e-09 5.727012e-09 4.863921e-09 3.827345e-09 4.634868e-09 5.374164e-09 4.248907e-09 5.481442e-09
4.470052e-09 5.527303e-09 4.398482e-09 5.689055e-09 4.851010e-09 5.061366e-09 5.637336e-09 3.744810e-09 3.713341e-09 3.374584e-09
4.005308e-09 4.931284e-09 7.512333e-09 3.802909e-09 4.151636e-09 4.012372e-09 5.026862e-09 5.452788e-09 2.132352e-09 2.861944e-09
4.756599e-09 3.068529e-09 4.295587e-09 3.566502e-09 5.345073e-09 5.085075e-09 3.712037e-09 2.367419e-09 2.442520e-09 4.766590e-09
2.846628e-09 3.687236e-09 3.517173e-09 6.228189e-09 1.632864e-09 3.345401e-09 2.604476e-09 4.266717e-09 4.333115e-09 6.659084e-09
4.072905e-09 4.687803e-09 7.056306e-09 3.912108e-09 4.087150e-09 4.213156e-09 6.063685e-09 3.367649e-09 6.217496e-09 5.642217e-09
4.337916e-09 5.063208e-09 5.335792e-09 3.891726e-09 4.720820e-09 3.380507e-09 4.508288e-09 3.771305e-09 5.219166e-09 5.318715e-09
4.654751e-09 5.775804e-09 4.300610e-09 5.152437e-09 4.304809e-09 4.675875e-09 4.471116e-09 5.263576e-09 5.039909e-09 3.939943e-09
4.724214e-09 4.241574e-09 5.228515e-09 3.409589e-09 4.600341e-09 4.505463e-09 4.778855e-09 4.501991e-09 4.328719e-09 4.164460e-09
5.282006e-09 4.102530e-09 4.633822e-09 4.770936e-09 4.447367e-09 5.834496e-09 4.551216e-09 5.184237e-09 2.947007e-09 5.380221e-09
4.167723e-09 5.137569e-09 4.518531e-09 4.387652e-09 3.921124e-09 3.809835e-09 5.858249e-09 4.484012e-09 6.046454e-09 5.058917e-09
4.385153e-09 3.338972e-09 5.640283e-09 3.683934e-09 4.369985e-09 4.893971e-09 6.155241e-09 3.291483e-09 3.082396e-09 3.002115e-09
2.856780e-09 3.694384e-09 5.006891e-09 3.716440e-09 4.369674e-09 5.006692e-09 2.967745e-09 4.151929e-09 3.774126e-09 4.089710e-09
3.710894e-09 4.822301e-09 2.646994e-09 2.273026e-09 3.999725e-09 3.512962e-09 4.905702e-09 4.241308e-09 4.498514e-09 4.439556e-09
2.920723e-09 5.729331e-09 4.740881e-09 4.945935e-09 4.048497e-09 4.176592e-09 3.582931e-09 4.542490e-09 4.721751e-09 4.702489e-09
3.624740e-09 4.839194e-09 4.175086e-09 4.963979e-09 4.725945e-09 4.655874e-09 4.520784e-09 4.648170e-09 4.098091e-09 4.544275e-09
4.373524e-09 5.153994e-09 4.776243e-09 3.668348e-09 4.166368e-09 5.098606e-09 5.066052e-09 4.736892e-09 5.764891e-09 4.353521e-09
5.121578e-09 5.695887e-09 4.407527e-09 4.903743e-09 3.552138e-09 3.751751e-09 4.697737e-09 5.245680e-09 5.130366e-09 4.674779e-09
4.276079e-09 4.510071e-09 4.188940e-09 4.214701e-09 5.631177e-09 4.206171e-09 4.076299e-09 4.311135e-09 5.257176e-09 5.389409e-09
5.013347e-09 5.032626e-09 4.818693e-09 4.446701e-09 4.332408e-09 4.725297e-09 4.829757e-09 4.741768e-09 3.715718e-09 3.119959e-09
4.473976e-09 4.567635e-09 4.353016e-09 4.622172e-09 3.198496e-09 2.945380e-09 3.222450e-09 6.126216e-09 5.302960e-09 5.788176e-09
5.160276e-09 3.890798e-09 4.767185e-09 3.102894e-09 4.304979e-09 3.203370e-09 3.666507e-09 3.333059e-09 1.923209e-09 4.559547e-09
4.210519e-09 2.853584e-09 5.124047e-09 5.089046e-09 2.173823e-09 4.070705e-09 4.964781e-09 4.608855e-09 4.996327e-09 4.347746e-09
4.579178e-09 5.668932e-09 3.671939e-09 5.104136e-09 5.213080e-09 6.134803e-09 4.112087e-09 4.926811e-09 2.585554e-09 5.243452e-09
3.536913e-09 3.655210e-09 3.805834e-09 4.256732e-09 5.522812e-09 4.462698e-09 4.454414e-09 4.480670e-09 3.190666e-09 4.451827e-09
5.018583e-09 5.058958e-09 6.240815e-09 5.244582e-09 4.462031e-09 5.060890e-09 5.141736e-09 3.943228e-09 5.305574e-09 4.599017e-09
3.918146e-09 5.183586e-09 5.547775e-09 5.367789e-09 5.473041e-09 6.074080e-09 4.385943e-09 4.131891e-09 5.056837e-09 5.065908e-09
4.629541e-09 4.637266e-09 4.595468e-09 3.845571e-09 4.301918e-09 3.974114e-09 4.095862e-09 5.478479e-09 3.873686e-09 4.945350e-09
3.044066e-09 3.821441e-09 6.302523e-09 4.956948e-09 5.498299e-09 5.078970e-09 3.845759e-09 3.852851e-09 5.634353e-09 3.746255e-09
3.277642e-09 5.753795e-09 5.094296e-09 3.470081e-09 4.415595e-09 4.923139e-09 4.666941e-09 4.759376e-09 3.941329e-09 3.668666e-09
3.446976e-09 6.267206e-09 6.721000e-09 1.581971e-09 3.320669e-09 3.691590e-09 5.052341e-09 3.203766e-09 3.326003e-09 3.422638e-09
4.552764e-09
7.111410e-09 3.037021e-09 2.730282e-09 4.218190e-09 5.325858e-09 6.122523e-09 4.150182e-09 6.631677e-09 5.282516e-09 4.768228e-09
4.563414e-09 3.551099e-09 5.173035e-09 4.563821e-09 4.010873e-09 3.845839e-09 3.693001e-09 5.251042e-09 4.702674e-09 3.568202e-09
4.389312e-09 3.157519e-09 5.520304e-09 3.940021e-09 4.847082e-09 5.189357e-09 3.687743e-09 6.132770e-09 4.136568e-09 4.943336e-09
5.460661e-09 5.094225e-09 5.307593e-09 4.209924e-09 5.731290e-09 5.067248e-09 4.466531e-09 3.930881e-09 4.962807e-09 6.620687e-09
5.628543e-09 5.185102e-09 4.763670e-09 3.965540e-09 5.729575e-09 4.306058e-09 5.374439e-09 5.991396e-09 5.222422e-09 5.359452e-09
4.706209e-09 6.327395e-09 5.584290e-09 4.522760e-09 4.927424e-09 5.036626e-09 4.990683e-09 4.357712e-09 4.444957e-09 2.957823e-09
4.547792e-09 5.724869e-09 5.001947e-09 5.116945e-09 5.106195e-09 5.457753e-09 5.434702e-09 5.499164e-09 5.272712e-09 5.195545e-09
5.635658e-09 5.009882e-09 5.606434e-09 5.561534e-09 3.617593e-09 4.532154e-09 5.115638e-09 5.296317e-09 5.885251e-09 5.487896e-09
5.513696e-09 2.922349e-09 5.498735e-09 4.773140e-09 5.140738e-09 3.897903e-09 4.735201e-09 5.213407e-09 4.709880e-09 5.028897e-09
4.552736e-09 5.381294e-09 4.390440e-09 4.276204e-09 4.411278e-09 4.177243e-09 4.457665e-09 4.736412e-09 4.724241e-09 5.352624e-09
5.049467e-09 4.696817e-09 4.697339e-09 3.754743e-09 4.331282e-09 5.670947e-09 4.464902e-09 3.456051e-09 4.093415e-09 4.123530e-09
4.260436e-09 4.657918e-09 4.098600e-09 4.907672e-09 6.719432e-09 5.185233e-09 4.830657e-09 5.721407e-09 4.298123e-09 5.478193e-09
5.666149e-09 4.302148e-09 4.583981e-09 3.925575e-09 4.629955e-09 4.927580e-09 4.230792e-09 5.276849e-09 5.585525e-09 5.828019e-09
4.743315e-09 4.291909e-09 6.346129e-09 5.759157e-09 5.289621e-09 4.555474e-09 4.521910e-09 4.445997e-09 4.201045e-09 6.400825e-09
6.353343e-09 6.447145e-09 3.723968e-09 3.701549e-09 5.663912e-09 5.611182e-09 5.192161e-09 6.488297e-09 4.324404e-09 5.660089e-09
6.977264e-09 5.278260e-09 4.857162e-09 6.192910e-09 5.799742e-09 5.779215e-09 3.875595e-09 4.497229e-09 6.012627e-09 5.832853e-09
5.495451e-09 3.810557e-09 5.146354e-09 3.963304e-09 5.454551e-09 5.428471e-09 5.616551e-09 3.595410e-09 4.318882e-09 4.800547e-09
3.764608e-09 5.167497e-09 3.826782e-09 4.041892e-09 2.514400e-09 4.722719e-09 5.433289e-09 4.108731e-09 5.405483e-09 3.316735e-09
4.559330e-09 4.390659e-09 3.916476e-09 4.795439e-09 3.943964e-09 3.246276e-09 3.229127e-09 4.673209e-09 5.210728e-09 6.119364e-09
4.573243e-09 4.792498e-09 4.453967e-09 5.221533e-09 4.147779e-09 5.484336e-09 3.794721e-09 4.024598e-09 4.839122e-09 4.782001e-09
5.924803e-09 4.318299e-09 4.096842e-09 5.844795e-09 3.915605e-09 4.951986e-09 5.338244e-09 5.046829e-09 5.849718e-09 4.312327e-09
4.826990e-09 4.520803e-09 5.268574e-09 5.846273e-09 5.373428e-09 5.230055e-09 5.652330e-09 5.391154e-09 5.347154e-09 4.877175e-09
4.224185e-09 5.780725e-09 4.113808e-09 5.151982e-09 6.004813e-09 5.341013e-09 3.894802e-09 5.333284e-09 5.079595e-09 5.696310e-09
4.172362e-09 6.059898e-09 5.422289e-09 5.252859e-09 5.028205e-09 5.545802e-09 6.747773e-09 6.027948e-09 6.445108e-09 4.870252e-09
5.782189e-09 7.538115e-09 5.387346e-09 5.669379e-09 5.869339e-09 4.761675e-09 5.389087e-09 4.391579e-09 3.682809e-09 5.000242e-09
2.416546e-09 5.209193e-09 3.197093e-09 4.698704e-09 5.210427e-09 4.940631e-09 5.058840e-09 4.944606e-09 3.299044e-09 4.152841e-09
4.650603e-09 3.439310e-09 2.313751e-09 2.913231e-09 5.633779e-09 4.158991e-09 4.273458e-09 3.398080e-09 3.048524e-09 3.406072e-09
2.443707e-09 3.772910e-09 3.543639e-09 4.577858e-09 2.734672e-09 3.715752e-09 4.277750e-09 3.610557e-09 5.544509e-09 5.158694e-09
4.356884e-09 5.122786e-09 4.350948e-09 5.754443e-09 4.393832e-09 5.115041e-09 5.562741e-09 5.367654e-09 5.969022e-09 4.411962e-09
5.993016e-09 4.697048e-09 5.784871e-09 5.848277e-09 5.241527e-09 6.431291e-09 3.663302e-09 5.726859e-09 4.570749e-09 5.111363e-09
5.344921e-09 5.152037e-09 4.519053e-09 5.985203e-09 4.256721e-09 5.347255e-09 4.640303e-09 5.130139e-09 4.990211e-09 4.676992e-09
5.205391e-09 5.315538e-09 5.413629e-09 5.440178e-09 4.821331e-09 5.553815e-09 6.650374e-09 5.320773e-09 5.436936e-09 5.859674e-09
5.028935e-09 5.140512e-09 4.195973e-09 5.214432e-09 5.458196e-09 3.825977e-09 5.951125e-09 5.069271e-09 6.629824e-09 5.808982e-09
3.957600e-09 4.104636e-09 4.567506e-09 4.192233e-09 4.639650e-09 5.933989e-09 6.601001e-09 3.990750e-09 5.059551e-09 5.097195e-09
4.589737e-09 3.716623e-09 4.945319e-09 3.124733e-09 6.236530e-09 6.001547e-09 6.064505e-09 4.136060e-09 3.450879e-09 4.072020e-09
5.114220e-09 3.169591e-09 4.424543e-09 5.216272e-09 2.662068e-09 6.028381e-09 2.761589e-09 3.436958e-09 4.310651e-09 3.011251e-09
7.111410e-09
3.790312e-09 4.765318e-09 3.898796e-09 4.592059e-09 3.248708e-09 3.533493e-09 3.780685e-09 3.841768e-09 7.289322e-09 5.315879e-09
5.271060e-09 4.289607e-09 4.175091e-09 5.057847e-09 5.277160e-09 6.462119e-09 6.864644e-09 4.785018e-09 6.824353e-09 4.956934e-09
5.532808e-09 5.380286e-09 5.866183e-09 4.458422e-09 5.135519e-09 4.931797e-09 5.296426e-09 4.791417e-09 4.499935e-09 5.382271e-09
4.404848e-09 5.509551e-09 4.522749e-09 6.065339e-09 5.852430e-09 5.928878e-09 4.333201e-09 4.643693e-09 4.155303e-09 5.991887e-09
5.748952e-09 4.930185e-09 5.114358e-09 4.916709e-09 6.590497e-09 5.789332e-09 5.316658e-09 5.609888e-09 5.498340e-09 6.573706e-09
4.456136e-09 5.106787e-09 5.781596e-09 5.510870e-09 6.150431e-09 5.345754e-09 4.165378e-09 5.607985e-09 4.869738e-09 4.421185e-09
5.270300e-09 5.769102e-09 5.347889e-09 5.513819e-09 5.252549e-09 6.561411e-09 5.576641e-09 5.787786e-09 5.011532e-09 4.657071e-09
4.367694e-09 6.949616e-09 4.582339e-09 3.921379e-09 5.802232e-09 4.872115e-09 4.412636e-09 4.568545e-09 6.220262e-09 3.797011e-09
5.481478e-09 6.137505e-09 6.271144e-09 2.901403e-09 5.828607e-09 5.755707e-09 5.392318e-09 3.687053e-09 4.956036e-09 4.972954e-09
3.696862e-09 3.338116e-09 4.005617e-09 7.050525e-09 3.122401e-09 4.868804e-09 3.546881e-09 4.139606e-09 6.798906e-09 5.561914e-09
4.862730e-09 3.890332e-09 4.927024e-09 3.589684e-09 4.855258e-09 6.728838e-09 5.043294e-09 4.950521e-09 6.896056e-09 5.163323e-09
5.803164e-09 5.664123e-09 4.721689e-09 6.050880e-09 5.017001e-09 5.629534e-09 5.088209e-09 4.617129e-09 6.024114e-09 4.428812e-09
4.545255e-09 6.145010e-09 5.393542e-09 4.983967e-09 5.056705e-09 5.582915e-09 5.386021e-09 4.707411e-09 6.513725e-09 6.064978e-09
5.266491e-09 5.898843e-09 6.405926e-09 5.932585e-09 5.742224e-09 4.285671e-09 6.119135e-09 6.016299e-09 6.149832e-09 4.901917e-09
5.462654e-09 5.816484e-09 4.795400e-09 6.751076e-09 5.557532e-09 5.116483e-09 5.574099e-09 6.710257e-09 5.725184e-09 6.448297e-09
6.440919e-09 5.964075e-09 4.182314e-09 4.930131e-09 5.021533e-09 5.794762e-09 5.217623e-09 4.556074e-09 4.663469e-09 5.764065e-09
2.949596e-09 4.489537e-09 6.014217e-09 6.302505e-09 4.427276e-09 4.433235e-09 5.642361e-09 4.117879e-09 4.873499e-09 4.197384e-09
5.128985e-09 5.355737e-09 5.045211e-09 4.959000e-09 4.932784e-09 3.366899e-09 3.854950e-09 4.741338e-09 4.862352e-09 5.052520e-09
5.170980e-09 3.084509e-09 4.873724e-09 3.800475e-09 5.151187e-09 5.980569e-09 4.946308e-09 4.123433e-09 6.224626e-09 4.933308e-09
5.541183e-09 5.488743e-09 5.876301e-09 4.553210e-09 4.630864e-09 5.141892e-09 4.579283e-09 5.517821e-09 5.089833e-09 3.866260e-09
4.056327e-09 5.184389e-09 4.999505e-09 4.614951e-09 4.330728e-09 4.658256e-09 5.889480e-09 4.682462e-09 5.565709e-09 5.627018e-09
6.030937e-09 5.817895e-09 4.302603e-09 4.709098e-09 5.582431e-09 5.649528e-09 5.828888e-09 6.024242e-09 5.969934e-09 5.369186e-09
5.107325e-09 6.266297e-09 5.920328e-09 5.614133e-09 4.665855e-09 5.038693e-09 4.897596e-09 4.115643e-09 5.596473e-09 5.072770e-09
5.055259e-09 4.849094e-09 6.267113e-09 5.193554e-09 5.159309e-09 4.877974e-09 4.791893e-09 6.655769e-09 5.917097e-09 6.359971e-09
6.050656e-09 5.777939e-09 5.789765e-09 4.264610e-09 5.166451e-09 6.201153e-09 5.861192e-09 5.069321e-09 5.365052e-09 5.523340e-09
4.643539e-09 6.137158e-09 5.513316e-09 6.410058e-09 4.999763e-09 6.051048e-09 4.735664e-09 5.757659e-09 4.626042e-09 4.672608e-09
4.583901e-09 5.326530e-09 6.058807e-09 4.526095e-09 2.999057e-09 4.228455e-09 5.154654e-09 3.452626e-09 6.054167e-09 3.029513e-09
3.704924e-09 3.909872e-09 3.873945e-09 4.692673e-09 4.321375e-09 5.579990e-09 4.119112e-09 3.123852e-09 5.184869e-09 4.544888e-09
5.791799e-09 4.201369e-09 4.357770e-09 5.711586e-09 3.786829e-09 6.554297e-09 4.939686e-09 5.723720e-09 5.377443e-09 5.819309e-09
5.613275e-09 5.445219e-09 5.506900e-09 6.006452e-09 5.727960e-09 5.535984e-09 5.169042e-09 5.073791e-09 6.431435e-09 5.017549e-09
5.055084e-09 6.443878e-09 5.037339e-09 5.040407e-09 4.904591e-09 5.983525e-09 5.823585e-09 5.593249e-09 5.573173e-09 5.157247e-09
5.358423e-09 6.282933e-09 6.817583e-09 6.167689e-09 5.923976e-09 6.615053e-09 5.745417e-09 5.832451e-09 5.763802e-09 6.296589e-09
4.564240e-09 6.250053e-09 5.459373e-09 5.770913e-09 5.262497e-09 6.010447e-09 4.482197e-09 4.462559e-09 5.737381e-09 4.948675e-09
4.344159e-09 4.882383e-09 5.533757e-09 5.212653e-09 5.880269e-09 6.351317e-09 4.625533e-09 5.680514e-09 4.174675e-09 5.380110e-09
6.114298e-09 5.301361e-09 5.173701e-09 5.649238e-09 4.935901e-09 4.233370e-09 4.973642e-09 4.057793e-09 4.692777e-09 4.161926e-09
3.898910e-09 4.109545e-09 3.658710e-09 4.864626e-09 6.017679e-09 3.595000e-09 3.351526e-09 4.259721e-09 4.801014e-09 2.411367e-09
3.790312e-09
4.878194e-09 5.750118e-09 5.184722e-09 5.288590e-09 4.433974e-09 6.196058e-09 4.207179e-09 3.785130e-09 5.462708e-09 6.013405e-09
5.520850e-09 6.578130e-09 3.843915e-09 6.348758e-09 4.937607e-09 6.369416e-09 4.974992e-09 6.024007e-09 4.554023e-09 6.924878e-09
6.167209e-09 5.372579e-09 5.760084e-09 5.235025e-09 5.643566e-09 5.664964e-09 5.229497e-09 6.716832e-09 4.905616e-09 5.621759e-09
5.381351e-09 4.799007e-09 4.781744e-09 5.233838e-09 6.349695e-09 6.001196e-09 7.686637e-09 5.633158e-09 5.680008e-09 6.700849e-09
6.261982e-09 5.980268e-09 6.049541e-09 5.259651e-09 5.156884e-09 6.361786e-09 5.588751e-09 5.988954e-09 7.233150e-09 6.680781e-09
6.010552e-09 7.398828e-09 4.757465e-09 6.183601e-09 5.686867e-09 6.064610e-09 6.460973e-09 5.615600e-09 4.524264e-09 5.016279e-09
6.392097e-09 6.383761e-09 6.922686e-09 6.981509e-09 5.540286e-09 6.194636e-09 7.253158e-09 5.809387e-09 6.170786e-09 4.887779e-09
5.899985e-09 6.993180e-09 4.879734e-09 6.055146e-09 7.712413e-09 5.512341e-09 5.596935e-09 5.910154e-09 3.625376e-09 4.933841e-09
4.980458e-09 6.397026e-09 6.851664e-09 6.257890e-09 4.459975e-09 4.311516e-09 4.344116e-09 5.271291e-09 5.149035e-09 4.123590e-09
5.272552e-09 6.254676e-09 3.270782e-09 4.583307e-09 6.114876e-09 6.153936e-09 4.283930e-09 3.587603e-09 5.056376e-09 3.556369e-09
3.585029e-09 5.086147e-09 5.866467e-09 4.972627e-09 4.581457e-09 5.813970e-09 6.365090e-09 5.793066e-09 5.520074e-09 6.021329e-09
6.352319e-09 5.628182e-09 4.936774e-09 5.615721e-09 6.597279e-09 6.777427e-09 5.769457e-09 6.364457e-09 5.543182e-09 4.995981e-09
4.939067e-09 6.182114e-09 6.147358e-09 5.552578e-09 5.780844e-09 6.542378e-09 6.051042e-09 5.928438e-09 6.716380e-09 5.383600e-09
5.948707e-09 5.599334e-09 6.476031e-09 5.389868e-09 6.266808e-09 4.887836e-09 5.917963e-09 6.038730e-09 6.184387e-09 7.205589e-09
4.921210e-09 6.357391e-09 7.174865e-09 5.812691e-09 5.836444e-09 4.831960e-09 6.476546e-09 6.058090e-09 5.378161e-09 4.913739e-09
4.684040e-09 6.703587e-09 6.104778e-09 5.332740e-09 6.526437e-09 4.550687e-09 4.770708e-09 6.170764e-09 5.698544e-09 4.637760e-09
4.350661e-09 6.038379e-09 4.792277e-09 4.077725e-09 4.023365e-09 4.839236e-09 4.509852e-09 5.240375e-09 4.663063e-09 4.808237e-09
4.138908e-09 5.566740e-09 5.096533e-09 4.878105e-09 5.967689e-09 4.276667e-09 5.749146e-09 4.646752e-09 5.418814e-09 3.483036e-09
6.389856e-09 4.135680e-09 3.920341e-09 4.083370e-09 4.518360e-09 5.878455e-09 6.030519e-09 4.628378e-09 6.364762e-09 4.311436e-09
4.949309e-09 5.660507e-09 6.345643e-09 5.316487e-09 4.899342e-09 5.615728e-09 5.381542e-09 4.528068e-09 5.074264e-09 6.483161e-09
5.365433e-09 5.606719e-09 5.927607e-09 4.461144e-09 5.261801e-09 5.302040e-09 6.016160e-09 5.669130e-09 5.284572e-09 5.703501e-09
4.831960e-09 5.659313e-09 4.576825e-09 6.557679e-09 6.572230e-09 5.533920e-09 4.675359e-09 6.393157e-09 5.437472e-09 4.913243e-09
5.646109e-09 6.415736e-09 6.101299e-09 5.921203e-09 6.526110e-09 5.341407e-09 5.848852e-09 6.586193e-09 5.015080e-09 5.707835e-09
5.805136e-09 6.802933e-09 5.599681e-09 6.171343e-09 6.836125e-09 6.210249e-09 4.449414e-09 6.856828e-09 6.042175e-09 4.963413e-09
6.916091e-09 5.271297e-09 6.025200e-09 6.436905e-09 5.782262e-09 6.073841e-09 6.320336e-09 5.362983e-09 5.317547e-09 4.918582e-09
5.712743e-09 5.330250e-09 5.065667e-09 5.190409e-09 6.159383e-09 4.491742e-09 5.214378e-09 4.294262e-09 4.417632e-09 4.540379e-09
4.716728e-09 5.286600e-09 5.258035e-09 4.771434e-09 6.428512e-09 4.802382e-09 5.095958e-09 5.043802e-09 4.851787e-09 4.876234e-09
4.379497e-09 4.300702e-09 5.259405e-09 6.449194e-09 6.546278e-09 6.054528e-09 6.468474e-09 6.161405e-09 5.145150e-09 6.292710e-09
5.851367e-09 3.891234e-09 5.176583e-09 5.331122e-09 4.109028e-09 5.974805e-09 4.772019e-09 5.821741e-09 5.736549e-09 7.354821e-09
5.602787e-09 6.258276e-09 5.203130e-09 4.179338e-09 6.987704e-09 6.810050e-09 5.114661e-09 5.715355e-09 5.850963e-09 6.141026e-09
5.241216e-09 5.248124e-09 6.605893e-09 6.022807e-09 5.516258e-09 3.891679e-09 6.269017e-09 5.462142e-09 7.382338e-09 5.798524e-09
5.807921e-09 6.622708e-09 6.227353e-09 5.019142e-09 7.407147e-09 5.807799e-09 5.464929e-09 5.781763e-09 6.306404e-09 5.288108e-09
6.586712e-09 4.987637e-09 5.415985e-09 5.289239e-09 6.264694e-09 6.224420e-09 5.105296e-09 6.470432e-09 5.847584e-09 6.715795e-09
5.573729e-09 7.400565e-09 6.603457e-09 5.842326e-09 6.071391e-09 5.762983e-09 5.857590e-09 5.658471e-09 5.522005e-09 6.168293e-09
5.457848e-09 6.154723e-09 5.176835e-09 6.219506e-09 5.312780e-09 3.961046e-09 4.812818e-09 5.210586e-09 5.352392e-09 4.343852e-09
4.689133e-09 5.100704e-09 4.956616e-09 5.751180e-09 3.303273e-09 4.082164e-09 6.233547e-09 4.826221e-09 4.659107e-09 5.611988e-09
4.878194e-09
5.667342e-09 4.879622e-09 6.654996e-09 5.177516e-09 5.076137e-09 6.084945e-09 4.802585e-09 4.126677e-09 5.098939e-09 4.817327e-09
5.260334e-09 5.536037e-09 6.182717e-09 6.524949e-09 7.015002e-09 6.490199e-09 6.698424e-09 6.042308e-09 5.367100e-09 5.250633e-09
5.254151e-09 4.627525e-09 6.340088e-09 4.877534e-09 6.271390e-09 6.083891e-09 5.559094e-09 5.816405e-09 7.657025e-09 6.035344e-09
6.728818e-09 6.384652e-09 6.766317e-09 6.129214e-09 5.438595e-09 6.819096e-09 6.635080e-09 5.779496e-09 6.325564e-09 6.574142e-09
6.739919e-09 6.680331e-09 5.827359e-09 5.996135e-09 6.219091e-09 6.759227e-09 4.887021e-09 7.074510e-09 6.457295e-09 6.925919e-09
7.690807e-09 5.241338e-09 7.273586e-09 6.278686e-09 7.413048e-09 5.931225e-09 5.761615e-09 5.479811e-09 5.828724e-09 6.224919e-09
6.374142e-09 5.694034e-09 5.280886e-09 7.375451e-09 5.987151e-09 5.522153e-09 5.840969e-09 6.286746e-09 6.218376e-09 6.299250e-09
5.860736e-09 6.447376e-09 6.885729e-09 5.533499e-09 3.244628e-09 5.895648e-09 4.350196e-09 5.852593e-09 5.074812e-09 4.796216e-09
6.279045e-09 6.325512e-09 4.982753e-09 4.126946e-09 4.642372e-09 4.983475e-09 6.256352e-09 4.300102e-09 3.676369e-09 5.379595e-09
4.763629e-09 3.898905e-09 4.731606e-09 5.380986e-09 5.877044e-09 4.490251e-09 5.772835e-09 7.356624e-09 6.160594e-09 6.050471e-09
6.873050e-09 6.768742e-09 5.935865e-09 5.217089e-09 6.624047e-09 6.597888e-09 7.539504e-09 5.299251e-09 6.818465e-09 7.836994e-09
5.440830e-09 4.619412e-09 4.425896e-09 4.605939e-09 6.487908e-09 6.689415e-09 6.239576e-09 5.743732e-09 6.870370e-09 6.660928e-09
6.710094e-09 5.873178e-09 5.774046e-09 5.525695e-09 5.576454e-09 5.057459e-09 8.276593e-09 5.520267e-09 6.317056e-09 6.523190e-09
6.615121e-09 4.822477e-09 6.509695e-09 6.488241e-09 6.122568e-09 5.134800e-09 5.992221e-09 6.080947e-09 6.711401e-09 6.229151e-09
5.709390e-09 6.898313e-09 5.809875e-09 6.536094e-09 6.496949e-09 5.798734e-09 5.464754e-09 5.324539e-09 6.795384e-09 6.368602e-09
4.843141e-09 7.237043e-09 6.630545e-09 4.565335e-09 6.049473e-09 6.616515e-09 6.005237e-09 4.887070e-09 5.390379e-09 6.506727e-09
5.981432e-09 6.087419e-09 5.047556e-09 3.973843e-09 4.299477e-09 5.909175e-09 5.405592e-09 4.729574e-09 5.478489e-09 7.661285e-09
5.397647e-09 6.406311e-09 4.010363e-09 5.398734e-09 5.039182e-09 4.742304e-09 4.950823e-09 5.971229e-09 5.055456e-09 4.393563e-09
4.119132e-09 5.568950e-09 5.921838e-09 6.090317e-09 4.506746e-09 6.289721e-09 5.382697e-09 6.106847e-09 5.574831e-09 5.526228e-09
6.637962e-09 4.352627e-09 6.153721e-09 5.370591e-09 6.049973e-09 4.882064e-09 5.565711e-09 4.785240e-09 4.668847e-09 4.442354e-09
5.201207e-09 6.611085e-09 6.985659e-09 5.740331e-09 4.953963e-09 5.785155e-09 5.566742e-09 5.795414e-09 5.704417e-09 5.455625e-09
5.755548e-09 6.269421e-09 5.798406e-09 6.032653e-09 6.436187e-09 6.407577e-09 5.545811e-09 6.322044e-09 6.182741e-09 5.289932e-09
6.315347e-09 5.658519e-09 6.696825e-09 6.465551e-09 5.514062e-09 6.356723e-09 5.537778e-09 6.996249e-09 7.727952e-09 7.095881e-09
6.029941e-09 5.786562e-09 7.008188e-09 6.330230e-09 5.097931e-09 6.625667e-09 6.484278e-09 6.407745e-09 7.008962e-09 5.880812e-09
6.591561e-09 6.378146e-09 6.192427e-09 6.241640e-09 5.301020e-09 7.216229e-09 6.920804e-09 6.015632e-09 5.879302e-09 7.313664e-09
7.538393e-09 4.868616e-09 5.409904e-09 5.820331e-09 5.456206e-09 6.809464e-09 6.885274e-09 5.388211e-09 4.755676e-09 6.728301e-09
5.854714e-09 4.690827e-09 5.069825e-09 6.963206e-09 4.889295e-09 3.921139e-09 4.911750e-09 5.945134e-09 2.871126e-09 4.327047e-09
4.941845e-09 7.019248e-09 4.137668e-09 5.545029e-09 5.330431e-09 6.430672e-09 6.019642e-09 5.281276e-09 4.998943e-09 5.624839e-09
6.281466e-09 5.256652e-09 6.896123e-09 7.050415e-09 7.311444e-09 6.287274e-09 6.163631e-09 5.906745e-09 4.753709e-09 5.485029e-09
6.771622e-09 6.024463e-09 6.809279e-09 5.443326e-09 5.325445e-09 6.149794e-09 5.560311e-09 6.177197e-09 5.946207e-09 5.862141e-09
6.072266e-09 7.478461e-09 5.901325e-09 6.132336e-09 6.962594e-09 7.634901e-09 5.580627e-09 7.125022e-09 5.827276e-09 5.981476e-09
6.706388e-09 5.864981e-09 7.450090e-09 7.057584e-09 7.089243e-09 6.376665e-09 6.682826e-09 6.437515e-09 6.205160e-09 7.280977e-09
5.732989e-09 6.146416e-09 7.131661e-09 7.923870e-09 6.340626e-09 5.670985e-09 6.448877e-09 6.769683e-09 5.861074e-09 7.370506e-09
5.084316e-09 6.363726e-09 7.392237e-09 6.701337e-09 6.973516e-09 6.048003e-09 7.111159e-09 5.308948e-09 5.807644e-09 6.799048e-09
5.360471e-09 7.609643e-09 6.784949e-09 5.942197e-09 5.002203e-09 6.325893e-09 5.226911e-09 5.191194e-09 5.163276e-09 5.526895e-09
5.362108e-09 5.077043e-09 6.226463e-09 4.882172e-09 6.008253e-09 5.198527e-09 4.507639e-09 5.268307e-09 5.888359e-09 5.195596e-09
5.667342e-09
5.421072e-09 4.709543e-09 4.429144e-09 6.020418e-09 5.524068e-09 5.350261e-09 4.084075e-09 6.731330e-09 6.642868e-09 4.036342e-09
4.842662e-09 4.619225e-09 6.673927e-09 5.787539e-09 7.154539e-09 5.884772e-09 7.459041e-09 6.369094e-09 5.962486e-09 4.942158e-09
7.599678e-09 7.246591e-09 5.268745e-09 6.399389e-09 7.119699e-09 6.161661e-09 6.239437e-09 6.526797e-09 7.695949e-09 6.969615e-09
6.572682e-09 6.137098e-09 6.539633e-09 5.518261e-09 6.977030e-09 5.558190e-09 6.842075e-09 6.918491e-09 7.483108e-09 7.738406e-09
6.561720e-09 6.456939e-09 8.053381e-09 6.704136e-09 7.546771e-09 7.537433e-09 7.048083e-09 6.486873e-09 6.868978e-09 5.834191e-09
6.653499e-09 7.275614e-09 6.479455e-09 6.467726e-09 6.793690e-09 6.278680e-09 6.874525e-09 5.947400e-09 6.449991e-09 6.817027e-09
6.995477e-09 7.015792e-09 6.445600e-09 6.557123e-09 6.912012e-09 5.600073e-09 6.274028e-09 6.442527e-09 7.631320e-09 7.967107e-09
7.148921e-09 4.797907e-09 5.077602e-09 6.780318e-09 5.536300e-09 5.407462e-09 7.243839e-09 5.731396e-09 6.363130e-09 6.733250e-09
5.109527e-09 5.074988e-09 6.231965e-09 5.824492e-09 7.137759e-09 6.282243e-09 4.248596e-09 5.405181e-09 3.753506e-09 4.465873e-09
6.551925e-09 5.485143e-09 4.951399e-09 6.743202e-09 4.839789e-09 5.053381e-09 3.893666e-09 5.807544e-09 4.808898e-09 7.052353e-09
4.963330e-09 6.677729e-09 5.859579e-09 5.358892e-09 5.871613e-09 4.548152e-09 6.733687e-09 6.317379e-09 7.362897e-09 6.408038e-09
7.724138e-09 5.817805e-09 5.321535e-09 7.381302e-09 5.657377e-09 6.807775e-09 6.553773e-09 6.067800e-09 5.861887e-09 7.126488e-09
7.706113e-09 6.509721e-09 7.044725e-09 6.213954e-09 6.041054e-09 6.658825e-09 6.706119e-09 7.056466e-09 5.916244e-09 7.513015e-09
6.500410e-09 6.772751e-09 6.983852e-09 7.275559e-09 6.702818e-09 7.336110e-09 6.744184e-09 6.800758e-09 6.307884e-09 6.523114e-09
6.778187e-09 5.436517e-09 7.058927e-09 7.044733e-09 6.720347e-09 6.298260e-09 7.476586e-09 6.479084e-09 7.034515e-09 5.978214e-09
5.596173e-09 7.385413e-09 7.576677e-09 6.175502e-09 6.391154e-09 6.452094e-09 5.949534e-09 6.935214e-09 6.953323e-09 5.097098e-09
5.398241e-09 5.870222e-09 4.697749e-09 5.652458e-09 5.928710e-09 7.024159e-09 6.429525e-09 7.175320e-09 6.470620e-09 6.226990e-09
5.817168e-09 7.172380e-09 4.298087e-09 4.554688e-09 6.762029e-09 5.351213e-09 7.294563e-09 4.204445e-09 8.633504e-09 5.570996e-09
5.651497e-09 6.225376e-09 5.897570e-09 6.107662e-09 5.977643e-09 6.133747e-09 6.644354e-09 6.848919e-09 7.064437e-09 5.430815e-09
5.863442e-09 6.377037e-09 6.931209e-09 6.237838e-09 5.496695e-09 7.159995e-09 4.896178e-09 6.635068e-09 5.872102e-09 5.142608e-09
5.745301e-09 5.872176e-09 5.591460e-09 6.391269e-09 5.236866e-09 6.181960e-09 5.492803e-09 6.579942e-09 7.081560e-09 7.297773e-09
6.288750e-09 5.753320e-09 5.720038e-09 6.641214e-09 6.607601e-09 5.829680e-09 6.125422e-09 5.696076e-09 6.084492e-09 5.936335e-09
6.770409e-09 5.872666e-09 5.961409e-09 5.652055e-09 6.063779e-09 5.494304e-09 6.717921e-09 6.090219e-09 6.225154e-09 7.701339e-09
5.832324e-09 5.876726e-09 5.634303e-09 8.301854e-09 7.330866e-09 7.143358e-09 6.427614e-09 7.051540e-09 6.646449e-09 7.232025e-09
6.463404e-09 7.940376e-09 4.955726e-09 6.343623e-09 7.916095e-09 5.523433e-09 7.499501e-09 6.006189e-09 5.317989e-09 6.211244e-09
5.690699e-09 6.017862e-09 5.775558e-09 6.456407e-09 5.188159e-09 6.043367e-09 7.836537e-09 6.943671e-09 6.314808e-09 6.787564e-09
5.543198e-09 5.993139e-09 5.359527e-09 5.518551e-09 4.615083e-09 5.995224e-09 5.737423e-09 4.773650e-09 5.439078e-09 3.316848e-09
4.198438e-09 6.475473e-09 4.770297e-09 5.951891e-09 4.050240e-09 6.075537e-09 6.708512e-09 6.299532e-09 4.724990e-09 6.385512e-09
4.864711e-09 6.295131e-09 5.299524e-09 5.963434e-09 6.944191e-09 6.787686e-09 6.216355e-09 5.826742e-09 5.654847e-09 7.191677e-09
6.111843e-09 6.064621e-09 5.620173e-09 6.122086e-09 6.173366e-09 6.455713e-09 6.277078e-09 6.371666e-09 6.707841e-09 7.485572e-09
6.587717e-09 6.179637e-09 7.289611e-09 6.037442e-09 6.962206e-09 6.657936e-09 6.547564e-09 7.629019e-09 7.302069e-09 6.080440e-09
5.662404e-09 8.024936e-09 7.382510e-09 7.298956e-09 9.313738e-09 6.462416e-09 7.503559e-09 6.901973e-09 7.553388e-09 6.215747e-09
6.497139e-09 6.464791e-09 6.553433e-09 7.129735e-09 6.771739e-09 7.979537e-09 6.469622e-09 8.382801e-09 6.736920e-09 6.633126e-09
6.151652e-09 6.632999e-09 6.215463e-09 6.498658e-09 7.034868e-09 6.685006e-09 7.253000e-09 7.358844e-09 7.752658e-09 6.758640e-09
6.904170e-09 5.914739e-09 6.145845e-09 6.068922e-09 4.087770e-09 6.048090e-09 6.817634e-09 6.848920e-09 5.668153e-09 5.012859e-09
6.520143e-09 5.950850e-09 5.614928e-09 6.208770e-09 6.089467e-09 4.797180e-09 5.393285e-09 4.687698e-09 5.198484e-09 5.733548e-09
5.421072e-09
7.245917e-09 7.885392e-09 7.109103e-09 5.868712e-09 6.151024e-09 5.805987e-09 5.642383e-09 4.868337e-09 6.975804e-09 7.923607e-09
7.703522e-09 5.761744e-09 6.591565e-09 6.895402e-09 8.007700e-09 5.107921e-09 5.738604e-09 5.594089e-09 5.884289e-09 6.899155e-09
7.166100e-09 8.294070e-09 5.198215e-09 5.877508e-09 5.152794e-09 6.242919e-09 5.147418e-09 8.058985e-09 5.752398e-09 7.806151e-09
5.977795e-09 7.361352e-09 7.767039e-09 6.872300e-09 6.993764e-09 6.297552e-09 6.727829e-09 6.976383e-09 6.857000e-09 6.321986e-09
7.174300e-09 7.115424e-09 7.515550e-09 6.793803e-09 6.885131e-09 7.718833e-09 6.764116e-09 5.909834e-09 8.095728e-09 7.408536e-09
6.098241e-09 7.101558e-09 7.411229e-09 6.301082e-09 7.785328e-09 6.985348e-09 6.291645e-09 6.738078e-09 8.072241e-09 5.724916e-09
7.167409e-09 7.599564e-09 5.599251e-09 6.466965e-09 6.872346e-09 6.845477e-09 6.326459e-09 6.786847e-09 7.263844e-09 6.478324e-09
6.677869e-09 7.495086e-09 7.677129e-09 5.408072e-09 6.181527e-09 7.954228e-09 6.235930e-09 6.504019e-09 6.327529e-09 6.898039e-09
5.792938e-09 6.101597e-09 5.473166e-09 6.770794e-09 7.902799e-09 6.133591e-09 5.563123e-09 5.326059e-09 6.601184e-09 4.444736e-09
5.581107e-09 5.424853e-09 5.724610e-09 5.821575e-09 5.928554e-09 6.263931e-09 5.502540e-09 7.614488e-09 5.641453e-09 7.033687e-09
6.813810e-09 6.398511e-09 7.155203e-09 5.768971e-09 6.618921e-09 5.644095e-09 6.108862e-09 6.389378e-09 6.583248e-09 5.982188e-09
6.285267e-09 7.077749e-09 6.997275e-09 7.062903e-09 7.138111e-09 6.976180e-09 6.178776e-09 8.094109e-09 7.372607e-09 6.866262e-09
7.110868e-09 7.357691e-09 6.632270e-09 7.394298e-09 8.099306e-09 7.232345e-09 6.958909e-09 7.139449e-09 6.366172e-09 6.127031e-09
7.663799e-09 7.036631e-09 6.810261e-09 6.502209e-09 7.100571e-09 6.987743e-09 7.488935e-09 7.573454e-09 6.961603e-09 6.517063e-09
6.248474e-09 7.180196e-09 6.941435e-09 5.678640e-09 5.591902e-09 8.144155e-09 6.515197e-09 6.596080e-09 6.629781e-09 6.548127e-09
6.567754e-09 6.393503e-09 5.801280e-09 7.014021e-09 6.519545e-09 5.813972e-09 7.225562e-09 6.851099e-09 7.178949e-09 7.468703e-09
6.457669e-09 6.892067e-09 5.971042e-09 6.363976e-09 5.787174e-09 6.067501e-09 6.904707e-09 6.546507e-09 5.925454e-09 6.020553e-09
5.674039e-09 6.723705e-09 4.385222e-09 5.856872e-09 8.187208e-09 6.050745e-09 6.983138e-09 5.770252e-09 6.953446e-09 4.293118e-09
4.581094e-09 7.858213e-09 5.151819e-09 5.387018e-09 5.947031e-09 5.962104e-09 4.550715e-09 7.332174e-09 7.092121e-09 5.248770e-09
4.939035e-09 7.239424e-09 5.746207e-09 5.650498e-09 4.374820e-09 6.253206e-09 6.574837e-09 6.845458e-09 5.806653e-09 6.414480e-09
6.182268e-09 7.332214e-09 8.185989e-09 6.194326e-09 6.012729e-09 7.104436e-09 6.990877e-09 7.134073e-09 5.872851e-09 7.794770e-09
6.392714e-09 7.376540e-09 7.502305e-09 6.438523e-09 6.770378e-09 6.445969e-09 6.608154e-09 5.748471e-09 5.440543e-09 6.263448e-09
6.459939e-09 7.414020e-09 6.510122e-09 7.006162e-09 6.582323e-09 7.374492e-09 6.557368e-09 6.956956e-09 7.074788e-09 6.726291e-09
7.294390e-09 5.983676e-09 7.321066e-09 6.457674e-09 8.366495e-09 6.883530e-09 8.478625e-09 6.709007e-09 8.058229e-09 6.637956e-09
7.566581e-09 7.993736e-09 6.186223e-09 7.495576e-09 7.487564e-09 8.195935e-09 7.686734e-09 6.526502e-09 6.087092e-09 8.074237e-09
7.604293e-09 8.539305e-09 7.364445e-09 6.396109e-09 5.667799e-09 6.239592e-09 7.184650e-09 6.318037e-09 6.029213e-09 4.241178e-09
4.968889e-09 6.699704e-09 8.071272e-09 4.872698e-09 5.429220e-09 5.276137e-09 6.024334e-09 4.489339e-09 4.527421e-09 6.872959e-09
6.769520e-09 6.161063e-09 4.876157e-09 5.237711e-09 5.674424e-09 7.372507e-09 7.964855e-09 7.036962e-09 6.829799e-09 6.938909e-09
5.543892e-09 5.137467e-09 6.264050e-09 5.864438e-09 6.166533e-09 7.221799e-09 5.790656e-09 6.846559e-09 6.424562e-09 6.937286e-09
5.769941e-09 5.783560e-09 7.916520e-09 7.119498e-09 6.631336e-09 6.554126e-09 8.030976e-09 7.350124e-09 7.293380e-09 7.620126e-09
6.193968e-09 8.078696e-09 6.445267e-09 8.281277e-09 8.134168e-09 5.678481e-09 6.323595e-09 7.899545e-09 7.227678e-09 7.942190e-09
7.705355e-09 6.950223e-09 8.133481e-09 7.122608e-09 7.453834e-09 7.129705e-09 7.466703e-09 6.969874e-09 7.221262e-09 7.541554e-09
7.530260e-09 7.866792e-09 6.732064e-09 7.240339e-09 6.883224e-09 6.904578e-09 7.041165e-09 7.692507e-09 5.997289e-09 8.250139e-09
7.354890e-09 6.137002e-09 6.248867e-09 7.669775e-09 7.865453e-09 7.571193e-09 6.459997e-09 6.259498e-09 7.776896e-09 7.075227e-09
6.298480e-09 7.603840e-09 7.019887e-09 6.695050e-09 6.449602e-09 6.826833e-09 6.816544e-09 6.199527e-09 7.447742e-09 7.396827e-09
6.765301e-09 7.210890e-09 7.122556e-09 6.532179e-09 5.246257e-09 7.216529e-09 4.975278e-09 5.951954e-09 7.051491e-09 6.154581e-09
7.245917e-09
7.430710e-09 6.034213e-09 6.365203e-09 8.859490e-09 4.498110e-09 5.402621e-09 5.283408e-09 6.646824e-09 5.711044e-09 6.778388e-09
6.800865e-09 6.446715e-09 5.914570e-09 6.280544e-09 7.279917e-09 7.805977e-09 6.156989e-09 7.514665e-09 6.143615e-09 7.311455e-09
6.077428e-09 6.432742e-09 7.954349e-09 7.202358e-09 6.739059e-09 6.875377e-09 5.764910e-09 7.745227e-09 6.816973e-09 8.329402e-09
6.999132e-09 6.304258e-09 7.377432e-09 7.478824e-09 7.561558e-09 6.975716e-09 8.154234e-09 8.155517e-09 7.273865e-09 6.894036e-09
7.612274e-09 7.693369e-09 7.712056e-09 7.897039e-09 8.021499e-09 6.624145e-09 7.242232e-09 6.960728e-09 8.276463e-09 6.900054e-09
8.803325e-09 7.319047e-09 6.717595e-09 7.762607e-09 7.530468e-09 7.543975e-09 6.805763e-09 7.409940e-09 6.855023e-09 6.873955e-09
6.701780e-09 7.924268e-09 6.973617e-09 7.272624e-09 7.494545e-09 7.598384e-09 6.273222e-09 5.560370e-09 6.543790e-09 7.467111e-09
7.455959e-09 7.827659e-09 6.039668e-09 7.156677e-09 5.802034e-09 7.156860e-09 6.878549e-09 7.558608e-09 7.661756e-09 6.667522e-09
6.553063e-09 6.321658e-09 7.527331e-09 7.861582e-09 7.512564e-09 6.374150e-09 5.325754e-09 5.728961e-09 4.557779e-09 6.567507e-09
6.802035e-09 7.166866e-09 5.115783e-09 5.921778e-09 8.078533e-09 5.064893e-09 5.663725e-09 6.125068e-09 5.873579e-09 6.205259e-09
6.571747e-09 6.071956e-09 5.761391e-09 6.446828e-09 8.754639e-09 8.677986e-09 6.823264e-09 7.128742e-09 7.380427e-09 6.571326e-09
6.429809e-09 7.234094e-09 7.419509e-09 7.149337e-09 6.948177e-09 6.388840e-09 7.062602e-09 7.350160e-09 6.671665e-09 8.012317e-09
7.154224e-09 8.331245e-09 7.193889e-09 7.341716e-09 7.139121e-09 6.833706e-09 6.792509e-09 6.690605e-09 7.415659e-09 7.367582e-09
8.221773e-09 6.968178e-09 6.569376e-09 6.555684e-09 6.296352e-09 8.234275e-09 8.035115e-09 6.822881e-09 6.618897e-09 6.566758e-09
7.718433e-09 8.131653e-09 7.127189e-09 6.934255e-09 8.015486e-09 7.310861e-09 8.421416e-09 7.598909e-09 7.108721e-09 7.452599e-09
7.436995e-09 7.390045e-09 8.163412e-09 6.755524e-09 6.539854e-09 7.133126e-09 6.781166e-09 6.583877e-09 7.117167e-09 7.560695e-09
7.867762e-09 7.248995e-09 5.768468e-09 6.381611e-09 5.270224e-09 6.304278e-09 6.059692e-09 6.183070e-09 5.204441e-09 7.504497e-09
5.171536e-09 6.534290e-09 7.240905e-09 5.631005e-09 6.852093e-09 6.472220e-09 7.879831e-09 6.749364e-09 6.196402e-09 7.060365e-09
6.443817e-09 5.966380e-09 6.613021e-09 6.166240e-09 7.399729e-09 6.134556e-09 6.242863e-09 6.292768e-09 6.031009e-09 5.153834e-09
5.127038e-09 6.256949e-09 7.301402e-09 7.193960e-09 7.119233e-09 5.991685e-09 6.210502e-09 7.236284e-09 7.174678e-09 5.660999e-09
5.712298e-09 6.716725e-09 6.731808e-09 6.288940e-09 6.720924e-09 7.390491e-09 6.576888e-09 7.972224e-09 7.925880e-09 6.638333e-09
8.593745e-09 6.604521e-09 7.512427e-09 6.890351e-09 7.869365e-09 7.023623e-09 7.515573e-09 7.543320e-09 5.694770e-09 7.277388e-09
7.757844e-09 8.857385e-09 8.066414e-09 7.414139e-09 6.138476e-09 8.753552e-09 7.189192e-09 7.642583e-09 6.030788e-09 7.455676e-09
6.760109e-09 9.219941e-09 8.042535e-09 8.509016e-09 8.368882e-09 7.555937e-09 6.638203e-09 6.560525e-09 7.064170e-09 7.112640e-09
6.078736e-09 7.339967e-09 6.793503e-09 7.364374e-09 7.590185e-09 7.398040e-09 7.723666e-09 6.515954e-09 7.408001e-09 8.435232e-09
7.091602e-09 6.865948e-09 6.235943e-09 7.135513e-09 7.700359e-09 7.525666e-09 6.393768e-09 6.792384e-09 7.942737e-09 5.860375e-09
6.742318e-09 7.802824e-09 6.068076e-09 6.273179e-09 6.767554e-09 7.213405e-09 5.075925e-09 6.509771e-09 5.774675e-09 6.504661e-09
6.329124e-09 8.210662e-09 5.566511e-09 5.080592e-09 5.983013e-09 6.893997e-09 4.382771e-09 4.916029e-09 5.848596e-09 7.133270e-09
7.493600e-09 6.169596e-09 7.077387e-09 6.225280e-09 7.646046e-09 7.074288e-09 6.947305e-09 6.321096e-09 6.413092e-09 6.870319e-09
7.391770e-09 8.320673e-09 5.859099e-09 8.521623e-09 7.915633e-09 6.438622e-09 6.828255e-09 8.525110e-09 6.966272e-09 7.958389e-09
6.747037e-09 6.233024e-09 7.840423e-09 7.557061e-09 7.099144e-09 7.372789e-09 7.646848e-09 6.715685e-09 6.908800e-09 7.044122e-09
7.042280e-09 8.042693e-09 7.594035e-09 6.584146e-09 8.088676e-09 8.269242e-09 6.917737e-09 8.892981e-09 6.533915e-09 6.799625e-09
8.155998e-09 7.426937e-09 7.269380e-09 8.350601e-09 6.795049e-09 6.957381e-09 8.892514e-09 7.401317e-09 7.615104e-09 6.513682e-09
7.385457e-09 5.758680e-09 7.497708e-09 7.503112e-09 7.479004e-09 7.880629e-09 7.891174e-09 7.122527e-09 7.906193e-09 7.463611e-09
6.983280e-09 7.243514e-09 7.353357e-09 6.521719e-09 7.772909e-09 7.835718e-09 6.563449e-09 7.216725e-09 5.197520e-09 6.600984e-09
6.307577e-09 6.430838e-09 8.038540e-09 7.282171e-09 5.251433e-09 5.791474e-09 4.660460e-09 6.045698e-09 5.388052e-09 5.162987e-09
7.430710e-09
6.432270e-09 5.477890e-09 6.860751e-09 4.708411e-09 7.236304e-09 6.057189e-09 7.146360e-09 4.687418e-09 7.447886e-09 5.399835e-09
7.084820e-09 8.273566e-09 7.750052e-09 8.154128e-09 6.520430e-09 7.362207e-09 6.722947e-09 7.077706e-09 8.356872e-09 6.527687e-09
8.153394e-09 6.518388e-09 8.333469e-09 8.485766e-09 7.334316e-09 8.859314e-09 8.186654e-09 7.119583e-09 6.367395e-09 6.060568e-09
6.078876e-09 8.188935e-09 7.274824e-09 6.922596e-09 7.762900e-09 7.565540e-09 7.575397e-09 7.742698e-09 8.602737e-09 8.795726e-09
8.025102e-09 8.205460e-09 7.415476e-09 8.315388e-09 8.237026e-09 7.364990e-09 7.009840e-09 7.702218e-09 6.972405e-09 8.009510e-09
6.982827e-09 7.127146e-09 6.584344e-09 7.655893e-09 7.456879e-09 6.799386e-09 7.577548e-09 7.146024e-09 7.855624e-09 8.368890e-09
6.894900e-09 7.752294e-09 7.766967e-09 7.998287e-09 7.394217e-09 6.914759e-09 6.741443e-09 7.756007e-09 7.707495e-09 9.010412e-09
6.477936e-09 6.637752e-09 7.549025e-09 7.223016e-09 8.168619e-09 7.638405e-09 7.549046e-09 6.709298e-09 6.316039e-09 6.075737e-09
6.457482e-09 9.469237e-09 6.414290e-09 6.790950e-09 7.897961e-09 5.807767e-09 6.136569e-09 6.718948e-09 6.110190e-09 5.325461e-09
7.421454e-09 5.129877e-09 8.074196e-09 6.545356e-09 5.214526e-09 6.783456e-09 6.379127e-09 7.200601e-09 5.338740e-09 6.322649e-09
7.655141e-09 6.530820e-09 6.074524e-09 8.034251e-09 9.099030e-09 7.969914e-09 7.780964e-09 7.707750e-09 7.858065e-09 9.172265e-09
7.242322e-09 7.710947e-09 7.993222e-09 7.262470e-09 7.644476e-09 8.891007e-09 8.301352e-09 6.772806e-09 8.919584e-09 8.602643e-09
8.288785e-09 6.216158e-09 8.419117e-09 8.035496e-09 7.282952e-09 7.501268e-09 7.616106e-09 6.504257e-09 8.296529e-09 7.628967e-09
7.694424e-09 8.054958e-09 6.668068e-09 8.903196e-09 6.565654e-09 6.818014e-09 7.577520e-09 7.792284e-09 7.177330e-09 7.090275e-09
8.118430e-09 8.759371e-09 7.016180e-09 7.783650e-09 7.086305e-09 7.535404e-09 7.819007e-09 7.638970e-09 7.086362e-09 6.430817e-09
7.199957e-09 8.384114e-09 7.189737e-09 8.483801e-09 7.210706e-09 6.857242e-09 7.168046e-09 9.013153e-09 6.612389e-09 7.731724e-09
5.646010e-09 7.850056e-09 5.763857e-09 7.424795e-09 6.607458e-09 8.024134e-09 6.874496e-09 6.057546e-09 6.498115e-09 5.983093e-09
6.680705e-09 7.898746e-09 6.403117e-09 6.632570e-09 8.387572e-09 6.297017e-09 7.132905e-09 5.613994e-09 5.420375e-09 7.612022e-09
5.685898e-09 5.916926e-09 7.239297e-09 7.309796e-09 6.876987e-09 5.744337e-09 5.644234e-09 4.569617e-09 6.252686e-09 7.557541e-09
6.526725e-09 6.459890e-09 6.723014e-09 7.205899e-09 6.029123e-09 7.038116e-09 6.565367e-09 7.972383e-09 8.745610e-09 7.629488e-09
7.578347e-09 7.484139e-09 7.616880e-09 6.286864e-09 7.954266e-09 7.931733e-09 6.351115e-09 6.722225e-09 7.444156e-09 6.748334e-09
7.198602e-09 8.526679e-09 8.440534e-09 7.829855e-09 7.926404e-09 7.750682e-09 7.416143e-09 8.050471e-09 7.744936e-09 7.581001e-09
7.593832e-09 8.002105e-09 7.715871e-09 7.878056e-09 7.697214e-09 7.615315e-09 8.525048e-09 7.527054e-09 7.856650e-09 7.443230e-09
6.635959e-09 7.717772e-09 7.610914e-09 8.040779e-09 7.582860e-09 7.285209e-09 8.052576e-09 7.964144e-09 7.024960e-09 7.089926e-09
8.050879e-09 8.345350e-09 7.014058e-09 7.256934e-09 7.454559e-09 6.975328e-09 7.111766e-09 6.698030e-09 7.534056e-09 7.970055e-09
6.537588e-09 6.735702e-09 6.701359e-09 7.079665e-09 7.496908e-09 8.461644e-09 8.251742e-09 8.014592e-09 6.807270e-09 7.497117e-09
7.797055e-09 7.022095e-09 7.849846e-09 6.621283e-09 5.073996e-09 9.005121e-09 6.349719e-09 8.610676e-09 6.585419e-09 6.076896e-09
7.203262e-09 6.316557e-09 6.400512e-09 6.029177e-09 6.436505e-09 4.854125e-09 6.241910e-09 5.981259e-09 7.613482e-09 5.529622e-09
7.410511e-09 7.978157e-09 5.833940e-09 7.506912e-09 7.505268e-09 7.364955e-09 7.831596e-09 8.612505e-09 6.742471e-09 7.726260e-09
6.147447e-09 7.116129e-09 7.644016e-09 8.452635e-09 6.580611e-09 7.885228e-09 7.845018e-09 7.474225e-09 7.395123e-09 7.526214e-09
7.367012e-09 6.657493e-09 7.536435e-09 8.974934e-09 7.004324e-09 8.117937e-09 7.142374e-09 7.760561e-09 7.890480e-09 8.863162e-09
6.535315e-09 7.758501e-09 8.818037e-09 7.871825e-09 7.906430e-09 7.952756e-09 8.082359e-09 8.512766e-09 6.772244e-09 8.760362e-09
8.024540e-09 7.354179e-09 7.718986e-09 7.438705e-09 7.575413e-09 7.646611e-09 7.968860e-09 7.644681e-09 7.968376e-09 7.144912e-09
7.841619e-09 7.333480e-09 7.643428e-09 7.250286e-09 8.288509e-09 9.200384e-09 6.399514e-09 7.331510e-09 7.513724e-09 7.150106e-09
7.464877e-09 7.375669e-09 7.807452e-09 7.133892e-09 7.112675e-09 6.625092e-09 6.078066e-09 7.062760e-09 7.186273e-09 6.539096e-09
6.526633e-09 6.110517e-09 7.794754e-09 7.566074e-09 6.159630e-09 5.900534e-09 5.871212e-09 7.913448e-09 5.621205e-09 5.403228e-09
6.432270e-09
7.209822e-09 8.014708e-09 7.258940e-09 5.475830e-09 6.256146e-09 7.942818e-09 6.212096e-09 5.672231e-09 6.874787e-09 6.830569e-09
6.298087e-09 6.357947e-09 7.853395e-09 7.231457e-09 7.277379e-09 6.867463e-09 8.817428e-09 7.801428e-09 7.013555e-09 8.409349e-09
7.800408e-09 8.827868e-09 7.395875e-09 7.619621e-09 7.540588e-09 8.208515e-09 8.681224e-09 8.260186e-09 7.307472e-09 7.364291e-09
8.915241e-09 8.017879e-09 7.099213e-09 7.175268e-09 7.532269e-09 8.568358e-09 8.249675e-09 7.088642e-09 7.942139e-09 8.089114e-09
7.955691e-09 7.922965e-09 8.301265e-09 8.207048e-09 8.011611e-09 9.139430e-09 8.186847e-09 8.514835e-09 8.568525e-09 7.954095e-09
7.371981e-09 7.888365e-09 7.541080e-09 8.618344e-09 7.550415e-09 8.492910e-09 8.419158e-09 8.142693e-09 9.728427e-09 7.438003e-09
8.360138e-09 7.410518e-09 8.103933e-09 9.138577e-09 8.235596e-09 6.999427e-09 8.876182e-09 7.346865e-09 7.498647e-09 8.089756e-09
7.977637e-09 9.707909e-09 7.023437e-09 7.145504e-09 7.581221e-09 7.384198e-09 7.863359e-09 8.254973e-09 7.012740e-09 6.817684e-09
7.300812e-09 6.491860e-09 7.366095e-09 5.227138e-09 6.589640e-09 7.513458e-09 7.391570e-09 6.918032e-09 5.452280e-09 6.154714e-09
8.248473e-09 7.057571e-09 5.448711e-09 5.830698e-09 6.494077e-09 5.486393e-09 7.207986e-09 6.572931e-09 7.151404e-09 6.717613e-09
6.680569e-09 7.487398e-09 7.634243e-09 6.899615e-09 6.945186e-09 6.384958e-09 6.260954e-09 7.512843e-09 8.620990e-09 6.604990e-09
7.200684e-09 8.294841e-09 7.575155e-09 7.444401e-09 7.059915e-09 8.879892e-09 7.252490e-09 6.932703e-09 7.991075e-09 8.244554e-09
7.322916e-09 8.358063e-09 7.607636e-09 6.943408e-09 7.608571e-09 7.712303e-09 7.176832e-09 7.830696e-09 9.398654e-09 7.736506e-09
7.894027e-09 8.208841e-09 7.714596e-09 7.634455e-09 8.871180e-09 8.702182e-09 8.836175e-09 8.673902e-09 7.778432e-09 8.117455e-09
8.735334e-09 8.389766e-09 7.608369e-09 7.746468e-09 8.311730e-09 7.961133e-09 7.992512e-09 7.973155e-09 7.668572e-09 7.627797e-09
8.913668e-09 7.886796e-09 7.139050e-09 7.058019e-09 8.249628e-09 7.425955e-09 8.328993e-09 8.729928e-09 6.907504e-09 7.508063e-09
6.411764e-09 6.958642e-09 6.804475e-09 6.916370e-09 6.921133e-09 7.267391e-09 8.022809e-09 7.092562e-09 6.668608e-09 6.657513e-09
6.856731e-09 7.751068e-09 7.109445e-09 7.371019e-09 6.312824e-09 7.954118e-09 5.902916e-09 6.803609e-09 6.375292e-09 6.842714e-09
6.216069e-09 5.798179e-09 6.451574e-09 6.001462e-09 7.245686e-09 5.727706e-09 7.667063e-09 7.392182e-09 8.923501e-09 6.844141e-09
8.027529e-09 6.952915e-09 7.943363e-09 7.060459e-09 7.027051e-09 9.228118e-09 8.669924e-09 6.863123e-09 7.896735e-09 8.657035e-09
7.636916e-09 7.389097e-09 7.972273e-09 8.532411e-09 8.788878e-09 7.212986e-09 8.008716e-09 7.656424e-09 7.513718e-09 7.330210e-09
8.614904e-09 8.019576e-09 6.912861e-09 8.172055e-09 8.691867e-09 6.833916e-09 7.418185e-09 8.247611e-09 9.782463e-09 7.537197e-09
7.891050e-09 7.696239e-09 7.499231e-09 8.434886e-09 7.941858e-09 8.396899e-09 8.160040e-09 8.028432e-09 7.168913e-09 7.827883e-09
8.005999e-09 8.613951e-09 9.759463e-09 7.865353e-09 8.496014e-09 7.921733e-09 8.502772e-09 8.640307e-09 8.470509e-09 9.079192e-09
7.293937e-09 7.156590e-09 7.739051e-09 8.534086e-09 8.019911e-09 8.088382e-09 7.927622e-09 7.494759e-09 7.920093e-09 8.168979e-09
7.959863e-09 7.469041e-09 7.190344e-09 7.572138e-09 5.644925e-09 8.605642e-09 6.914232e-09 8.338870e-09 7.394988e-09 7.313258e-09
7.605509e-09 8.841855e-09 9.371835e-09 6.379361e-09 6.681443e-09 6.011213e-09 6.033858e-09 7.977971e-09 5.002423e-09 7.513013e-09
6.086413e-09 6.989439e-09 7.761792e-09 6.182669e-09 6.485247e-09 6.233515e-09 6.943961e-09 6.558019e-09 6.343074e-09 8.132880e-09
7.561762e-09 7.149218e-09 8.491890e-09 7.055720e-09 7.128165e-09 6.672879e-09 7.193946e-09 7.319966e-09 8.283902e-09 7.714640e-09
8.436230e-09 8.213945e-09 7.347001e-09 9.048592e-09 6.402505e-09 8.438370e-09 8.456201e-09 7.788345e-09 6.779600e-09 8.301250e-09
7.844537e-09 7.496978e-09 7.951759e-09 7.112456e-09 7.491625e-09 7.329505e-09 7.701646e-09 8.405310e-09 8.451837e-09 8.694824e-09
7.992015e-09 7.716828e-09 8.596452e-09 8.117842e-09 6.847855e-09 7.282644e-09 8.470079e-09 9.085556e-09 8.789823e-09 8.883883e-09
8.935264e-09 8.010027e-09 8.543304e-09 7.234874e-09 7.535833e-09 8.687032e-09 8.354253e-09 7.438938e-09 7.640467e-09 7.416993e-09
7.941980e-09 6.998741e-09 7.761519e-09 8.378959e-09 8.030738e-09 6.559836e-09 8.097525e-09 7.978173e-09 8.271233e-09 7.943608e-09
7.805372e-09 7.144340e-09 8.197631e-09 6.587017e-09 7.211744e-09 6.525636e-09 7.422060e-09 8.193196e-09 6.361606e-09 7.142487e-09
8.509196e-09 7.427860e-09 7.107404e-09 6.566408e-09 7.016767e-09 6.024686e-09 8.508306e-09 7.209168e-09 6.960410e-09 7.348954e-09
7.209822e-09
7.183893e-09 7.946426e-09 7.262113e-09 6.737048e-09 8.064414e-09 8.711761e-09 7.108360e-09 6.469067e-09 6.273413e-09 6.848799e-09
7.251163e-09 7.985762e-09 7.991443e-09 6.600609e-09 7.660993e-09 7.246909e-09 8.066933e-09 6.388500e-09 7.370575e-09 8.841271e-09
8.328827e-09 8.757787e-09 8.023624e-09 9.402846e-09 6.948353e-09 8.624094e-09 7.036833e-09 8.508379e-09 7.489245e-09 8.992042e-09
7.654396e-09 7.919603e-09 7.907880e-09 9.930780e-09 9.032315e-09 8.391337e-09 7.992004e-09 8.631574e-09 8.994300e-09 8.151630e-09
8.095463e-09 7.460239e-09 8.430797e-09 8.566420e-09 8.034603e-09 8.433797e-09 8.365114e-09 7.945203e-09 8.553250e-09 8.039236e-09
7.838421e-09 7.314958e-09 7.622883e-09 7.948029e-09 8.041643e-09 8.305133e-09 8.167982e-09 8.857348e-09 8.028170e-09 7.347656e-09
7.988504e-09 8.622474e-09 8.664458e-09 7.828731e-09 8.866489e-09 7.777367e-09 7.189323e-09 8.493431e-09 6.580307e-09 8.760524e-09
8.159408e-09 8.021055e-09 8.323354e-09 8.076921e-09 7.278437e-09 7.062993e-09 9.089205e-09 8.809054e-09 7.051074e-09 8.253369e-09
7.757175e-09 7.744351e-09 7.916344e-09 8.258286e-09 6.708429e-09 7.660694e-09 7.111149e-09 6.136512e-09 7.109399e-09 8.045218e-09
8.520814e-09 8.350960e-09 6.414345e-09 7.082804e-09 6.112589e-09 6.980259e-09 7.432456e-09 7.575898e-09 6.939555e-09 6.828929e-09
8.221665e-09 8.265214e-09 8.832145e-09 7.762219e-09 7.700321e-09 7.617959e-09 8.049761e-09 7.623985e-09 7.863776e-09 7.761810e-09
8.954407e-09 7.629194e-09 7.636944e-09 8.868555e-09 9.344681e-09 7.478755e-09 7.481170e-09 8.673330e-09 7.956436e-09 8.002730e-09
9.727213e-09 7.707644e-09 8.322857e-09 8.740645e-09 8.055127e-09 8.013906e-09 8.481144e-09 8.957541e-09 8.933911e-09 9.182473e-09
8.805627e-09 8.776431e-09 7.596459e-09 7.578934e-09 8.589163e-09 8.530431e-09 7.975385e-09 7.942369e-09 8.519534e-09 8.748592e-09
8.364968e-09 8.408630e-09 8.547194e-09 8.815153e-09 8.171667e-09 8.319902e-09 8.962074e-09 8.929049e-09 8.904618e-09 7.849675e-09
7.914529e-09 7.181685e-09 7.948493e-09 9.731468e-09 7.777153e-09 8.577120e-09 8.236491e-09 9.870317e-09 6.171311e-09 8.130432e-09
7.054982e-09 7.410207e-09 9.034212e-09 7.340832e-09 9.120479e-09 8.314919e-09 6.429270e-09 8.455986e-09 7.212179e-09 8.542827e-09
7.120361e-09 8.108889e-09 5.846326e-09 7.929702e-09 7.489084e-09 7.282509e-09 6.765258e-09 7.532820e-09 8.111235e-09 7.349366e-09
6.786209e-09 5.552546e-09 7.933953e-09 6.583636e-09 6.268505e-09 7.583657e-09 6.823388e-09 6.398812e-09 7.647544e-09 6.248030e-09
7.244635e-09 6.599180e-09 7.143244e-09 6.562622e-09 7.410563e-09 7.930682e-09 9.366307e-09 9.364221e-09 8.197709e-09 6.972066e-09
7.786235e-09 7.327394e-09 6.775649e-09 8.126192e-09 8.353871e-09 8.156864e-09 8.322773e-09 8.754527e-09 8.114604e-09 8.566029e-09
7.960158e-09 9.019164e-09 8.181360e-09 8.300474e-09 7.422576e-09 1.003770e-08 7.380576e-09 9.611330e-09 8.014290e-09 9.782294e-09
7.993978e-09 7.725389e-09 9.496055e-09 7.582385e-09 8.657710e-09 8.389430e-09 7.919117e-09 1.039264e-08 7.903975e-09 9.552192e-09
8.441767e-09 8.874745e-09 7.688043e-09 8.939182e-09 9.649187e-09 8.374134e-09 8.975609e-09 8.305553e-09 7.696767e-09 8.287313e-09
7.985705e-09 1.012142e-08 7.198407e-09 9.029002e-09 9.504166e-09 8.039525e-09 7.631845e-09 9.485707e-09 8.006087e-09 7.957138e-09
8.045387e-09 8.843650e-09 7.838417e-09 7.303936e-09 7.848514e-09 7.690409e-09 6.905206e-09 8.076828e-09 7.861528e-09 7.616112e-09
6.825386e-09 9.005507e-09 7.197958e-09 9.227620e-09 8.737325e-09 7.469495e-09 6.523667e-09 6.898000e-09 8.415310e-09 7.923500e-09
6.980450e-09 6.608252e-09 7.800028e-09 7.843894e-09 6.316206e-09 8.327956e-09 8.556100e-09 6.963834e-09 8.259087e-09 8.804726e-09
6.323673e-09 7.962951e-09 8.900567e-09 7.004276e-09 8.968517e-09 8.799732e-09 8.670622e-09 8.752326e-09 8.536933e-09 8.873429e-09
6.869067e-09 8.302593e-09 8.036593e-09 7.248966e-09 7.485837e-09 8.194735e-09 8.563322e-09 8.559083e-09 9.570575e-09 7.346009e-09
7.326393e-09 7.971889e-09 8.857145e-09 8.183076e-09 8.051543e-09 8.462263e-09 9.637382e-09 9.131918e-09 8.035333e-09 8.543442e-09
9.341323e-09 8.083229e-09 9.576840e-09 8.018446e-09 7.546767e-09 8.330900e-09 8.437238e-09 9.098950e-09 7.382293e-09 8.387430e-09
8.579057e-09 8.129877e-09 8.725720e-09 8.375508e-09 8.607963e-09 8.868750e-09 8.981361e-09 7.956220e-09 7.617527e-09 8.530868e-09
8.449569e-09 8.961591e-09 8.941589e-09 8.524050e-09 8.078170e-09 7.428387e-09 7.324861e-09 7.678310e-09 8.690898e-09 7.433963e-09
8.172042e-09 9.549332e-09 7.309368e-09 1.024629e-08 8.337381e-09 8.356724e-09 7.074356e-09 6.950858e-09 8.660280e-09 7.695508e-09
6.341673e-09 8.400243e-09 7.873285e-09 8.119670e-09 9.335207e-09 7.902520e-09 6.963271e-09 7.747448e-09 6.658632e-09 6.599487e-09
7.183893e-09
7.826741e-09 6.336814e-09 8.687079e-09 8.169953e-09 8.373309e-09 9.037564e-09 7.356160e-09 8.138421e-09 8.205764e-09 7.827453e-09
7.711107e-09 8.371956e-09 7.585455e-09 8.379838e-09 9.148355e-09 7.404280e-09 7.215017e-09 8.747597e-09 6.818041e-09 8.590181e-09
8.714959e-09 8.645220e-09 7.580812e-09 8.482822e-09 1.011020e-08 8.079753e-09 1.043469e-08 1.081381e-08 8.775495e-09 8.517130e-09
8.446690e-09 8.573243e-09 7.872058e-09 9.495174e-09 9.224851e-09 8.454972e-09 7.981620e-09 8.301505e-09 9.596175e-09 8.018403e-09
8.597120e-09 8.711396e-09 9.163592e-09 8.797521e-09 8.849183e-09 9.124618e-09 9.032470e-09 9.534079e-09 8.461416e-09 9.032110e-09
9.168764e-09 8.414709e-09 8.864142e-09 8.931251e-09 8.381977e-09 8.114659e-09 7.884476e-09 8.027818e-09 8.218398e-09 8.890392e-09
8.187661e-09 8.579186e-09 9.522636e-09 9.096085e-09 8.733717e-09 8.469113e-09 7.801374e-09 1.037071e-08 9.656142e-09 7.926322e-09
7.990723e-09 8.352590e-09 8.501498e-09 8.424134e-09 7.901219e-09 7.875459e-09 8.354060e-09 6.554495e-09 8.718730e-09 6.886125e-09
7.936197e-09 8.500620e-09 7.640921e-09 6.073696e-09 7.514605e-09 8.208331e-09 7.104308e-09 7.730251e-09 9.111099e-09 7.897182e-09
5.872304e-09 7.011649e-09 7.577380e-09 7.534862e-09 7.251342e-09 7.006201e-09 8.143562e-09 7.245029e-09 7.246522e-09 6.753938e-09
8.872717e-09 7.674390e-09 8.425002e-09 8.743593e-09 7.286008e-09 8.019401e-09 7.347434e-09 9.255206e-09 8.584577e-09 7.423992e-09
8.726871e-09 7.971031e-09 7.793497e-09 8.501196e-09 9.230345e-09 9.174819e-09 8.682633e-09 8.901943e-09 8.728184e-09 8.552132e-09
9.873293e-09 8.623895e-09 8.725315e-09 7.825586e-09 9.258890e-09 9.384691e-09 8.834712e-09 8.502735e-09 1.037190e-08 7.961800e-09
8.186725e-09 8.837373e-09 8.303465e-09 9.598554e-09 8.327746e-09 8.643956e-09 9.376799e-09 8.198602e-09 8.893479e-09 8.839034e-09
8.922705e-09 9.557668e-09 8.924346e-09 9.432964e-09 8.794277e-09 9.185521e-09 9.170718e-09 8.357802e-09 8.625183e-09 8.737973e-09
7.981691e-09 7.378473e-09 8.295693e-09 8.347599e-09 8.226587e-09 8.053327e-09 8.963948e-09 8.287966e-09 7.911372e-09 8.480156e-09
8.147718e-09 7.896651e-09 9.391524e-09 8.835574e-09 8.377231e-09 7.267565e-09 6.822257e-09 7.827587e-09 8.222451e-09 7.600091e-09
7.925952e-09 8.382725e-09 7.221169e-09 8.846758e-09 7.562496e-09 7.431256e-09 6.808487e-09 7.288010e-09 7.015894e-09 6.882303e-09
8.435419e-09 6.779231e-09 7.459391e-09 9.440803e-09 7.829354e-09 5.949881e-09 6.973659e-09 7.054320e-09 8.074237e-09 7.470411e-09
7.345963e-09 7.054691e-09 8.697410e-09 7.805807e-09 8.673963e-09 8.375928e-09 8.870535e-09 9.152761e-09 9.987661e-09 7.204853e-09
9.125041e-09 8.754323e-09 7.533999e-09 8.388795e-09 9.681203e-09 8.713255e-09 8.292723e-09 8.662883e-09 9.418671e-09 7.215161e-09
8.884665e-09 8.670695e-09 9.333228e-09 9.391439e-09 8.616968e-09 8.388343e-09 9.866182e-09 8.660234e-09 9.582329e-09 8.952026e-09
8.332971e-09 8.401870e-09 8.491491e-09 9.359055e-09 7.702950e-09 8.320952e-09 8.794315e-09 7.900781e-09 9.460805e-09 7.817060e-09
7.717763e-09 8.349391e-09 7.600391e-09 8.199657e-09 8.864509e-09 8.869088e-09 8.625517e-09 8.441224e-09 8.324714e-09 8.500803e-09
8.479021e-09 8.840559e-09 8.866297e-09 9.167021e-09 8.290222e-09 8.823463e-09 8.286501e-09 8.423901e-09 8.259739e-09 9.418709e-09
8.134590e-09 8.281195e-09 8.130620e-09 8.585570e-09 7.305837e-09 7.638103e-09 8.738779e-09 6.971283e-09 6.761177e-09 9.304034e-09
8.145228e-09 7.226068e-09 6.711052e-09 6.801310e-09 6.459874e-09 7.901136e-09 7.363983e-09 5.419787e-09 8.809249e-09 7.062308e-09
6.693109e-09 6.934626e-09 6.875517e-09 7.475808e-09 8.662113e-09 7.582384e-09 8.361610e-09 9.537707e-09 7.798238e-09 9.191345e-09
7.306982e-09 7.422214e-09 7.971050e-09 7.356916e-09 9.206972e-09 8.575392e-09 8.141861e-09 8.263199e-09 9.150850e-09 7.325596e-09
8.459652e-09 8.150461e-09 9.206271e-09 9.069761e-09 9.549690e-09 9.389276e-09 9.545118e-09 9.550631e-09 8.594025e-09 8.160283e-09
9.397310e-09 9.519201e-09 8.305633e-09 8.027293e-09 9.168045e-09 8.577311e-09 8.296656e-09 9.066181e-09 9.070006e-09 9.512415e-09
9.312840e-09 8.064963e-09 8.039986e-09 8.949538e-09 9.425737e-09 8.312956e-09 9.688480e-09 8.253892e-09 9.024714e-09 8.654581e-09
8.718319e-09 8.366992e-09 8.556126e-09 9.699293e-09 1.006913e-08 8.228529e-09 8.424998e-09 8.521922e-09 1.017448e-08 9.430631e-09
9.170758e-09 8.032579e-09 7.933862e-09 1.016991e-08 8.514270e-09 8.466941e-09 8.566851e-09 8.327883e-09 7.740982e-09 8.519374e-09
8.236523e-09 8.971738e-09 7.045128e-09 8.551239e-09 8.500517e-09 7.298324e-09 8.312664e-09 8.035028e-09 9.373484e-09 7.662586e-09
9.077888e-09 6.872425e-09 7.967015e-09 7.686118e-09 8.463819e-09 8.309672e-09 8.825388e-09 9.337965e-09 7.607705e-09 6.228591e-09
7.826741e-09
7.512125e-09 9.734464e-09 9.031525e-09 7.102610e-09 9.368776e-09 8.998588e-09 8.450374e-09 7.398146e-09 8.825686e-09 7.242166e-09
6.970053e-09 8.706734e-09 7.587396e-09 9.331995e-09 9.484766e-09 8.376815e-09 9.664648e-09 8.855110e-09 8.015788e-09 9.113569e-09
8.237099e-09 8.693702e-09 9.530010e-09 8.832103e-09 8.461467e-09 8.412711e-09 8.505374e-09 7.038066e-09 8.119354e-09 8.800416e-09
9.341899e-09 8.912640e-09 8.838139e-09 9.057397e-09 8.675532e-09 8.562872e-09 9.315656e-09 1.003856e-08 8.668476e-09 9.560228e-09
9.064374e-09 9.326612e-09 9.000559e-09 8.632801e-09 9.590839e-09 8.686768e-09 9.218213e-09 1.036963e-08 7.918384e-09 9.151054e-09
8.709698e-09 9.429775e-09 9.637758e-09 8.962791e-09 9.371806e-09 8.780689e-09 8.607575e-09 9.832642e-09 8.692683e-09 8.651304e-09
8.243529e-09 8.964922e-09 8.894926e-09 8.463465e-09 9.075952e-09 8.673800e-09 9.273964e-09 8.403696e-09 8.926672e-09 9.184253e-09
9.133274e-09 6.907090e-09 8.933292e-09 8.825514e-09 8.445891e-09 9.140284e-09 7.614338e-09 7.764865e-09 8.158598e-09 7.995324e-09
8.030061e-09 8.143931e-09 8.401192e-09 7.231684e-09 7.867108e-09 9.156097e-09 8.129789e-09 9.418624e-09 7.718532e-09 7.116997e-09
9.566350e-09 7.911358e-09 8.057699e-09 7.348998e-09 7.143281e-09 8.158512e-09 8.151535e-09 8.379035e-09 7.750381e-09 7.815302e-09
1.052565e-08 8.613548e-09 8.882424e-09 7.405385e-09 9.274695e-09 9.417414e-09 9.958687e-09 8.484954e-09 8.818673e-09 7.770796e-09
9.745809e-09 9.057288e-09 9.133264e-09 8.538925e-09 9.109782e-09 9.387709e-09 9.588483e-09 9.214546e-09 9.133387e-09 8.611061e-09
8.979402e-09 9.575317e-09 9.660512e-09 9.110098e-09 9.522632e-09 9.310154e-09 8.388248e-09 9.960563e-09 8.149800e-09 9.554736e-09
8.422089e-09 9.497074e-09 8.759073e-09 8.982632e-09 9.350526e-09 8.577494e-09 8.838332e-09 9.529947e-09 9.501483e-09 9.294296e-09
8.890255e-09 8.583013e-09 8.811377e-09 9.773057e-09 9.058223e-09 9.520753e-09 9.002743e-09 1.042195e-08 8.374848e-09 8.215703e-09
9.541542e-09 9.193646e-09 9.986063e-09 9.395014e-09 8.360809e-09 7.830526e-09 9.849526e-09 8.001424e-09 8.594911e-09 8.717168e-09
8.786894e-09 8.802419e-09 8.633195e-09 9.490722e-09 8.304712e-09 7.719367e-09 8.136424e-09 8.697690e-09 7.165209e-09 8.870380e-09
7.878932e-09 8.206711e-09 7.583458e-09 6.999722e-09 8.155496e-09 6.902953e-09 7.894599e-09 7.960010e-09 8.137925e-09 9.272639e-09
6.777068e-09 7.360136e-09 8.041633e-09 7.721722e-09 1.043220e-08 7.463231e-09 7.570122e-09 7.306626e-09 6.209846e-09 7.868532e-09
8.952806e-09 7.493239e-09 7.037425e-09 7.827221e-09 7.299979e-09 7.942009e-09 8.731504e-09 9.663077e-09 8.255654e-09 8.149772e-09
8.788184e-09 8.416202e-09 8.588150e-09 9.527542e-09 8.130526e-09 9.505777e-09 8.205102e-09 8.103419e-09 8.417486e-09 8.486636e-09
9.725508e-09 8.817479e-09 8.454951e-09 8.442798e-09 7.844503e-09 9.854573e-09 8.082089e-09 8.736481e-09 8.674122e-09 9.147507e-09
7.945457e-09 8.524936e-09 9.206382e-09 9.583777e-09 8.843142e-09 9.106995e-09 9.257030e-09 8.320149e-09 1.048341e-08 9.462895e-09
1.038551e-08 8.553473e-09 9.026881e-09 1.030306e-08 8.086507e-09 1.034998e-08 9.289024e-09 9.228160e-09 9.655229e-09 8.409175e-09
8.521726e-09 9.854439e-09 9.518857e-09 8.523744e-09 8.638328e-09 8.971625e-09 1.020195e-08 9.044400e-09 8.894312e-09 8.407793e-09
9.280103e-09 1.075373e-08 8.101851e-09 8.938414e-09 9.247450e-09 7.338170e-09 7.548335e-09 1.042381e-08 8.993768e-09 8.557302e-09
7.699014e-09 7.073340e-09 7.141040e-09 6.722439e-09 1.044015e-08 6.869085e-09 7.763120e-09 8.532553e-09 7.046721e-09 8.623907e-09
7.324302e-09 7.189023e-09 7.547854e-09 8.138170e-09 7.532365e-09 9.786305e-09 8.044650e-09 7.564578e-09 8.107131e-09 8.568043e-09
8.762266e-09 9.362821e-09 7.872698e-09 7.836410e-09 9.477716e-09 8.251612e-09 8.171727e-09 8.186706e-09 1.005959e-08 7.668398e-09
9.996740e-09 7.407227e-09 1.071845e-08 8.840023e-09 8.825715e-09 9.154725e-09 8.508654e-09 9.808152e-09 8.412802e-09 9.244032e-09
1.023309e-08 1.105408e-08 8.955723e-09 8.547295e-09 9.290445e-09 9.463089e-09 1.051818e-08 8.775065e-09 1.033286e-08 9.263197e-09
9.660276e-09 9.739253e-09 9.280395e-09 8.890546e-09 9.112234e-09 8.991081e-09 8.848347e-09 9.027708e-09 8.998103e-09 9.567360e-09
7.973139e-09 9.560899e-09 8.947146e-09 1.043051e-08 1.032025e-08 9.026478e-09 9.659376e-09 8.417035e-09 9.495094e-09 8.918283e-09
8.289764e-09 9.466677e-09 8.828352e-09 8.191894e-09 9.253045e-09 1.007286e-08 9.460353e-09 9.139518e-09 1.023003e-08 8.594330e-09
8.186951e-09 9.473660e-09 8.229381e-09 8.193847e-09 7.874913e-09 8.636188e-09 8.102178e-09 8.677607e-09 9.194761e-09 1.050500e-08
8.321428e-09 8.874873e-09 8.093543e-09 7.675950e-09 8.703238e-09 7.860262e-09 8.067485e-09 7.343713e-09 6.762107e-09 9.582075e-09
7.512125e-09
8.704637e-09 7.665867e-09 8.389281e-09 7.143345e-09 9.281265e-09 9.752654e-09 7.859168e-09 9.142809e-09 8.418373e-09 7.753699e-09
8.297294e-09 9.437135e-09 9.771335e-09 8.793318e-09 8.246925e-09 8.084831e-09 8.285745e-09 9.355939e-09 7.863062e-09 7.911138e-09
8.937547e-09 9.212713e-09 9.131603e-09 9.022911e-09 9.062450e-09 9.022846e-09 8.864128e-09 1.058997e-08 9.845035e-09 9.654470e-09
9.303659e-09 9.266571e-09 9.388412e-09 9.911702e-09 8.110504e-09 8.546637e-09 1.019276e-08 9.564109e-09 1.047136e-08 9.101224e-09
1.027023e-08 8.910011e-09 1.009105e-08 8.669574e-09 8.356330e-09 9.442370e-09 9.167287e-09 9.737485e-09 9.393280e-09 1.048544e-08
1.132843e-08 9.557383e-09 9.481545e-09 9.258674e-09 1.045895e-08 9.282080e-09 9.190001e-09 9.004301e-09 9.925499e-09 9.036694e-09
8.723695e-09 9.326013e-09 9.617975e-09 1.108304e-08 8.734087e-09 8.082150e-09 8.878447e-09 9.701004e-09 9.198430e-09 9.746531e-09
8.948562e-09 8.465033e-09 8.728459e-09 9.015726e-09 8.518160e-09 9.849096e-09 8.311778e-09 9.740210e-09 9.137125e-09 6.716049e-09
8.199115e-09 9.407398e-09 7.442038e-09 7.768732e-09 7.972774e-09 8.362705e-09 8.632614e-09 8.431317e-09 7.189469e-09 8.695994e-09
8.510491e-09 8.466313e-09 8.699145e-09 7.723285e-09 1.020133e-08 8.949231e-09 7.500701e-09 8.150374e-09 8.976560e-09 8.882395e-09
8.136374e-09 7.850406e-09 8.243087e-09 8.408537e-09 7.978795e-09 7.831185e-09 9.709403e-09 8.463804e-09 9.307023e-09 8.432305e-09
9.744966e-09 8.429275e-09 8.984972e-09 9.023904e-09 9.973992e-09 9.230406e-09 9.959702e-09 8.200187e-09 9.824565e-09 9.728995e-09
9.672656e-09 9.366790e-09 9.261687e-09 9.636512e-09 1.024943e-08 1.021023e-08 9.770935e-09 9.118413e-09 9.042504e-09 9.702545e-09
9.857907e-09 9.905214e-09 1.023728e-08 9.329391e-09 9.325693e-09 9.762127e-09 9.597934e-09 9.464737e-09 9.404004e-09 9.831695e-09
8.713533e-09 1.042209e-08 9.281520e-09 9.426320e-09 9.202526e-09 9.344947e-09 9.670305e-09 8.782489e-09 1.072357e-08 9.987441e-09
9.737959e-09 8.882689e-09 9.103443e-09 9.148140e-09 8.216965e-09 9.527299e-09 9.591878e-09 9.178555e-09 8.843240e-09 9.126974e-09
9.270275e-09 8.223940e-09 9.014848e-09 9.892748e-09 8.207921e-09 8.680967e-09 1.067354e-08 8.590335e-09 9.334268e-09 7.555294e-09
8.705572e-09 9.113416e-09 9.659712e-09 9.616188e-09 8.328477e-09 8.757348e-09 9.087852e-09 8.270974e-09 8.678979e-09 9.156571e-09
7.699961e-09 8.040080e-09 8.383820e-09 7.815041e-09 9.397897e-09 8.827173e-09 7.485733e-09 9.123393e-09 9.339476e-09 7.203671e-09
8.607120e-09 8.270346e-09 7.626146e-09 9.022503e-09 8.689760e-09 1.002535e-08 7.988262e-09 7.848278e-09 9.852421e-09 8.198948e-09
1.059837e-08 7.708059e-09 9.889738e-09 9.211859e-09 8.888004e-09 8.475845e-09 8.669910e-09 9.308967e-09 9.692285e-09 9.305941e-09
9.879868e-09 8.887322e-09 9.715674e-09 9.680189e-09 1.010261e-08 8.185221e-09 9.975949e-09 8.999602e-09 9.298692e-09 9.416728e-09
8.888210e-09 9.807405e-09 8.876138e-09 8.613362e-09 9.668658e-09 8.878374e-09 8.749952e-09 1.048352e-08 9.983698e-09 1.023757e-08
1.064196e-08 1.006094e-08 8.768549e-09 9.194806e-09 1.030404e-08 1.027892e-08 9.351797e-09 9.867940e-09 9.509709e-09 9.825143e-09
9.811322e-09 1.004981e-08 9.369354e-09 8.679561e-09 1.091813e-08 8.765586e-09 8.050005e-09 9.071273e-09 7.973846e-09 8.418774e-09
9.321536e-09 9.878170e-09 8.951498e-09 8.659679e-09 9.399751e-09 8.868441e-09 9.010427e-09 8.980407e-09 7.655121e-09 7.168520e-09
7.935053e-09 8.633934e-09 7.405330e-09 6.931805e-09 7.700212e-09 8.246502e-09 7.631567e-09 7.827825e-09 7.214808e-09 7.178180e-09
7.506987e-09 8.379084e-09 9.130687e-09 1.049904e-08 7.941738e-09 8.636394e-09 8.868251e-09 8.769955e-09 9.163061e-09 8.200708e-09
8.013386e-09 8.996294e-09 9.420805e-09 9.852665e-09 8.343301e-09 8.496960e-09 8.397484e-09 9.086715e-09 8.539087e-09 1.008573e-08
9.736181e-09 9.272696e-09 8.875017e-09 9.752626e-09 9.107345e-09 9.156629e-09 1.017609e-08 1.006663e-08 9.660871e-09 8.812976e-09
1.091711e-08 9.908566e-09 9.827396e-09 8.527155e-09 9.432040e-09 1.111364e-08 9.191899e-09 9.318206e-09 1.039989e-08 9.247009e-09
9.613853e-09 1.000908e-08 8.856845e-09 9.936149e-09 1.073778e-08 1.105534e-08 1.118690e-08 9.197559e-09 9.858837e-09 9.146160e-09
1.068056e-08 1.060924e-08 9.628708e-09 1.017351e-08 9.849096e-09 9.898326e-09 1.020043e-08 9.857255e-09 8.542169e-09 9.176238e-09
9.182039e-09 9.777967e-09 9.821346e-09 8.774157e-09 1.002486e-08 8.521457e-09 1.079265e-08 8.773824e-09 9.205166e-09 8.681517e-09
9.602021e-09 9.031594e-09 9.411134e-09 8.665776e-09 9.154655e-09 1.010592e-08 6.959786e-09 8.695825e-09 8.553816e-09 8.506673e-09
8.713553e-09 7.992335e-09 7.760908e-09 7.741335e-09 8.809161e-09 7.939170e-09 8.212881e-09 7.504489e-09 6.979159e-09 8.018368e-09
8.704637e-09
7.368314e-09 8.389503e-09 8.544020e-09 8.548832e-09 7.403295e-09 9.350164e-09 8.007787e-09 7.764122e-09 7.582474e-09 7.989851e-09
9.655151e-09 8.352576e-09 8.529336e-09 8.824141e-09 9.015514e-09 9.929677e-09 7.975854e-09 8.094155e-09 8.321742e-09 8.209376e-09
1.010849e-08 1.018774e-08 1.014964e-08 8.946214e-09 1.040872e-08 9.397326e-09 9.127040e-09 8.890260e-09 1.081467e-08 1.029181e-08
9.560689e-09 1.193313e-08 9.288656e-09 9.287817e-09 1.010521e-08 1.037635e-08 9.454045e-09 9.882093e-09 9.286680e-09 9.723937e-09
1.033608e-08 9.474855e-09 9.895114e-09 9.401350e-09 8.960249e-09 9.433324e-09 1.018422e-08 9.641936e-09 9.476164e-09 9.442623e-09
1.089619e-08 9.122760e-09 1.058211e-08 9.038667e-09 9.461503e-09 9.320098e-09 8.682809e-09 8.960902e-09 1.158340e-08 9.601241e-09
8.908117e-09 1.019970e-08 9.474635e-09 9.570988e-09 8.977133e-09 1.024451e-08 9.522897e-09 8.584702e-09 9.084683e-09 8.169585e-09
8.442604e-09 9.510221e-09 8.952480e-09 9.494273e-09 8.398227e-09 8.657190e-09 8.611541e-09 8.710026e-09 8.880584e-09 8.759637e-09
8.488011e-09 9.141925e-09 7.699234e-09 1.026073e-08 8.713458e-09 8.841936e-09 7.930464e-09 1.041797e-08 8.811081e-09 7.355883e-09
8.168354e-09 9.398517e-09 7.908310e-09 7.283341e-09 8.223808e-09 9.144089e-09 7.874188e-09 8.385488e-09 8.708967e-09 1.047251e-08
7.636268e-09 9.230408e-09 8.865172e-09 9.742716e-09 8.151254e-09 9.188225e-09 1.059567e-08 9.585911e-09 9.976184e-09 9.477525e-09
8.860822e-09 9.165125e-09 9.118774e-09 1.020602e-08 9.267811e-09 9.139652e-09 9.310192e-09 9.754181e-09 9.308359e-09 1.069438e-08
1.031567e-08 9.702224e-09 9.518192e-09 9.473612e-09 8.920124e-09 9.892588e-09 9.760872e-09 1.000006e-08 8.796254e-09 9.423516e-09
9.966658e-09 9.588695e-09 1.011535e-08 9.728121e-09 9.267052e-09 9.380826e-09 9.965073e-09 1.013452e-08 1.017866e-08 1.047109e-08
1.014686e-08 9.868526e-09 9.895430e-09 9.940535e-09 9.371842e-09 9.497703e-09 1.082843e-08 1.008104e-08 9.682016e-09 9.811193e-09
1.005491e-08 1.044392e-08 9.353413e-09 1.003568e-08 8.965143e-09 9.989551e-09 9.709726e-09 9.571916e-09 8.577863e-09 9.527534e-09
8.280344e-09 8.969622e-09 9.360892e-09 9.068736e-09 8.810249e-09 8.790517e-09 8.915515e-09 9.933216e-09 8.167186e-09 7.764700e-09
8.962158e-09 8.845805e-09 8.943178e-09 8.802793e-09 8.217708e-09 9.705051e-09 8.921989e-09 7.487288e-09 9.204921e-09 9.244054e-09
8.358942e-09 8.296325e-09 7.746670e-09 9.042846e-09 7.785053e-09 8.711576e-09 8.918078e-09 6.888046e-09 8.849995e-09 8.913218e-09
9.149040e-09 8.440611e-09 9.086815e-09 9.630855e-09 1.057694e-08 1.055362e-08 8.593351e-09 9.223847e-09 9.188834e-09 8.631084e-09
8.091940e-09 9.733958e-09 9.695682e-09 9.298961e-09 9.888885e-09 1.036853e-08 9.835134e-09 9.555970e-09 1.055211e-08 1.126496e-08
9.949082e-09 9.853591e-09 1.045470e-08 9.919154e-09 9.893485e-09 1.005785e-08 1.042050e-08 9.754575e-09 1.006344e-08 9.187254e-09
9.219058e-09 9.505493e-09 9.560586e-09 9.606051e-09 1.056952e-08 9.437592e-09 9.576900e-09 9.538841e-09 9.473583e-09 9.222056e-09
9.550042e-09 1.039489e-08 9.545730e-09 1.055596e-08 9.657987e-09 9.567149e-09 9.120364e-09 9.534251e-09 1.053427e-08 9.614073e-09
1.151954e-08 9.321607e-09 1.052735e-08 9.992675e-09 9.868644e-09 9.867751e-09 8.845057e-09 9.922789e-09 8.686212e-09 9.873258e-09
9.388979e-09 9.725629e-09 9.395333e-09 8.618323e-09 9.067833e-09 9.308772e-09 9.848416e-09 9.878748e-09 7.965693e-09 8.255811e-09
9.082741e-09 8.926723e-09 8.444017e-09 9.446436e-09 9.195894e-09 7.859501e-09 8.007484e-09 8.072877e-09 9.289663e-09 7.315393e-09
8.379838e-09 6.828750e-09 8.895903e-09 8.288236e-09 8.711038e-09 9.127763e-09 8.720846e-09 8.736286e-09 1.012195e-08 8.885265e-09
8.032901e-09 8.311516e-09 8.364061e-09 8.636722e-09 9.336275e-09 9.005978e-09 8.331718e-09 1.027560e-08 1.027343e-08 9.967273e-09
8.844128e-09 9.045657e-09 9.640540e-09 9.888026e-09 9.594562e-09 1.013304e-08 1.050244e-08 1.006309e-08 9.546544e-09 9.231861e-09
1.073192e-08 1.014204e-08 9.867835e-09 1.050087e-08 9.530166e-09 9.391808e-09 9.840657e-09 1.109681e-08 8.701170e-09 9.721194e-09
9.530621e-09 9.224836e-09 1.051565e-08 1.049468e-08 1.013703e-08 1.122614e-08 9.134512e-09 9.815360e-09 1.000492e-08 9.900099e-09
1.031950e-08 1.067035e-08 9.867243e-09 9.815180e-09 9.952362e-09 1.011205e-08 9.711279e-09 9.690019e-09 1.136601e-08 9.790913e-09
9.173697e-09 9.416202e-09 1.112648e-08 8.789233e-09 1.016957e-08 1.040888e-08 9.642892e-09 9.845614e-09 1.023504e-08 8.593009e-09
1.044101e-08 9.465584e-09 9.168091e-09 9.666219e-09 9.255949e-09 9.079966e-09 9.175730e-09 8.993126e-09 8.511193e-09 8.288273e-09
7.817768e-09 8.461504e-09 9.504819e-09 8.367391e-09 7.336530e-09 8.436772e-09 8.933823e-09 8.306325e-09 8.986869e-09 9.784820e-09
7.368314e-09
8.428696e-09 8.202627e-09 9.131569e-09 8.219684e-09 8.159454e-09 9.774749e-09 1.015062e-08 8.717026e-09 1.005553e-08 9.139717e-09
9.296010e-09 8.633745e-09 8.329947e-09 8.625709e-09 1.078296e-08 8.895062e-09 8.682774e-09 9.157787e-09 8.180340e-09 1.007111e-08
1.053918e-08 8.363333e-09 9.501019e-09 9.102207e-09 9.520505e-09 9.795467e-09 9.822323e-09 9.677756e-09 1.020487e-08 9.064639e-09
9.156415e-09 1.052052e-08 1.045460e-08 1.009488e-08 9.673570e-09 9.782539e-09 1.086428e-08 1.021928e-08 9.943524e-09 1.004905e-08
9.571071e-09 9.892710e-09 9.192199e-09 9.941695e-09 9.413430e-09 9.676355e-09 1.040433e-08 1.026931e-08 1.055941e-08 1.068938e-08
1.031325e-08 1.152323e-08 1.070361e-08 1.002375e-08 1.078822e-08 1.025770e-08 9.088787e-09 1.048878e-08 1.053945e-08 9.645519e-09
9.837319e-09 1.012534e-08 1.071619e-08 1.137397e-08 1.093039e-08 9.401304e-09 9.149254e-09 1.094800e-08 9.603904e-09 9.483691e-09
9.736725e-09 8.571922e-09 1.062232e-08 8.467691e-09 8.875157e-09 1.030156e-08 9.379911e-09 1.040107e-08 8.017438e-09 9.684752e-09
8.407567e-09 8.810301e-09 9.789791e-09 9.026887e-09 8.658974e-09 8.622608e-09 8.331448e-09 8.155895e-09 8.276385e-09 9.360242e-09
8.319730e-09 9.139874e-09 9.655014e-09 8.907496e-09 8.129219e-09 1.031919e-08 8.884772e-09 9.377025e-09 8.667493e-09 8.448107e-09
7.596555e-09 9.248644e-09 8.976628e-09 1.067662e-08 8.383521e-09 8.667995e-09 1.040213e-08 1.011507e-08 9.402704e-09 9.500739e-09
1.002991e-08 9.009975e-09 1.010174e-08 9.688164e-09 1.118043e-08 1.132731e-08 1.130310e-08 1.026298e-08 1.031453e-08 1.006764e-08
9.302048e-09 1.040242e-08 9.673105e-09 1.076717e-08 9.906727e-09 1.114727e-08 9.745997e-09 1.145458e-08 1.058092e-08 1.190871e-08
9.428494e-09 1.019669e-08 9.281845e-09 9.660519e-09 1.005882e-08 1.029182e-08 1.067115e-08 9.932980e-09 1.061872e-08 1.013971e-08
9.079744e-09 1.031454e-08 1.056285e-08 9.672552e-09 1.015466e-08 1.083456e-08 1.117259e-08 1.002642e-08 9.882912e-09 9.886694e-09
1.050612e-08 9.883456e-09 1.051928e-08 9.815803e-09 9.631459e-09 9.830184e-09 8.880106e-09 1.038182e-08 9.104857e-09 1.088289e-08
1.110179e-08 9.625182e-09 9.658113e-09 9.094133e-09 9.092569e-09 1.009176e-08 8.873553e-09 1.033097e-08 8.698927e-09 7.869801e-09
1.009899e-08 8.900479e-09 8.170488e-09 9.731921e-09 8.045043e-09 9.136398e-09 8.153791e-09 8.040270e-09 9.647344e-09 8.370609e-09
1.081805e-08 8.463837e-09 8.215864e-09 8.527579e-09 1.070385e-08 8.299736e-09 7.438413e-09 9.043053e-09 8.265043e-09 8.598398e-09
9.769092e-09 8.433800e-09 9.091387e-09 8.784215e-09 1.025709e-08 8.364136e-09 1.049935e-08 9.499924e-09 9.497983e-09 9.551645e-09
8.745315e-09 8.766252e-09 9.284800e-09 9.523624e-09 1.058481e-08 9.247821e-09 1.074466e-08 1.019605e-08 1.057447e-08 1.000706e-08
9.809946e-09 9.716852e-09 9.316397e-09 9.968822e-09 9.494741e-09 1.081110e-08 9.560588e-09 1.073130e-08 1.011044e-08 1.002681e-08
1.022679e-08 1.033301e-08 9.941201e-09 1.047471e-08 9.952008e-09 1.049834e-08 9.718440e-09 1.080350e-08 9.729207e-09 9.921561e-09
9.640055e-09 1.049993e-08 1.000171e-08 1.090410e-08 1.015928e-08 1.063644e-08 9.298922e-09 9.372848e-09 1.002514e-08 9.762234e-09
1.067930e-08 9.260027e-09 9.264057e-09 9.225361e-09 9.236434e-09 9.854072e-09 1.053372e-08 9.743673e-09 1.081093e-08 9.751401e-09
8.830061e-09 8.848196e-09 9.000096e-09 9.651072e-09 1.076774e-08 8.873688e-09 9.154891e-09 9.819017e-09 8.560662e-09 9.731743e-09
7.823210e-09 9.201798e-09 1.068983e-08 8.703813e-09 8.165400e-09 9.097247e-09 8.929017e-09 8.814935e-09 9.616397e-09 9.492953e-09
8.010203e-09 8.545537e-09 8.941210e-09 1.065740e-08 9.245967e-09 8.137363e-09 8.442029e-09 9.045963e-09 9.345503e-09 8.626603e-09
8.707119e-09 1.051526e-08 8.872561e-09 8.011099e-09 9.865012e-09 8.934194e-09 8.419588e-09 1.095266e-08 9.808407e-09 9.940531e-09
1.029178e-08 8.584663e-09 1.053897e-08 9.395143e-09 1.108388e-08 9.988379e-09 9.361339e-09 1.101753e-08 9.911131e-09 9.321433e-09
1.066934e-08 9.756479e-09 1.110866e-08 9.859860e-09 1.039811e-08 1.071419e-08 1.064058e-08 1.135145e-08 1.058777e-08 9.409598e-09
1.055147e-08 1.047085e-08 1.067716e-08 1.047588e-08 9.827845e-09 1.107369e-08 1.072114e-08 1.144214e-08 1.007460e-08 9.511038e-09
1.054971e-08 1.101352e-08 1.114650e-08 1.063991e-08 9.597798e-09 9.994665e-09 1.110599e-08 1.130238e-08 1.077255e-08 9.237286e-09
9.771633e-09 9.875443e-09 9.807543e-09 1.085390e-08 9.725144e-09 1.009971e-08 1.020701e-08 1.066768e-08 9.273440e-09 9.573285e-09
1.064537e-08 1.029189e-08 9.673582e-09 1.048606e-08 1.018719e-08 9.785928e-09 1.044373e-08 9.563281e-09 8.265935e-09 8.788469e-09
9.887684e-09 1.005651e-08 8.669763e-09 7.903625e-09 8.051704e-09 1.074576e-08 1.104365e-08 8.316833e-09 1.000158e-08 8.535681e-09
8.428696e-09
8.534871e-09 9.482256e-09 8.536501e-09 8.681188e-09 1.049926e-08 9.957202e-09 9.757685e-09 9.775588e-09 9.421779e-09 1.002646e-08
9.545367e-09 9.146970e-09 8.763432e-09 1.053828e-08 8.871946e-09 9.598870e-09 8.904976e-09 1.097423e-08 9.464813e-09 9.780294e-09
9.915262e-09 1.030181e-08 1.100800e-08 1.035516e-08 1.042870e-08 1.023937e-08 1.034069e-08 9.901892e-09 1.131432e-08 1.021605e-08
9.363840e-09 1.130855e-08 1.032643e-08 1.036679e-08 1.085413e-08 1.057896e-08 1.039620e-08 1.081808e-08 1.024932e-08 1.105579e-08
1.086184e-08 1.059338e-08 1.157938e-08 1.091163e-08 1.083217e-08 1.046265e-08 1.047384e-08 1.134795e-08 1.063096e-08 1.120909e-08
1.057215e-08 1.018455e-08 1.048685e-08 9.476107e-09 1.049561e-08 1.080161e-08 1.070995e-08 1.083636e-08 1.090969e-08 1.048152e-08
1.113819e-08 1.074610e-08 1.029999e-08 1.065274e-08 1.038269e-08 1.018231e-08 1.107719e-08 1.069878e-08 9.719561e-09 9.707077e-09
9.896089e-09 9.891257e-09 9.256483e-09 9.287132e-09 1.055902e-08 9.658303e-09 9.581338e-09 1.008358e-08 8.225912e-09 8.930169e-09
9.092673e-09 1.070241e-08 1.017638e-08 9.580686e-09 9.841567e-09 8.235383e-09 8.842797e-09 9.579303e-09 8.274317e-09 9.321493e-09
1.013787e-08 8.433286e-09 9.073505e-09 8.569409e-09 9.215598e-09 8.772497e-09 1.000161e-08 8.641574e-09 1.014625e-08 9.324441e-09
9.440718e-09 1.018993e-08 1.021845e-08 9.218351e-09 1.050118e-08 9.934868e-09 9.726691e-09 1.062828e-08 1.069460e-08 1.019101e-08
9.805808e-09 1.139451e-08 9.857691e-09 9.227676e-09 1.023814e-08 1.110280e-08 1.032679e-08 1.062669e-08 9.744014e-09 1.069059e-08
1.079291e-08 1.004098e-08 1.001190e-08 1.088172e-08 1.008388e-08 1.088374e-08 1.017156e-08 1.117832e-08 1.072633e-08 1.115903e-08
1.059314e-08 1.040338e-08 1.140242e-08 1.069429e-08 1.077951e-08 1.013801e-08 9.912934e-09 9.564413e-09 1.120241e-08 1.020209e-08
1.065475e-08 1.055463e-08 9.854474e-09 1.030461e-08 1.137765e-08 1.078258e-08 9.963288e-09 1.006467e-08 9.915539e-09 9.832238e-09
1.019096e-08 9.988061e-09 1.145730e-08 1.021136e-08 1.133170e-08 1.024961e-08 9.934961e-09 9.747949e-09 1.025048e-08 1.026797e-08
1.049228e-08 1.110510e-08 1.076533e-08 1.216013e-08 1.030020e-08 9.482360e-09 9.359435e-09 1.020542e-08 9.018283e-09 9.104641e-09
8.155010e-09 9.766922e-09 8.289049e-09 8.265634e-09 8.286574e-09 8.781572e-09 9.353478e-09 9.467336e-09 9.666362e-09 8.811439e-09
8.326654e-09 9.623560e-09 8.506897e-09 9.429237e-09 8.671891e-09 8.265880e-09 9.356977e-09 9.854523e-09 9.570480e-09 9.446587e-09
9.204514e-09 1.003642e-08 8.602420e-09 9.636245e-09 9.126658e-09 1.004811e-08 1.034950e-08 1.058366e-08 9.585999e-09 9.213835e-09
1.102765e-08 9.629007e-09 1.057937e-08 1.027340e-08 1.103846e-08 1.003213e-08 1.016727e-08 1.127379e-08 1.081197e-08 9.975306e-09
1.051778e-08 9.087614e-09 9.759321e-09 1.063673e-08 1.119383e-08 1.054643e-08 9.362878e-09 1.115866e-08 1.098490e-08 1.024015e-08
1.019697e-08 1.034054e-08 1.030653e-08 1.028512e-08 1.033484e-08 1.019376e-08 1.038096e-08 1.029690e-08 1.020585e-08 1.051467e-08
1.103909e-08 9.865496e-09 1.044462e-08 1.019877e-08 1.048281e-08 1.114701e-08 1.010052e-08 9.839149e-09 1.134248e-08 1.039686e-08
9.532546e-09 1.013471e-08 1.025147e-08 1.040445e-08 1.064845e-08 1.054820e-08 1.077236e-08 1.122589e-08 8.746961e-09 1.025435e-08
9.318006e-09 8.796810e-09 9.579044e-09 1.005652e-08 1.016133e-08 9.852529e-09 9.936275e-09 9.075878e-09 9.055499e-09 8.906711e-09
1.030405e-08 9.322009e-09 9.270877e-09 9.469763e-09 8.950542e-09 8.326679e-09 8.796685e-09 8.687270e-09 9.273118e-09 1.119191e-08
8.031949e-09 8.837364e-09 1.037246e-08 8.944609e-09 9.795589e-09 9.171858e-09 9.640922e-09 8.808809e-09 9.946014e-09 8.868999e-09
9.311818e-09 9.361639e-09 9.679728e-09 9.061478e-09 1.087763e-08 1.066634e-08 1.106957e-08 1.042481e-08 1.055765e-08 9.898208e-09
1.066365e-08 1.064829e-08 9.770571e-09 1.064552e-08 1.024632e-08 1.052520e-08 9.728343e-09 1.099110e-08 1.155255e-08 9.935039e-09
1.096586e-08 9.522158e-09 9.793505e-09 1.191390e-08 1.009428e-08 1.174130e-08 1.072257e-08 9.744340e-09 1.086982e-08 1.152225e-08
1.144819e-08 1.075172e-08 1.065209e-08 1.086442e-08 1.100463e-08 1.175508e-08 9.970336e-09 1.129881e-08 1.067705e-08 1.032464e-08
1.139885e-08 1.128956e-08 1.127592e-08 1.047734e-08 1.001171e-08 1.003023e-08 1.176133e-08 1.172280e-08 1.175746e-08 1.061896e-08
1.108931e-08 1.028254e-08 1.060218e-08 1.035256e-08 9.861666e-09 1.041535e-08 1.018355e-08 1.018192e-08 1.175763e-08 9.649209e-09
1.052026e-08 1.073766e-08 9.512871e-09 9.861897e-09 9.409537e-09 9.534543e-09 1.045677e-08 9.206235e-09 9.356672e-09 1.044783e-08
9.418398e-09 9.816975e-09 9.691624e-09 9.332715e-09 7.885339e-09 9.439817e-09 9.592333e-09 9.008096e-09 1.004033e-08 8.292616e-09
8.534871e-09
9.637783e-09 9.470231e-09 1.190590e-08 9.010761e-09 9.328573e-09 9.988157e-09 1.062959e-08 1.087396e-08 9.708432e-09 9.808041e-09
1.056531e-08 9.244489e-09 1.127079e-08 1.142665e-08 9.955166e-09 9.832386e-09 9.961043e-09 1.051512e-08 9.843550e-09 1.042636e-08
1.036674e-08 1.110360e-08 1.144736e-08 1.054380e-08 1.156360e-08 9.698462e-09 1.067871e-08 8.903050e-09 1.001299e-08 1.116108e-08
1.136465e-08 1.054532e-08 1.149588e-08 1.131035e-08 1.019658e-08 1.026821e-08 1.092110e-08 1.017232e-08 1.012407e-08 1.052765e-08
1.105371e-08 1.039947e-08 1.042532e-08 1.090750e-08 1.121004e-08 9.611199e-09 1.103553e-08 1.140351e-08 1.020123e-08 9.963739e-09
1.077327e-08 1.129660e-08 1.116197e-08 1.025180e-08 1.051355e-08 1.021409e-08 1.169608e-08 1.027701e-08 1.122227e-08 1.102986e-08
1.188212e-08 1.030540e-08 1.025474e-08 1.118243e-08 1.032074e-08 1.033441e-08 1.131816e-08 9.854813e-09 1.131739e-08 1.048239e-08
1.015055e-08 1.109817e-08 9.869950e-09 1.103610e-08 9.359931e-09 9.874932e-09 1.052350e-08 1.009332e-08 9.460888e-09 8.775724e-09
1.000744e-08 1.020032e-08 1.033759e-08 1.049873e-08 9.648695e-09 9.275355e-09 9.474692e-09 9.109592e-09 8.352932e-09 9.963402e-09
9.789197e-09 9.880607e-09 9.490468e-09 9.998417e-09 9.753567e-09 9.644118e-09 1.013686e-08 9.936469e-09 9.973820e-09 1.022787e-08
1.078165e-08 1.115257e-08 8.965784e-09 9.549239e-09 9.117972e-09 1.048358e-08 1.078687e-08 9.695840e-09 1.026581e-08 1.039176e-08
9.808526e-09 1.122936e-08 1.075815e-08 9.995733e-09 1.164976e-08 1.095058e-08 1.078434e-08 1.021407e-08 1.030567e-08 1.095702e-08
1.131804e-08 1.158378e-08 1.065828e-08 1.053030e-08 1.099907e-08 1.025588e-08 1.044097e-08 1.092359e-08 1.058879e-08 1.098648e-08
1.055933e-08 1.081336e-08 1.132130e-08 1.144941e-08 1.030406e-08 1.110681e-08 1.142760e-08 1.080178e-08 1.117693e-08 1.113431e-08
1.155257e-08 9.951090e-09 1.167793e-08 1.062022e-08 1.089457e-08 1.139918e-08 1.050052e-08 1.041426e-08 1.123713e-08 9.691468e-09
1.017051e-08 1.164891e-08 1.047238e-08 9.796282e-09 9.947900e-09 1.180998e-08 1.075458e-08 1.155644e-08 1.102606e-08 9.877698e-09
1.031397e-08 9.551239e-09 9.373745e-09 1.006621e-08 9.818221e-09 9.728898e-09 9.823620e-09 9.074270e-09 9.723947e-09 9.900013e-09
9.592870e-09 9.613525e-09 9.383219e-09 1.069759e-08 9.791974e-09 8.690553e-09 9.215952e-09 7.798042e-09 1.011733e-08 9.131779e-09
8.646754e-09 8.248395e-09 1.046619e-08 1.004091e-08 8.403226e-09 8.655838e-09 1.136919e-08 9.320673e-09 9.703526e-09 8.502692e-09
1.030680e-08 9.287107e-09 1.009591e-08 9.174227e-09 9.280245e-09 9.444673e-09 1.073245e-08 1.026599e-08 9.789713e-09 9.697422e-09
9.516788e-09 9.397664e-09 1.124038e-08 9.402597e-09 1.046427e-08 1.034212e-08 1.020870e-08 1.098570e-08 1.096931e-08 1.019900e-08
1.152944e-08 1.018457e-08 9.951428e-09 9.724920e-09 1.064560e-08 1.100930e-08 1.026092e-08 1.090344e-08 1.125689e-08 1.023541e-08
1.101557e-08 1.037417e-08 9.809695e-09 1.124512e-08 1.193954e-08 1.062679e-08 1.070877e-08 1.040751e-08 1.088125e-08 1.128526e-08
1.009868e-08 1.079492e-08 1.132589e-08 1.006667e-08 1.030042e-08 1.050793e-08 1.082556e-08 1.056367e-08 1.056331e-08 1.125529e-08
9.742614e-09 1.094918e-08 1.159637e-08 9.927963e-09 1.076126e-08 1.064129e-08 1.120975e-08 1.205423e-08 9.910464e-09 1.059189e-08
9.517557e-09 1.121517e-08 9.401298e-09 1.062798e-08 9.718335e-09 1.070617e-08 1.133252e-08 9.138690e-09 9.691928e-09 8.888047e-09
9.047461e-09 9.449884e-09 9.968132e-09 8.820661e-09 9.895204e-09 9.006362e-09 9.014502e-09 8.733669e-09 8.325444e-09 1.018028e-08
9.685277e-09 7.909875e-09 9.402751e-09 8.585509e-09 8.399078e-09 1.013669e-08 1.001541e-08 8.826444e-09 9.989107e-09 9.512195e-09
9.480265e-09 9.698826e-09 9.573290e-09 9.137814e-09 1.092585e-08 9.586846e-09 1.119646e-08 9.943304e-09 1.160905e-08 1.033472e-08
9.654173e-09 1.082488e-08 1.018391e-08 1.007798e-08 1.026013e-08 1.134068e-08 1.054810e-08 1.050949e-08 1.101392e-08 1.170512e-08
1.142212e-08 1.041283e-08 1.061953e-08 1.081040e-08 1.119969e-08 1.120651e-08 1.128761e-08 1.069247e-08 1.178012e-08 1.138097e-08
1.205316e-08 1.194089e-08 1.171238e-08 1.134354e-08 1.093626e-08 1.087246e-08 1.140127e-08 1.103551e-08 1.100956e-08 1.111232e-08
1.036308e-08 1.061645e-08 1.077397e-08 1.069580e-08 1.152126e-08 1.204134e-08 1.106518e-08 1.076144e-08 9.680181e-09 1.041313e-08
1.209484e-08 1.165019e-08 1.019264e-08 1.050946e-08 1.018406e-08 1.045273e-08 1.136659e-08 1.083933e-08 1.006311e-08 1.005679e-08
9.767358e-09 1.132941e-08 1.105468e-08 1.096895e-08 9.379523e-09 9.115790e-09 1.201307e-08 9.840437e-09 1.075817e-08 8.790334e-09
1.059628e-08 1.074306e-08 8.897133e-09 9.606668e-09 9.780573e-09 9.056803e-09 8.427123e-09 1.049434e-08 9.853873e-09 1.003280e-08
9.637783e-09
1.169374e-08 1.034538e-08 7.936236e-09 9.374477e-09 1.064805e-08 8.879369e-09 1.107620e-08 1.073024e-08 1.115109e-08 9.914229e-09
1.051684e-08 1.147066e-08 1.089661e-08 9.683293e-09 1.121597e-08 1.091051e-08 1.051845e-08 1.009882e-08 1.027397e-08 1.136693e-08
1.015288e-08 1.158483e-08 1.114294e-08 1.033217e-08 1.061583e-08 1.099701e-08 1.117249e-08 1.219648e-08 1.025149e-08 1.022953e-08
1.148757e-08 1.135513e-08 1.119615e-08 1.056447e-08 1.075315e-08 1.152395e-08 1.149489e-08 1.073569e-08 1.093741e-08 1.229384e-08
1.087364e-08 1.077433e-08 1.107560e-08 1.066417e-08 1.046940e-08 1.088368e-08 1.064887e-08 1.054018e-08 1.085397e-08 1.124666e-08
1.154590e-08 1.053390e-08 1.112729e-08 1.105823e-08 1.169485e-08 1.169272e-08 1.144605e-08 1.170174e-08 1.094260e-08 1.189943e-08
1.103277e-08 1.068897e-08 1.096444e-08 1.169179e-08 1.105558e-08 1.013707e-08 1.045677e-08 1.089764e-08 1.062948e-08 1.068910e-08
1.009326e-08 1.084243e-08 1.137892e-08 1.202695e-08 1.043485e-08 1.162521e-08 1.009391e-08 1.188068e-08 1.055937e-08 1.075848e-08
9.327858e-09 1.070535e-08 1.105132e-08 9.935324e-09 9.640575e-09 9.143592e-09 9.856676e-09 9.490006e-09 8.874612e-09 1.053773e-08
1.092318e-08 9.917895e-09 9.925185e-09 9.125724e-09 9.461593e-09 8.987559e-09 9.641579e-09 9.598314e-09 9.443878e-09 1.024756e-08
9.578991e-09 9.414358e-09 1.098738e-08 1.008137e-08 1.038274e-08 9.795189e-09 1.084227e-08 1.045146e-08 1.083277e-08 1.099003e-08
9.721282e-09 1.203460e-08 9.951710e-09 1.034742e-08 1.092365e-08 1.173813e-08 1.076491e-08 1.151030e-08 1.074024e-08 1.033518e-08
1.083311e-08 1.165993e-08 1.070144e-08 1.047140e-08 1.123750e-08 1.113363e-08 1.101300e-08 1.115144e-08 1.108489e-08 1.095014e-08
1.082446e-08 1.108340e-08 1.145962e-08 1.205714e-08 1.163215e-08 1.141498e-08 1.128841e-08 1.111713e-08 1.011944e-08 1.159293e-08
1.073674e-08 1.099006e-08 1.143057e-08 1.222295e-08 1.179288e-08 1.210584e-08 1.106699e-08 1.097876e-08 1.116043e-08 1.066612e-08
1.184648e-08 1.060068e-08 1.120635e-08 1.121032e-08 1.046512e-08 1.123832e-08 1.152475e-08 1.037453e-08 1.075073e-08 1.005677e-08
1.056954e-08 1.078738e-08 1.081955e-08 1.039476e-08 1.088185e-08 1.020062e-08 9.350458e-09 9.856580e-09 1.030049e-08 9.647823e-09
1.038176e-08 9.504252e-09 9.868966e-09 1.207577e-08 1.004147e-08 1.031655e-08 9.598273e-09 9.903619e-09 9.292820e-09 8.793581e-09
1.005084e-08 9.315826e-09 1.021316e-08 9.915591e-09 1.054639e-08 9.945673e-09 1.114158e-08 1.080900e-08 1.013958e-08 1.003519e-08
9.579449e-09 9.864426e-09 1.149780e-08 1.050832e-08 1.027848e-08 9.869299e-09 9.854669e-09 8.945614e-09 9.443249e-09 9.709375e-09
9.857547e-09 1.066870e-08 1.137370e-08 1.156263e-08 1.071754e-08 1.199994e-08 1.131565e-08 1.154492e-08 1.121229e-08 1.197233e-08
1.002080e-08 1.058494e-08 1.188384e-08 1.123282e-08 1.155883e-08 1.140730e-08 1.140020e-08 1.106712e-08 1.211607e-08 1.115156e-08
1.198236e-08 1.103583e-08 1.097674e-08 1.148518e-08 1.132724e-08 1.091905e-08 1.068325e-08 1.072561e-08 1.124279e-08 1.104303e-08
1.208927e-08 1.062545e-08 1.123826e-08 1.056770e-08 1.168233e-08 1.150539e-08 1.082557e-08 1.088514e-08 1.016612e-08 1.170447e-08
1.053566e-08 1.036411e-08 1.113792e-08 1.119499e-08 1.114271e-08 1.090664e-08 9.347258e-09 1.093535e-08 9.617135e-09 1.068507e-08
1.207610e-08 1.033789e-08 1.237453e-08 1.042070e-08 9.783213e-09 1.012582e-08 1.001325e-08 1.157658e-08 8.596125e-09 9.462398e-09
1.075073e-08 9.602053e-09 9.340264e-09 9.389659e-09 1.002805e-08 1.088478e-08 1.056211e-08 1.043466e-08 9.782159e-09 1.047411e-08
9.494744e-09 8.860099e-09 9.643622e-09 9.990445e-09 9.514648e-09 9.557588e-09 1.037667e-08 9.593946e-09 8.859034e-09 9.769473e-09
9.848899e-09 1.124004e-08 1.068900e-08 9.875303e-09 1.082901e-08 9.661744e-09 1.167598e-08 1.189283e-08 1.036514e-08 9.370729e-09
1.058457e-08 1.083881e-08 1.062551e-08 1.059288e-08 1.106226e-08 1.168952e-08 1.017332e-08 1.099407e-08 1.139586e-08 1.053054e-08
1.038039e-08 1.210106e-08 1.160054e-08 1.193423e-08 1.169253e-08 1.157582e-08 1.145781e-08 1.140586e-08 1.146807e-08 1.110811e-08
1.127179e-08 1.094838e-08 1.097939e-08 1.141409e-08 1.171247e-08 1.260267e-08 1.183449e-08 1.157760e-08 1.076940e-08 1.129635e-08
1.160735e-08 1.116604e-08 1.068932e-08 1.068731e-08 1.134004e-08 1.174782e-08 1.125991e-08 1.129746e-08 1.072775e-08 1.070422e-08
1.223741e-08 1.027364e-08 1.173340e-08 1.233718e-08 1.149533e-08 1.076354e-08 1.021579e-08 1.079054e-08 1.058665e-08 1.247196e-08
1.057156e-08 1.116793e-08 1.049321e-08 9.856663e-09 1.048997e-08 1.069713e-08 1.033388e-08 9.634053e-09 1.004588e-08 9.703384e-09
1.103648e-08 8.947659e-09 1.014460e-08 9.153212e-09 9.575328e-09 9.469771e-09 9.051984e-09 1.053249e-08 1.059153e-08 1.026740e-08
1.169374e-08
1.213746e-08 1.132237e-08 9.545349e-09 1.025009e-08 1.123751e-08 1.018449e-08 1.140339e-08 1.042917e-08 1.055381e-08 9.037491e-09
1.019013e-08 1.071298e-08 1.174069e-08 1.276538e-08 9.910937e-09 1.042768e-08 1.020609e-08 1.057894e-08 9.866180e-09 1.158865e-08
1.071046e-08 1.032954e-08 1.209649e-08 1.096684e-08 1.207227e-08 1.108304e-08 1.184895e-08 1.063167e-08 1.097888e-08 1.055511e-08
1.143707e-08 1.185762e-08 1.085363e-08 1.131809e-08 1.135411e-08 1.207350e-08 1.109242e-08 1.147992e-08 1.136580e-08 1.185046e-08
1.162846e-08 1.156321e-08 1.173525e-08 1.183035e-08 1.102132e-08 1.165473e-08 1.078528e-08 1.102208e-08 1.152402e-08 1.158239e-08
1.171745e-08 1.168815e-08 1.093864e-08 1.184792e-08 1.233269e-08 1.174538e-08 1.114145e-08 1.114566e-08 1.118978e-08 1.015410e-08
1.154359e-08 1.082025e-08 1.239107e-08 1.096627e-08 1.144646e-08 1.099454e-08 1.105224e-08 1.123333e-08 1.139622e-08 1.082881e-08
1.066672e-08 9.796303e-09 1.017636e-08 1.089871e-08 1.051896e-08 1.015087e-08 1.172646e-08 1.091154e-08 1.095484e-08 1.110422e-08
1.124519e-08 1.062398e-08 1.103778e-08 1.054403e-08 1.038768e-08 1.188196e-08 1.061766e-08 1.039606e-08 9.531626e-09 1.082332e-08
1.029812e-08 1.009123e-08 9.998537e-09 1.055986e-08 9.976662e-09 9.472617e-09 9.675666e-09 9.532759e-09 1.112514e-08 1.146357e-08
1.102319e-08 1.064141e-08 9.459956e-09 1.113811e-08 1.101894e-08 1.170843e-08 1.094023e-08 1.019073e-08 1.023535e-08 1.146764e-08
1.184741e-08 1.221755e-08 1.084983e-08 1.197723e-08 1.257660e-08 1.219651e-08 1.085652e-08 1.075848e-08 1.220291e-08 1.166302e-08
1.119361e-08 1.211239e-08 1.137738e-08 1.094851e-08 1.168656e-08 1.108979e-08 1.086832e-08 1.222148e-08 1.196673e-08 1.154215e-08
1.210305e-08 1.148854e-08 1.054800e-08 1.247299e-08 1.254046e-08 1.218800e-08 1.206915e-08 1.179968e-08 1.222396e-08 1.097837e-08
1.190822e-08 1.089482e-08 1.163929e-08 1.207562e-08 1.112663e-08 1.105695e-08 1.059146e-08 1.037372e-08 1.187204e-08 1.063543e-08
1.143530e-08 1.047766e-08 1.186673e-08 1.109392e-08 1.062498e-08 1.124934e-08 1.205249e-08 1.183963e-08 1.206733e-08 1.094431e-08
1.006101e-08 1.257235e-08 1.007411e-08 9.777474e-09 1.064643e-08 1.033309e-08 9.910128e-09 1.021167e-08 1.044688e-08 1.104360e-08
1.033868e-08 1.021054e-08 9.388939e-09 9.732446e-09 1.029256e-08 9.525940e-09 1.112061e-08 9.334807e-09 1.009817e-08 9.735323e-09
9.087958e-09 1.014178e-08 1.003077e-08 1.023185e-08 9.669658e-09 9.789468e-09 1.077253e-08 1.037416e-08 1.082116e-08 1.041832e-08
1.037191e-08 1.086161e-08 1.197244e-08 9.617215e-09 1.122131e-08 1.122804e-08 1.073790e-08 1.199660e-08 1.183953e-08 1.026478e-08
1.163907e-08 1.063689e-08 1.053457e-08 1.152643e-08 1.120785e-08 1.073174e-08 1.061859e-08 1.080467e-08 1.163252e-08 1.096495e-08
1.154749e-08 1.183514e-08 1.183566e-08 1.073966e-08 1.124669e-08 1.089647e-08 1.173350e-08 1.202133e-08 1.156403e-08 1.100881e-08
1.171557e-08 1.089272e-08 1.148691e-08 1.178658e-08 1.064020e-08 1.095442e-08 1.119865e-08 1.173588e-08 1.151639e-08 1.111878e-08
1.156181e-08 1.159487e-08 1.144829e-08 1.043261e-08 1.135731e-08 1.203958e-08 1.058050e-08 1.128971e-08 1.193198e-08 1.139921e-08
1.137807e-08 1.094988e-08 9.914769e-09 1.012907e-08 1.119822e-08 1.042339e-08 1.074470e-08 1.128827e-08 1.083412e-08 1.066702e-08
1.110021e-08 1.122052e-08 1.025560e-08 1.019211e-08 1.020678e-08 1.149739e-08 1.064495e-08 9.657302e-09 9.977074e-09 1.074697e-08
9.945443e-09 1.119322e-08 9.520877e-09 1.020350e-08 1.113224e-08 1.049927e-08 1.000312e-08 1.054511e-08 1.036114e-08 1.078845e-08
9.181444e-09 1.085352e-08 8.771488e-09 1.144954e-08 9.977277e-09 1.007765e-08 1.070092e-08 1.065658e-08 1.152612e-08 1.123428e-08
1.249088e-08 1.020343e-08 1.219439e-08 1.055883e-08 1.101846e-08 1.153502e-08 1.103702e-08 1.021178e-08 1.145628e-08 1.133997e-08
1.144140e-08 1.092639e-08 1.206164e-08 1.047766e-08 1.207271e-08 1.126442e-08 1.222361e-08 1.125422e-08 1.142287e-08 1.160591e-08
1.311745e-08 1.149243e-08 1.157596e-08 1.091926e-08 1.162962e-08 1.294471e-08 1.097752e-08 1.141103e-08 1.100939e-08 1.240223e-08
1.174386e-08 1.251350e-08 1.182743e-08 1.236015e-08 1.203740e-08 1.136726e-08 1.126879e-08 1.213771e-08 1.261536e-08 1.227885e-08
1.136512e-08 1.300650e-08 1.199641e-08 1.172567e-08 1.173156e-08 1.142639e-08 1.210166e-08 1.155447e-08 1.065997e-08 1.194644e-08
1.223206e-08 1.167820e-08 1.158571e-08 1.276565e-08 1.054834e-08 1.088637e-08 1.144845e-08 1.201576e-08 1.156909e-08 1.072619e-08
1.136044e-08 1.040614e-08 1.232803e-08 1.092198e-08 1.081739e-08 1.182987e-08 1.206403e-08 1.146845e-08 1.076911e-08 1.173354e-08
9.793175e-09 1.245199e-08 8.942273e-09 1.060833e-08 1.012694e-08 1.206777e-08 1.046126e-08 9.769439e-09 9.230795e-09 9.513439e-09
1.213746e-08
9.620625e-09 9.788621e-09 1.060815e-08 1.062978e-08 9.880750e-09 1.006449e-08 1.122069e-08 1.154462e-08 1.177114e-08 1.052597e-08
1.075476e-08 1.068705e-08 1.174407e-08 1.033459e-08 1.023291e-08 1.197861e-08 1.055853e-08 1.134012e-08 1.191588e-08 1.100214e-08
1.117829e-08 1.063632e-08 1.086637e-08 1.067200e-08 1.200573e-08 1.158954e-08 1.225932e-08 1.184208e-08 1.097060e-08 1.151822e-08
1.150001e-08 1.174794e-08 1.111991e-08 1.127408e-08 1.138968e-08 1.112851e-08 1.189651e-08 1.254349e-08 1.158327e-08 1.151535e-08
1.096594e-08 1.145489e-08 1.143827e-08 1.219707e-08 1.187064e-08 1.112248e-08 1.175824e-08 1.170642e-08 1.244915e-08 1.199260e-08
1.123505e-08 1.259205e-08 1.158694e-08 1.294301e-08 1.093745e-08 1.222106e-08 1.228791e-08 1.190082e-08 1.224514e-08 1.146997e-08
1.165064e-08 1.148160e-08 1.219842e-08 1.125676e-08 1.196806e-08 1.165778e-08 1.067428e-08 1.149906e-08 1.084003e-08 1.133603e-08
1.087236e-08 1.162536e-08 1.157660e-08 1.202895e-08 1.017936e-08 1.144988e-08 9.874445e-09 1.215836e-08 1.052439e-08 1.265309e-08
1.055062e-08 1.049710e-08 9.720726e-09 9.630281e-09 1.009665e-08 1.022836e-08 1.039704e-08 1.073061e-08 9.793159e-09 9.459035e-09
9.303498e-09 9.266647e-09 1.130100e-08 1.039071e-08 1.029509e-08 1.012626e-08 1.164490e-08 1.094514e-08 1.098455e-08 1.099992e-08
1.028522e-08 1.059456e-08 1.043415e-08 1.182013e-08 1.082990e-08 1.216088e-08 1.238725e-08 1.265856e-08 1.010576e-08 1.253734e-08
1.100107e-08 1.177047e-08 1.127307e-08 1.110855e-08 1.235421e-08 1.204805e-08 1.211905e-08 1.264572e-08 1.123687e-08 1.125688e-08
1.138465e-08 1.210948e-08 1.139845e-08 1.197540e-08 1.228907e-08 1.184157e-08 1.310860e-08 1.176929e-08 1.207159e-08 1.090857e-08
1.145041e-08 1.128005e-08 1.128057e-08 1.250725e-08 1.183519e-08 1.187192e-08 1.170321e-08 1.219450e-08 1.180241e-08 1.289160e-08
1.113436e-08 1.130598e-08 1.269690e-08 1.109896e-08 1.247767e-08 1.194185e-08 1.068798e-08 1.328486e-08 1.316866e-08 1.217075e-08
1.134984e-08 1.142960e-08 1.237164e-08 1.073653e-08 1.187616e-08 1.213709e-08 1.170938e-08 1.034521e-08 1.079016e-08 1.045173e-08
1.217737e-08 1.177769e-08 1.189488e-08 1.046636e-08 1.034531e-08 1.013666e-08 1.215215e-08 1.021687e-08 1.091247e-08 1.084604e-08
9.617568e-09 1.022906e-08 9.728891e-09 9.896275e-09 9.583381e-09 1.049679e-08 1.020292e-08 1.046703e-08 1.080495e-08 9.597520e-09
9.932164e-09 1.023378e-08 1.070038e-08 9.021644e-09 9.792777e-09 1.102494e-08 1.010635e-08 9.790348e-09 1.051107e-08 1.180875e-08
1.135647e-08 9.984940e-09 1.111781e-08 1.085284e-08 9.788322e-09 1.037647e-08 1.105093e-08 1.162911e-08 1.087619e-08 1.078442e-08
1.033910e-08 1.096471e-08 1.094665e-08 1.092359e-08 1.133236e-08 1.214650e-08 1.085944e-08 1.219991e-08 1.203940e-08 1.157331e-08
1.143371e-08 1.129133e-08 1.218075e-08 1.168823e-08 1.074371e-08 1.122171e-08 1.077804e-08 1.133624e-08 1.193809e-08 1.183067e-08
1.113756e-08 1.136335e-08 1.220154e-08 1.256930e-08 1.086621e-08 1.188110e-08 1.250427e-08 1.214468e-08 1.128999e-08 1.190855e-08
1.169302e-08 1.268221e-08 1.228861e-08 1.087277e-08 1.106119e-08 1.130702e-08 1.167195e-08 1.180744e-08 1.187825e-08 1.134607e-08
1.254996e-08 1.204485e-08 1.221590e-08 1.151089e-08 1.161097e-08 1.179757e-08 1.194550e-08 1.090117e-08 1.200952e-08 1.061995e-08
1.071448e-08 1.066516e-08 1.161690e-08 1.080967e-08 1.103551e-08 1.205151e-08 1.168606e-08 1.037488e-08 1.021432e-08 1.159549e-08
9.861689e-09 1.096060e-08 1.006219e-08 1.061875e-08 1.003292e-08 1.045666e-08 1.139029e-08 1.050930e-08 9.808589e-09 9.952532e-09
9.847734e-09 1.115373e-08 1.119245e-08 9.979530e-09 1.025992e-08 1.025249e-08 1.001818e-08 9.693171e-09 1.109874e-08 9.541327e-09
1.082325e-08 1.090473e-08 1.078055e-08 1.017211e-08 1.115033e-08 1.122140e-08 1.126882e-08 1.192802e-08 1.107432e-08 1.071261e-08
1.100535e-08 1.243210e-08 1.094254e-08 1.181903e-08 1.091596e-08 1.227991e-08 1.149886e-08 1.110400e-08 1.074540e-08 1.154059e-08
1.191388e-08 1.219707e-08 1.215953e-08 1.241492e-08 1.141121e-08 1.225050e-08 1.306188e-08 1.191109e-08 1.256494e-08 1.174598e-08
1.306584e-08 1.200281e-08 1.200567e-08 1.271161e-08 1.204097e-08 1.276119e-08 1.194854e-08 1.188799e-08 1.212148e-08 1.131483e-08
1.163184e-08 1.191427e-08 1.230125e-08 1.303468e-08 1.308068e-08 1.165520e-08 1.147248e-08 1.143484e-08 1.111483e-08 1.191780e-08
1.271516e-08 1.138408e-08 1.096836e-08 1.079869e-08 1.105014e-08 1.250393e-08 1.192613e-08 1.289812e-08 1.186264e-08 1.109483e-08
1.185535e-08 1.112178e-08 1.035732e-08 1.120508e-08 1.194983e-08 9.846752e-09 1.177006e-08 9.539150e-09 1.068263e-08 1.014825e-08
1.195542e-08 1.131838e-08 1.009336e-08 1.101364e-08 1.063908e-08 9.734229e-09 1.085001e-08 1.082972e-08 1.057031e-08 9.522270e-09
9.620625e-09
1.147632e-08 1.061937e-08 9.444769e-09 1.290859e-08 1.117387e-08 1.186750e-08 1.247120e-08 1.181735e-08 1.108123e-08 1.135192e-08
1.162086e-08 1.198693e-08 1.117025e-08 1.087418e-08 1.112551e-08 1.084749e-08 1.079386e-08 1.149737e-08 1.220914e-08 1.214995e-08
1.158979e-08 1.123018e-08 1.094835e-08 1.206512e-08 1.104767e-08 1.263477e-08 1.148349e-08 1.327122e-08 1.170546e-08 1.139859e-08
1.247208e-08 1.223651e-08 1.296658e-08 1.114917e-08 1.274781e-08 1.299603e-08 1.267959e-08 1.238856e-08 1.171592e-08 1.167287e-08
1.176891e-08 1.200221e-08 1.160378e-08 1.270980e-08 1.237840e-08 1.168902e-08 1.194135e-08 1.191469e-08 1.237719e-08 1.164830e-08
1.280743e-08 1.251492e-08 1.170804e-08 1.221114e-08 1.237140e-08 1.256533e-08 1.161397e-08 1.284530e-08 1.148153e-08 1.211678e-08
1.153106e-08 1.281704e-08 1.223135e-08 1.115675e-08 1.297780e-08 1.172979e-08 1.204795e-08 1.165424e-08 1.157877e-08 1.037608e-08
1.088884e-08 1.197187e-08 1.228743e-08 1.170617e-08 1.208567e-08 1.148425e-08 1.202787e-08 1.178427e-08 1.087763e-08 1.110088e-08
1.049671e-08 1.030809e-08 1.219196e-08 1.136615e-08 1.179356e-08 9.540057e-09 1.131261e-08 1.051891e-08 1.116802e-08 1.055467e-08
1.162149e-08 9.640833e-09 1.047171e-08 1.009861e-08 1.007230e-08 1.194659e-08 1.010828e-08 1.106513e-08 1.019669e-08 1.032085e-08
1.078077e-08 1.116849e-08 1.291772e-08 1.043947e-08 1.150725e-08 1.128096e-08 1.169894e-08 1.180558e-08 1.095628e-08 1.176735e-08
1.111382e-08 1.218867e-08 1.226710e-08 1.120314e-08 1.175515e-08 1.147157e-08 1.184981e-08 1.332478e-08 1.242816e-08 1.308145e-08
1.168678e-08 1.170168e-08 1.222791e-08 1.145596e-08 1.258854e-08 1.170420e-08 1.187200e-08 1.197479e-08 1.274311e-08 1.287626e-08
1.227316e-08 1.195362e-08 1.159528e-08 1.176986e-08 1.197275e-08 1.279570e-08 1.231852e-08 1.265348e-08 1.190751e-08 1.151779e-08
1.254337e-08 1.165452e-08 1.206663e-08 1.227589e-08 1.165844e-08 1.278198e-08 1.160875e-08 1.278268e-08 1.119017e-08 1.152170e-08
1.106179e-08 1.072428e-08 1.254782e-08 1.096350e-08 1.196312e-08 1.252406e-08 1.242377e-08 1.176127e-08 1.312778e-08 1.081398e-08
1.131861e-08 1.135734e-08 1.193829e-08 1.071949e-08 1.099054e-08 1.092712e-08 1.011154e-08 1.340199e-08 1.078931e-08 1.144235e-08
1.170562e-08 1.105382e-08 1.033654e-08 1.146714e-08 1.160217e-08 1.214289e-08 1.086201e-08 1.120751e-08 1.073769e-08 1.187510e-08
9.210159e-09 1.073893e-08 1.117070e-08 1.088798e-08 9.773983e-09 1.184517e-08 1.051434e-08 1.102119e-08 1.167397e-08 1.048493e-08
1.303648e-08 1.024037e-08 1.102599e-08 1.224877e-08 1.094914e-08 1.107326e-08 1.296679e-08 1.112383e-08 1.013787e-08 1.068325e-08
1.115725e-08 1.051856e-08 1.210465e-08 1.226869e-08 1.118071e-08 1.233678e-08 1.141690e-08 1.232237e-08 1.189373e-08 1.185696e-08
1.218732e-08 1.270485e-08 1.282222e-08 1.185027e-08 1.162790e-08 1.156256e-08 1.230232e-08 1.237908e-08 1.178153e-08 1.183305e-08
1.308583e-08 1.157744e-08 1.162594e-08 1.170541e-08 1.189398e-08 1.200385e-08 1.214246e-08 1.238049e-08 1.175399e-08 1.151580e-08
1.215095e-08 1.191677e-08 1.258746e-08 1.194287e-08 1.186331e-08 1.232522e-08 1.286456e-08 1.244443e-08 1.192381e-08 1.181314e-08
1.076658e-08 1.154566e-08 1.188831e-08 1.206809e-08 1.117813e-08 1.224630e-08 1.237143e-08 1.120709e-08 1.119042e-08 1.100750e-08
1.251442e-08 1.105020e-08 1.131183e-08 1.259614e-08 1.159410e-08 1.177217e-08 1.199175e-08 1.116145e-08 1.092595e-08 1.071599e-08
1.134630e-08 1.039891e-08 1.199575e-08 9.207345e-09 9.719130e-09 1.063728e-08 1.106504e-08 9.304631e-09 1.035172e-08 1.045320e-08
9.464046e-09 9.511789e-09 1.020703e-08 9.559813e-09 1.014903e-08 1.157486e-08 1.088626e-08 1.189512e-08 1.114470e-08 1.260995e-08
1.077575e-08 1.298124e-08 1.170352e-08 1.217555e-08 1.182751e-08 1.158451e-08 1.164515e-08 1.207543e-08 1.138037e-08 1.128513e-08
1.328527e-08 1.169578e-08 1.208671e-08 1.234177e-08 1.182996e-08 1.190709e-08 1.183289e-08 1.178668e-08 1.036836e-08 1.198785e-08
1.198769e-08 1.243985e-08 1.212340e-08 1.279675e-08 1.152451e-08 1.199353e-08 1.165804e-08 1.199925e-08 1.408997e-08 1.311067e-08
1.315588e-08 1.268968e-08 1.314615e-08 1.255506e-08 1.266764e-08 1.190850e-08 1.218406e-08 1.178353e-08 1.244282e-08 1.195045e-08
1.207542e-08 1.155636e-08 1.226397e-08 1.173148e-08 1.208231e-08 1.184208e-08 1.218121e-08 1.223448e-08 1.138321e-08 1.267801e-08
1.155572e-08 1.146460e-08 1.143469e-08 1.171386e-08 1.177120e-08 1.123873e-08 1.192511e-08 1.180392e-08 1.380349e-08 1.374686e-08
1.176731e-08 1.197970e-08 1.144368e-08 1.129921e-08 1.088147e-08 1.178555e-08 1.039574e-08 1.220155e-08 1.116098e-08 1.161270e-08
1.057373e-08 1.083212e-08 1.187869e-08 1.157148e-08 1.053913e-08 9.214424e-09 1.101918e-08 1.097787e-08 1.107636e-08 1.052814e-08
1.147632e-08
1.167775e-08 1.312577e-08 1.116313e-08 9.903879e-09 1.081846e-08 1.154981e-08 1.131515e-08 1.084512e-08 1.153078e-08 1.071927e-08
1.285884e-08 1.235602e-08 1.092969e-08 1.182797e-08 1.233222e-08 1.207334e-08 1.204884e-08 1.211681e-08 1.256352e-08 1.277235e-08
1.274105e-08 1.257982e-08 1.257268e-08 1.194350e-08 1.252536e-08 1.263672e-08 1.239186e-08 1.184206e-08 1.166256e-08 1.187292e-08
1.150337e-08 1.280525e-08 1.320890e-08 1.239111e-08 1.201776e-08 1.254952e-08 1.157554e-08 1.283474e-08 1.335390e-08 1.281271e-08
1.268363e-08 1.295849e-08 1.272702e-08 1.284262e-08 1.314012e-08 1.245543e-08 1.196557e-08 1.207289e-08 1.231403e-08 1.205526e-08
1.284023e-08 1.287106e-08 1.329080e-08 1.300309e-08 1.212511e-08 1.214239e-08 1.210962e-08 1.383221e-08 1.389721e-08 1.358086e-08
1.264945e-08 1.294245e-08 1.179693e-08 1.194218e-08 1.320918e-08 1.222689e-08 1.197604e-08 1.108050e-08 1.130751e-08 1.217755e-08
1.192143e-08 1.073404e-08 1.138789e-08 1.075365e-08 1.165413e-08 1.177843e-08 1.067399e-08 1.111588e-08 1.155104e-08 1.101226e-08
1.126179e-08 1.053517e-08 1.078647e-08 1.093537e-08 1.186929e-08 1.032909e-08 1.115287e-08 1.075348e-08 1.079963e-08 1.005536e-08
1.095975e-08 1.046202e-08 1.149927e-08 1.051218e-08 1.087127e-08 1.167836e-08 1.109262e-08 1.113884e-08 1.248913e-08 1.094317e-08
1.195788e-08 1.235323e-08 1.113014e-08 1.099328e-08 1.061641e-08 1.142884e-08 1.193650e-08 1.085491e-08 1.184070e-08 1.200275e-08
1.295452e-08 1.264029e-08 1.128630e-08 1.205005e-08 1.137171e-08 1.121742e-08 1.245422e-08 1.298536e-08 1.269742e-08 1.165278e-08
1.265229e-08 1.256263e-08 1.304155e-08 1.270027e-08 1.273101e-08 1.192665e-08 1.147419e-08 1.185328e-08 1.197515e-08 1.199249e-08
1.253848e-08 1.267911e-08 1.167654e-08 1.256587e-08 1.265711e-08 1.184847e-08 1.219345e-08 1.195070e-08 1.187382e-08 1.140387e-08
1.159221e-08 1.248906e-08 1.236760e-08 1.233534e-08 1.179512e-08 1.203005e-08 1.235497e-08 1.127461e-08 1.272115e-08 1.209959e-08
1.277637e-08 1.300833e-08 1.208993e-08 1.321777e-08 1.207625e-08 1.149317e-08 1.281509e-08 1.235347e-08 1.151372e-08 1.161910e-08
1.168052e-08 1.188856e-08 1.156402e-08 1.127403e-08 1.141687e-08 1.217067e-08 1.175547e-08 1.075693e-08 1.091933e-08 1.164210e-08
1.144234e-08 1.064869e-08 1.085667e-08 1.026768e-08 1.067188e-08 1.037247e-08 1.103832e-08 1.103167e-08 1.149121e-08 9.856397e-09
1.278947e-08 1.133815e-08 1.084800e-08 1.054863e-08 1.075349e-08 1.210475e-08 1.177626e-08 1.252973e-08 1.034046e-08 1.134365e-08
1.262625e-08 1.160678e-08 1.099604e-08 1.207847e-08 1.098111e-08 1.175821e-08 1.167984e-08 1.041554e-08 1.103438e-08 1.203778e-08
1.141786e-08 1.176518e-08 1.216753e-08 1.197357e-08 1.148449e-08 1.153593e-08 1.175252e-08 1.288905e-08 1.175137e-08 1.266326e-08
1.176455e-08 1.340536e-08 1.174105e-08 1.253365e-08 1.169700e-08 1.240663e-08 1.229463e-08 1.199029e-08 1.225870e-08 1.234951e-08
1.240918e-08 1.218487e-08 1.180552e-08 1.188320e-08 1.162369e-08 1.296432e-08 1.181690e-08 1.169000e-08 1.348380e-08 1.239771e-08
1.141018e-08 1.290240e-08 1.271236e-08 1.308472e-08 1.228025e-08 1.328398e-08 1.194561e-08 1.189471e-08 1.261134e-08 1.205118e-08
1.262738e-08 1.184102e-08 1.310159e-08 1.198059e-08 1.456553e-08 1.228572e-08 1.227619e-08 1.125124e-08 1.165693e-08 1.281262e-08
1.183218e-08 1.217795e-08 1.120279e-08 1.215720e-08 1.205635e-08 1.178599e-08 1.084742e-08 1.272082e-08 1.004697e-08 1.223328e-08
1.149633e-08 1.089825e-08 1.132118e-08 1.095637e-08 9.965621e-09 1.165090e-08 1.082119e-08 1.069551e-08 1.070840e-08 1.060125e-08
1.004684e-08 9.765819e-09 1.085653e-08 1.000155e-08 1.090834e-08 9.953383e-09 1.180854e-08 1.063181e-08 1.090246e-08 1.043955e-08
1.226534e-08 1.130474e-08 1.150010e-08 1.119911e-08 1.161792e-08 1.172212e-08 1.072309e-08 1.224095e-08 1.332445e-08 1.099275e-08
1.354841e-08 1.104334e-08 1.136004e-08 1.343771e-08 1.173596e-08 1.208459e-08 1.205540e-08 1.289315e-08 1.279271e-08 1.278346e-08
1.244811e-08 1.315420e-08 1.216486e-08 1.215077e-08 1.278881e-08 1.303588e-08 1.256375e-08 1.215118e-08 1.258984e-08 1.291229e-08
1.297840e-08 1.192021e-08 1.234047e-08 1.277852e-08 1.210136e-08 1.205717e-08 1.313455e-08 1.297844e-08 1.262878e-08 1.345284e-08
1.196047e-08 1.260999e-08 1.245890e-08 1.199117e-08 1.279280e-08 1.234096e-08 1.259887e-08 1.193474e-08 1.321661e-08 1.157806e-08
1.207042e-08 1.288773e-08 1.165823e-08 1.313171e-08 1.238825e-08 1.222411e-08 1.264094e-08 1.177677e-08 1.159779e-08 1.144819e-08
1.203043e-08 1.149546e-08 1.146250e-08 1.132658e-08 1.204046e-08 1.269475e-08 1.041494e-08 1.188553e-08 1.160786e-08 1.162927e-08
1.191731e-08 1.075704e-08 1.229764e-08 1.153924e-08 1.170496e-08 1.272410e-08 1.073232e-08 1.052013e-08 1.041348e-08 1.064312e-08
1.167775e-08
1.131887e-08 1.184385e-08 1.173889e-08 1.154239e-08 1.166404e-08 1.169817e-08 1.079497e-08 1.121032e-08 1.232831e-08 1.171304e-08
1.111934e-08 1.138827e-08 1.107899e-08 1.252918e-08 1.367956e-08 1.129425e-08 1.177001e-08 1.153282e-08 1.165461e-08 1.253166e-08
1.134870e-08 1.179693e-08 1.253914e-08 1.205459e-08 1.228672e-08 1.304346e-08 1.314428e-08 1.148242e-08 1.252085e-08 1.192733e-08
1.323432e-08 1.212010e-08 1.291225e-08 1.250191e-08 1.275703e-08 1.337434e-08 1.265835e-08 1.214284e-08 1.303394e-08 1.270737e-08
1.161835e-08 1.219845e-08 1.250123e-08 1.291994e-08 1.277723e-08 1.281597e-08 1.288206e-08 1.308283e-08 1.283483e-08 1.297288e-08
1.358843e-08 1.290539e-08 1.287442e-08 1.248546e-08 1.206198e-08 1.176395e-08 1.222651e-08 1.197640e-08 1.187770e-08 1.254788e-08
1.294968e-08 1.260938e-08 1.317648e-08 1.300232e-08 1.283465e-08 1.308684e-08 1.456747e-08 1.117505e-08 1.234620e-08 1.163779e-08
1.305741e-08 1.270080e-08 1.140431e-08 1.267037e-08 1.183867e-08 1.216675e-08 1.236191e-08 1.202802e-08 1.159620e-08 1.141453e-08
1.168555e-08 1.146977e-08 1.212337e-08 1.192646e-08 1.105221e-08 1.232592e-08 1.101374e-08 1.178910e-08 1.105172e-08 1.168279e-08
1.045086e-08 1.084602e-08 1.248018e-08 1.149233e-08 1.232138e-08 1.049131e-08 1.270094e-08 1.083701e-08 1.245556e-08 1.048706e-08
1.063898e-08 1.155531e-08 1.181749e-08 1.117095e-08 1.263198e-08 1.211961e-08 1.231457e-08 1.239661e-08 1.114519e-08 1.184319e-08
1.244531e-08 1.249902e-08 1.207495e-08 1.205099e-08 1.253843e-08 1.279545e-08 1.269458e-08 1.314193e-08 1.230507e-08 1.203644e-08
1.200023e-08 1.255277e-08 1.306861e-08 1.379026e-08 1.314300e-08 1.226161e-08 1.227748e-08 1.264775e-08 1.251766e-08 1.342501e-08
1.264738e-08 1.193769e-08 1.282163e-08 1.249209e-08 1.356978e-08 1.272559e-08 1.214833e-08 1.213310e-08 1.210726e-08 1.275316e-08
1.299546e-08 1.304615e-08 1.202768e-08 1.250957e-08 1.214060e-08 1.235821e-08 1.307486e-08 1.221342e-08 1.206713e-08 1.311645e-08
1.444504e-08 1.140126e-08 1.157443e-08 1.187418e-08 1.191398e-08 1.198819e-08 1.301630e-08 1.166831e-08 1.182713e-08 1.253922e-08
1.215639e-08 1.343691e-08 1.260879e-08 1.107725e-08 1.229442e-08 1.187882e-08 1.185461e-08 1.277616e-08 1.146881e-08 1.333240e-08
1.198672e-08 1.212419e-08 1.137018e-08 1.235837e-08 1.153533e-08 1.051648e-08 1.153055e-08 1.052555e-08 1.113113e-08 1.084868e-08
1.131680e-08 1.070394e-08 1.077214e-08 1.193551e-08 1.107155e-08 1.044158e-08 1.225185e-08 1.202406e-08 1.352240e-08 1.146583e-08
1.270498e-08 1.221159e-08 1.227013e-08 1.127522e-08 1.244999e-08 1.144915e-08 1.148155e-08 1.174273e-08 1.142424e-08 1.238181e-08
1.211893e-08 1.334189e-08 1.252746e-08 1.272327e-08 1.365706e-08 1.267106e-08 1.229926e-08 1.256446e-08 1.270266e-08 1.209279e-08
1.216082e-08 1.233261e-08 1.204087e-08 1.262291e-08 1.180879e-08 1.201081e-08 1.182230e-08 1.257022e-08 1.319935e-08 1.293215e-08
1.266149e-08 1.352650e-08 1.206748e-08 1.377766e-08 1.242168e-08 1.265666e-08 1.247631e-08 1.383646e-08 1.283081e-08 1.216041e-08
1.311760e-08 1.293294e-08 1.269536e-08 1.236330e-08 1.178719e-08 1.246859e-08 1.209501e-08 1.242787e-08 1.357707e-08 1.312279e-08
1.274377e-08 1.254831e-08 1.172152e-08 1.333319e-08 1.282658e-08 1.323830e-08 1.377598e-08 1.442162e-08 1.244575e-08 1.312966e-08
1.251766e-08 1.271874e-08 1.146934e-08 1.212878e-08 1.200731e-08 1.038767e-08 1.173862e-08 1.229345e-08 1.123610e-08 1.126944e-08
1.154091e-08 1.003307e-08 1.153931e-08 1.226611e-08 1.193512e-08 1.143380e-08 1.178313e-08 1.126749e-08 1.159103e-08 1.114871e-08
1.151288e-08 1.163512e-08 1.108490e-08 1.037801e-08 1.095712e-08 1.005241e-08 1.029552e-08 1.102848e-08 1.055040e-08 1.194963e-08
1.156117e-08 1.095953e-08 1.154990e-08 1.111989e-08 1.124452e-08 1.089547e-08 1.356513e-08 1.145365e-08 1.214211e-08 1.234690e-08
1.194144e-08 1.206628e-08 1.258985e-08 1.303136e-08 1.243920e-08 1.357882e-08 1.263720e-08 1.295676e-08 1.321926e-08 1.374750e-08
1.342944e-08 1.279089e-08 1.242776e-08 1.290755e-08 1.380689e-08 1.273259e-08 1.392377e-08 1.234331e-08 1.199937e-08 1.242199e-08
1.292965e-08 1.284564e-08 1.217256e-08 1.266978e-08 1.308989e-08 1.302326e-08 1.265813e-08 1.322789e-08 1.217542e-08 1.308268e-08
1.288387e-08 1.209030e-08 1.264624e-08 1.344940e-08 1.320946e-08 1.315421e-08 1.221049e-08 1.322042e-08 1.313539e-08 1.322607e-08
1.250414e-08 1.348671e-08 1.214449e-08 1.233024e-08 1.189386e-08 1.218744e-08 1.350635e-08 1.252992e-08 1.318307e-08 1.153991e-08
1.279192e-08 1.225632e-08 1.134715e-08 1.189942e-08 1.212137e-08 1.343034e-08 1.169099e-08 1.297791e-08 1.189363e-08 1.240419e-08
1.221954e-08 1.205067e-08 1.133019e-08 1.088528e-08 1.118646e-08 1.077098e-08 1.163035e-08 1.089656e-08 1.010851e-08 1.096852e-08
1.131887e-08
1.104866e-08 1.109025e-08 1.093667e-08 1.160507e-08 1.189038e-08 1.321429e-08 1.170536e-08 1.247129e-08 1.202864e-08 1.135625e-08
1.259426e-08 1.200604e-08 1.312193e-08 1.209717e-08 1.200043e-08 1.255458e-08 1.235126e-08 1.170060e-08 1.184465e-08 1.274637e-08
1.231083e-08 1.321776e-08 1.287344e-08 1.192315e-08 1.323542e-08 1.346127e-08 1.169571e-08 1.278811e-08 1.380554e-08 1.203978e-08
1.196039e-08 1.239577e-08 1.333065e-08 1.313113e-08 1.379631e-08 1.248863e-08 1.391359e-08 1.349002e-08 1.255180e-08 1.233645e-08
1.327662e-08 1.299401e-08 1.353188e-08 1.246420e-08 1.361609e-08 1.321818e-08 1.254748e-08 1.334233e-08 1.312823e-08 1.263050e-08
1.322719e-08 1.313445e-08 1.397157e-08 1.319339e-08 1.283605e-08 1.270993e-08 1.357853e-08 1.279856e-08 1.309696e-08 1.413268e-08
1.321145e-08 1.344619e-08 1.254060e-08 1.294297e-08 1.261274e-08 1.239824e-08 1.298176e-08 1.272180e-08 1.192007e-08 1.222738e-08
1.255953e-08 1.299068e-08 1.172604e-08 1.223575e-08 1.213730e-08 1.238500e-08 1.186118e-08 1.124195e-08 1.218766e-08 1.194896e-08
1.186833e-08 1.102368e-08 1.107907e-08 1.152184e-08 1.095958e-08 1.133073e-08 1.208115e-08 1.082585e-08 1.080385e-08 1.171319e-08
1.300788e-08 1.273223e-08 1.023337e-08 1.228160e-08 1.230131e-08 1.164193e-08 1.173806e-08 1.225695e-08 1.159528e-08 1.212598e-08
1.246418e-08 1.218119e-08 1.160899e-08 1.215943e-08 1.253350e-08 1.226698e-08 1.211691e-08 1.160347e-08 1.209817e-08 1.419671e-08
1.253637e-08 1.424834e-08 1.241723e-08 1.375689e-08 1.240084e-08 1.201695e-08 1.255549e-08 1.292943e-08 1.335719e-08 1.262948e-08
1.316195e-08 1.258244e-08 1.290144e-08 1.318427e-08 1.284044e-08 1.297079e-08 1.305424e-08 1.276378e-08 1.342661e-08 1.299171e-08
1.223329e-08 1.242570e-08 1.264923e-08 1.370286e-08 1.248596e-08 1.408751e-08 1.264527e-08 1.252719e-08 1.380781e-08 1.235401e-08
1.272342e-08 1.325200e-08 1.249281e-08 1.280114e-08 1.252234e-08 1.470908e-08 1.245507e-08 1.264872e-08 1.222905e-08 1.257367e-08
1.291474e-08 1.263906e-08 1.260888e-08 1.248509e-08 1.226778e-08 1.288672e-08 1.208350e-08 1.282938e-08 1.226463e-08 1.231539e-08
1.165188e-08 1.251958e-08 1.276949e-08 1.318099e-08 1.136493e-08 1.312867e-08 1.189415e-08 1.305459e-08 1.300029e-08 1.111257e-08
1.156123e-08 1.309222e-08 1.186394e-08 1.102202e-08 1.129751e-08 1.110567e-08 1.100982e-08 1.027273e-08 1.256799e-08 1.153073e-08
1.176169e-08 1.131088e-08 1.257624e-08 1.136443e-08 1.102797e-08 1.191157e-08 1.225987e-08 1.156733e-08 1.266420e-08 1.218161e-08
1.148996e-08 1.311845e-08 1.264912e-08 1.187868e-08 1.179899e-08 1.317972e-08 1.225227e-08 1.252483e-08 1.217788e-08 1.184848e-08
1.308482e-08 1.280919e-08 1.231387e-08 1.340501e-08 1.254605e-08 1.257656e-08 1.311450e-08 1.444262e-08 1.275817e-08 1.263128e-08
1.298165e-08 1.286908e-08 1.362498e-08 1.317142e-08 1.288709e-08 1.282841e-08 1.352672e-08 1.272974e-08 1.269468e-08 1.267896e-08
1.405103e-08 1.298470e-08 1.248168e-08 1.306472e-08 1.232230e-08 1.209111e-08 1.233426e-08 1.281874e-08 1.298370e-08 1.236643e-08
1.326807e-08 1.298331e-08 1.374974e-08 1.366403e-08 1.196873e-08 1.280551e-08 1.252554e-08 1.232920e-08 1.382530e-08 1.292865e-08
1.308816e-08 1.215472e-08 1.217396e-08 1.267777e-08 1.328528e-08 1.241968e-08 1.203567e-08 1.230400e-08 1.256126e-08 1.225381e-08
1.186293e-08 1.224337e-08 1.155137e-08 1.170197e-08 1.220867e-08 1.301975e-08 1.258709e-08 1.082473e-08 1.158761e-08 1.242024e-08
1.251213e-08 1.194513e-08 1.140117e-08 1.277280e-08 1.087179e-08 1.109275e-08 1.178670e-08 1.059374e-08 1.180803e-08 1.103711e-08
1.100106e-08 1.044510e-08 1.114167e-08 1.016857e-08 1.136854e-08 1.166654e-08 1.057720e-08 1.190002e-08 1.178640e-08 1.125765e-08
1.179161e-08 1.288062e-08 1.217085e-08 1.231413e-08 1.255973e-08 1.142560e-08 1.143666e-08 1.359294e-08 1.254986e-08 1.348073e-08
1.170703e-08 1.242245e-08 1.243939e-08 1.330624e-08 1.360016e-08 1.294050e-08 1.249114e-08 1.252517e-08 1.235980e-08 1.315589e-08
1.310605e-08 1.227620e-08 1.301577e-08 1.260251e-08 1.374461e-08 1.354981e-08 1.399889e-08 1.392921e-08 1.326290e-08 1.305276e-08
1.280637e-08 1.324175e-08 1.430166e-08 1.424586e-08 1.320510e-08 1.261097e-08 1.277957e-08 1.242534e-08 1.333204e-08 1.303458e-08
1.288948e-08 1.315663e-08 1.278660e-08 1.464830e-08 1.336574e-08 1.330277e-08 1.259564e-08 1.249122e-08 1.252110e-08 1.300721e-08
1.331366e-08 1.302491e-08 1.200472e-08 1.300378e-08 1.364587e-08 1.207676e-08 1.172120e-08 1.301504e-08 1.244527e-08 1.315525e-08
1.257340e-08 1.247186e-08 1.275330e-08 1.345839e-08 1.227371e-08 1.165040e-08 1.194538e-08 1.172739e-08 1.245335e-08 1.297136e-08
1.213881e-08 1.266302e-08 1.244283e-08 1.109095e-08 1.244893e-08 1.188928e-08 1.086153e-08 1.242056e-08 1.108751e-08 1.253863e-08
1.104866e-08
1.184902e-08 1.178724e-08 1.170595e-08 1.179474e-08 1.233671e-08 1.362871e-08 1.102431e-08 1.168173e-08 1.295986e-08 1.191903e-08
1.232793e-08 1.279540e-08 1.302887e-08 1.306532e-08 1.301196e-08 1.183380e-08 1.181805e-08 1.388873e-08 1.363852e-08 1.261107e-08
1.190153e-08 1.209895e-08 1.302184e-08 1.373183e-08 1.365522e-08 1.217362e-08 1.321404e-08 1.226092e-08 1.272873e-08 1.268870e-08
1.289754e-08 1.300454e-08 1.339026e-08 1.275942e-08 1.290338e-08 1.496731e-08 1.286243e-08 1.361480e-08 1.399420e-08 1.329655e-08
1.345329e-08 1.386111e-08 1.338383e-08 1.263292e-08 1.335777e-08 1.267846e-08 1.417883e-08 1.343340e-08 1.319983e-08 1.342208e-08
1.354000e-08 1.420413e-08 1.370728e-08 1.374930e-08 1.313308e-08 1.273378e-08 1.324048e-08 1.258102e-08 1.264437e-08 1.270160e-08
1.240524e-08 1.323295e-08 1.340299e-08 1.354547e-08 1.264956e-08 1.324673e-08 1.255591e-08 1.178613e-08 1.347599e-08 1.237953e-08
1.288925e-08 1.287314e-08 1.296587e-08 1.270732e-08 1.303762e-08 1.208412e-08 1.245669e-08 1.211041e-08 1.178334e-08 1.237624e-08
1.169633e-08 1.367005e-08 1.147300e-08 1.087050e-08 1.116882e-08 1.198567e-08 1.168522e-08 1.216566e-08 1.262366e-08 1.179669e-08
1.339189e-08 1.161419e-08 1.180098e-08 1.099608e-08 1.179569e-08 1.089394e-08 1.114112e-08 1.367127e-08 1.168310e-08 1.171037e-08
1.225863e-08 1.294604e-08 1.273452e-08 1.225679e-08 1.357414e-08 1.197158e-08 1.238149e-08 1.283523e-08 1.392651e-08 1.302206e-08
1.256819e-08 1.322286e-08 1.378928e-08 1.312221e-08 1.288665e-08 1.310063e-08 1.391518e-08 1.340193e-08 1.453216e-08 1.276057e-08
1.270217e-08 1.286367e-08 1.299905e-08 1.464704e-08 1.263644e-08 1.328964e-08 1.347203e-08 1.360490e-08 1.458175e-08 1.241922e-08
1.357542e-08 1.256733e-08 1.416900e-08 1.264305e-08 1.330221e-08 1.341462e-08 1.324700e-08 1.311956e-08 1.315807e-08 1.343178e-08
1.333595e-08 1.300037e-08 1.303930e-08 1.282449e-08 1.411181e-08 1.246731e-08 1.423301e-08 1.297260e-08 1.378200e-08 1.374713e-08
1.280538e-08 1.314356e-08 1.275757e-08 1.376950e-08 1.274059e-08 1.400620e-08 1.240254e-08 1.236603e-08 1.341144e-08 1.238899e-08
1.256547e-08 1.257524e-08 1.284030e-08 1.288551e-08 1.206050e-08 1.314831e-08 1.185609e-08 1.265104e-08 1.241507e-08 1.190959e-08
1.169919e-08 1.236718e-08 1.170437e-08 1.229408e-08 1.110083e-08 1.250193e-08 1.298858e-08 1.207029e-08 1.112939e-08 1.240437e-08
1.110491e-08 1.200692e-08 1.317172e-08 1.237306e-08 1.195443e-08 1.445659e-08 1.067002e-08 1.273893e-08 1.254379e-08 1.188142e-08
1.133651e-08 1.090909e-08 1.387234e-08 1.201862e-08 1.255571e-08 1.306009e-08 1.253461e-08 1.298468e-08 1.200419e-08 1.219565e-08
1.218164e-08 1.231593e-08 1.245452e-08 1.251143e-08 1.275574e-08 1.391571e-08 1.302315e-08 1.366080e-08 1.384500e-08 1.282753e-08
1.266722e-08 1.239117e-08 1.322702e-08 1.259144e-08 1.310289e-08 1.318440e-08 1.336954e-08 1.307190e-08 1.280847e-08 1.368715e-08
1.280593e-08 1.283007e-08 1.286919e-08 1.447177e-08 1.309487e-08 1.340549e-08 1.288320e-08 1.336569e-08 1.348996e-08 1.266932e-08
1.268314e-08 1.353213e-08 1.330656e-08 1.279582e-08 1.282935e-08 1.295020e-08 1.322378e-08 1.387801e-08 1.268294e-08 1.386600e-08
1.306090e-08 1.340053e-08 1.269675e-08 1.251223e-08 1.221902e-08 1.220427e-08 1.295139e-08 1.319514e-08 1.209396e-08 1.279044e-08
1.328896e-08 1.178451e-08 1.369548e-08 1.189366e-08 1.196260e-08 1.232591e-08 1.319270e-08 1.332416e-08 1.203263e-08 1.310053e-08
1.149642e-08 1.086899e-08 1.188014e-08 1.176549e-08 1.162612e-08 1.166481e-08 1.137091e-08 1.233190e-08 1.269753e-08 1.194740e-08
1.346875e-08 1.242830e-08 1.120360e-08 1.195569e-08 1.132633e-08 1.241820e-08 1.162450e-08 1.375804e-08 1.165087e-08 1.267310e-08
1.121014e-08 1.284453e-08 1.300945e-08 1.217025e-08 1.184103e-08 1.218498e-08 1.233637e-08 1.394004e-08 1.255797e-08 1.318607e-08
1.265543e-08 1.278754e-08 1.388387e-08 1.337863e-08 1.266145e-08 1.400750e-08 1.202951e-08 1.204246e-08 1.257218e-08 1.353676e-08
1.318687e-08 1.370770e-08 1.340785e-08 1.285306e-08 1.258805e-08 1.400728e-08 1.308098e-08 1.311483e-08 1.414512e-08 1.496922e-08
1.410996e-08 1.345261e-08 1.322578e-08 1.316651e-08 1.334579e-08 1.453132e-08 1.337714e-08 1.343317e-08 1.390400e-08 1.409878e-08
1.393293e-08 1.278584e-08 1.313817e-08 1.300652e-08 1.384964e-08 1.360792e-08 1.309886e-08 1.270605e-08 1.350749e-08 1.389842e-08
1.405620e-08 1.373776e-08 1.395279e-08 1.389335e-08 1.279203e-08 1.367951e-08 1.340548e-08 1.273859e-08 1.274864e-08 1.211313e-08
1.303555e-08 1.195357e-08 1.183858e-08 1.219851e-08 1.316177e-08 1.199642e-08 1.316566e-08 1.317211e-08 1.238585e-08 1.192739e-08
1.233419e-08 1.205359e-08 1.232923e-08 1.151805e-08 1.210668e-08 1.222546e-08 1.241431e-08 1.124693e-08 1.069485e-08 1.171237e-08
1.184902e-08
1.062886e-08 1.224304e-08 1.139111e-08 1.367825e-08 1.224795e-08 1.180517e-08 1.318306e-08 1.395240e-08 1.322805e-08 1.221181e-08
1.191350e-08 1.304074e-08 1.187493e-08 1.286124e-08 1.292962e-08 1.321910e-08 1.234857e-08 1.376723e-08 1.402805e-08 1.190343e-08
1.219079e-08 1.255715e-08 1.362671e-08 1.189844e-08 1.238044e-08 1.338070e-08 1.245187e-08 1.489169e-08 1.268290e-08 1.249211e-08
1.360385e-08 1.433753e-08 1.434993e-08 1.408143e-08 1.348162e-08 1.294734e-08 1.287870e-08 1.463921e-08 1.308119e-08 1.398029e-08
1.300024e-08 1.468785e-08 1.342451e-08 1.455017e-08 1.335222e-08 1.324063e-08 1.336268e-08 1.393032e-08 1.328302e-08 1.341208e-08
1.369633e-08 1.344790e-08 1.377436e-08 1.282882e-08 1.403581e-08 1.385843e-08 1.408756e-08 1.326704e-08 1.376184e-08 1.304629e-08
1.306375e-08 1.259363e-08 1.314399e-08 1.283050e-08 1.361480e-08 1.436813e-08 1.248263e-08 1.283057e-08 1.296006e-08 1.315139e-08
1.209147e-08 1.220864e-08 1.292944e-08 1.281381e-08 1.299138e-08 1.208978e-08 1.257854e-08 1.270891e-08 1.300499e-08 1.116316e-08
1.162100e-08 1.237376e-08 1.155486e-08 1.242907e-08 1.139700e-08 1.215144e-08 1.236028e-08 1.130948e-08 1.218761e-08 1.113113e-08
1.249029e-08 1.183946e-08 1.224271e-08 1.286702e-08 1.133705e-08 1.241593e-08 1.133838e-08 1.132591e-08 1.193647e-08 1.220789e-08
1.275774e-08 1.237759e-08 1.286193e-08 1.327061e-08 1.297507e-08 1.209330e-08 1.438328e-08 1.275237e-08 1.387463e-08 1.322907e-08
1.339789e-08 1.424277e-08 1.455397e-08 1.338724e-08 1.307722e-08 1.293781e-08 1.271457e-08 1.411225e-08 1.296305e-08 1.316343e-08
1.367003e-08 1.376516e-08 1.340407e-08 1.428674e-08 1.311635e-08 1.433264e-08 1.430991e-08 1.501959e-08 1.291886e-08 1.321234e-08
1.335491e-08 1.422330e-08 1.287869e-08 1.373046e-08 1.406756e-08 1.303219e-08 1.404654e-08 1.304414e-08 1.389051e-08 1.479921e-08
1.361054e-08 1.383422e-08 1.340748e-08 1.440218e-08 1.390202e-08 1.425666e-08 1.482408e-08 1.313030e-08 1.432148e-08 1.372992e-08
1.365393e-08 1.313604e-08 1.250920e-08 1.348463e-08 1.298359e-08 1.298092e-08 1.241301e-08 1.228155e-08 1.370256e-08 1.458736e-08
1.227894e-08 1.239486e-08 1.256820e-08 1.194131e-08 1.332131e-08 1.383354e-08 1.231338e-08 1.208385e-08 1.317903e-08 1.361921e-08
1.340649e-08 1.174043e-08 1.259111e-08 1.183403e-08 1.342337e-08 1.217652e-08 1.065619e-08 1.265976e-08 1.119238e-08 1.144725e-08
1.124589e-08 1.191907e-08 1.271180e-08 1.239986e-08 1.119791e-08 1.284011e-08 1.261164e-08 1.150342e-08 1.172826e-08 1.285958e-08
1.221087e-08 1.267624e-08 1.193834e-08 1.343856e-08 1.251209e-08 1.242524e-08 1.264603e-08 1.328582e-08 1.458585e-08 1.213782e-08
1.293707e-08 1.256139e-08 1.428348e-08 1.311622e-08 1.301248e-08 1.306120e-08 1.255616e-08 1.312328e-08 1.402030e-08 1.268322e-08
1.330133e-08 1.239288e-08 1.281544e-08 1.357024e-08 1.495036e-08 1.317289e-08 1.418938e-08 1.264255e-08 1.282931e-08 1.380992e-08
1.415912e-08 1.283595e-08 1.267111e-08 1.458986e-08 1.407743e-08 1.465614e-08 1.443954e-08 1.317317e-08 1.411713e-08 1.411812e-08
1.358735e-08 1.365813e-08 1.272120e-08 1.372431e-08 1.303809e-08 1.315600e-08 1.339459e-08 1.299003e-08 1.368203e-08 1.412214e-08
1.303890e-08 1.315972e-08 1.349711e-08 1.294399e-08 1.373055e-08 1.249250e-08 1.274361e-08 1.404222e-08 1.364454e-08 1.370751e-08
1.330502e-08 1.228456e-08 1.188754e-08 1.336834e-08 1.200458e-08 1.266964e-08 1.246475e-08 1.217279e-08 1.321446e-08 1.172956e-08
1.192186e-08 1.177201e-08 1.203540e-08 1.138057e-08 1.203022e-08 1.235507e-08 1.224619e-08 1.160243e-08 1.198710e-08 1.106044e-08
1.226263e-08 1.191987e-08 1.146054e-08 1.227886e-08 1.199541e-08 1.292115e-08 1.127805e-08 1.227494e-08 1.183129e-08 1.226565e-08
1.355380e-08 1.286449e-08 1.101773e-08 1.181740e-08 1.315091e-08 1.258912e-08 1.373806e-08 1.234195e-08 1.336181e-08 1.324172e-08
1.384215e-08 1.323619e-08 1.340574e-08 1.328248e-08 1.288032e-08 1.312169e-08 1.288341e-08 1.342588e-08 1.344733e-08 1.321461e-08
1.241344e-08 1.318486e-08 1.376621e-08 1.307595e-08 1.398032e-08 1.304398e-08 1.369461e-08 1.357301e-08 1.333111e-08 1.408353e-08
1.416363e-08 1.387948e-08 1.400604e-08 1.467784e-08 1.383832e-08 1.386354e-08 1.436089e-08 1.327428e-08 1.410692e-08 1.372228e-08
1.355996e-08 1.346722e-08 1.442342e-08 1.380329e-08 1.265972e-08 1.348684e-08 1.440505e-08 1.354160e-08 1.421825e-08 1.421607e-08
1.290708e-08 1.411595e-08 1.305265e-08 1.377922e-08 1.337077e-08 1.365741e-08 1.329872e-08 1.308745e-08 1.336521e-08 1.338578e-08
1.306392e-08 1.353266e-08 1.218498e-08 1.323296e-08 1.382427e-08 1.302723e-08 1.336346e-08 1.295389e-08 1.207266e-08 1.206913e-08
1.218485e-08 1.222531e-08 1.208552e-08 1.217783e-08 1.189209e-08 1.307327e-08 1.414663e-08 1.211396e-08 1.103812e-08 1.231966e-08
1.062886e-08
1.370492e-08 1.247954e-08 1.228963e-08 1.182112e-08 1.155636e-08 1.335274e-08 1.207566e-08 1.385550e-08 1.191431e-08 1.269061e-08
1.197330e-08 1.313282e-08 1.412980e-08 1.356638e-08 1.287605e-08 1.243227e-08 1.267304e-08 1.249536e-08 1.288422e-08 1.290615e-08
1.409318e-08 1.386570e-08 1.386024e-08 1.470900e-08 1.464839e-08 1.319453e-08 1.284370e-08 1.525221e-08 1.315330e-08 1.354077e-08
1.350206e-08 1.305806e-08 1.292652e-08 1.425681e-08 1.404506e-08 1.336625e-08 1.435985e-08 1.346781e-08 1.376940e-08 1.433328e-08
1.342643e-08 1.345362e-08 1.382379e-08 1.419531e-08 1.420226e-08 1.431556e-08 1.411234e-08 1.299118e-08 1.393511e-08 1.346296e-08
1.469116e-08 1.393818e-08 1.403220e-08 1.393031e-08 1.441026e-08 1.507487e-08 1.389674e-08 1.367442e-08 1.329261e-08 1.388602e-08
1.544653e-08 1.394956e-08 1.349851e-08 1.379590e-08 1.254592e-08 1.321502e-08 1.247554e-08 1.336018e-08 1.278923e-08 1.384044e-08
1.391922e-08 1.247402e-08 1.218563e-08 1.224020e-08 1.342397e-08 1.319068e-08 1.232897e-08 1.265837e-08 1.335368e-08 1.319796e-08
1.292564e-08 1.322485e-08 1.269857e-08 1.255687e-08 1.255874e-08 1.166201e-08 1.236562e-08 1.424533e-08 1.213093e-08 1.153624e-08
1.183250e-08 1.326701e-08 1.287938e-08 1.135071e-08 1.261064e-08 1.165158e-08 1.354888e-08 1.296863e-08 1.223228e-08 1.227098e-08
1.252085e-08 1.203870e-08 1.191041e-08 1.311488e-08 1.322200e-08 1.260639e-08 1.228440e-08 1.381850e-08 1.283284e-08 1.246970e-08
1.308199e-08 1.386729e-08 1.255068e-08 1.356449e-08 1.265403e-08 1.321102e-08 1.347008e-08 1.310646e-08 1.359285e-08 1.410963e-08
1.458423e-08 1.344468e-08 1.378153e-08 1.403563e-08 1.331175e-08 1.338340e-08 1.470005e-08 1.273718e-08 1.367897e-08 1.461657e-08
1.465049e-08 1.423042e-08 1.357898e-08 1.410502e-08 1.337401e-08 1.394524e-08 1.402859e-08 1.398481e-08 1.396057e-08 1.376930e-08
1.282963e-08 1.417583e-08 1.375672e-08 1.391492e-08 1.439860e-08 1.341075e-08 1.318151e-08 1.303191e-08 1.325381e-08 1.278476e-08
1.462464e-08 1.416567e-08 1.320632e-08 1.432927e-08 1.331068e-08 1.303973e-08 1.250588e-08 1.398994e-08 1.278517e-08 1.433393e-08
1.410133e-08 1.284888e-08 1.487311e-08 1.361861e-08 1.306035e-08 1.229454e-08 1.229061e-08 1.193047e-08 1.247442e-08 1.240804e-08
1.250470e-08 1.241832e-08 1.260333e-08 1.305159e-08 1.328084e-08 1.384745e-08 1.186224e-08 1.301047e-08 1.234129e-08 1.417414e-08
1.292406e-08 1.351150e-08 1.275929e-08 1.283767e-08 1.450254e-08 1.278897e-08 1.252825e-08 1.377172e-08 1.256730e-08 1.346784e-08
1.268830e-08 1.309880e-08 1.364448e-08 1.312257e-08 1.220056e-08 1.275422e-08 1.415301e-08 1.278159e-08 1.237340e-08 1.362590e-08
1.237673e-08 1.349033e-08 1.404006e-08 1.315192e-08 1.323122e-08 1.438022e-08 1.378758e-08 1.443513e-08 1.297928e-08 1.270224e-08
1.285797e-08 1.319578e-08 1.375798e-08 1.422809e-08 1.379956e-08 1.398638e-08 1.406903e-08 1.375229e-08 1.496125e-08 1.302388e-08
1.308675e-08 1.499915e-08 1.517897e-08 1.324841e-08 1.319116e-08 1.369544e-08 1.428883e-08 1.375180e-08 1.371435e-08 1.433704e-08
1.409236e-08 1.286114e-08 1.393249e-08 1.364550e-08 1.426814e-08 1.296250e-08 1.303885e-08 1.287369e-08 1.422913e-08 1.367519e-08
1.325406e-08 1.388795e-08 1.365932e-08 1.289706e-08 1.355217e-08 1.473667e-08 1.435457e-08 1.249919e-08 1.296667e-08 1.316052e-08
1.358392e-08 1.280398e-08 1.306916e-08 1.215284e-08 1.378147e-08 1.227797e-08 1.235789e-08 1.231668e-08 1.218275e-08 1.327681e-08
1.252362e-08 1.272535e-08 1.270419e-08 1.134327e-08 1.227973e-08 1.274799e-08 1.213751e-08 1.379541e-08 1.148598e-08 1.423057e-08
1.228118e-08 1.169683e-08 1.165287e-08 1.415201e-08 1.213430e-08 1.252958e-08 1.283968e-08 1.350052e-08 1.231731e-08 1.264127e-08
1.220139e-08 1.311987e-08 1.243456e-08 1.333232e-08 1.211204e-08 1.220250e-08 1.239136e-08 1.404841e-08 1.245803e-08 1.293350e-08
1.238593e-08 1.347040e-08 1.469687e-08 1.429266e-08 1.366686e-08 1.441031e-08 1.280168e-08 1.291113e-08 1.340191e-08 1.350169e-08
1.405400e-08 1.297762e-08 1.345490e-08 1.362239e-08 1.421918e-08 1.426177e-08 1.397252e-08 1.393380e-08 1.395531e-08 1.465164e-08
1.337570e-08 1.442093e-08 1.399294e-08 1.314806e-08 1.404100e-08 1.489016e-08 1.410444e-08 1.442583e-08 1.450900e-08 1.337821e-08
1.368247e-08 1.344837e-08 1.410372e-08 1.345940e-08 1.355988e-08 1.432701e-08 1.341329e-08 1.488634e-08 1.438891e-08 1.454139e-08
1.477174e-08 1.420547e-08 1.401672e-08 1.357572e-08 1.342721e-08 1.384709e-08 1.317158e-08 1.447721e-08 1.428551e-08 1.308249e-08
1.312082e-08 1.405370e-08 1.298849e-08 1.306664e-08 1.324441e-08 1.251843e-08 1.239252e-08 1.404786e-08 1.221238e-08 1.322689e-08
1.312749e-08 1.152736e-08 1.155404e-08 1.283898e-08 1.336225e-08 1.344701e-08 1.141032e-08 1.220390e-08 1.224037e-08 1.258304e-08
1.370492e-08
1.217408e-08 1.453794e-08 1.288323e-08 1.368167e-08 1.345121e-08 1.186922e-08 1.274078e-08 1.289220e-08 1.251180e-08 1.338806e-08
1.398745e-08 1.380543e-08 1.387659e-08 1.375134e-08 1.341202e-08 1.418392e-08 1.327101e-08 1.448906e-08 1.243419e-08 1.266964e-08
1.492105e-08 1.288624e-08 1.388769e-08 1.442616e-08 1.327816e-08 1.473223e-08 1.355966e-08 1.380375e-08 1.419839e-08 1.426953e-08
1.362635e-08 1.543025e-08 1.396894e-08 1.394556e-08 1.531321e-08 1.375228e-08 1.411196e-08 1.451340e-08 1.372714e-08 1.469358e-08
1.479440e-08 1.382965e-08 1.417824e-08 1.386964e-08 1.372019e-08 1.454371e-08 1.387977e-08 1.445617e-08 1.484212e-08 1.411604e-08
1.366272e-08 1.352198e-08 1.382092e-08 1.461975e-08 1.375495e-08 1.403105e-08 1.379999e-08 1.406166e-08 1.458363e-08 1.340381e-08
1.446286e-08 1.451628e-08 1.371352e-08 1.398659e-08 1.359270e-08 1.367057e-08 1.343246e-08 1.330474e-08 1.435966e-08 1.292279e-08
1.377930e-08 1.406321e-08 1.287344e-08 1.204858e-08 1.348948e-08 1.277722e-08 1.364314e-08 1.262032e-08 1.326797e-08 1.278684e-08
1.300243e-08 1.299786e-08 1.278064e-08 1.223737e-08 1.239943e-08 1.300241e-08 1.337592e-08 1.276777e-08 1.385997e-08 1.293035e-08
1.186982e-08 1.294404e-08 1.236155e-08 1.337469e-08 1.288125e-08 1.183550e-08 1.288468e-08 1.269370e-08 1.290953e-08 1.252664e-08
1.408886e-08 1.241831e-08 1.415948e-08 1.325563e-08 1.341376e-08 1.364507e-08 1.303414e-08 1.275287e-08 1.344336e-08 1.382081e-08
1.377351e-08 1.317609e-08 1.267944e-08 1.323030e-08 1.360588e-08 1.343631e-08 1.455936e-08 1.476949e-08 1.375810e-08 1.591222e-08
1.471281e-08 1.415139e-08 1.417075e-08 1.424750e-08 1.466273e-08 1.437182e-08 1.494532e-08 1.357493e-08 1.424522e-08 1.388056e-08
1.348880e-08 1.358912e-08 1.471518e-08 1.358232e-08 1.475018e-08 1.364337e-08 1.393327e-08 1.361599e-08 1.401002e-08 1.394090e-08
1.384874e-08 1.410400e-08 1.474024e-08 1.495288e-08 1.493618e-08 1.403788e-08 1.489285e-08 1.325198e-08 1.373138e-08 1.414044e-08
1.457029e-08 1.409997e-08 1.335579e-08 1.454853e-08 1.398630e-08 1.416043e-08 1.332072e-08 1.300623e-08 1.386288e-08 1.303746e-08
1.413784e-08 1.241803e-08 1.242555e-08 1.390176e-08 1.411284e-08 1.334627e-08 1.275948e-08 1.263355e-08 1.410702e-08 1.280854e-08
1.430971e-08 1.223370e-08 1.227464e-08 1.368752e-08 1.196375e-08 1.154588e-08 1.334988e-08 1.279074e-08 1.298298e-08 1.274662e-08
1.353851e-08 1.406212e-08 1.283315e-08 1.204803e-08 1.318481e-08 1.332787e-08 1.192850e-08 1.284804e-08 1.236810e-08 1.298914e-08
1.319808e-08 1.357191e-08 1.282677e-08 1.367793e-08 1.373540e-08 1.402592e-08 1.436433e-08 1.385171e-08 1.457924e-08 1.306774e-08
1.256318e-08 1.432061e-08 1.307766e-08 1.397854e-08 1.286400e-08 1.334038e-08 1.378844e-08 1.483742e-08 1.312934e-08 1.438427e-08
1.405535e-08 1.364661e-08 1.379896e-08 1.386042e-08 1.341727e-08 1.305476e-08 1.440098e-08 1.486449e-08 1.338646e-08 1.378859e-08
1.418850e-08 1.460167e-08 1.346115e-08 1.408999e-08 1.382906e-08 1.331966e-08 1.481856e-08 1.368742e-08 1.474280e-08 1.410612e-08
1.430123e-08 1.391733e-08 1.410632e-08 1.336703e-08 1.335887e-08 1.342945e-08 1.335020e-08 1.344866e-08 1.478569e-08 1.394270e-08
1.391875e-08 1.355352e-08 1.362303e-08 1.375512e-08 1.422732e-08 1.398499e-08 1.340099e-08 1.348819e-08 1.328840e-08 1.314391e-08
1.377090e-08 1.329563e-08 1.368236e-08 1.288148e-08 1.268969e-08 1.309185e-08 1.382907e-08 1.213015e-08 1.261886e-08 1.233027e-08
1.166125e-08 1.208201e-08 1.250293e-08 1.221258e-08 1.219661e-08 1.235793e-08 1.291436e-08 1.196321e-08 1.230944e-08 1.306216e-08
1.240455e-08 1.231814e-08 1.286817e-08 1.230250e-08 1.356415e-08 1.228055e-08 1.433109e-08 1.204562e-08 1.267395e-08 1.189314e-08
1.227970e-08 1.275916e-08 1.265990e-08 1.318266e-08 1.283858e-08 1.500060e-08 1.304789e-08 1.325873e-08 1.301320e-08 1.256002e-08
1.302834e-08 1.369661e-08 1.391814e-08 1.275248e-08 1.433879e-08 1.332953e-08 1.341422e-08 1.439907e-08 1.435322e-08 1.365798e-08
1.341831e-08 1.375200e-08 1.380511e-08 1.363548e-08 1.389813e-08 1.427869e-08 1.473902e-08 1.424824e-08 1.321841e-08 1.401990e-08
1.513416e-08 1.400995e-08 1.417101e-08 1.514075e-08 1.381476e-08 1.421328e-08 1.497182e-08 1.401596e-08 1.358185e-08 1.599964e-08
1.485559e-08 1.499689e-08 1.355701e-08 1.548580e-08 1.385175e-08 1.360885e-08 1.461536e-08 1.379192e-08 1.398020e-08 1.406463e-08
1.340137e-08 1.348259e-08 1.407728e-08 1.439999e-08 1.490221e-08 1.348492e-08 1.372697e-08 1.344600e-08 1.414807e-08 1.368656e-08
1.442695e-08 1.304281e-08 1.329742e-08 1.358785e-08 1.343340e-08 1.368536e-08 1.460673e-08 1.309461e-08 1.311052e-08 1.329179e-08
1.355856e-08 1.333441e-08 1.267532e-08 1.191505e-08 1.284969e-08 1.369473e-08 1.371070e-08 1.324014e-08 1.233934e-08 1.229137e-08
1.217408e-08
1.280602e-08 1.309484e-08 1.383536e-08 1.239058e-08 1.388999e-08 1.310580e-08 1.228234e-08 1.226865e-08 1.231830e-08 1.312989e-08
1.320685e-08 1.407310e-08 1.450103e-08 1.345435e-08 1.273277e-08 1.404502e-08 1.313966e-08 1.430620e-08 1.453775e-08 1.358857e-08
1.350444e-08 1.381369e-08 1.324310e-08 1.412710e-08 1.405698e-08 1.471395e-08 1.423782e-08 1.351057e-08 1.481958e-08 1.351590e-08
1.431734e-08 1.365966e-08 1.392295e-08 1.371062e-08 1.497723e-08 1.464599e-08 1.405234e-08 1.423808e-08 1.472972e-08 1.506313e-08
1.442177e-08 1.402395e-08 1.420052e-08 1.389768e-08 1.442971e-08 1.384107e-08 1.368282e-08 1.431722e-08 1.378158e-08 1.436628e-08
1.391193e-08 1.354701e-08 1.315263e-08 1.421462e-08 1.408236e-08 1.413258e-08 1.404615e-08 1.436278e-08 1.379739e-08 1.421545e-08
1.455278e-08 1.395146e-08 1.409798e-08 1.438967e-08 1.371525e-08 1.424408e-08 1.338498e-08 1.342942e-08 1.433216e-08 1.413919e-08
1.453404e-08 1.354160e-08 1.324435e-08 1.495379e-08 1.435112e-08 1.279206e-08 1.308483e-08 1.301678e-08 1.399730e-08 1.331086e-08
1.292086e-08 1.324604e-08 1.200717e-08 1.371841e-08 1.358357e-08 1.255864e-08 1.231849e-08 1.356003e-08 1.246004e-08 1.283350e-08
1.312121e-08 1.423573e-08 1.265974e-08 1.308238e-08 1.356567e-08 1.357564e-08 1.184420e-08 1.413169e-08 1.266135e-08 1.270845e-08
1.225600e-08 1.372641e-08 1.347396e-08 1.519611e-08 1.321561e-08 1.324674e-08 1.345485e-08 1.377437e-08 1.387781e-08 1.358195e-08
1.332259e-08 1.466653e-08 1.368522e-08 1.494358e-08 1.484312e-08 1.421115e-08 1.320951e-08 1.525203e-08 1.391605e-08 1.463060e-08
1.390502e-08 1.376631e-08 1.494561e-08 1.457064e-08 1.501913e-08 1.556487e-08 1.420844e-08 1.547956e-08 1.421153e-08 1.430774e-08
1.394937e-08 1.490814e-08 1.418192e-08 1.468613e-08 1.551054e-08 1.393907e-08 1.495065e-08 1.384564e-08 1.462752e-08 1.429920e-08
1.433283e-08 1.417709e-08 1.452312e-08 1.413649e-08 1.468078e-08 1.482061e-08 1.406119e-08 1.597282e-08 1.366335e-08 1.402518e-08
1.496121e-08 1.427898e-08 1.359140e-08 1.392525e-08 1.334556e-08 1.412042e-08 1.379565e-08 1.370046e-08 1.366206e-08 1.320539e-08
1.344013e-08 1.395356e-08 1.374694e-08 1.288306e-08 1.387609e-08 1.254165e-08 1.299998e-08 1.340233e-08 1.372727e-08 1.307678e-08
1.298864e-08 1.290472e-08 1.380160e-08 1.197959e-08 1.222858e-08 1.286224e-08 1.388266e-08 1.294820e-08 1.357451e-08 1.321835e-08
1.265408e-08 1.285808e-08 1.421505e-08 1.247476e-08 1.351490e-08 1.234947e-08 1.295442e-08 1.313344e-08 1.473729e-08 1.496003e-08
1.229475e-08 1.287754e-08 1.244285e-08 1.407466e-08 1.483567e-08 1.278874e-08 1.408046e-08 1.319645e-08 1.282642e-08 1.309663e-08
1.303844e-08 1.357725e-08 1.265451e-08 1.450586e-08 1.566133e-08 1.380949e-08 1.439636e-08 1.541017e-08 1.411353e-08 1.284061e-08
1.387123e-08 1.296762e-08 1.474818e-08 1.426928e-08 1.386916e-08 1.423142e-08 1.436495e-08 1.389122e-08 1.452319e-08 1.397710e-08
1.414580e-08 1.552667e-08 1.493992e-08 1.411642e-08 1.444921e-08 1.525540e-08 1.410120e-08 1.367849e-08 1.431436e-08 1.432909e-08
1.362667e-08 1.393578e-08 1.552354e-08 1.422720e-08 1.365004e-08 1.474170e-08 1.407242e-08 1.408070e-08 1.419601e-08 1.373844e-08
1.529455e-08 1.481902e-08 1.320718e-08 1.346627e-08 1.280657e-08 1.403944e-08 1.298852e-08 1.399319e-08 1.336119e-08 1.279053e-08
1.449010e-08 1.374268e-08 1.331783e-08 1.230591e-08 1.374124e-08 1.385394e-08 1.328732e-08 1.366770e-08 1.353224e-08 1.337654e-08
1.342216e-08 1.265188e-08 1.348547e-08 1.262380e-08 1.228066e-08 1.233975e-08 1.292713e-08 1.306333e-08 1.234519e-08 1.235790e-08
1.214856e-08 1.307663e-08 1.205994e-08 1.258790e-08 1.248888e-08 1.252436e-08 1.209670e-08 1.402306e-08 1.272497e-08 1.251634e-08
1.302184e-08 1.353669e-08 1.222487e-08 1.320009e-08 1.273230e-08 1.333347e-08 1.285832e-08 1.350452e-08 1.328993e-08 1.352296e-08
1.419907e-08 1.388185e-08 1.359473e-08 1.392567e-08 1.413929e-08 1.394011e-08 1.418659e-08 1.419924e-08 1.333643e-08 1.355990e-08
1.390182e-08 1.538745e-08 1.416511e-08 1.440877e-08 1.383893e-08 1.393447e-08 1.368962e-08 1.464873e-08 1.543397e-08 1.458702e-08
1.539348e-08 1.429368e-08 1.462759e-08 1.431523e-08 1.446362e-08 1.417908e-08 1.363732e-08 1.427573e-08 1.528712e-08 1.561583e-08
1.433962e-08 1.470037e-08 1.504401e-08 1.444229e-08 1.438097e-08 1.502854e-08 1.464126e-08 1.399171e-08 1.463461e-08 1.448523e-08
1.366682e-08 1.417536e-08 1.405799e-08 1.436483e-08 1.359559e-08 1.412583e-08 1.328273e-08 1.342706e-08 1.282304e-08 1.476554e-08
1.336790e-08 1.369178e-08 1.429082e-08 1.372571e-08 1.387664e-08 1.515892e-08 1.279270e-08 1.271439e-08 1.229162e-08 1.321791e-08
1.410500e-08 1.487649e-08 1.427352e-08 1.371906e-08 1.290413e-08 1.384300e-08 1.183771e-08 1.245807e-08 1.360123e-08 1.265916e-08
1.280602e-08
1.284475e-08 1.465369e-08 1.258010e-08 1.293394e-08 1.247023e-08 1.424125e-08 1.233471e-08 1.362353e-08 1.275603e-08 1.334047e-08
1.290665e-08 1.271916e-08 1.312855e-08 1.436652e-08 1.508170e-08 1.281576e-08 1.383898e-08 1.392300e-08 1.325063e-08 1.549877e-08
1.407983e-08 1.391059e-08 1.329097e-08 1.424795e-08 1.369334e-08 1.472903e-08 1.462000e-08 1.407169e-08 1.602177e-08 1.497113e-08
1.512497e-08 1.593641e-08 1.448681e-08 1.480361e-08 1.416227e-08 1.419040e-08 1.403219e-08 1.399164e-08 1.455586e-08 1.428272e-08
1.457733e-08 1.460449e-08 1.442128e-08 1.518958e-08 1.393546e-08 1.532037e-08 1.428495e-08 1.354889e-08 1.499527e-08 1.529850e-08
1.461285e-08 1.378989e-08 1.398636e-08 1.445551e-08 1.399741e-08 1.463798e-08 1.493060e-08 1.411758e-08 1.410989e-08 1.404498e-08
1.447269e-08 1.381580e-08 1.622944e-08 1.357983e-08 1.342546e-08 1.502795e-08 1.362716e-08 1.427450e-08 1.406331e-08 1.334229e-08
1.465305e-08 1.327147e-08 1.388682e-08 1.329876e-08 1.310826e-08 1.263012e-08 1.381730e-08 1.367865e-08 1.343690e-08 1.311966e-08
1.258602e-08 1.277832e-08 1.306653e-08 1.327619e-08 1.342261e-08 1.287351e-08 1.360269e-08 1.283644e-08 1.387794e-08 1.263987e-08
1.342378e-08 1.435131e-08 1.263426e-08 1.461671e-08 1.307618e-08 1.416957e-08 1.268327e-08 1.219726e-08 1.336653e-08 1.353555e-08
1.456574e-08 1.373649e-08 1.364879e-08 1.307564e-08 1.418727e-08 1.434719e-08 1.478171e-08 1.426936e-08 1.304707e-08 1.373622e-08
1.427002e-08 1.437566e-08 1.491513e-08 1.383432e-08 1.532622e-08 1.432211e-08 1.503494e-08 1.470812e-08 1.415263e-08 1.590536e-08
1.440986e-08 1.465483e-08 1.358913e-08 1.447362e-08 1.386541e-08 1.500965e-08 1.523499e-08 1.497854e-08 1.502346e-08 1.444466e-08
1.507221e-08 1.500123e-08 1.454548e-08 1.425177e-08 1.426773e-08 1.403130e-08 1.487644e-08 1.589740e-08 1.541580e-08 1.446458e-08
1.458012e-08 1.502119e-08 1.404348e-08 1.462543e-08 1.486452e-08 1.460441e-08 1.441701e-08 1.495133e-08 1.424387e-08 1.539211e-08
1.429409e-08 1.446968e-08 1.320670e-08 1.457012e-08 1.318931e-08 1.465908e-08 1.495218e-08 1.391759e-08 1.540339e-08 1.356303e-08
1.342067e-08 1.398735e-08 1.337080e-08 1.352725e-08 1.342598e-08 1.380430e-08 1.413757e-08 1.386320e-08 1.305109e-08 1.289422e-08
1.291798e-08 1.302325e-08 1.435396e-08 1.216736e-08 1.338792e-08 1.266473e-08 1.283916e-08 1.405979e-08 1.346856e-08 1.194863e-08
1.156624e-08 1.367872e-08 1.215939e-08 1.203371e-08 1.337583e-08 1.233007e-08 1.336461e-08 1.374384e-08 1.484485e-08 1.234568e-08
1.396595e-08 1.314249e-08 1.349497e-08 1.424384e-08 1.477915e-08 1.372899e-08 1.336168e-08 1.447646e-08 1.434447e-08 1.462524e-08
1.330267e-08 1.430530e-08 1.430809e-08 1.324385e-08 1.400109e-08 1.321009e-08 1.365752e-08 1.403756e-08 1.438091e-08 1.500617e-08
1.376005e-08 1.479826e-08 1.355253e-08 1.384042e-08 1.501872e-08 1.418980e-08 1.435947e-08 1.465880e-08 1.457798e-08 1.395365e-08
1.430634e-08 1.474068e-08 1.397774e-08 1.448316e-08 1.462762e-08 1.411199e-08 1.477646e-08 1.453374e-08 1.404663e-08 1.431244e-08
1.368762e-08 1.506923e-08 1.351465e-08 1.534845e-08 1.572672e-08 1.501886e-08 1.394265e-08 1.469317e-08 1.425063e-08 1.395562e-08
1.389230e-08 1.382021e-08 1.443999e-08 1.464928e-08 1.393951e-08 1.405440e-08 1.362871e-08 1.337937e-08 1.372128e-08 1.437777e-08
1.433429e-08 1.414504e-08 1.303338e-08 1.346300e-08 1.327461e-08 1.237855e-08 1.397503e-08 1.386647e-08 1.409634e-08 1.334666e-08
1.342416e-08 1.511217e-08 1.219027e-08 1.348444e-08 1.314718e-08 1.209171e-08 1.331094e-08 1.220343e-08 1.356858e-08 1.243276e-08
1.246796e-08 1.327863e-08 1.301332e-08 1.324713e-08 1.354577e-08 1.330499e-08 1.304864e-08 1.201834e-08 1.377876e-08 1.361063e-08
1.336854e-08 1.317140e-08 1.443986e-08 1.380454e-08 1.392672e-08 1.282891e-08 1.326380e-08 1.297710e-08 1.493329e-08 1.436073e-08
1.455230e-08 1.466451e-08 1.372100e-08 1.414608e-08 1.382754e-08 1.424507e-08 1.375231e-08 1.454448e-08 1.476373e-08 1.528558e-08
1.377475e-08 1.409134e-08 1.564085e-08 1.435865e-08 1.435891e-08 1.404339e-08 1.408081e-08 1.449019e-08 1.430273e-08 1.487060e-08
1.578343e-08 1.456339e-08 1.395550e-08 1.402924e-08 1.491731e-08 1.440295e-08 1.475890e-08 1.439540e-08 1.448608e-08 1.456813e-08
1.456531e-08 1.477810e-08 1.410593e-08 1.427925e-08 1.498272e-08 1.403919e-08 1.384263e-08 1.418216e-08 1.512349e-08 1.443040e-08
1.422046e-08 1.468067e-08 1.516687e-08 1.396937e-08 1.545981e-08 1.437493e-08 1.360301e-08 1.405742e-08 1.338848e-08 1.533876e-08
1.388055e-08 1.416084e-08 1.424667e-08 1.472250e-08 1.348049e-08 1.396100e-08 1.396528e-08 1.527468e-08 1.283525e-08 1.346990e-08
1.318930e-08 1.367263e-08 1.310048e-08 1.292679e-08 1.300673e-08 1.251322e-08 1.405408e-08 1.326741e-08 1.328709e-08 1.255285e-08
1.284475e-08
1.217836e-08 1.298455e-08 1.253810e-08 1.298029e-08 1.316539e-08 1.412328e-08 1.384641e-08 1.347217e-08 1.394222e-08 1.337917e-08
1.393314e-08 1.404238e-08 1.448635e-08 1.427106e-08 1.398801e-08 1.447245e-08 1.340918e-08 1.336402e-08 1.487012e-08 1.448827e-08
1.400558e-08 1.548761e-08 1.318321e-08 1.415145e-08 1.503045e-08 1.445748e-08 1.433948e-08 1.446765e-08 1.551103e-08 1.458609e-08
1.394624e-08 1.593332e-08 1.628637e-08 1.468178e-08 1.497759e-08 1.503108e-08 1.539276e-08 1.465237e-08 1.429969e-08 1.457628e-08
1.472381e-08 1.498911e-08 1.478969e-08 1.492722e-08 1.469142e-08 1.403467e-08 1.485889e-08 1.598645e-08 1.448626e-08 1.495017e-08
1.484433e-08 1.496967e-08 1.426704e-08 1.528138e-08 1.438693e-08 1.404125e-08 1.517037e-08 1.465532e-08 1.481709e-08 1.474017e-08
1.604054e-08 1.406483e-08 1.361197e-08 1.412848e-08 1.386793e-08 1.484692e-08 1.475632e-08 1.446818e-08 1.527966e-08 1.460377e-08
1.404766e-08 1.404045e-08 1.401465e-08 1.416689e-08 1.473770e-08 1.468630e-08 1.313686e-08 1.442484e-08 1.340290e-08 1.382024e-08
1.307665e-08 1.311874e-08 1.331590e-08 1.421699e-08 1.331585e-08 1.300292e-08 1.368587e-08 1.262774e-08 1.242946e-08 1.309260e-08
1.371788e-08 1.347179e-08 1.375657e-08 1.511703e-08 1.290832e-08 1.263921e-08 1.385266e-08 1.519292e-08 1.438500e-08 1.327475e-08
1.342896e-08 1.410813e-08 1.372107e-08 1.385219e-08 1.380280e-08 1.313861e-08 1.362146e-08 1.399160e-08 1.394594e-08 1.440739e-08
1.372192e-08 1.506304e-08 1.470682e-08 1.378667e-08 1.466011e-08 1.405777e-08 1.498567e-08 1.535230e-08 1.519230e-08 1.397956e-08
1.473564e-08 1.458018e-08 1.440789e-08 1.466032e-08 1.555901e-08 1.621447e-08 1.456031e-08 1.655180e-08 1.528182e-08 1.484158e-08
1.527946e-08 1.504832e-08 1.472192e-08 1.540190e-08 1.567797e-08 1.490454e-08 1.554078e-08 1.447572e-08 1.427636e-08 1.527144e-08
1.507372e-08 1.475122e-08 1.461979e-08 1.494130e-08 1.357220e-08 1.386998e-08 1.545303e-08 1.348995e-08 1.411931e-08 1.434139e-08
1.498197e-08 1.544432e-08 1.496090e-08 1.470325e-08 1.370312e-08 1.442027e-08 1.360567e-08 1.400273e-08 1.342600e-08 1.364651e-08
1.337150e-08 1.393421e-08 1.384842e-08 1.469667e-08 1.389827e-08 1.442632e-08 1.376379e-08 1.346204e-08 1.453948e-08 1.467508e-08
1.329594e-08 1.363224e-08 1.358638e-08 1.273793e-08 1.356407e-08 1.314337e-08 1.332726e-08 1.447649e-08 1.329632e-08 1.313283e-08
1.386051e-08 1.384886e-08 1.355323e-08 1.339615e-08 1.411414e-08 1.289902e-08 1.260385e-08 1.330169e-08 1.338563e-08 1.342958e-08
1.479546e-08 1.455846e-08 1.306507e-08 1.452166e-08 1.423997e-08 1.400961e-08 1.382430e-08 1.410308e-08 1.359449e-08 1.311690e-08
1.449823e-08 1.418150e-08 1.436922e-08 1.469406e-08 1.383783e-08 1.485318e-08 1.386825e-08 1.482376e-08 1.416190e-08 1.444795e-08
1.504986e-08 1.458116e-08 1.430770e-08 1.456800e-08 1.458127e-08 1.498140e-08 1.455235e-08 1.450007e-08 1.526123e-08 1.559337e-08
1.500156e-08 1.444965e-08 1.408036e-08 1.377994e-08 1.498079e-08 1.470773e-08 1.371329e-08 1.427019e-08 1.432652e-08 1.478080e-08
1.444294e-08 1.444078e-08 1.420853e-08 1.545055e-08 1.495200e-08 1.515613e-08 1.497485e-08 1.618654e-08 1.338757e-08 1.406358e-08
1.335118e-08 1.494064e-08 1.412839e-08 1.420237e-08 1.431692e-08 1.392720e-08 1.469465e-08 1.400125e-08 1.393392e-08 1.407106e-08
1.444937e-08 1.396053e-08 1.306539e-08 1.355542e-08 1.348533e-08 1.363716e-08 1.311661e-08 1.428375e-08 1.276190e-08 1.332116e-08
1.375242e-08 1.383086e-08 1.307675e-08 1.301037e-08 1.243165e-08 1.402421e-08 1.232300e-08 1.350714e-08 1.198975e-08 1.282334e-08
1.315878e-08 1.386168e-08 1.248699e-08 1.310238e-08 1.382894e-08 1.316423e-08 1.241942e-08 1.440094e-08 1.271920e-08 1.368560e-08
1.331039e-08 1.322932e-08 1.368181e-08 1.366997e-08 1.347723e-08 1.371514e-08 1.283337e-08 1.440144e-08 1.410199e-08 1.494476e-08
1.357967e-08 1.489447e-08 1.419976e-08 1.470031e-08 1.454363e-08 1.506349e-08 1.484496e-08 1.413582e-08 1.447726e-08 1.459104e-08
1.424806e-08 1.498230e-08 1.475351e-08 1.564264e-08 1.510047e-08 1.416889e-08 1.545805e-08 1.445470e-08 1.443855e-08 1.526621e-08
1.546415e-08 1.456555e-08 1.484133e-08 1.640999e-08 1.482354e-08 1.545859e-08 1.458875e-08 1.524231e-08 1.563702e-08 1.551720e-08
1.511290e-08 1.502839e-08 1.545600e-08 1.389382e-08 1.446331e-08 1.543338e-08 1.461720e-08 1.458240e-08 1.430889e-08 1.472324e-08
1.466846e-08 1.441471e-08 1.510777e-08 1.490054e-08 1.449204e-08 1.462201e-08 1.554513e-08 1.579199e-08 1.414694e-08 1.461013e-08
1.413078e-08 1.571206e-08 1.544034e-08 1.366330e-08 1.413202e-08 1.372732e-08 1.353711e-08 1.440048e-08 1.347519e-08 1.508702e-08
1.325601e-08 1.288954e-08 1.283812e-08 1.372575e-08 1.320781e-08 1.360909e-08 1.293916e-08 1.260373e-08 1.283051e-08 1.315897e-08
1.217836e-08
1.261514e-08 1.280763e-08 1.443054e-08 1.386641e-08 1.423464e-08 1.278959e-08 1.420895e-08 1.329401e-08 1.390579e-08 1.430778e-08
1.543066e-08 1.360982e-08 1.383889e-08 1.371030e-08 1.441154e-08 1.385874e-08 1.467207e-08 1.427963e-08 1.321807e-08 1.483411e-08
1.394480e-08 1.504789e-08 1.394164e-08 1.453791e-08 1.506767e-08 1.472209e-08 1.407565e-08 1.636173e-08 1.468243e-08 1.449965e-08
1.556483e-08 1.678276e-08 1.479803e-08 1.553410e-08 1.574003e-08 1.453752e-08 1.435836e-08 1.472961e-08 1.484125e-08 1.485707e-08
1.481908e-08 1.555904e-08 1.690279e-08 1.468356e-08 1.483984e-08 1.568793e-08 1.466756e-08 1.554312e-08 1.500090e-08 1.458227e-08
1.511191e-08 1.480644e-08 1.480085e-08 1.426441e-08 1.476752e-08 1.486312e-08 1.441119e-08 1.452896e-08 1.481575e-08 1.445526e-08
1.425655e-08 1.547741e-08 1.616831e-08 1.483266e-08 1.457400e-08 1.502829e-08 1.506148e-08 1.478724e-08 1.418217e-08 1.454208e-08
1.423810e-08 1.467605e-08 1.566060e-08 1.489466e-08 1.370208e-08 1.431522e-08 1.347298e-08 1.310810e-08 1.421120e-08 1.385779e-08
1.325302e-08 1.341656e-08 1.447576e-08 1.390748e-08 1.524183e-08 1.379502e-08 1.278850e-08 1.401417e-08 1.435469e-08 1.346920e-08
1.340563e-08 1.525819e-08 1.363062e-08 1.444301e-08 1.452323e-08 1.276529e-08 1.480011e-08 1.422809e-08 1.266576e-08 1.329084e-08
1.355355e-08 1.375107e-08 1.425515e-08 1.456363e-08 1.382525e-08 1.421305e-08 1.453694e-08 1.494022e-08 1.488085e-08 1.418207e-08
1.574347e-08 1.466025e-08 1.475738e-08 1.498723e-08 1.383937e-08 1.427748e-08 1.593461e-08 1.465922e-08 1.546684e-08 1.553162e-08
1.484110e-08 1.562885e-08 1.609305e-08 1.490657e-08 1.548533e-08 1.512597e-08 1.599054e-08 1.509908e-08 1.489378e-08 1.577590e-08
1.465337e-08 1.466181e-08 1.500045e-08 1.615918e-08 1.436939e-08 1.595075e-08 1.486000e-08 1.444065e-08 1.644060e-08 1.646564e-08
1.498499e-08 1.517325e-08 1.532658e-08 1.468642e-08 1.428127e-08 1.640136e-08 1.457512e-08 1.487180e-08 1.482230e-08 1.591552e-08
1.528236e-08 1.409456e-08 1.452643e-08 1.426098e-08 1.526651e-08 1.449051e-08 1.428434e-08 1.516811e-08 1.446982e-08 1.410045e-08
1.474990e-08 1.384621e-08 1.474318e-08 1.416911e-08 1.360851e-08 1.390387e-08 1.443979e-08 1.431198e-08 1.464289e-08 1.389424e-08
1.412270e-08 1.366260e-08 1.424725e-08 1.375544e-08 1.421407e-08 1.316922e-08 1.431579e-08 1.464322e-08 1.309082e-08 1.335620e-08
1.311194e-08 1.257060e-08 1.391863e-08 1.409547e-08 1.313850e-08 1.379327e-08 1.318597e-08 1.556523e-08 1.377560e-08 1.332137e-08
1.358746e-08 1.476516e-08 1.345848e-08 1.449225e-08 1.410091e-08 1.375908e-08 1.370405e-08 1.355345e-08 1.374104e-08 1.484463e-08
1.435742e-08 1.441299e-08 1.433369e-08 1.515205e-08 1.471377e-08 1.485531e-08 1.419477e-08 1.516489e-08 1.535997e-08 1.424195e-08
1.499931e-08 1.451460e-08 1.496154e-08 1.536050e-08 1.571056e-08 1.571060e-08 1.500967e-08 1.534222e-08 1.419719e-08 1.448331e-08
1.506173e-08 1.479945e-08 1.496495e-08 1.467614e-08 1.450470e-08 1.450044e-08 1.489599e-08 1.479760e-08 1.472075e-08 1.461123e-08
1.428830e-08 1.434197e-08 1.558224e-08 1.534643e-08 1.451746e-08 1.444370e-08 1.507507e-08 1.488560e-08 1.542355e-08 1.517913e-08
1.444251e-08 1.401596e-08 1.474350e-08 1.503248e-08 1.445957e-08 1.400485e-08 1.411187e-08 1.589116e-08 1.338029e-08 1.402570e-08
1.404571e-08 1.519635e-08 1.383839e-08 1.515195e-08 1.327050e-08 1.298151e-08 1.366102e-08 1.404962e-08 1.426549e-08 1.430640e-08
1.405804e-08 1.309867e-08 1.338107e-08 1.322012e-08 1.445466e-08 1.449822e-08 1.328906e-08 1.340718e-08 1.272500e-08 1.373967e-08
1.318729e-08 1.343350e-08 1.407710e-08 1.410053e-08 1.299322e-08 1.278624e-08 1.296639e-08 1.325037e-08 1.460467e-08 1.389114e-08
1.322916e-08 1.286988e-08 1.432753e-08 1.397354e-08 1.396884e-08 1.319115e-08 1.495117e-08 1.427671e-08 1.470168e-08 1.556548e-08
1.433755e-08 1.536796e-08 1.417544e-08 1.464279e-08 1.473163e-08 1.456278e-08 1.503833e-08 1.378235e-08 1.609971e-08 1.452108e-08
1.536115e-08 1.489294e-08 1.492113e-08 1.631722e-08 1.439065e-08 1.433272e-08 1.516502e-08 1.518237e-08 1.501045e-08 1.458986e-08
1.444565e-08 1.524000e-08 1.535713e-08 1.519011e-08 1.561403e-08 1.578703e-08 1.468971e-08 1.467039e-08 1.534063e-08 1.530422e-08
1.543943e-08 1.469707e-08 1.534228e-08 1.460082e-08 1.474467e-08 1.646969e-08 1.453521e-08 1.422719e-08 1.503522e-08 1.566162e-08
1.530076e-08 1.564925e-08 1.461298e-08 1.461207e-08 1.581895e-08 1.493020e-08 1.453036e-08 1.430946e-08 1.428307e-08 1.492557e-08
1.368463e-08 1.493033e-08 1.598993e-08 1.646919e-08 1.520737e-08 1.475821e-08 1.345414e-08 1.477494e-08 1.379946e-08 1.435749e-08
1.405891e-08 1.413350e-08 1.333413e-08 1.384132e-08 1.325708e-08 1.471614e-08 1.308737e-08 1.331441e-08 1.503168e-08 1.280795e-08
1.261514e-08
1.425685e-08 1.305855e-08 1.538901e-08 1.451411e-08 1.423397e-08 1.377906e-08 1.353336e-08 1.533560e-08 1.452348e-08 1.451461e-08
1.486270e-08 1.452228e-08 1.368707e-08 1.388397e-08 1.509224e-08 1.447767e-08 1.408669e-08 1.597878e-08 1.390406e-08 1.466475e-08
1.404247e-08 1.445694e-08 1.376098e-08 1.419661e-08 1.485642e-08 1.488727e-08 1.411203e-08 1.534674e-08 1.534757e-08 1.488458e-08
1.406089e-08 1.548467e-08 1.495574e-08 1.467866e-08 1.651748e-08 1.462750e-08 1.491340e-08 1.500112e-08 1.527776e-08 1.423449e-08
1.490402e-08 1.615384e-08 1.582754e-08 1.518331e-08 1.571662e-08 1.453211e-08 1.502149e-08 1.498908e-08 1.573205e-08 1.616105e-08
1.495963e-08 1.584583e-08 1.538889e-08 1.451845e-08 1.559751e-08 1.572896e-08 1.499320e-08 1.575241e-08 1.569865e-08 1.517182e-08
1.443234e-08 1.506722e-08 1.578716e-08 1.427721e-08 1.525177e-08 1.443210e-08 1.452980e-08 1.471313e-08 1.501151e-08 1.464414e-08
1.401381e-08 1.543776e-08 1.413151e-08 1.417834e-08 1.397421e-08 1.416803e-08 1.379966e-08 1.421976e-08 1.417532e-08 1.399808e-08
1.404838e-08 1.393932e-08 1.481914e-08 1.483397e-08 1.572752e-08 1.315003e-08 1.446423e-08 1.303661e-08 1.406356e-08 1.465120e-08
1.418147e-08 1.512793e-08 1.355578e-08 1.327350e-08 1.489394e-08 1.430323e-08 1.467717e-08 1.276683e-08 1.388133e-08 1.460536e-08
1.325310e-08 1.357251e-08 1.537646e-08 1.372447e-08 1.438377e-08 1.532072e-08 1.402468e-08 1.445937e-08 1.417078e-08 1.427334e-08
1.574440e-08 1.428887e-08 1.424298e-08 1.542023e-08 1.517139e-08 1.419007e-08 1.523121e-08 1.524685e-08 1.550966e-08 1.477092e-08
1.597993e-08 1.523529e-08 1.468011e-08 1.491718e-08 1.558747e-08 1.516064e-08 1.634933e-08 1.703283e-08 1.487747e-08 1.571283e-08
1.551078e-08 1.526205e-08 1.533875e-08 1.507106e-08 1.600777e-08 1.549538e-08 1.609390e-08 1.596502e-08 1.542563e-08 1.624248e-08
1.541506e-08 1.508205e-08 1.535721e-08 1.501247e-08 1.460637e-08 1.448714e-08 1.535841e-08 1.461238e-08 1.510986e-08 1.591559e-08
1.576518e-08 1.471486e-08 1.553561e-08 1.485018e-08 1.498630e-08 1.570675e-08 1.482208e-08 1.453767e-08 1.463052e-08 1.544750e-08
1.460806e-08 1.468717e-08 1.474162e-08 1.530321e-08 1.373737e-08 1.536432e-08 1.360894e-08 1.520525e-08 1.390772e-08 1.385970e-08
1.503549e-08 1.394051e-08 1.438834e-08 1.342346e-08 1.365824e-08 1.394498e-08 1.344218e-08 1.258491e-08 1.337616e-08 1.447116e-08
1.255088e-08 1.265571e-08 1.408396e-08 1.426307e-08 1.323163e-08 1.383079e-08 1.468005e-08 1.353544e-08 1.342996e-08 1.406341e-08
1.485277e-08 1.472686e-08 1.449664e-08 1.340551e-08 1.344908e-08 1.414173e-08 1.505782e-08 1.511224e-08 1.444481e-08 1.437441e-08
1.463537e-08 1.481980e-08 1.461911e-08 1.431286e-08 1.440063e-08 1.560026e-08 1.460604e-08 1.485249e-08 1.566358e-08 1.526728e-08
1.466736e-08 1.433781e-08 1.541091e-08 1.650111e-08 1.498045e-08 1.562933e-08 1.455232e-08 1.672513e-08 1.485628e-08 1.543086e-08
1.533915e-08 1.520024e-08 1.504668e-08 1.547828e-08 1.542246e-08 1.445433e-08 1.572096e-08 1.471685e-08 1.480167e-08 1.457859e-08
1.427394e-08 1.595863e-08 1.574646e-08 1.489060e-08 1.507593e-08 1.476582e-08 1.527770e-08 1.477756e-08 1.423874e-08 1.430719e-08
1.456794e-08 1.470347e-08 1.474824e-08 1.494211e-08 1.469726e-08 1.442348e-08 1.480088e-08 1.423288e-08 1.405757e-08 1.429386e-08
1.480195e-08 1.408283e-08 1.460791e-08 1.478003e-08 1.353862e-08 1.351048e-08 1.443132e-08 1.363181e-08 1.347291e-08 1.431778e-08
1.386885e-08 1.439416e-08 1.348008e-08 1.357544e-08 1.407651e-08 1.337157e-08 1.320343e-08 1.416074e-08 1.287625e-08 1.323446e-08
1.262449e-08 1.362673e-08 1.286517e-08 1.358120e-08 1.309346e-08 1.384130e-08 1.356838e-08 1.405110e-08 1.486541e-08 1.406147e-08
1.298873e-08 1.474688e-08 1.381868e-08 1.475787e-08 1.457299e-08 1.460553e-08 1.381307e-08 1.493145e-08 1.386789e-08 1.367711e-08
1.404268e-08 1.409705e-08 1.391491e-08 1.441765e-08 1.457654e-08 1.478633e-08 1.431300e-08 1.456749e-08 1.501039e-08 1.476401e-08
1.502931e-08 1.518566e-08 1.565756e-08 1.575956e-08 1.502782e-08 1.443252e-08 1.452281e-08 1.528153e-08 1.602780e-08 1.480678e-08
1.508289e-08 1.548073e-08 1.558041e-08 1.535344e-08 1.610915e-08 1.635248e-08 1.519519e-08 1.584770e-08 1.457839e-08 1.506259e-08
1.505177e-08 1.570056e-08 1.449923e-08 1.534592e-08 1.510745e-08 1.474914e-08 1.535727e-08 1.490956e-08 1.567988e-08 1.476678e-08
1.513788e-08 1.428793e-08 1.619978e-08 1.552553e-08 1.468830e-08 1.507044e-08 1.541191e-08 1.586349e-08 1.520544e-08 1.480510e-08
1.493983e-08 1.408018e-08 1.517364e-08 1.469584e-08 1.609245e-08 1.375822e-08 1.438728e-08 1.409475e-08 1.499677e-08 1.424680e-08
1.490302e-08 1.399455e-08 1.385197e-08 1.275846e-08 1.518157e-08 1.411446e-08 1.371096e-08 1.416448e-08 1.372553e-08 1.426731e-08
1.425685e-08
1.311100e-08 1.360163e-08 1.458882e-08 1.442725e-08 1.622952e-08 1.389473e-08 1.408290e-08 1.414465e-08 1.430740e-08 1.461157e-08
1.465798e-08 1.425761e-08 1.508348e-08 1.476196e-08 1.416861e-08 1.520351e-08 1.486527e-08 1.425499e-08 1.444509e-08 1.507034e-08
1.478756e-08 1.432555e-08 1.564184e-08 1.582689e-08 1.503964e-08 1.521356e-08 1.542037e-08 1.541117e-08 1.448372e-08 1.521261e-08
1.494769e-08 1.516936e-08 1.561311e-08 1.477392e-08 1.531188e-08 1.537524e-08 1.658429e-08 1.581843e-08 1.631985e-08 1.554575e-08
1.571243e-08 1.482652e-08 1.587345e-08 1.474666e-08 1.597386e-08 1.643902e-08 1.519784e-08 1.523558e-08 1.519129e-08 1.556906e-08
1.510059e-08 1.552705e-08 1.547657e-08 1.573921e-08 1.579924e-08 1.566681e-08 1.485681e-08 1.515109e-08 1.464634e-08 1.549862e-08
1.495101e-08 1.677179e-08 1.474418e-08 1.523919e-08 1.511461e-08 1.540575e-08 1.481451e-08 1.449777e-08 1.516828e-08 1.403707e-08
1.402896e-08 1.448469e-08 1.500118e-08 1.478670e-08 1.440686e-08 1.550093e-08 1.410522e-08 1.501681e-08 1.555342e-08 1.466505e-08
1.433668e-08 1.388270e-08 1.428368e-08 1.508201e-08 1.552538e-08 1.538359e-08 1.408682e-08 1.344438e-08 1.399700e-08 1.346998e-08
1.346524e-08 1.354048e-08 1.400779e-08 1.418134e-08 1.355297e-08 1.475343e-08 1.402292e-08 1.415994e-08 1.374526e-08 1.338798e-08
1.352078e-08 1.438732e-08 1.425940e-08 1.450699e-08 1.439844e-08 1.497957e-08 1.420090e-08 1.377249e-08 1.442789e-08 1.470241e-08
1.470737e-08 1.481400e-08 1.509248e-08 1.537942e-08 1.427854e-08 1.417966e-08 1.578123e-08 1.525177e-08 1.538156e-08 1.488589e-08
1.563089e-08 1.546809e-08 1.611900e-08 1.576695e-08 1.572956e-08 1.514484e-08 1.537324e-08 1.644228e-08 1.658074e-08 1.520454e-08
1.685214e-08 1.617141e-08 1.539637e-08 1.560272e-08 1.518491e-08 1.553570e-08 1.515000e-08 1.707324e-08 1.660429e-08 1.547975e-08
1.553107e-08 1.637511e-08 1.578168e-08 1.560775e-08 1.543047e-08 1.555954e-08 1.567864e-08 1.539980e-08 1.488206e-08 1.456224e-08
1.562742e-08 1.478296e-08 1.529788e-08 1.619020e-08 1.644087e-08 1.424369e-08 1.614171e-08 1.482694e-08 1.532385e-08 1.490940e-08
1.525930e-08 1.464005e-08 1.560914e-08 1.512588e-08 1.369558e-08 1.423647e-08 1.520021e-08 1.472307e-08 1.475004e-08 1.519842e-08
1.356022e-08 1.523269e-08 1.383872e-08 1.348059e-08 1.381105e-08 1.319070e-08 1.379930e-08 1.499186e-08 1.432424e-08 1.374034e-08
1.338438e-08 1.308699e-08 1.305456e-08 1.456336e-08 1.411466e-08 1.508222e-08 1.336649e-08 1.516612e-08 1.554220e-08 1.411670e-08
1.400425e-08 1.443513e-08 1.505117e-08 1.537930e-08 1.468626e-08 1.404097e-08 1.408504e-08 1.400332e-08 1.536342e-08 1.600453e-08
1.649196e-08 1.512340e-08 1.532555e-08 1.612693e-08 1.395688e-08 1.405047e-08 1.470230e-08 1.569528e-08 1.501645e-08 1.545029e-08
1.525683e-08 1.469704e-08 1.536157e-08 1.525141e-08 1.422769e-08 1.464222e-08 1.575172e-08 1.485522e-08 1.587210e-08 1.528188e-08
1.531587e-08 1.549630e-08 1.503615e-08 1.463492e-08 1.477077e-08 1.594804e-08 1.461928e-08 1.525143e-08 1.491153e-08 1.505991e-08
1.451117e-08 1.593403e-08 1.599596e-08 1.586708e-08 1.458618e-08 1.501485e-08 1.578702e-08 1.496266e-08 1.695165e-08 1.515303e-08
1.536044e-08 1.445524e-08 1.421834e-08 1.498862e-08 1.382158e-08 1.496016e-08 1.468735e-08 1.522191e-08 1.497524e-08 1.450169e-08
1.400770e-08 1.379906e-08 1.398441e-08 1.408304e-08 1.425392e-08 1.360740e-08 1.362180e-08 1.327164e-08 1.400320e-08 1.376320e-08
1.377873e-08 1.440737e-08 1.380763e-08 1.299391e-08 1.408540e-08 1.370284e-08 1.357139e-08 1.374014e-08 1.357583e-08 1.469443e-08
1.310938e-08 1.294813e-08 1.389907e-08 1.437631e-08 1.355068e-08 1.501885e-08 1.344879e-08 1.454098e-08 1.518976e-08 1.356075e-08
1.331964e-08 1.350087e-08 1.337913e-08 1.400563e-08 1.482600e-08 1.414513e-08 1.418900e-08 1.536433e-08 1.466102e-08 1.485806e-08
1.355133e-08 1.467957e-08 1.460261e-08 1.485129e-08 1.522900e-08 1.456880e-08 1.448799e-08 1.511039e-08 1.585626e-08 1.738523e-08
1.555994e-08 1.523618e-08 1.559276e-08 1.498463e-08 1.478387e-08 1.673221e-08 1.469342e-08 1.452163e-08 1.506251e-08 1.442179e-08
1.483603e-08 1.567536e-08 1.546913e-08 1.520925e-08 1.592860e-08 1.608519e-08 1.457229e-08 1.621218e-08 1.621122e-08 1.616267e-08
1.515782e-08 1.518706e-08 1.520574e-08 1.505449e-08 1.665111e-08 1.596074e-08 1.626368e-08 1.596796e-08 1.519016e-08 1.483731e-08
1.510938e-08 1.510293e-08 1.541787e-08 1.632448e-08 1.533982e-08 1.574815e-08 1.479417e-08 1.450261e-08 1.462912e-08 1.450221e-08
1.467950e-08 1.566434e-08 1.412482e-08 1.449050e-08 1.429379e-08 1.402389e-08 1.360747e-08 1.392893e-08 1.580276e-08 1.378746e-08
1.502700e-08 1.426299e-08 1.391519e-08 1.422007e-08 1.486243e-08 1.361917e-08 1.333533e-08 1.371669e-08 1.312109e-08 1.358312e-08
1.311100e-08
1.375620e-08 1.471530e-08 1.436579e-08 1.543594e-08 1.470597e-08 1.511923e-08 1.559531e-08 1.476995e-08 1.356794e-08 1.491653e-08
1.454197e-08 1.573699e-08 1.459136e-08 1.410620e-08 1.406483e-08 1.358032e-08 1.530003e-08 1.554812e-08 1.498541e-08 1.671303e-08
1.524033e-08 1.485136e-08 1.564478e-08 1.455940e-08 1.551840e-08 1.662887e-08 1.649695e-08 1.563347e-08 1.649097e-08 1.605463e-08
1.557183e-08 1.493664e-08 1.583419e-08 1.592800e-08 1.539425e-08 1.613449e-08 1.576464e-08 1.622093e-08 1.584409e-08 1.516434e-08
1.458564e-08 1.577789e-08 1.503934e-08 1.579196e-08 1.630331e-08 1.607962e-08 1.526380e-08 1.634058e-08 1.580830e-08 1.580649e-08
1.530929e-08 1.481804e-08 1.511042e-08 1.656144e-08 1.698027e-08 1.548556e-08 1.636825e-08 1.567345e-08 1.505294e-08 1.479760e-08
1.535443e-08 1.559521e-08 1.567020e-08 1.534670e-08 1.548083e-08 1.615019e-08 1.563840e-08 1.583408e-08 1.465104e-08 1.583126e-08
1.565900e-08 1.512171e-08 1.524696e-08 1.504984e-08 1.502825e-08 1.389855e-08 1.497181e-08 1.351637e-08 1.515806e-08 1.440729e-08
1.519030e-08 1.488035e-08 1.370755e-08 1.401805e-08 1.450504e-08 1.476113e-08 1.436891e-08 1.361357e-08 1.394306e-08 1.419790e-08
1.448250e-08 1.447514e-08 1.405308e-08 1.316181e-08 1.358827e-08 1.452384e-08 1.366990e-08 1.528772e-08 1.388435e-08 1.496098e-08
1.430918e-08 1.526298e-08 1.480650e-08 1.409657e-08 1.382990e-08 1.527715e-08 1.580004e-08 1.529659e-08 1.494564e-08 1.471560e-08
1.415332e-08 1.570391e-08 1.494710e-08 1.524044e-08 1.525770e-08 1.595978e-08 1.559049e-08 1.488193e-08 1.493360e-08 1.604753e-08
1.578230e-08 1.589709e-08 1.539894e-08 1.625931e-08 1.573591e-08 1.654565e-08 1.570534e-08 1.589950e-08 1.526609e-08 1.587103e-08
1.569205e-08 1.546883e-08 1.673060e-08 1.639388e-08 1.568134e-08 1.588892e-08 1.643312e-08 1.693625e-08 1.563532e-08 1.558025e-08
1.544922e-08 1.629015e-08 1.626328e-08 1.650555e-08 1.627113e-08 1.445662e-08 1.588337e-08 1.547187e-08 1.518243e-08 1.490889e-08
1.584254e-08 1.647848e-08 1.550693e-08 1.541646e-08 1.484983e-08 1.588199e-08 1.521145e-08 1.662761e-08 1.499105e-08 1.455894e-08
1.410939e-08 1.555593e-08 1.558242e-08 1.402519e-08 1.455361e-08 1.492506e-08 1.419333e-08 1.442611e-08 1.465868e-08 1.417324e-08
1.454870e-08 1.409241e-08 1.404526e-08 1.420571e-08 1.385185e-08 1.368352e-08 1.505464e-08 1.564956e-08 1.451466e-08 1.367011e-08
1.473956e-08 1.405950e-08 1.401515e-08 1.476125e-08 1.416356e-08 1.563918e-08 1.381073e-08 1.465242e-08 1.519916e-08 1.365784e-08
1.531471e-08 1.414719e-08 1.551561e-08 1.446129e-08 1.477050e-08 1.390223e-08 1.480442e-08 1.491188e-08 1.512729e-08 1.518543e-08
1.392891e-08 1.418832e-08 1.409030e-08 1.588032e-08 1.576755e-08 1.504547e-08 1.505190e-08 1.485868e-08 1.511989e-08 1.596926e-08
1.475174e-08 1.533324e-08 1.501995e-08 1.618318e-08 1.512006e-08 1.584243e-08 1.528328e-08 1.532264e-08 1.504585e-08 1.560451e-08
1.485060e-08 1.599707e-08 1.522557e-08 1.523416e-08 1.577969e-08 1.590156e-08 1.486251e-08 1.502460e-08 1.449930e-08 1.610221e-08
1.567456e-08 1.480841e-08 1.514063e-08 1.542261e-08 1.513897e-08 1.569225e-08 1.471275e-08 1.545504e-08 1.490147e-08 1.429090e-08
1.517062e-08 1.482061e-08 1.441042e-08 1.474048e-08 1.594471e-08 1.516348e-08 1.536270e-08 1.519742e-08 1.476315e-08 1.583427e-08
1.388205e-08 1.475650e-08 1.399532e-08 1.477021e-08 1.528024e-08 1.466925e-08 1.480025e-08 1.452683e-08 1.350076e-08 1.506246e-08
1.361146e-08 1.414416e-08 1.414699e-08 1.327745e-08 1.521140e-08 1.398220e-08 1.461673e-08 1.373520e-08 1.393889e-08 1.377512e-08
1.482377e-08 1.354113e-08 1.448873e-08 1.460192e-08 1.387505e-08 1.348032e-08 1.315246e-08 1.399747e-08 1.382439e-08 1.450862e-08
1.496915e-08 1.491451e-08 1.572447e-08 1.509141e-08 1.426418e-08 1.597004e-08 1.462470e-08 1.512760e-08 1.524534e-08 1.379080e-08
1.482421e-08 1.500559e-08 1.562117e-08 1.595247e-08 1.482308e-08 1.644788e-08 1.484436e-08 1.542362e-08 1.535108e-08 1.472081e-08
1.683141e-08 1.509948e-08 1.555923e-08 1.615627e-08 1.653800e-08 1.576136e-08 1.599179e-08 1.600222e-08 1.536014e-08 1.639812e-08
1.725613e-08 1.553170e-08 1.693335e-08 1.579235e-08 1.652803e-08 1.539068e-08 1.606064e-08 1.577984e-08 1.586915e-08 1.554907e-08
1.554365e-08 1.513931e-08 1.549861e-08 1.535166e-08 1.715570e-08 1.574699e-08 1.658120e-08 1.629027e-08 1.505552e-08 1.603672e-08
1.494114e-08 1.573827e-08 1.538653e-08 1.522550e-08 1.392036e-08 1.634004e-08 1.591069e-08 1.483453e-08 1.454100e-08 1.442713e-08
1.621584e-08 1.460117e-08 1.471195e-08 1.631274e-08 1.641825e-08 1.468761e-08 1.462208e-08 1.416200e-08 1.447966e-08 1.399084e-08
1.385561e-08 1.425331e-08 1.449242e-08 1.393252e-08 1.447328e-08 1.531864e-08 1.406854e-08 1.384110e-08 1.521970e-08 1.416362e-08
1.375620e-08
1.451238e-08 1.380976e-08 1.392180e-08 1.382577e-08 1.484465e-08 1.525002e-08 1.394858e-08 1.480993e-08 1.592671e-08 1.540914e-08
1.601090e-08 1.610361e-08 1.499169e-08 1.663838e-08 1.506653e-08 1.602513e-08 1.580169e-08 1.560004e-08 1.475167e-08 1.460695e-08
1.502405e-08 1.533940e-08 1.537804e-08 1.461753e-08 1.544558e-08 1.516569e-08 1.626820e-08 1.570139e-08 1.569938e-08 1.543906e-08
1.566384e-08 1.724362e-08 1.644798e-08 1.551035e-08 1.505195e-08 1.583939e-08 1.662980e-08 1.577502e-08 1.662801e-08 1.588667e-08
1.623231e-08 1.555618e-08 1.627763e-08 1.593782e-08 1.535695e-08 1.573760e-08 1.633662e-08 1.584872e-08 1.600004e-08 1.601286e-08
1.556562e-08 1.576042e-08 1.584450e-08 1.518335e-08 1.581276e-08 1.572497e-08 1.474728e-08 1.527041e-08 1.501609e-08 1.556994e-08
1.552593e-08 1.541185e-08 1.612889e-08 1.616182e-08 1.482568e-08 1.541139e-08 1.614567e-08 1.573003e-08 1.556494e-08 1.582573e-08
1.433260e-08 1.517199e-08 1.450977e-08 1.469293e-08 1.512936e-08 1.419876e-08 1.400403e-08 1.431318e-08 1.494724e-08 1.579440e-08
1.402475e-08 1.409507e-08 1.456891e-08 1.418483e-08 1.427538e-08 1.380065e-08 1.626740e-08 1.567391e-08 1.418807e-08 1.369379e-08
1.390381e-08 1.489590e-08 1.503389e-08 1.549062e-08 1.377320e-08 1.388755e-08 1.441599e-08 1.438694e-08 1.480626e-08 1.420770e-08
1.533096e-08 1.472873e-08 1.444210e-08 1.455318e-08 1.417338e-08 1.509104e-08 1.622288e-08 1.531056e-08 1.431523e-08 1.569437e-08
1.446621e-08 1.564328e-08 1.534088e-08 1.639862e-08 1.511756e-08 1.539217e-08 1.574955e-08 1.534217e-08 1.551141e-08 1.658483e-08
1.630957e-08 1.603830e-08 1.536267e-08 1.640892e-08 1.556908e-08 1.589216e-08 1.633658e-08 1.682237e-08 1.556857e-08 1.571517e-08
1.631160e-08 1.644383e-08 1.566224e-08 1.637866e-08 1.639145e-08 1.529514e-08 1.664982e-08 1.568959e-08 1.584256e-08 1.634186e-08
1.540264e-08 1.611143e-08 1.639759e-08 1.544618e-08 1.580324e-08 1.648625e-08 1.472181e-08 1.550866e-08 1.542358e-08 1.498576e-08
1.557077e-08 1.641032e-08 1.557092e-08 1.518399e-08 1.571170e-08 1.532105e-08 1.581527e-08 1.594991e-08 1.443532e-08 1.433288e-08
1.454835e-08 1.526436e-08 1.584082e-08 1.604282e-08 1.599564e-08 1.471549e-08 1.537285e-08 1.492199e-08 1.456278e-08 1.524468e-08
1.468137e-08 1.462400e-08 1.517160e-08 1.558256e-08 1.343792e-08 1.469149e-08 1.436905e-08 1.486677e-08 1.459362e-08 1.514685e-08
1.483443e-08 1.403252e-08 1.495082e-08 1.348494e-08 1.474588e-08 1.463418e-08 1.414074e-08 1.405275e-08 1.368487e-08 1.441238e-08
1.529678e-08 1.534680e-08 1.452722e-08 1.396142e-08 1.552638e-08 1.526664e-08 1.490346e-08 1.509453e-08 1.413911e-08 1.524460e-08
1.429813e-08 1.534120e-08 1.450375e-08 1.455351e-08 1.473560e-08 1.497648e-08 1.528526e-08 1.626681e-08 1.548807e-08 1.526512e-08
1.582102e-08 1.611722e-08 1.574984e-08 1.533426e-08 1.523993e-08 1.565872e-08 1.588355e-08 1.553485e-08 1.575997e-08 1.518713e-08
1.489793e-08 1.628300e-08 1.478075e-08 1.566822e-08 1.570271e-08 1.568278e-08 1.681413e-08 1.543407e-08 1.516931e-08 1.528872e-08
1.500009e-08 1.500453e-08 1.521602e-08 1.504934e-08 1.600343e-08 1.566302e-08 1.554003e-08 1.451302e-08 1.577511e-08 1.560750e-08
1.569428e-08 1.453277e-08 1.500625e-08 1.542314e-08 1.467367e-08 1.469795e-08 1.629663e-08 1.537304e-08 1.464819e-08 1.543856e-08
1.485647e-08 1.502741e-08 1.425481e-08 1.561230e-08 1.563902e-08 1.435029e-08 1.371731e-08 1.389473e-08 1.341313e-08 1.375552e-08
1.451855e-08 1.406261e-08 1.533438e-08 1.367977e-08 1.411545e-08 1.346185e-08 1.471145e-08 1.404730e-08 1.355876e-08 1.503880e-08
1.386102e-08 1.417899e-08 1.425119e-08 1.397331e-08 1.483717e-08 1.366395e-08 1.410072e-08 1.398747e-08 1.416016e-08 1.467217e-08
1.471392e-08 1.475319e-08 1.368164e-08 1.418044e-08 1.462264e-08 1.445793e-08 1.414436e-08 1.580275e-08 1.458093e-08 1.428264e-08
1.671120e-08 1.482003e-08 1.480182e-08 1.467491e-08 1.661791e-08 1.603560e-08 1.540362e-08 1.514444e-08 1.625723e-08 1.525742e-08
1.502460e-08 1.505242e-08 1.581379e-08 1.581574e-08 1.643147e-08 1.509535e-08 1.575267e-08 1.576383e-08 1.622590e-08 1.616468e-08
1.566685e-08 1.539168e-08 1.527135e-08 1.518955e-08 1.550751e-08 1.661350e-08 1.552347e-08 1.593847e-08 1.558541e-08 1.651930e-08
1.634060e-08 1.574918e-08 1.678020e-08 1.626477e-08 1.521146e-08 1.557665e-08 1.502665e-08 1.492184e-08 1.602503e-08 1.508189e-08
1.587605e-08 1.523098e-08 1.609644e-08 1.535356e-08 1.462623e-08 1.506712e-08 1.544736e-08 1.534906e-08 1.610087e-08 1.520502e-08
1.474667e-08 1.523814e-08 1.478426e-08 1.536857e-08 1.572138e-08 1.468889e-08 1.435629e-08 1.464397e-08 1.413995e-08 1.460077e-08
1.482947e-08 1.460427e-08 1.496292e-08 1.461878e-08 1.473868e-08 1.441423e-08 1.408274e-08 1.470167e-08 1.432519e-08 1.427744e-08
1.451238e-08
1.427410e-08 1.504039e-08 1.432078e-08 1.559278e-08 1.454706e-08 1.394507e-08 1.509094e-08 1.462188e-08 1.469582e-08 1.448327e-08
1.665616e-08 1.467575e-08 1.416230e-08 1.472799e-08 1.490429e-08 1.486018e-08 1.542688e-08 1.511845e-08 1.675062e-08 1.541522e-08
1.510238e-08 1.595089e-08 1.661032e-08 1.685353e-08 1.507709e-08 1.584864e-08 1.600522e-08 1.517349e-08 1.585656e-08 1.576542e-08
1.612970e-08 1.593407e-08 1.539857e-08 1.593664e-08 1.679354e-08 1.594601e-08 1.526247e-08 1.631735e-08 1.586467e-08 1.571840e-08
1.557699e-08 1.603699e-08 1.589063e-08 1.581190e-08 1.626567e-08 1.572575e-08 1.705020e-08 1.636754e-08 1.568328e-08 1.591055e-08
1.622006e-08 1.643369e-08 1.619698e-08 1.565668e-08 1.603017e-08 1.534951e-08 1.617594e-08 1.547720e-08 1.698777e-08 1.579309e-08
1.550335e-08 1.591633e-08 1.605703e-08 1.609031e-08 1.646639e-08 1.619529e-08 1.562474e-08 1.594942e-08 1.513677e-08 1.528850e-08
1.578339e-08 1.485236e-08 1.527098e-08 1.434794e-08 1.545637e-08 1.573545e-08 1.526732e-08 1.531018e-08 1.472017e-08 1.464043e-08
1.413394e-08 1.470777e-08 1.573340e-08 1.476212e-08 1.451827e-08 1.416768e-08 1.499098e-08 1.459812e-08 1.476093e-08 1.458910e-08
1.373823e-08 1.528301e-08 1.444860e-08 1.395215e-08 1.539925e-08 1.473257e-08 1.523921e-08 1.454595e-08 1.405040e-08 1.420585e-08
1.538004e-08 1.456029e-08 1.520005e-08 1.436132e-08 1.498806e-08 1.488471e-08 1.563859e-08 1.594560e-08 1.522225e-08 1.541495e-08
1.439300e-08 1.617056e-08 1.628023e-08 1.559803e-08 1.667975e-08 1.492970e-08 1.643504e-08 1.551103e-08 1.485853e-08 1.624734e-08
1.631873e-08 1.571080e-08 1.727833e-08 1.659945e-08 1.641727e-08 1.554473e-08 1.740560e-08 1.578220e-08 1.617737e-08 1.611111e-08
1.628784e-08 1.540648e-08 1.697026e-08 1.712536e-08 1.580826e-08 1.607563e-08 1.624826e-08 1.722030e-08 1.640685e-08 1.721390e-08
1.589727e-08 1.517046e-08 1.660303e-08 1.646985e-08 1.613017e-08 1.619221e-08 1.551322e-08 1.596421e-08 1.553442e-08 1.628259e-08
1.582478e-08 1.567988e-08 1.529881e-08 1.553484e-08 1.497243e-08 1.601986e-08 1.591448e-08 1.537087e-08 1.555251e-08 1.606737e-08
1.608720e-08 1.538450e-08 1.504903e-08 1.593830e-08 1.537608e-08 1.617576e-08 1.496652e-08 1.529603e-08 1.470365e-08 1.435753e-08
1.436269e-08 1.574333e-08 1.472943e-08 1.479996e-08 1.618759e-08 1.617095e-08 1.360504e-08 1.411103e-08 1.546515e-08 1.465620e-08
1.557456e-08 1.498235e-08 1.492156e-08 1.556981e-08 1.397656e-08 1.476359e-08 1.538820e-08 1.643393e-08 1.450908e-08 1.458052e-08
1.536729e-08 1.552637e-08 1.535447e-08 1.629988e-08 1.514454e-08 1.516633e-08 1.421537e-08 1.437800e-08 1.615973e-08 1.529093e-08
1.523243e-08 1.496655e-08 1.532330e-08 1.524076e-08 1.568961e-08 1.593754e-08 1.572876e-08 1.607960e-08 1.569115e-08 1.501387e-08
1.607160e-08 1.546295e-08 1.511049e-08 1.639391e-08 1.639180e-08 1.591507e-08 1.639791e-08 1.583502e-08 1.581459e-08 1.631908e-08
1.544174e-08 1.661142e-08 1.501665e-08 1.654811e-08 1.580220e-08 1.643463e-08 1.596907e-08 1.575461e-08 1.619610e-08 1.564943e-08
1.590942e-08 1.532347e-08 1.476198e-08 1.544514e-08 1.516223e-08 1.621375e-08 1.595439e-08 1.478822e-08 1.583990e-08 1.660879e-08
1.565732e-08 1.608387e-08 1.602637e-08 1.488454e-08 1.459940e-08 1.611246e-08 1.420889e-08 1.592992e-08 1.577859e-08 1.423535e-08
1.459370e-08 1.539210e-08 1.473664e-08 1.475204e-08 1.436716e-08 1.492397e-08 1.460298e-08 1.394153e-08 1.422179e-08 1.451451e-08
1.436209e-08 1.380924e-08 1.400831e-08 1.386642e-08 1.425680e-08 1.515877e-08 1.394965e-08 1.480253e-08 1.418124e-08 1.376912e-08
1.420834e-08 1.431957e-08 1.400987e-08 1.501771e-08 1.543281e-08 1.406077e-08 1.413148e-08 1.469108e-08 1.360311e-08 1.495558e-08
1.381516e-08 1.435590e-08 1.423051e-08 1.425427e-08 1.523118e-08 1.540638e-08 1.417854e-08 1.505939e-08 1.486938e-08 1.561269e-08
1.581391e-08 1.609356e-08 1.560392e-08 1.547593e-08 1.496058e-08 1.544707e-08 1.549245e-08 1.651203e-08 1.639731e-08 1.644951e-08
1.548351e-08 1.554621e-08 1.624130e-08 1.566501e-08 1.634900e-08 1.630824e-08 1.600000e-08 1.620981e-08 1.533600e-08 1.621891e-08
1.571150e-08 1.516618e-08 1.583000e-08 1.606289e-08 1.683557e-08 1.692367e-08 1.588947e-08 1.610977e-08 1.597152e-08 1.656587e-08
1.570109e-08 1.524911e-08 1.615409e-08 1.489643e-08 1.723767e-08 1.593303e-08 1.589354e-08 1.589843e-08 1.564790e-08 1.528322e-08
1.633520e-08 1.548402e-08 1.604491e-08 1.532784e-08 1.628905e-08 1.590651e-08 1.538871e-08 1.529872e-08 1.575345e-08 1.591842e-08
1.568807e-08 1.448871e-08 1.541816e-08 1.509372e-08 1.571129e-08 1.462611e-08 1.514208e-08 1.548231e-08 1.493996e-08 1.504774e-08
1.519246e-08 1.429574e-08 1.492040e-08 1.491346e-08 1.410004e-08 1.453860e-08 1.451153e-08 1.520111e-08 1.532756e-08 1.524747e-08
1.427410e-08
1.468566e-08 1.542971e-08 1.457016e-08 1.476591e-08 1.513886e-08 1.496105e-08 1.572750e-08 1.483922e-08 1.471289e-08 1.551385e-08
1.448783e-08 1.565277e-08 1.530623e-08 1.663840e-08 1.490375e-08 1.511733e-08 1.535269e-08 1.503309e-08 1.495513e-08 1.571979e-08
1.526494e-08 1.495168e-08 1.557353e-08 1.531635e-08 1.689304e-08 1.596352e-08 1.630379e-08 1.596785e-08 1.540742e-08 1.675509e-08
1.580631e-08 1.668689e-08 1.569818e-08 1.570288e-08 1.631899e-08 1.578764e-08 1.586738e-08 1.687792e-08 1.484870e-08 1.647183e-08
1.627540e-08 1.596892e-08 1.630090e-08 1.634906e-08 1.591098e-08 1.541102e-08 1.595932e-08 1.613903e-08 1.623209e-08 1.681593e-08
1.661865e-08 1.650478e-08 1.587731e-08 1.473469e-08 1.625848e-08 1.559268e-08 1.541034e-08 1.753890e-08 1.659505e-08 1.624014e-08
1.604739e-08 1.544108e-08 1.612489e-08 1.485996e-08 1.634844e-08 1.584774e-08 1.564324e-08 1.592138e-08 1.462660e-08 1.566094e-08
1.493895e-08 1.593646e-08 1.533872e-08 1.509368e-08 1.539943e-08 1.498294e-08 1.433066e-08 1.430495e-08 1.573020e-08 1.471737e-08
1.474416e-08 1.426082e-08 1.441499e-08 1.429949e-08 1.599590e-08 1.514564e-08 1.438838e-08 1.617385e-08 1.426956e-08 1.458336e-08
1.479727e-08 1.498353e-08 1.438892e-08 1.419176e-08 1.458562e-08 1.450518e-08 1.428352e-08 1.506728e-08 1.534446e-08 1.430778e-08
1.502757e-08 1.521628e-08 1.664154e-08 1.467499e-08 1.570681e-08 1.479210e-08 1.577287e-08 1.487808e-08 1.553474e-08 1.620944e-08
1.480806e-08 1.512652e-08 1.764549e-08 1.602009e-08 1.588918e-08 1.521852e-08 1.617956e-08 1.696466e-08 1.598928e-08 1.695816e-08
1.733138e-08 1.663180e-08 1.643980e-08 1.611952e-08 1.651226e-08 1.648765e-08 1.607192e-08 1.615663e-08 1.602205e-08 1.629901e-08
1.704940e-08 1.636146e-08 1.723098e-08 1.687810e-08 1.694723e-08 1.557097e-08 1.619151e-08 1.635832e-08 1.578361e-08 1.653285e-08
1.651060e-08 1.683031e-08 1.683486e-08 1.589108e-08 1.696767e-08 1.633302e-08 1.678121e-08 1.569102e-08 1.620202e-08 1.603122e-08
1.608559e-08 1.625112e-08 1.687218e-08 1.621333e-08 1.606409e-08 1.623999e-08 1.514081e-08 1.650023e-08 1.697611e-08 1.472222e-08
1.548665e-08 1.495393e-08 1.592830e-08 1.617357e-08 1.682228e-08 1.525840e-08 1.622845e-08 1.675691e-08 1.502464e-08 1.473236e-08
1.542690e-08 1.459260e-08 1.449729e-08 1.539887e-08 1.522316e-08 1.487333e-08 1.469454e-08 1.642559e-08 1.483163e-08 1.506020e-08
1.494126e-08 1.494955e-08 1.468614e-08 1.398659e-08 1.518945e-08 1.463842e-08 1.482321e-08 1.618336e-08 1.500080e-08 1.498769e-08
1.409181e-08 1.616626e-08 1.624210e-08 1.558370e-08 1.572627e-08 1.579442e-08 1.549749e-08 1.648710e-08 1.555924e-08 1.500150e-08
1.582009e-08 1.518418e-08 1.606140e-08 1.651838e-08 1.465408e-08 1.567020e-08 1.614628e-08 1.575916e-08 1.566178e-08 1.531419e-08
1.594382e-08 1.592465e-08 1.598333e-08 1.575800e-08 1.568411e-08 1.564891e-08 1.546207e-08 1.690454e-08 1.559514e-08 1.585216e-08
1.504888e-08 1.561773e-08 1.581424e-08 1.639000e-08 1.576119e-08 1.692705e-08 1.549576e-08 1.658884e-08 1.577818e-08 1.535366e-08
1.535491e-08 1.614055e-08 1.540178e-08 1.631222e-08 1.572438e-08 1.606926e-08 1.588847e-08 1.507603e-08 1.467869e-08 1.500504e-08
1.592466e-08 1.627805e-08 1.496440e-08 1.522372e-08 1.441243e-08 1.510500e-08 1.600635e-08 1.482533e-08 1.538461e-08 1.413800e-08
1.600348e-08 1.538562e-08 1.517884e-08 1.449968e-08 1.554194e-08 1.433230e-08 1.490096e-08 1.509475e-08 1.406767e-08 1.557137e-08
1.412229e-08 1.388304e-08 1.481693e-08 1.538250e-08 1.428979e-08 1.525557e-08 1.477181e-08 1.399153e-08 1.467330e-08 1.525312e-08
1.370062e-08 1.465074e-08 1.467168e-08 1.556063e-08 1.396608e-08 1.495413e-08 1.418186e-08 1.388162e-08 1.413611e-08 1.603028e-08
1.516200e-08 1.456874e-08 1.554414e-08 1.424444e-08 1.499419e-08 1.504009e-08 1.507655e-08 1.502166e-08 1.579666e-08 1.485872e-08
1.608601e-08 1.502126e-08 1.647421e-08 1.569490e-08 1.658258e-08 1.704500e-08 1.526040e-08 1.540106e-08 1.720998e-08 1.534504e-08
1.564158e-08 1.579570e-08 1.717735e-08 1.596941e-08 1.679549e-08 1.596542e-08 1.560303e-08 1.572621e-08 1.668037e-08 1.605944e-08
1.565495e-08 1.652908e-08 1.610293e-08 1.669287e-08 1.613539e-08 1.663397e-08 1.616005e-08 1.681973e-08 1.631000e-08 1.590392e-08
1.683909e-08 1.627778e-08 1.573466e-08 1.637521e-08 1.545563e-08 1.678247e-08 1.639985e-08 1.635268e-08 1.544501e-08 1.615068e-08
1.584684e-08 1.642950e-08 1.498482e-08 1.578935e-08 1.509127e-08 1.558484e-08 1.737630e-08 1.611141e-08 1.531429e-08 1.531920e-08
1.572938e-08 1.571983e-08 1.530168e-08 1.565253e-08 1.450616e-08 1.640146e-08 1.493564e-08 1.529744e-08 1.517184e-08 1.509334e-08
1.480339e-08 1.558986e-08 1.458074e-08 1.489769e-08 1.460860e-08 1.476533e-08 1.423090e-08 1.487122e-08 1.420469e-08 1.493027e-08
1.468566e-08
1.600314e-08 1.558777e-08 1.428620e-08 1.439928e-08 1.461915e-08 1.640637e-08 1.565736e-08 1.468558e-08 1.634875e-08 1.505751e-08
1.579649e-08 1.552635e-08 1.565868e-08 1.573191e-08 1.547694e-08 1.588957e-08 1.600259e-08 1.528843e-08 1.525574e-08 1.596650e-08
1.618362e-08 1.525076e-08 1.734371e-08 1.515235e-08 1.597590e-08 1.628540e-08 1.540410e-08 1.566703e-08 1.634833e-08 1.614881e-08
1.597750e-08 1.614695e-08 1.684888e-08 1.691127e-08 1.563727e-08 1.607636e-08 1.626291e-08 1.672696e-08 1.545706e-08 1.580111e-08
1.715254e-08 1.660696e-08 1.654800e-08 1.619979e-08 1.669525e-08 1.668601e-08 1.584126e-08 1.624588e-08 1.632849e-08 1.615815e-08
1.578787e-08 1.621784e-08 1.612518e-08 1.649842e-08 1.632435e-08 1.683284e-08 1.638728e-08 1.645872e-08 1.704743e-08 1.696190e-08
1.759184e-08 1.667526e-08 1.611647e-08 1.611625e-08 1.537648e-08 1.620646e-08 1.466235e-08 1.542555e-08 1.605741e-08 1.509549e-08
1.617208e-08 1.527342e-08 1.484619e-08 1.506108e-08 1.451970e-08 1.505012e-08 1.437742e-08 1.604968e-08 1.518859e-08 1.541496e-08
1.674996e-08 1.416077e-08 1.476585e-08 1.559787e-08 1.683775e-08 1.512543e-08 1.479153e-08 1.458969e-08 1.568880e-08 1.500421e-08
1.544805e-08 1.487432e-08 1.411507e-08 1.463609e-08 1.535418e-08 1.509509e-08 1.478811e-08 1.561607e-08 1.489762e-08 1.509522e-08
1.483597e-08 1.546381e-08 1.522575e-08 1.595539e-08 1.575948e-08 1.535962e-08 1.594412e-08 1.494756e-08 1.532451e-08 1.620939e-08
1.562831e-08 1.571079e-08 1.591472e-08 1.579846e-08 1.584548e-08 1.708268e-08 1.624975e-08 1.691497e-08 1.604141e-08 1.563763e-08
1.690275e-08 1.535844e-08 1.560501e-08 1.667431e-08 1.623535e-08 1.646216e-08 1.640566e-08 1.587275e-08 1.641981e-08 1.646735e-08
1.575385e-08 1.622648e-08 1.744966e-08 1.580188e-08 1.613510e-08 1.652032e-08 1.663115e-08 1.667445e-08 1.666751e-08 1.740278e-08
1.669798e-08 1.724458e-08 1.634977e-08 1.552630e-08 1.677176e-08 1.517803e-08 1.575139e-08 1.609505e-08 1.649883e-08 1.551748e-08
1.692934e-08 1.569593e-08 1.642798e-08 1.673956e-08 1.684084e-08 1.583207e-08 1.509791e-08 1.667135e-08 1.629583e-08 1.755745e-08
1.676850e-08 1.724353e-08 1.576787e-08 1.516846e-08 1.564474e-08 1.504625e-08 1.679600e-08 1.574494e-08 1.566784e-08 1.599290e-08
1.469973e-08 1.597878e-08 1.476308e-08 1.557055e-08 1.512169e-08 1.559210e-08 1.552447e-08 1.704447e-08 1.535891e-08 1.547960e-08
1.515813e-08 1.416534e-08 1.575387e-08 1.485896e-08 1.484352e-08 1.638656e-08 1.509904e-08 1.431158e-08 1.499595e-08 1.488174e-08
1.479820e-08 1.557694e-08 1.494062e-08 1.466008e-08 1.550771e-08 1.486574e-08 1.515077e-08 1.498376e-08 1.663716e-08 1.630907e-08
1.481141e-08 1.710757e-08 1.529930e-08 1.588984e-08 1.707946e-08 1.562306e-08 1.533218e-08 1.550295e-08 1.487157e-08 1.584319e-08
1.618142e-08 1.476708e-08 1.523280e-08 1.639599e-08 1.695413e-08 1.611526e-08 1.541633e-08 1.620499e-08 1.597793e-08 1.592503e-08
1.615448e-08 1.614907e-08 1.752907e-08 1.591844e-08 1.578237e-08 1.641507e-08 1.592615e-08 1.644495e-08 1.705872e-08 1.642696e-08
1.606761e-08 1.563005e-08 1.619341e-08 1.497990e-08 1.635663e-08 1.571825e-08 1.608121e-08 1.621240e-08 1.530997e-08 1.643833e-08
1.498584e-08 1.623665e-08 1.494978e-08 1.483003e-08 1.610705e-08 1.617758e-08 1.526147e-08 1.560624e-08 1.417155e-08 1.539777e-08
1.712370e-08 1.591413e-08 1.548940e-08 1.582564e-08 1.617040e-08 1.539922e-08 1.532788e-08 1.469051e-08 1.430657e-08 1.497100e-08
1.577759e-08 1.410133e-08 1.426263e-08 1.504671e-08 1.500615e-08 1.471435e-08 1.524225e-08 1.509252e-08 1.466999e-08 1.448141e-08
1.453353e-08 1.557273e-08 1.403432e-08 1.539451e-08 1.476358e-08 1.460282e-08 1.469226e-08 1.405930e-08 1.419077e-08 1.447848e-08
1.438940e-08 1.458301e-08 1.552955e-08 1.644583e-08 1.512289e-08 1.478052e-08 1.474986e-08 1.617116e-08 1.585490e-08 1.491744e-08
1.614492e-08 1.576702e-08 1.473520e-08 1.537768e-08 1.510490e-08 1.656597e-08 1.629421e-08 1.623288e-08 1.615315e-08 1.616553e-08
1.547179e-08 1.619973e-08 1.607389e-08 1.569170e-08 1.548816e-08 1.594381e-08 1.635977e-08 1.627951e-08 1.577538e-08 1.597902e-08
1.530157e-08 1.632515e-08 1.607060e-08 1.664080e-08 1.681966e-08 1.759886e-08 1.530765e-08 1.510448e-08 1.700482e-08 1.713113e-08
1.656837e-08 1.619955e-08 1.707935e-08 1.662626e-08 1.589622e-08 1.561876e-08 1.609757e-08 1.633741e-08 1.706745e-08 1.519357e-08
1.642386e-08 1.572224e-08 1.680987e-08 1.594049e-08 1.549039e-08 1.480688e-08 1.628580e-08 1.596451e-08 1.512103e-08 1.583511e-08
1.568566e-08 1.668756e-08 1.631043e-08 1.681443e-08 1.547170e-08 1.613098e-08 1.531598e-08 1.499181e-08 1.557291e-08 1.451898e-08
1.636274e-08 1.563966e-08 1.513209e-08 1.438117e-08 1.488409e-08 1.460943e-08 1.499022e-08 1.538978e-08 1.611452e-08 1.538709e-08
1.600314e-08
1.602448e-08 1.530307e-08 1.507492e-08 1.500887e-08 1.468118e-08 1.548997e-08 1.485019e-08 1.656722e-08 1.507888e-08 1.444515e-08
1.594328e-08 1.452058e-08 1.529999e-08 1.590266e-08 1.570225e-08 1.647119e-08 1.639573e-08 1.529262e-08 1.486377e-08 1.517616e-08
1.761227e-08 1.508951e-08 1.598665e-08 1.690024e-08 1.710520e-08 1.585695e-08 1.619867e-08 1.564598e-08 1.560905e-08 1.610269e-08
1.687354e-08 1.628067e-08 1.684468e-08 1.667809e-08 1.688615e-08 1.590064e-08 1.637970e-08 1.583782e-08 1.548853e-08 1.761748e-08
1.597215e-08 1.636446e-08 1.658317e-08 1.603787e-08 1.662987e-08 1.708621e-08 1.740658e-08 1.643783e-08 1.684430e-08 1.656254e-08
1.704579e-08 1.544255e-08 1.691546e-08 1.642847e-08 1.743974e-08 1.666120e-08 1.559427e-08 1.572581e-08 1.647311e-08 1.655988e-08
1.612195e-08 1.632344e-08 1.673771e-08 1.727068e-08 1.695879e-08 1.637840e-08 1.604752e-08 1.609463e-08 1.604939e-08 1.542153e-08
1.532950e-08 1.492131e-08 1.532449e-08 1.535821e-08 1.467613e-08 1.605664e-08 1.581679e-08 1.546838e-08 1.546406e-08 1.486404e-08
1.475358e-08 1.459925e-08 1.482417e-08 1.527397e-08 1.456166e-08 1.556153e-08 1.525337e-08 1.485431e-08 1.499230e-08 1.517641e-08
1.479774e-08 1.498713e-08 1.458809e-08 1.430313e-08 1.685539e-08 1.465523e-08 1.521744e-08 1.501285e-08 1.779701e-08 1.590442e-08
1.491815e-08 1.612589e-08 1.506097e-08 1.618579e-08 1.505751e-08 1.481416e-08 1.650329e-08 1.518495e-08 1.620229e-08 1.622730e-08
1.641277e-08 1.559853e-08 1.702060e-08 1.475650e-08 1.577459e-08 1.596913e-08 1.593891e-08 1.695795e-08 1.588237e-08 1.615825e-08
1.670312e-08 1.601465e-08 1.558024e-08 1.611309e-08 1.629013e-08 1.667801e-08 1.633720e-08 1.646334e-08 1.603232e-08 1.646931e-08
1.732921e-08 1.712822e-08 1.749301e-08 1.662140e-08 1.680342e-08 1.745389e-08 1.715262e-08 1.680987e-08 1.627806e-08 1.731549e-08
1.721568e-08 1.770251e-08 1.804394e-08 1.751740e-08 1.676712e-08 1.660318e-08 1.664192e-08 1.620287e-08 1.620818e-08 1.647045e-08
1.636414e-08 1.614388e-08 1.651721e-08 1.653921e-08 1.695438e-08 1.661216e-08 1.671680e-08 1.573518e-08 1.660622e-08 1.635984e-08
1.632803e-08 1.629328e-08 1.673141e-08 1.699577e-08 1.551734e-08 1.661356e-08 1.574534e-08 1.576463e-08 1.735921e-08 1.587058e-08
1.491089e-08 1.600610e-08 1.518132e-08 1.649983e-08 1.535522e-08 1.616107e-08 1.535053e-08 1.447949e-08 1.566490e-08 1.623129e-08
1.565391e-08 1.496027e-08 1.494310e-08 1.467401e-08 1.552638e-08 1.619406e-08 1.440981e-08 1.490693e-08 1.521066e-08 1.564731e-08
1.541009e-08 1.479690e-08 1.537702e-08 1.453133e-08 1.602321e-08 1.547036e-08 1.485916e-08 1.498499e-08 1.638253e-08 1.523711e-08
1.605395e-08 1.616623e-08 1.591687e-08 1.660676e-08 1.571034e-08 1.639256e-08 1.561519e-08 1.561144e-08 1.577757e-08 1.551699e-08
1.574030e-08 1.600388e-08 1.691185e-08 1.634214e-08 1.790774e-08 1.634916e-08 1.603548e-08 1.608183e-08 1.686590e-08 1.706785e-08
1.567581e-08 1.641842e-08 1.647576e-08 1.693505e-08 1.552999e-08 1.563980e-08 1.666344e-08 1.600577e-08 1.507044e-08 1.586683e-08
1.615722e-08 1.570665e-08 1.641173e-08 1.589750e-08 1.608020e-08 1.671532e-08 1.553265e-08 1.527809e-08 1.577170e-08 1.578635e-08
1.465257e-08 1.667198e-08 1.529317e-08 1.553352e-08 1.637497e-08 1.606466e-08 1.517171e-08 1.555293e-08 1.610691e-08 1.477236e-08
1.515900e-08 1.494660e-08 1.521746e-08 1.599959e-08 1.533609e-08 1.523484e-08 1.408307e-08 1.557805e-08 1.455072e-08 1.521760e-08
1.494988e-08 1.450976e-08 1.651548e-08 1.435490e-08 1.572864e-08 1.414321e-08 1.496680e-08 1.568528e-08 1.485832e-08 1.474759e-08
1.486045e-08 1.414009e-08 1.495699e-08 1.486195e-08 1.598640e-08 1.423546e-08 1.473459e-08 1.423438e-08 1.518720e-08 1.481995e-08
1.484350e-08 1.555767e-08 1.603704e-08 1.477835e-08 1.504006e-08 1.514942e-08 1.645520e-08 1.601599e-08 1.522488e-08 1.573629e-08
1.467960e-08 1.604895e-08 1.567240e-08 1.535917e-08 1.602567e-08 1.670989e-08 1.492141e-08 1.475299e-08 1.768868e-08 1.596417e-08
1.625354e-08 1.603823e-08 1.621588e-08 1.680408e-08 1.578718e-08 1.717718e-08 1.589070e-08 1.566217e-08 1.722739e-08 1.684325e-08
1.581652e-08 1.651544e-08 1.636769e-08 1.630484e-08 1.729315e-08 1.700675e-08 1.644043e-08 1.586642e-08 1.679132e-08 1.662395e-08
1.673219e-08 1.605239e-08 1.632826e-08 1.559581e-08 1.613648e-08 1.597845e-08 1.623319e-08 1.748540e-08 1.698895e-08 1.670802e-08
1.707252e-08 1.561072e-08 1.713011e-08 1.525007e-08 1.610330e-08 1.684195e-08 1.668675e-08 1.689557e-08 1.576077e-08 1.533678e-08
1.514906e-08 1.500131e-08 1.558934e-08 1.640539e-08 1.537710e-08 1.468152e-08 1.546127e-08 1.567617e-08 1.527298e-08 1.549111e-08
1.502031e-08 1.676552e-08 1.579900e-08 1.514829e-08 1.639497e-08 1.469481e-08 1.514917e-08 1.474614e-08 1.679587e-08 1.538839e-08
1.602448e-08
1.595949e-08 1.525496e-08 1.435721e-08 1.482809e-08 1.543147e-08 1.517120e-08 1.470007e-08 1.516874e-08 1.597916e-08 1.470325e-08
1.607965e-08 1.633395e-08 1.644085e-08 1.567154e-08 1.629133e-08 1.603509e-08 1.544161e-08 1.603366e-08 1.624436e-08 1.694068e-08
1.698539e-08 1.613781e-08 1.679624e-08 1.578743e-08 1.591309e-08 1.712293e-08 1.635385e-08 1.754085e-08 1.613709e-08 1.582205e-08
1.758166e-08 1.732644e-08 1.595889e-08 1.792106e-08 1.698858e-08 1.739463e-08 1.652228e-08 1.582734e-08 1.647480e-08 1.550301e-08
1.707648e-08 1.695291e-08 1.692242e-08 1.701273e-08 1.654739e-08 1.585436e-08 1.660564e-08 1.706266e-08 1.631391e-08 1.670221e-08
1.731712e-08 1.820408e-08 1.571481e-08 1.644084e-08 1.692970e-08 1.598147e-08 1.689314e-08 1.705295e-08 1.588812e-08 1.637861e-08
1.595077e-08 1.685885e-08 1.638676e-08 1.588582e-08 1.672584e-08 1.573964e-08 1.683929e-08 1.596679e-08 1.545627e-08 1.501168e-08
1.512137e-08 1.694367e-08 1.557359e-08 1.556559e-08 1.654404e-08 1.537178e-08 1.553613e-08 1.571965e-08 1.658128e-08 1.627096e-08
1.671289e-08 1.562968e-08 1.548110e-08 1.467309e-08 1.549230e-08 1.504176e-08 1.567417e-08 1.579552e-08 1.551221e-08 1.553098e-08
1.538682e-08 1.534348e-08 1.583184e-08 1.551535e-08 1.477238e-08 1.462468e-08 1.581973e-08 1.587814e-08 1.519687e-08 1.400752e-08
1.464873e-08 1.634784e-08 1.512076e-08 1.538726e-08 1.460301e-08 1.562635e-08 1.600285e-08 1.671414e-08 1.618172e-08 1.592621e-08
1.535903e-08 1.573513e-08 1.677343e-08 1.584501e-08 1.629174e-08 1.670259e-08 1.712790e-08 1.637835e-08 1.727470e-08 1.706850e-08
1.712825e-08 1.717463e-08 1.579054e-08 1.627606e-08 1.653503e-08 1.627632e-08 1.599653e-08 1.803137e-08 1.746255e-08 1.680768e-08
1.592969e-08 1.654721e-08 1.936580e-08 1.735661e-08 1.704434e-08 1.598856e-08 1.662224e-08 1.685140e-08 1.715489e-08 1.710829e-08
1.691230e-08 1.612290e-08 1.679588e-08 1.668957e-08 1.672524e-08 1.790847e-08 1.666375e-08 1.726975e-08 1.571010e-08 1.642462e-08
1.546167e-08 1.695159e-08 1.593181e-08 1.648610e-08 1.620639e-08 1.585695e-08 1.619553e-08 1.696343e-08 1.679963e-08 1.609308e-08
1.609092e-08 1.659491e-08 1.644726e-08 1.547978e-08 1.573435e-08 1.644706e-08 1.540410e-08 1.656706e-08 1.561747e-08 1.511126e-08
1.682878e-08 1.520474e-08 1.657457e-08 1.566247e-08 1.496026e-08 1.543336e-08 1.544791e-08 1.619218e-08 1.511592e-08 1.473296e-08
1.552913e-08 1.574678e-08 1.456982e-08 1.560968e-08 1.549791e-08 1.593585e-08 1.504682e-08 1.462822e-08 1.655012e-08 1.654374e-08
1.556536e-08 1.529397e-08 1.566191e-08 1.484047e-08 1.774560e-08 1.519323e-08 1.643238e-08 1.623344e-08 1.566077e-08 1.574596e-08
1.711192e-08 1.574080e-08 1.643876e-08 1.584373e-08 1.662614e-08 1.681559e-08 1.569752e-08 1.703617e-08 1.671684e-08 1.572141e-08
1.589899e-08 1.590548e-08 1.642051e-08 1.648945e-08 1.601317e-08 1.714518e-08 1.635378e-08 1.574602e-08 1.634988e-08 1.527879e-08
1.576383e-08 1.592520e-08 1.595243e-08 1.539252e-08 1.563535e-08 1.679006e-08 1.627584e-08 1.729986e-08 1.624915e-08 1.742863e-08
1.623583e-08 1.595700e-08 1.672088e-08 1.622497e-08 1.509667e-08 1.576024e-08 1.547853e-08 1.634041e-08 1.530086e-08 1.732873e-08
1.584907e-08 1.630485e-08 1.617968e-08 1.638099e-08 1.492313e-08 1.595482e-08 1.589220e-08 1.566813e-08 1.566531e-08 1.583136e-08
1.597230e-08 1.595490e-08 1.533774e-08 1.447943e-08 1.644465e-08 1.482028e-08 1.639625e-08 1.462823e-08 1.561196e-08 1.573176e-08
1.513177e-08 1.562663e-08 1.524691e-08 1.549178e-08 1.612409e-08 1.504133e-08 1.514597e-08 1.511133e-08 1.612467e-08 1.465026e-08
1.529425e-08 1.606890e-08 1.543118e-08 1.582012e-08 1.604996e-08 1.549891e-08 1.524191e-08 1.471154e-08 1.602055e-08 1.564693e-08
1.486206e-08 1.474318e-08 1.530443e-08 1.485289e-08 1.555743e-08 1.603941e-08 1.464585e-08 1.571470e-08 1.589582e-08 1.627525e-08
1.656091e-08 1.596414e-08 1.627575e-08 1.609608e-08 1.554858e-08 1.610640e-08 1.570306e-08 1.671865e-08 1.609514e-08 1.685765e-08
1.656163e-08 1.796201e-08 1.658239e-08 1.528652e-08 1.541889e-08 1.700710e-08 1.562080e-08 1.623108e-08 1.596961e-08 1.620217e-08
1.690028e-08 1.695237e-08 1.725373e-08 1.656903e-08 1.614941e-08 1.643313e-08 1.623306e-08 1.654261e-08 1.630209e-08 1.615297e-08
1.574142e-08 1.603070e-08 1.667281e-08 1.560951e-08 1.625417e-08 1.737632e-08 1.733115e-08 1.814057e-08 1.714992e-08 1.603817e-08
1.624583e-08 1.679513e-08 1.563642e-08 1.575877e-08 1.790932e-08 1.628806e-08 1.643893e-08 1.659893e-08 1.650027e-08 1.604355e-08
1.497269e-08 1.596225e-08 1.522058e-08 1.489161e-08 1.554169e-08 1.674920e-08 1.572841e-08 1.546958e-08 1.509067e-08 1.543084e-08
1.449061e-08 1.603617e-08 1.637445e-08 1.654976e-08 1.483989e-08 1.581061e-08 1.454420e-08 1.633738e-08 1.521672e-08 1.575057e-08
1.595949e-08
1.506091e-08 1.378601e-08 1.470346e-08 1.541274e-08 1.625501e-08 1.490622e-08 1.600399e-08 1.608953e-08 1.508773e-08 1.596962e-08
1.637576e-08 1.628213e-08 1.630473e-08 1.651311e-08 1.646678e-08 1.517058e-08 1.738159e-08 1.602882e-08 1.723453e-08 1.605915e-08
1.719986e-08 1.573372e-08 1.572329e-08 1.607695e-08 1.649563e-08 1.595535e-08 1.612989e-08 1.668406e-08 1.650910e-08 1.608760e-08
1.626423e-08 1.652274e-08 1.787374e-08 1.620980e-08 1.572667e-08 1.706360e-08 1.779641e-08 1.698468e-08 1.581517e-08 1.748303e-08
1.701683e-08 1.704947e-08 1.696901e-08 1.658860e-08 1.756957e-08 1.713884e-08 1.654533e-08 1.644168e-08 1.639384e-08 1.750819e-08
1.636497e-08 1.712729e-08 1.657673e-08 1.665458e-08 1.651227e-08 1.704308e-08 1.645164e-08 1.770654e-08 1.619427e-08 1.758191e-08
1.603813e-08 1.672572e-08 1.699344e-08 1.625260e-08 1.692679e-08 1.602364e-08 1.662651e-08 1.538724e-08 1.578905e-08 1.644690e-08
1.529178e-08 1.579396e-08 1.586161e-08 1.659310e-08 1.603951e-08 1.541741e-08 1.489731e-08 1.469773e-08 1.556477e-08 1.618716e-08
1.605825e-08 1.461883e-08 1.557387e-08 1.569039e-08 1.559371e-08 1.564962e-08 1.578132e-08 1.564884e-08 1.535191e-08 1.418317e-08
1.436696e-08 1.512828e-08 1.546311e-08 1.560321e-08 1.545351e-08 1.543260e-08 1.531960e-08 1.579120e-08 1.538478e-08 1.592406e-08
1.632342e-08 1.528937e-08 1.566675e-08 1.511505e-08 1.563642e-08 1.534628e-08 1.558113e-08 1.528449e-08 1.578674e-08 1.554213e-08
1.643909e-08 1.532360e-08 1.695768e-08 1.564070e-08 1.624510e-08 1.659210e-08 1.666481e-08 1.589634e-08 1.636460e-08 1.647034e-08
1.638298e-08 1.706975e-08 1.620476e-08 1.602479e-08 1.675136e-08 1.666034e-08 1.670752e-08 1.770015e-08 1.838295e-08 1.646240e-08
1.617970e-08 1.784304e-08 1.784213e-08 1.630492e-08 1.714893e-08 1.721191e-08 1.732980e-08 1.655633e-08 1.639125e-08 1.571069e-08
1.676850e-08 1.717794e-08 1.626863e-08 1.785476e-08 1.598645e-08 1.718235e-08 1.773967e-08 1.704145e-08 1.679858e-08 1.708464e-08
1.607122e-08 1.621192e-08 1.746827e-08 1.692026e-08 1.685586e-08 1.726744e-08 1.734333e-08 1.674045e-08 1.599549e-08 1.636415e-08
1.706346e-08 1.606442e-08 1.620032e-08 1.634574e-08 1.571290e-08 1.633194e-08 1.633562e-08 1.632017e-08 1.569054e-08 1.616499e-08
1.593629e-08 1.469333e-08 1.724391e-08 1.591880e-08 1.525921e-08 1.636879e-08 1.516535e-08 1.571614e-08 1.556035e-08 1.587391e-08
1.445835e-08 1.582536e-08 1.458660e-08 1.625374e-08 1.544510e-08 1.520519e-08 1.659409e-08 1.628007e-08 1.642969e-08 1.627325e-08
1.598433e-08 1.559763e-08 1.732774e-08 1.532587e-08 1.535333e-08 1.631479e-08 1.578348e-08 1.591203e-08 1.562240e-08 1.683905e-08
1.719808e-08 1.665392e-08 1.620900e-08 1.604489e-08 1.587833e-08 1.508436e-08 1.588576e-08 1.591670e-08 1.582552e-08 1.670080e-08
1.572871e-08 1.647177e-08 1.729009e-08 1.627616e-08 1.622577e-08 1.686999e-08 1.600027e-08 1.654685e-08 1.625172e-08 1.639132e-08
1.654341e-08 1.617027e-08 1.679421e-08 1.640336e-08 1.585969e-08 1.523873e-08 1.558132e-08 1.617668e-08 1.629924e-08 1.714720e-08
1.691163e-08 1.642477e-08 1.666259e-08 1.688280e-08 1.690035e-08 1.595958e-08 1.696195e-08 1.580791e-08 1.530061e-08 1.669031e-08
1.575256e-08 1.537139e-08 1.608984e-08 1.591248e-08 1.521845e-08 1.681591e-08 1.586989e-08 1.655478e-08 1.541623e-08 1.516716e-08
1.677974e-08 1.510046e-08 1.626598e-08 1.555942e-08 1.595782e-08 1.475385e-08 1.434686e-08 1.517098e-08 1.436689e-08 1.546123e-08
1.629934e-08 1.528828e-08 1.592027e-08 1.569001e-08 1.529293e-08 1.471117e-08 1.482832e-08 1.462246e-08 1.511304e-08 1.456134e-08
1.541632e-08 1.578082e-08 1.544888e-08 1.517642e-08 1.532687e-08 1.534959e-08 1.513070e-08 1.589515e-08 1.561837e-08 1.565220e-08
1.510935e-08 1.496673e-08 1.493026e-08 1.703800e-08 1.606704e-08 1.606543e-08 1.614969e-08 1.528253e-08 1.673278e-08 1.606533e-08
1.566714e-08 1.653604e-08 1.557484e-08 1.550797e-08 1.570758e-08 1.516766e-08 1.607822e-08 1.648248e-08 1.658429e-08 1.618409e-08
1.612026e-08 1.649482e-08 1.668532e-08 1.585260e-08 1.698857e-08 1.668721e-08 1.591699e-08 1.713703e-08 1.663063e-08 1.557093e-08
1.583148e-08 1.611160e-08 1.586111e-08 1.601344e-08 1.736671e-08 1.711436e-08 1.650381e-08 1.593107e-08 1.626546e-08 1.686427e-08
1.593303e-08 1.738947e-08 1.787114e-08 1.599735e-08 1.751670e-08 1.684977e-08 1.660140e-08 1.700048e-08 1.676525e-08 1.716704e-08
1.600519e-08 1.666776e-08 1.631398e-08 1.647686e-08 1.553437e-08 1.562310e-08 1.657998e-08 1.617630e-08 1.747022e-08 1.525693e-08
1.579295e-08 1.696532e-08 1.593023e-08 1.600728e-08 1.598941e-08 1.576907e-08 1.547596e-08 1.521499e-08 1.597994e-08 1.581058e-08
1.585200e-08 1.566912e-08 1.559173e-08 1.620628e-08 1.612754e-08 1.653466e-08 1.431950e-08 1.510546e-08 1.584545e-08 1.579151e-08
1.506091e-08
1.689272e-08 1.647011e-08 1.694747e-08 1.599430e-08 1.660939e-08 1.558077e-08 1.476445e-08 1.655000e-08 1.588355e-08 1.714294e-08
1.671976e-08 1.659534e-08 1.551242e-08 1.725636e-08 1.487815e-08 1.690776e-08 1.623452e-08 1.639656e-08 1.723585e-08 1.588628e-08
1.628643e-08 1.652534e-08 1.554268e-08 1.630642e-08 1.670030e-08 1.576306e-08 1.719948e-08 1.565991e-08 1.685967e-08 1.692687e-08
1.695693e-08 1.616993e-08 1.737149e-08 1.732330e-08 1.740834e-08 1.787837e-08 1.717694e-08 1.659095e-08 1.710399e-08 1.655756e-08
1.669023e-08 1.707871e-08 1.772145e-08 1.628528e-08 1.704281e-08 1.681162e-08 1.681162e-08 1.785344e-08 1.829871e-08 1.719399e-08
1.693942e-08 1.641746e-08 1.700331e-08 1.705697e-08 1.654015e-08 1.700310e-08 1.713907e-08 1.597154e-08 1.600008e-08 1.571273e-08
1.610471e-08 1.663578e-08 1.609957e-08 1.692833e-08 1.707790e-08 1.701383e-08 1.712753e-08 1.569049e-08 1.633591e-08 1.644011e-08
1.754832e-08 1.623601e-08 1.617828e-08 1.566779e-08 1.582861e-08 1.542871e-08 1.539525e-08 1.476493e-08 1.563724e-08 1.541901e-08
1.557513e-08 1.674716e-08 1.602375e-08 1.625585e-08 1.543763e-08 1.523241e-08 1.622224e-08 1.469735e-08 1.623197e-08 1.699825e-08
1.670916e-08 1.590115e-08 1.594620e-08 1.665704e-08 1.532877e-08 1.566267e-08 1.527008e-08 1.582299e-08 1.585003e-08 1.584355e-08
1.621720e-08 1.584471e-08 1.684691e-08 1.604788e-08 1.602231e-08 1.719018e-08 1.496667e-08 1.567211e-08 1.598051e-08 1.666549e-08
1.605714e-08 1.516169e-08 1.601992e-08 1.589564e-08 1.610820e-08 1.723969e-08 1.584994e-08 1.649544e-08 1.602703e-08 1.629788e-08
1.571284e-08 1.719741e-08 1.752246e-08 1.703103e-08 1.735384e-08 1.637039e-08 1.702187e-08 1.616239e-08 1.665359e-08 1.673435e-08
1.757205e-08 1.704811e-08 1.770711e-08 1.763563e-08 1.712246e-08 1.581010e-08 1.748459e-08 1.633396e-08 1.704634e-08 1.694929e-08
1.705576e-08 1.608428e-08 1.641018e-08 1.761037e-08 1.642657e-08 1.663898e-08 1.650323e-08 1.755637e-08 1.577951e-08 1.627632e-08
1.631297e-08 1.681875e-08 1.670629e-08 1.669101e-08 1.642268e-08 1.691576e-08 1.635621e-08 1.714209e-08 1.782055e-08 1.718237e-08
1.632748e-08 1.618636e-08 1.526672e-08 1.571435e-08 1.690862e-08 1.551013e-08 1.595566e-08 1.640623e-08 1.572796e-08 1.655215e-08
1.560923e-08 1.719112e-08 1.546363e-08 1.618920e-08 1.518739e-08 1.569045e-08 1.684262e-08 1.536252e-08 1.678949e-08 1.583794e-08
1.615214e-08 1.585936e-08 1.619140e-08 1.640120e-08 1.485390e-08 1.552427e-08 1.781236e-08 1.543990e-08 1.591386e-08 1.677169e-08
1.660842e-08 1.521731e-08 1.611403e-08 1.573885e-08 1.576904e-08 1.620344e-08 1.551010e-08 1.573488e-08 1.700994e-08 1.718060e-08
1.693077e-08 1.559298e-08 1.575432e-08 1.555254e-08 1.680211e-08 1.646553e-08 1.569557e-08 1.660994e-08 1.655157e-08 1.716462e-08
1.551696e-08 1.706184e-08 1.718314e-08 1.791949e-08 1.629577e-08 1.599761e-08 1.536473e-08 1.632945e-08 1.654194e-08 1.605591e-08
1.661875e-08 1.624463e-08 1.766601e-08 1.608559e-08 1.629515e-08 1.653410e-08 1.620540e-08 1.581217e-08 1.769286e-08 1.659111e-08
1.563783e-08 1.604337e-08 1.602468e-08 1.624532e-08 1.615152e-08 1.518457e-08 1.598492e-08 1.652028e-08 1.646102e-08 1.609705e-08
1.603055e-08 1.596342e-08 1.606641e-08 1.618685e-08 1.638340e-08 1.649568e-08 1.579379e-08 1.624150e-08 1.576443e-08 1.556038e-08
1.594923e-08 1.552611e-08 1.551001e-08 1.474951e-08 1.546448e-08 1.602969e-08 1.464217e-08 1.544606e-08 1.554162e-08 1.452732e-08
1.582844e-08 1.663573e-08 1.537628e-08 1.491658e-08 1.629158e-08 1.425971e-08 1.571473e-08 1.562496e-08 1.485734e-08 1.550944e-08
1.524405e-08 1.508314e-08 1.547102e-08 1.518179e-08 1.541856e-08 1.713048e-08 1.476460e-08 1.577046e-08 1.590598e-08 1.571238e-08
1.528721e-08 1.570531e-08 1.540633e-08 1.605429e-08 1.503206e-08 1.567515e-08 1.634555e-08 1.478714e-08 1.572917e-08 1.674061e-08
1.550542e-08 1.661650e-08 1.576093e-08 1.660369e-08 1.557320e-08 1.540422e-08 1.598059e-08 1.595867e-08 1.613812e-08 1.580628e-08
1.607283e-08 1.579579e-08 1.662617e-08 1.634697e-08 1.558382e-08 1.680541e-08 1.650258e-08 1.697973e-08 1.675254e-08 1.715276e-08
1.699850e-08 1.707630e-08 1.651111e-08 1.735061e-08 1.743143e-08 1.693893e-08 1.751630e-08 1.671845e-08 1.663520e-08 1.576114e-08
1.645981e-08 1.703227e-08 1.695651e-08 1.799609e-08 1.711740e-08 1.614780e-08 1.636906e-08 1.647608e-08 1.746426e-08 1.742848e-08
1.663697e-08 1.636066e-08 1.659713e-08 1.611158e-08 1.676213e-08 1.623394e-08 1.643283e-08 1.583135e-08 1.591640e-08 1.616185e-08
1.576689e-08 1.554642e-08 1.739133e-08 1.582496e-08 1.767875e-08 1.543626e-08 1.572021e-08 1.738791e-08 1.528540e-08 1.579101e-08
1.607686e-08 1.519966e-08 1.583377e-08 1.640385e-08 1.644153e-08 1.441264e-08 1.616922e-08 1.529888e-08 1.546925e-08 1.553319e-08
1.689272e-08
1.461455e-08 1.622516e-08 1.640911e-08 1.621950e-08 1.707510e-08 1.551670e-08 1.593820e-08 1.604901e-08 1.546849e-08 1.535624e-08
1.585004e-08 1.587173e-08 1.701550e-08 1.536054e-08 1.675697e-08 1.560244e-08 1.574866e-08 1.621362e-08 1.658298e-08 1.705834e-08
1.655938e-08 1.690828e-08 1.621134e-08 1.737291e-08 1.665911e-08 1.568942e-08 1.724190e-08 1.691668e-08 1.673199e-08 1.604313e-08
1.663927e-08 1.820385e-08 1.601730e-08 1.590395e-08 1.717241e-08 1.651223e-08 1.677638e-08 1.607033e-08 1.664132e-08 1.673887e-08
1.674961e-08 1.859094e-08 1.741687e-08 1.733535e-08 1.763892e-08 1.789138e-08 1.672847e-08 1.726380e-08 1.599501e-08 1.648969e-08
1.611950e-08 1.710169e-08 1.762176e-08 1.824188e-08 1.606485e-08 1.564049e-08 1.708840e-08 1.697858e-08 1.638151e-08 1.672061e-08
1.729794e-08 1.657568e-08 1.609935e-08 1.655198e-08 1.541547e-08 1.693605e-08 1.685546e-08 1.661437e-08 1.576579e-08 1.633697e-08
1.653486e-08 1.591457e-08 1.605313e-08 1.540376e-08 1.696545e-08 1.609388e-08 1.544898e-08 1.588788e-08 1.613031e-08 1.491581e-08
1.597027e-08 1.723933e-08 1.623733e-08 1.635147e-08 1.735498e-08 1.632181e-08 1.644661e-08 1.615512e-08 1.470975e-08 1.620277e-08
1.530439e-08 1.643100e-08 1.603724e-08 1.543824e-08 1.694921e-08 1.575095e-08 1.691624e-08 1.643370e-08 1.554200e-08 1.641718e-08
1.591434e-08 1.623389e-08 1.586111e-08 1.623127e-08 1.646847e-08 1.522678e-08 1.593555e-08 1.682291e-08 1.539727e-08 1.598403e-08
1.691492e-08 1.631056e-08 1.593627e-08 1.591519e-08 1.600393e-08 1.656600e-08 1.667157e-08 1.599876e-08 1.711882e-08 1.605166e-08
1.636887e-08 1.622861e-08 1.644992e-08 1.672382e-08 1.654520e-08 1.720498e-08 1.829049e-08 1.739119e-08 1.711923e-08 1.753919e-08
1.699033e-08 1.767205e-08 1.657987e-08 1.731067e-08 1.661488e-08 1.686712e-08 1.653637e-08 1.779504e-08 1.721484e-08 1.719963e-08
1.721784e-08 1.650449e-08 1.662066e-08 1.720345e-08 1.650221e-08 1.837532e-08 1.606640e-08 1.730137e-08 1.702580e-08 1.737003e-08
1.596317e-08 1.614542e-08 1.734222e-08 1.779642e-08 1.705200e-08 1.641071e-08 1.611934e-08 1.795144e-08 1.776976e-08 1.657296e-08
1.668426e-08 1.692982e-08 1.594277e-08 1.745852e-08 1.695317e-08 1.603314e-08 1.555249e-08 1.555663e-08 1.526744e-08 1.600827e-08
1.663277e-08 1.598790e-08 1.671298e-08 1.560367e-08 1.549728e-08 1.565835e-08 1.727928e-08 1.559527e-08 1.506061e-08 1.465802e-08
1.490510e-08 1.664820e-08 1.673316e-08 1.465080e-08 1.541865e-08 1.611179e-08 1.542142e-08 1.512446e-08 1.585230e-08 1.659721e-08
1.543399e-08 1.588753e-08 1.554615e-08 1.606089e-08 1.640730e-08 1.538167e-08 1.597944e-08 1.723731e-08 1.586094e-08 1.606593e-08
1.685403e-08 1.610083e-08 1.586422e-08 1.541330e-08 1.593922e-08 1.588388e-08 1.626541e-08 1.593276e-08 1.638521e-08 1.670455e-08
1.632773e-08 1.693012e-08 1.577592e-08 1.766067e-08 1.559011e-08 1.653916e-08 1.600928e-08 1.680691e-08 1.789159e-08 1.666096e-08
1.699418e-08 1.744991e-08 1.609541e-08 1.591238e-08 1.608435e-08 1.679874e-08 1.676093e-08 1.649502e-08 1.668493e-08 1.714635e-08
1.663734e-08 1.686306e-08 1.723765e-08 1.654464e-08 1.572704e-08 1.661044e-08 1.708750e-08 1.624650e-08 1.679180e-08 1.560463e-08
1.609898e-08 1.675408e-08 1.671363e-08 1.525624e-08 1.577728e-08 1.540518e-08 1.654970e-08 1.602420e-08 1.515505e-08 1.544390e-08
1.511117e-08 1.577388e-08 1.609216e-08 1.585495e-08 1.517108e-08 1.552965e-08 1.617263e-08 1.529057e-08 1.529268e-08 1.448667e-08
1.453897e-08 1.476507e-08 1.634231e-08 1.488967e-08 1.603843e-08 1.599541e-08 1.529772e-08 1.519436e-08 1.539974e-08 1.556497e-08
1.646684e-08 1.531212e-08 1.486762e-08 1.561950e-08 1.533349e-08 1.621246e-08 1.570765e-08 1.577270e-08 1.544525e-08 1.556363e-08
1.511457e-08 1.572426e-08 1.438982e-08 1.584517e-08 1.554045e-08 1.610504e-08 1.649303e-08 1.568599e-08 1.653133e-08 1.712383e-08
1.646165e-08 1.677635e-08 1.627739e-08 1.556460e-08 1.575087e-08 1.625670e-08 1.586048e-08 1.598499e-08 1.616018e-08 1.627350e-08
1.587898e-08 1.622951e-08 1.637624e-08 1.615631e-08 1.660940e-08 1.633841e-08 1.609822e-08 1.699095e-08 1.589481e-08 1.658011e-08
1.687962e-08 1.719786e-08 1.704920e-08 1.738058e-08 1.732927e-08 1.632280e-08 1.592181e-08 1.737562e-08 1.671827e-08 1.845287e-08
1.731337e-08 1.620095e-08 1.592070e-08 1.669076e-08 1.554986e-08 1.589872e-08 1.644299e-08 1.599725e-08 1.808427e-08 1.689956e-08
1.639284e-08 1.615902e-08 1.606230e-08 1.629181e-08 1.592075e-08 1.730587e-08 1.650712e-08 1.634519e-08 1.599898e-08 1.662343e-08
1.645602e-08 1.625129e-08 1.596666e-08 1.561900e-08 1.662793e-08 1.638662e-08 1.627187e-08 1.671353e-08 1.633757e-08 1.635631e-08
1.584486e-08 1.630436e-08 1.723729e-08 1.562244e-08 1.632398e-08 1.609030e-08 1.583274e-08 1.678759e-08 1.659213e-08 1.694544e-08
1.461455e-08
1.684715e-08 1.500706e-08 1.631801e-08 1.710579e-08 1.532539e-08 1.578187e-08 1.519691e-08 1.602200e-08 1.505828e-08 1.602907e-08
1.605959e-08 1.546449e-08 1.572303e-08 1.637789e-08 1.714149e-08 1.682909e-08 1.608147e-08 1.589285e-08 1.706094e-08 1.626022e-08
1.677476e-08 1.662812e-08 1.612062e-08 1.693992e-08 1.791586e-08 1.664762e-08 1.617404e-08 1.728649e-08 1.605868e-08 1.671362e-08
1.616550e-08 1.819577e-08 1.624147e-08 1.618309e-08 1.737020e-08 1.720785e-08 1.811203e-08 1.793771e-08 1.769537e-08 1.599413e-08
1.848916e-08 1.648196e-08 1.695797e-08 1.676287e-08 1.664057e-08 1.634412e-08 1.662143e-08 1.775382e-08 1.657367e-08 1.643571e-08
1.768624e-08 1.561632e-08 1.663994e-08 1.694111e-08 1.637677e-08 1.679822e-08 1.770348e-08 1.663774e-08 1.602656e-08 1.718645e-08
1.688556e-08 1.610949e-08 1.621033e-08 1.650520e-08 1.683322e-08 1.624472e-08 1.666009e-08 1.705675e-08 1.541802e-08 1.718321e-08
1.623439e-08 1.538873e-08 1.519151e-08 1.526428e-08 1.552425e-08 1.615616e-08 1.629036e-08 1.579708e-08 1.606118e-08 1.581168e-08
1.604116e-08 1.555968e-08 1.570991e-08 1.459129e-08 1.558209e-08 1.598064e-08 1.575349e-08 1.598770e-08 1.516740e-08 1.537458e-08
1.604730e-08 1.544457e-08 1.508187e-08 1.599876e-08 1.553909e-08 1.667537e-08 1.544940e-08 1.542896e-08 1.568838e-08 1.544436e-08
1.515665e-08 1.580072e-08 1.748557e-08 1.549815e-08 1.656838e-08 1.605976e-08 1.706622e-08 1.687846e-08 1.641972e-08 1.673521e-08
1.648188e-08 1.571097e-08 1.666067e-08 1.744547e-08 1.646062e-08 1.665455e-08 1.613730e-08 1.592405e-08 1.679025e-08 1.777658e-08
1.756542e-08 1.717593e-08 1.703662e-08 1.716528e-08 1.681843e-08 1.690003e-08 1.632340e-08 1.716084e-08 1.711659e-08 1.606992e-08
1.655594e-08 1.682058e-08 1.727356e-08 1.691430e-08 1.727186e-08 1.829819e-08 1.720993e-08 1.680846e-08 1.725083e-08 1.727852e-08
1.672713e-08 1.725466e-08 1.777644e-08 1.715272e-08 1.737587e-08 1.677622e-08 1.799561e-08 1.670943e-08 1.669674e-08 1.841877e-08
1.703619e-08 1.712058e-08 1.773648e-08 1.612774e-08 1.651412e-08 1.575977e-08 1.679931e-08 1.757353e-08 1.717872e-08 1.636964e-08
1.624840e-08 1.697111e-08 1.615788e-08 1.714498e-08 1.607214e-08 1.771360e-08 1.585803e-08 1.548061e-08 1.624042e-08 1.815486e-08
1.660670e-08 1.597561e-08 1.624379e-08 1.748050e-08 1.633062e-08 1.590709e-08 1.618454e-08 1.657160e-08 1.582447e-08 1.475698e-08
1.498794e-08 1.544214e-08 1.679295e-08 1.590907e-08 1.650870e-08 1.637672e-08 1.662190e-08 1.568483e-08 1.755453e-08 1.540348e-08
1.527925e-08 1.777374e-08 1.697914e-08 1.578439e-08 1.661110e-08 1.742753e-08 1.552798e-08 1.664766e-08 1.628179e-08 1.572003e-08
1.697751e-08 1.551165e-08 1.692228e-08 1.677986e-08 1.578589e-08 1.789037e-08 1.653850e-08 1.622779e-08 1.598745e-08 1.602764e-08
1.630307e-08 1.663607e-08 1.630587e-08 1.674841e-08 1.654714e-08 1.613466e-08 1.678706e-08 1.678992e-08 1.628933e-08 1.640054e-08
1.694062e-08 1.694142e-08 1.690053e-08 1.641911e-08 1.678483e-08 1.632263e-08 1.660988e-08 1.676391e-08 1.671264e-08 1.689784e-08
1.669142e-08 1.686672e-08 1.669629e-08 1.662639e-08 1.710101e-08 1.636334e-08 1.702605e-08 1.676132e-08 1.633969e-08 1.649761e-08
1.588955e-08 1.590762e-08 1.653054e-08 1.546919e-08 1.612252e-08 1.604277e-08 1.557740e-08 1.568330e-08 1.601577e-08 1.670383e-08
1.606981e-08 1.641456e-08 1.581483e-08 1.554548e-08 1.481975e-08 1.600373e-08 1.581321e-08 1.598251e-08 1.570267e-08 1.611948e-08
1.580444e-08 1.514186e-08 1.611045e-08 1.498091e-08 1.595603e-08 1.599524e-08 1.525937e-08 1.453223e-08 1.499794e-08 1.581641e-08
1.613433e-08 1.503078e-08 1.558798e-08 1.513195e-08 1.539235e-08 1.526139e-08 1.495998e-08 1.445241e-08 1.482063e-08 1.627168e-08
1.495671e-08 1.634183e-08 1.571950e-08 1.668294e-08 1.535208e-08 1.594452e-08 1.524210e-08 1.596324e-08 1.662358e-08 1.586646e-08
1.628936e-08 1.623170e-08 1.566169e-08 1.630450e-08 1.602866e-08 1.708040e-08 1.591238e-08 1.628801e-08 1.642952e-08 1.759852e-08
1.609304e-08 1.564567e-08 1.670359e-08 1.610706e-08 1.747249e-08 1.762478e-08 1.671833e-08 1.632663e-08 1.755532e-08 1.690899e-08
1.663220e-08 1.667787e-08 1.622028e-08 1.730247e-08 1.588098e-08 1.695644e-08 1.699493e-08 1.710811e-08 1.664124e-08 1.728606e-08
1.671386e-08 1.697724e-08 1.604922e-08 1.690584e-08 1.684059e-08 1.630447e-08 1.714641e-08 1.702184e-08 1.626258e-08 1.700300e-08
1.575517e-08 1.828820e-08 1.752255e-08 1.656757e-08 1.653640e-08 1.738400e-08 1.690051e-08 1.761562e-08 1.750278e-08 1.673623e-08
1.676229e-08 1.651080e-08 1.661367e-08 1.789367e-08 1.729032e-08 1.595333e-08 1.658522e-08 1.648127e-08 1.640302e-08 1.555383e-08
1.558643e-08 1.618019e-08 1.509113e-08 1.584407e-08 1.547167e-08 1.581068e-08 1.700103e-08 1.481747e-08 1.609162e-08 1.574764e-08
1.684715e-08
1.626053e-08 1.691697e-08 1.645448e-08 1.571391e-08 1.564545e-08 1.519034e-08 1.537199e-08 1.667853e-08 1.654048e-08 1.608339e-08
1.641344e-08 1.565942e-08 1.657994e-08 1.634751e-08 1.590972e-08 1.663664e-08 1.586039e-08 1.623311e-08 1.585247e-08 1.609087e-08
1.625901e-08 1.755254e-08 1.649215e-08 1.722679e-08 1.640005e-08 1.668154e-08 1.750087e-08 1.692041e-08 1.793319e-08 1.636539e-08
1.630312e-08 1.685081e-08 1.693690e-08 1.827055e-08 1.690236e-08 1.843290e-08 1.757911e-08 1.771759e-08 1.718751e-08 1.604934e-08
1.722943e-08 1.717708e-08 1.688027e-08 1.583586e-08 1.627342e-08 1.769152e-08 1.699076e-08 1.728614e-08 1.643909e-08 1.678037e-08
1.726075e-08 1.726244e-08 1.721431e-08 1.757170e-08 1.625856e-08 1.696171e-08 1.663676e-08 1.745668e-08 1.634992e-08 1.815462e-08
1.759665e-08 1.668433e-08 1.681006e-08 1.741064e-08 1.578540e-08 1.681970e-08 1.709164e-08 1.639079e-08 1.575363e-08 1.699101e-08
1.560456e-08 1.697023e-08 1.650570e-08 1.631044e-08 1.510044e-08 1.717237e-08 1.616683e-08 1.605521e-08 1.646486e-08 1.649806e-08
1.585201e-08 1.659021e-08 1.552720e-08 1.679847e-08 1.602123e-08 1.695412e-08 1.583082e-08 1.640321e-08 1.575164e-08 1.647756e-08
1.549480e-08 1.535227e-08 1.520031e-08 1.573539e-08 1.654456e-08 1.610122e-08 1.477606e-08 1.754091e-08 1.498992e-08 1.592155e-08
1.580215e-08 1.529014e-08 1.541662e-08 1.681988e-08 1.593361e-08 1.607057e-08 1.781006e-08 1.593363e-08 1.635573e-08 1.596229e-08
1.582797e-08 1.704854e-08 1.648621e-08 1.608080e-08 1.660178e-08 1.740298e-08 1.719856e-08 1.773802e-08 1.723445e-08 1.687529e-08
1.599744e-08 1.667132e-08 1.619515e-08 1.756813e-08 1.653611e-08 1.798340e-08 1.827620e-08 1.847003e-08 1.567099e-08 1.697519e-08
1.640359e-08 1.765647e-08 1.743960e-08 1.676568e-08 1.782528e-08 1.651814e-08 1.740120e-08 1.692542e-08 1.669733e-08 1.703660e-08
1.693145e-08 1.748146e-08 1.666031e-08 1.721048e-08 1.630137e-08 1.746595e-08 1.894063e-08 1.678706e-08 1.681811e-08 1.612778e-08
1.670706e-08 1.782086e-08 1.688068e-08 1.565468e-08 1.736884e-08 1.818733e-08 1.581655e-08 1.626009e-08 1.663339e-08 1.773876e-08
1.736161e-08 1.719697e-08 1.710773e-08 1.726210e-08 1.660768e-08 1.677034e-08 1.699990e-08 1.640152e-08 1.608741e-08 1.717509e-08
1.619548e-08 1.645170e-08 1.598246e-08 1.652899e-08 1.595058e-08 1.640580e-08 1.592173e-08 1.611155e-08 1.505640e-08 1.655016e-08
1.623338e-08 1.655237e-08 1.694441e-08 1.584391e-08 1.550078e-08 1.669173e-08 1.674677e-08 1.505718e-08 1.593476e-08 1.520331e-08
1.640069e-08 1.586629e-08 1.595580e-08 1.550533e-08 1.596281e-08 1.670453e-08 1.581111e-08 1.663747e-08 1.606276e-08 1.594786e-08
1.651991e-08 1.635600e-08 1.713116e-08 1.582011e-08 1.586516e-08 1.694945e-08 1.638755e-08 1.531714e-08 1.653050e-08 1.674366e-08
1.770374e-08 1.678354e-08 1.575849e-08 1.705722e-08 1.683277e-08 1.582466e-08 1.616639e-08 1.776554e-08 1.757177e-08 1.756483e-08
1.680898e-08 1.792066e-08 1.622095e-08 1.767695e-08 1.647472e-08 1.709511e-08 1.774208e-08 1.684864e-08 1.642576e-08 1.674214e-08
1.685173e-08 1.599281e-08 1.656625e-08 1.735180e-08 1.553883e-08 1.640962e-08 1.667033e-08 1.590671e-08 1.683113e-08 1.692475e-08
1.610351e-08 1.606048e-08 1.652140e-08 1.582027e-08 1.558588e-08 1.611956e-08 1.615472e-08 1.702353e-08 1.649747e-08 1.554575e-08
1.526966e-08 1.588578e-08 1.627432e-08 1.545526e-08 1.584422e-08 1.575049e-08 1.611392e-08 1.706548e-08 1.546083e-08 1.593164e-08
1.605057e-08 1.670093e-08 1.620392e-08 1.594619e-08 1.608564e-08 1.663141e-08 1.686850e-08 1.524995e-08 1.569434e-08 1.520589e-08
1.555240e-08 1.567650e-08 1.531973e-08 1.647347e-08 1.634908e-08 1.543431e-08 1.471621e-08 1.658367e-08 1.537487e-08 1.699514e-08
1.514681e-08 1.640436e-08 1.522216e-08 1.621675e-08 1.609947e-08 1.564147e-08 1.616456e-08 1.515030e-08 1.599919e-08 1.571086e-08
1.585340e-08 1.576754e-08 1.540313e-08 1.706203e-08 1.597384e-08 1.692221e-08 1.599077e-08 1.707863e-08 1.702597e-08 1.727648e-08
1.640464e-08 1.608203e-08 1.666490e-08 1.631700e-08 1.676524e-08 1.628365e-08 1.639974e-08 1.628310e-08 1.650467e-08 1.637178e-08
1.671515e-08 1.751408e-08 1.795953e-08 1.697573e-08 1.653647e-08 1.711083e-08 1.706274e-08 1.748118e-08 1.742328e-08 1.621053e-08
1.789260e-08 1.651708e-08 1.645412e-08 1.613814e-08 1.673019e-08 1.718847e-08 1.678587e-08 1.689403e-08 1.624296e-08 1.602801e-08
1.697217e-08 1.733401e-08 1.656660e-08 1.632358e-08 1.647103e-08 1.716154e-08 1.709953e-08 1.693761e-08 1.659010e-08 1.553260e-08
1.627090e-08 1.597684e-08 1.636286e-08 1.547238e-08 1.640223e-08 1.532652e-08 1.582111e-08 1.498144e-08 1.759970e-08 1.775615e-08
1.619141e-08 1.572120e-08 1.595131e-08 1.621744e-08 1.733472e-08 1.614734e-08 1.634376e-08 1.558816e-08 1.644823e-08 1.668202e-08
1.626053e-08
1.541136e-08 1.636351e-08 1.589039e-08 1.625760e-08 1.542210e-08 1.672749e-08 1.632416e-08 1.638279e-08 1.714501e-08 1.707553e-08
1.611829e-08 1.550140e-08 1.622667e-08 1.583810e-08 1.633284e-08 1.629279e-08 1.663701e-08 1.687482e-08 1.684690e-08 1.611893e-08
1.825320e-08 1.579821e-08 1.670251e-08 1.747733e-08 1.678470e-08 1.635065e-08 1.659709e-08 1.746001e-08 1.810015e-08 1.795959e-08
1.735776e-08 1.704329e-08 1.706403e-08 1.711342e-08 1.703367e-08 1.710118e-08 1.743652e-08 1.647067e-08 1.610735e-08 1.723909e-08
1.733108e-08 1.723068e-08 1.674507e-08 1.773560e-08 1.794504e-08 1.720225e-08 1.710579e-08 1.718716e-08 1.695363e-08 1.741004e-08
1.664362e-08 1.826471e-08 1.717416e-08 1.676384e-08 1.694557e-08 1.717101e-08 1.797933e-08 1.690237e-08 1.777355e-08 1.694463e-08
1.712038e-08 1.749368e-08 1.707535e-08 1.599552e-08 1.656948e-08 1.647054e-08 1.624971e-08 1.674752e-08 1.696250e-08 1.689322e-08
1.553577e-08 1.646347e-08 1.626986e-08 1.671959e-08 1.644934e-08 1.704256e-08 1.541404e-08 1.635698e-08 1.682913e-08 1.664919e-08
1.572200e-08 1.517738e-08 1.611929e-08 1.669310e-08 1.751666e-08 1.550890e-08 1.633580e-08 1.669946e-08 1.663518e-08 1.584617e-08
1.530349e-08 1.642135e-08 1.693037e-08 1.505536e-08 1.770049e-08 1.556837e-08 1.522766e-08 1.577717e-08 1.597933e-08 1.600136e-08
1.623609e-08 1.686944e-08 1.725378e-08 1.531186e-08 1.633891e-08 1.543900e-08 1.724299e-08 1.641117e-08 1.534817e-08 1.703640e-08
1.693217e-08 1.628799e-08 1.719224e-08 1.720448e-08 1.636054e-08 1.625233e-08 1.788731e-08 1.726578e-08 1.712062e-08 1.699655e-08
1.690437e-08 1.802169e-08 1.728748e-08 1.723256e-08 1.715770e-08 1.705924e-08 1.569614e-08 1.643689e-08 1.708706e-08 1.653258e-08
1.699262e-08 1.703367e-08 1.737510e-08 1.730350e-08 1.735943e-08 1.824649e-08 1.776177e-08 1.668844e-08 1.796848e-08 1.637456e-08
1.737727e-08 1.801092e-08 1.751631e-08 1.668733e-08 1.717336e-08 1.754642e-08 1.745966e-08 1.724880e-08 1.659518e-08 1.631637e-08
1.673579e-08 1.671056e-08 1.823086e-08 1.753955e-08 1.813692e-08 1.848038e-08 1.748858e-08 1.762280e-08 1.734954e-08 1.755216e-08
1.711722e-08 1.668817e-08 1.708889e-08 1.725571e-08 1.681661e-08 1.693106e-08 1.603834e-08 1.621600e-08 1.554613e-08 1.650887e-08
1.646696e-08 1.616618e-08 1.567512e-08 1.787639e-08 1.599999e-08 1.650194e-08 1.668130e-08 1.565166e-08 1.633941e-08 1.498748e-08
1.613138e-08 1.561031e-08 1.550007e-08 1.575566e-08 1.526181e-08 1.607850e-08 1.632310e-08 1.757793e-08 1.726664e-08 1.606519e-08
1.651916e-08 1.640278e-08 1.667859e-08 1.659101e-08 1.568045e-08 1.672257e-08 1.626958e-08 1.658826e-08 1.639360e-08 1.742226e-08
1.663698e-08 1.732166e-08 1.636719e-08 1.678570e-08 1.647449e-08 1.655611e-08 1.673128e-08 1.703427e-08 1.756321e-08 1.595243e-08
1.768742e-08 1.589083e-08 1.631633e-08 1.570024e-08 1.602181e-08 1.669633e-08 1.633231e-08 1.735397e-08 1.540089e-08 1.635883e-08
1.702715e-08 1.793858e-08 1.589507e-08 1.567408e-08 1.680432e-08 1.624986e-08 1.695274e-08 1.645077e-08 1.738327e-08 1.598117e-08
1.582294e-08 1.696500e-08 1.629763e-08 1.591340e-08 1.581517e-08 1.702509e-08 1.615716e-08 1.829167e-08 1.559676e-08 1.692564e-08
1.709189e-08 1.613275e-08 1.648320e-08 1.677231e-08 1.600564e-08 1.615873e-08 1.594214e-08 1.726369e-08 1.554653e-08 1.600666e-08
1.580474e-08 1.522307e-08 1.607991e-08 1.535020e-08 1.634123e-08 1.635724e-08 1.502202e-08 1.598977e-08 1.614292e-08 1.469597e-08
1.543814e-08 1.554264e-08 1.656373e-08 1.635406e-08 1.604361e-08 1.582285e-08 1.573700e-08 1.566817e-08 1.587300e-08 1.671806e-08
1.537805e-08 1.639937e-08 1.631586e-08 1.621276e-08 1.596022e-08 1.626703e-08 1.544605e-08 1.596798e-08 1.628894e-08 1.470092e-08
1.546604e-08 1.547821e-08 1.507843e-08 1.616200e-08 1.671968e-08 1.689677e-08 1.748362e-08 1.634639e-08 1.626882e-08 1.597003e-08
1.682901e-08 1.619655e-08 1.583128e-08 1.576156e-08 1.592769e-08 1.690968e-08 1.756114e-08 1.719212e-08 1.724187e-08 1.660866e-08
1.702925e-08 1.657239e-08 1.623670e-08 1.669735e-08 1.591349e-08 1.676431e-08 1.585531e-08 1.751950e-08 1.703115e-08 1.605670e-08
1.723351e-08 1.717981e-08 1.814094e-08 1.679701e-08 1.729557e-08 1.721505e-08 1.665511e-08 1.710919e-08 1.806820e-08 1.710574e-08
1.582191e-08 1.652355e-08 1.646489e-08 1.815764e-08 1.683993e-08 1.610417e-08 1.664884e-08 1.596733e-08 1.707105e-08 1.649713e-08
1.674331e-08 1.643850e-08 1.619262e-08 1.632501e-08 1.732046e-08 1.679365e-08 1.729818e-08 1.566283e-08 1.778649e-08 1.643918e-08
1.597516e-08 1.737488e-08 1.617494e-08 1.560620e-08 1.670824e-08 1.666382e-08 1.600761e-08 1.591428e-08 1.613511e-08 1.623048e-08
1.677016e-08 1.670865e-08 1.623730e-08 1.570065e-08 1.562388e-08 1.499858e-08 1.531546e-08 1.666900e-08 1.744373e-08 1.511687e-08
1.541136e-08
1.562227e-08 1.540458e-08 1.560462e-08 1.611509e-08 1.582892e-08 1.666358e-08 1.649607e-08 1.669474e-08 1.748845e-08 1.513293e-08
1.607697e-08 1.677500e-08 1.579847e-08 1.544604e-08 1.554200e-08 1.779652e-08 1.759862e-08 1.600686e-08 1.682892e-08 1.768440e-08
1.715053e-08 1.710559e-08 1.630507e-08 1.558230e-08 1.707492e-08 1.671731e-08 1.673046e-08 1.785791e-08 1.719643e-08 1.869546e-08
1.761964e-08 1.825762e-08 1.732712e-08 1.667583e-08 1.739000e-08 1.689063e-08 1.740069e-08 1.719295e-08 1.641941e-08 1.760451e-08
1.656404e-08 1.739148e-08 1.724147e-08 1.781287e-08 1.751329e-08 1.691396e-08 1.731893e-08 1.666301e-08 1.747010e-08 1.715490e-08
1.613403e-08 1.679062e-08 1.669269e-08 1.765131e-08 1.695670e-08 1.691144e-08 1.743823e-08 1.638136e-08 1.723277e-08 1.627284e-08
1.706205e-08 1.533581e-08 1.665085e-08 1.717884e-08 1.697497e-08 1.632365e-08 1.625608e-08 1.655369e-08 1.715556e-08 1.665155e-08
1.744601e-08 1.700373e-08 1.594112e-08 1.633563e-08 1.747712e-08 1.626805e-08 1.704479e-08 1.617320e-08 1.651352e-08 1.662099e-08
1.695926e-08 1.533471e-08 1.521787e-08 1.610004e-08 1.730814e-08 1.491726e-08 1.701718e-08 1.660819e-08 1.557617e-08 1.743404e-08
1.643100e-08 1.691212e-08 1.742572e-08 1.599447e-08 1.705447e-08 1.575806e-08 1.672278e-08 1.638399e-08 1.721903e-08 1.600201e-08
1.665624e-08 1.666471e-08 1.644832e-08 1.601918e-08 1.607646e-08 1.661011e-08 1.622900e-08 1.668530e-08 1.581516e-08 1.694893e-08
1.729560e-08 1.695400e-08 1.688334e-08 1.758984e-08 1.749865e-08 1.745994e-08 1.717227e-08 1.645657e-08 1.708941e-08 1.698566e-08
1.614988e-08 1.800873e-08 1.590610e-08 1.641561e-08 1.714890e-08 1.730220e-08 1.784485e-08 1.632628e-08 1.851629e-08 1.787044e-08
1.669494e-08 1.734955e-08 1.699188e-08 1.715358e-08 1.786096e-08 1.752067e-08 1.672156e-08 1.785500e-08 1.780267e-08 1.832612e-08
1.670760e-08 1.840190e-08 1.769109e-08 1.764092e-08 1.741879e-08 1.753486e-08 1.762582e-08 1.763000e-08 1.786931e-08 1.718172e-08
1.666121e-08 1.740663e-08 1.736729e-08 1.673204e-08 1.789221e-08 1.732172e-08 1.728002e-08 1.664877e-08 1.707692e-08 1.729984e-08
1.743307e-08 1.601854e-08 1.775466e-08 1.610884e-08 1.663188e-08 1.613663e-08 1.740735e-08 1.613297e-08 1.664161e-08 1.705344e-08
1.650830e-08 1.710688e-08 1.646024e-08 1.678630e-08 1.648654e-08 1.637604e-08 1.638377e-08 1.714745e-08 1.593301e-08 1.607094e-08
1.616287e-08 1.697020e-08 1.653255e-08 1.594487e-08 1.673963e-08 1.631860e-08 1.719272e-08 1.647802e-08 1.638340e-08 1.526541e-08
1.667395e-08 1.625335e-08 1.552048e-08 1.684294e-08 1.647170e-08 1.678089e-08 1.568333e-08 1.634775e-08 1.635711e-08 1.563457e-08
1.647230e-08 1.679344e-08 1.599775e-08 1.604000e-08 1.629966e-08 1.674091e-08 1.619817e-08 1.746520e-08 1.745313e-08 1.642235e-08
1.657033e-08 1.618440e-08 1.669554e-08 1.665019e-08 1.667124e-08 1.702292e-08 1.699950e-08 1.673201e-08 1.633649e-08 1.693508e-08
1.757389e-08 1.594907e-08 1.630698e-08 1.665475e-08 1.581420e-08 1.725793e-08 1.653334e-08 1.570693e-08 1.614380e-08 1.625132e-08
1.644706e-08 1.721475e-08 1.599918e-08 1.676697e-08 1.661017e-08 1.594241e-08 1.604313e-08 1.580172e-08 1.609714e-08 1.603744e-08
1.670307e-08 1.563192e-08 1.535706e-08 1.581990e-08 1.642462e-08 1.590743e-08 1.615233e-08 1.587479e-08 1.523148e-08 1.457261e-08
1.547815e-08 1.571637e-08 1.558968e-08 1.583098e-08 1.558807e-08 1.563606e-08 1.603357e-08 1.535493e-08 1.525183e-08 1.628087e-08
1.590817e-08 1.518959e-08 1.542067e-08 1.563854e-08 1.566220e-08 1.555641e-08 1.615090e-08 1.555403e-08 1.522558e-08 1.526244e-08
1.560203e-08 1.535477e-08 1.563443e-08 1.632440e-08 1.569751e-08 1.592102e-08 1.587469e-08 1.577359e-08 1.626536e-08 1.695265e-08
1.678070e-08 1.665198e-08 1.589639e-08 1.594521e-08 1.643092e-08 1.808949e-08 1.613166e-08 1.575359e-08 1.662296e-08 1.589595e-08
1.626240e-08 1.606017e-08 1.711017e-08 1.531069e-08 1.583209e-08 1.504564e-08 1.568396e-08 1.662034e-08 1.599148e-08 1.627726e-08
1.595592e-08 1.671387e-08 1.710464e-08 1.630307e-08 1.647108e-08 1.708909e-08 1.636052e-08 1.710620e-08 1.716030e-08 1.651490e-08
1.631657e-08 1.594621e-08 1.736615e-08 1.682418e-08 1.702300e-08 1.689789e-08 1.639567e-08 1.799321e-08 1.625264e-08 1.597311e-08
1.586494e-08 1.666805e-08 1.728336e-08 1.700338e-08 1.619855e-08 1.743020e-08 1.733215e-08 1.813573e-08 1.761831e-08 1.790654e-08
1.689659e-08 1.694408e-08 1.702613e-08 1.747424e-08 1.749975e-08 1.680827e-08 1.733923e-08 1.696808e-08 1.670227e-08 1.781418e-08
1.702246e-08 1.749261e-08 1.676926e-08 1.715510e-08 1.692109e-08 1.621570e-08 1.750452e-08 1.729518e-08 1.626191e-08 1.676858e-08
1.606697e-08 1.583647e-08 1.607356e-08 1.725375e-08 1.653063e-08 1.576140e-08 1.603721e-08 1.662851e-08 1.595606e-08 1.571981e-08
1.562227e-08
1.624748e-08 1.859089e-08 1.597323e-08 1.570622e-08 1.551734e-08 1.659537e-08 1.641621e-08 1.658805e-08 1.579553e-08 1.682460e-08
1.560427e-08 1.667721e-08 1.569876e-08 1.574137e-08 1.706353e-08 1.599569e-08 1.650636e-08 1.651702e-08 1.710751e-08 1.702288e-08
1.667511e-08 1.593025e-08 1.657438e-08 1.815168e-08 1.641514e-08 1.757823e-08 1.647790e-08 1.592324e-08 1.658570e-08 1.690963e-08
1.789403e-08 1.716900e-08 1.704513e-08 1.787104e-08 1.838222e-08 1.717685e-08 1.801971e-08 1.691022e-08 1.563556e-08 1.770342e-08
1.706532e-08 1.668300e-08 1.774108e-08 1.718908e-08 1.673557e-08 1.831448e-08 1.617294e-08 1.748105e-08 1.686115e-08 1.633157e-08
1.739504e-08 1.610289e-08 1.769625e-08 1.811941e-08 1.764660e-08 1.702620e-08 1.710519e-08 1.680436e-08 1.686474e-08 1.727316e-08
1.574281e-08 1.691366e-08 1.695700e-08 1.680122e-08 1.730639e-08 1.610273e-08 1.676046e-08 1.562305e-08 1.631503e-08 1.655904e-08
1.704558e-08 1.650918e-08 1.680227e-08 1.640165e-08 1.761225e-08 1.638013e-08 1.668812e-08 1.785191e-08 1.730520e-08 1.734747e-08
1.551780e-08 1.548219e-08 1.596472e-08 1.581521e-08 1.604473e-08 1.715136e-08 1.642508e-08 1.597904e-08 1.664599e-08 1.646699e-08
1.587355e-08 1.672418e-08 1.573073e-08 1.572115e-08 1.691174e-08 1.640738e-08 1.742609e-08 1.676477e-08 1.643133e-08 1.685010e-08
1.583206e-08 1.648791e-08 1.674474e-08 1.572923e-08 1.655262e-08 1.687823e-08 1.643541e-08 1.626106e-08 1.535576e-08 1.645078e-08
1.580376e-08 1.723643e-08 1.617022e-08 1.724098e-08 1.654822e-08 1.688226e-08 1.688626e-08 1.730133e-08 1.690657e-08 1.814478e-08
1.704266e-08 1.714843e-08 1.669643e-08 1.754309e-08 1.678304e-08 1.622034e-08 1.788705e-08 1.603652e-08 1.728550e-08 1.806014e-08
1.789288e-08 1.715304e-08 1.744530e-08 1.751833e-08 1.743082e-08 1.643545e-08 1.825549e-08 1.715571e-08 1.815989e-08 1.753394e-08
1.715527e-08 1.673526e-08 1.784247e-08 1.713570e-08 1.729316e-08 1.724696e-08 1.784849e-08 1.838306e-08 1.769272e-08 1.820285e-08
1.692401e-08 1.859472e-08 1.717006e-08 1.694964e-08 1.777626e-08 1.686780e-08 1.612849e-08 1.723594e-08 1.600158e-08 1.624927e-08
1.611364e-08 1.772205e-08 1.613771e-08 1.601822e-08 1.624714e-08 1.734973e-08 1.796387e-08 1.628368e-08 1.775249e-08 1.604032e-08
1.648706e-08 1.752378e-08 1.650160e-08 1.635469e-08 1.633158e-08 1.591877e-08 1.666444e-08 1.553928e-08 1.658727e-08 1.711775e-08
1.551659e-08 1.638361e-08 1.585012e-08 1.631357e-08 1.593340e-08 1.679240e-08 1.614461e-08 1.573559e-08 1.463851e-08 1.591999e-08
1.560520e-08 1.826882e-08 1.571635e-08 1.708264e-08 1.703085e-08 1.620145e-08 1.613345e-08 1.610710e-08 1.695240e-08 1.614947e-08
1.669443e-08 1.636115e-08 1.660115e-08 1.666161e-08 1.734202e-08 1.721227e-08 1.695870e-08 1.728800e-08 1.685765e-08 1.774470e-08
1.671249e-08 1.616042e-08 1.681871e-08 1.669744e-08 1.658496e-08 1.688046e-08 1.759657e-08 1.743631e-08 1.720005e-08 1.704349e-08
1.653033e-08 1.671687e-08 1.699500e-08 1.681969e-08 1.713358e-08 1.723047e-08 1.675943e-08 1.698016e-08 1.686461e-08 1.718486e-08
1.650690e-08 1.602407e-08 1.641806e-08 1.722443e-08 1.724105e-08 1.624539e-08 1.595844e-08 1.593711e-08 1.586106e-08 1.594682e-08
1.662018e-08 1.652265e-08 1.576964e-08 1.649330e-08 1.586840e-08 1.696985e-08 1.612906e-08 1.548082e-08 1.672356e-08 1.643635e-08
1.523493e-08 1.635828e-08 1.493672e-08 1.587251e-08 1.634133e-08 1.557573e-08 1.613603e-08 1.634901e-08 1.577926e-08 1.615932e-08
1.596404e-08 1.491472e-08 1.637765e-08 1.571724e-08 1.686244e-08 1.508231e-08 1.591942e-08 1.607198e-08 1.599977e-08 1.766624e-08
1.553788e-08 1.613521e-08 1.574916e-08 1.688449e-08 1.675488e-08 1.604444e-08 1.558041e-08 1.558094e-08 1.538846e-08 1.606191e-08
1.671253e-08 1.590900e-08 1.684810e-08 1.603776e-08 1.620579e-08 1.587821e-08 1.548814e-08 1.671294e-08 1.569443e-08 1.701915e-08
1.589206e-08 1.632368e-08 1.666234e-08 1.656736e-08 1.671381e-08 1.553296e-08 1.576741e-08 1.523592e-08 1.729784e-08 1.655644e-08
1.597372e-08 1.671599e-08 1.725298e-08 1.624445e-08 1.729131e-08 1.663470e-08 1.709758e-08 1.707792e-08 1.700711e-08 1.616977e-08
1.659298e-08 1.848221e-08 1.739506e-08 1.700721e-08 1.613926e-08 1.631038e-08 1.662283e-08 1.668909e-08 1.696695e-08 1.628888e-08
1.755490e-08 1.666976e-08 1.749626e-08 1.769274e-08 1.666494e-08 1.568937e-08 1.734651e-08 1.657667e-08 1.776918e-08 1.561840e-08
1.741918e-08 1.712553e-08 1.702643e-08 1.679607e-08 1.602326e-08 1.613596e-08 1.673217e-08 1.647068e-08 1.631430e-08 1.721278e-08
1.774662e-08 1.800121e-08 1.620579e-08 1.713017e-08 1.699181e-08 1.824958e-08 1.710629e-08 1.695343e-08 1.621793e-08 1.711898e-08
1.681238e-08 1.650440e-08 1.638789e-08 1.761294e-08 1.621580e-08 1.629806e-08 1.567866e-08 1.561462e-08 1.640445e-08 1.644434e-08
1.624748e-08
1.698306e-08 1.553656e-08 1.633046e-08 1.652186e-08 1.723439e-08 1.552624e-08 1.646502e-08 1.602470e-08 1.560984e-08 1.654436e-08
1.605952e-08 1.670950e-08 1.577845e-08 1.696179e-08 1.669142e-08 1.674336e-08 1.719013e-08 1.693333e-08 1.706530e-08 1.543575e-08
1.842169e-08 1.729053e-08 1.577322e-08 1.695397e-08 1.663978e-08 1.698318e-08 1.720827e-08 1.772951e-08 1.815225e-08 1.640831e-08
1.693690e-08 1.785735e-08 1.567201e-08 1.618581e-08 1.718452e-08 1.806676e-08 1.601534e-08 1.706252e-08 1.736188e-08 1.769033e-08
1.696842e-08 1.697387e-08 1.616539e-08 1.929755e-08 1.686203e-08 1.706126e-08 1.742349e-08 1.719238e-08 1.633479e-08 1.711351e-08
1.728399e-08 1.697663e-08 1.718450e-08 1.647374e-08 1.677203e-08 1.741047e-08 1.679133e-08 1.690705e-08 1.657148e-08 1.627796e-08
1.744814e-08 1.770649e-08 1.722543e-08 1.585346e-08 1.716354e-08 1.735110e-08 1.642684e-08 1.691597e-08 1.660724e-08 1.597683e-08
1.662470e-08 1.625702e-08 1.748722e-08 1.581016e-08 1.664524e-08 1.648735e-08 1.631495e-08 1.683646e-08 1.684462e-08 1.660154e-08
1.648007e-08 1.608625e-08 1.647612e-08 1.668834e-08 1.552153e-08 1.637664e-08 1.575322e-08 1.618690e-08 1.701941e-08 1.574609e-08
1.766680e-08 1.588180e-08 1.709914e-08 1.612953e-08 1.615720e-08 1.730376e-08 1.677063e-08 1.712092e-08 1.636332e-08 1.685907e-08
1.634199e-08 1.692955e-08 1.592145e-08 1.690182e-08 1.691219e-08 1.751931e-08 1.650496e-08 1.585102e-08 1.690523e-08 1.654992e-08
1.688174e-08 1.620073e-08 1.790205e-08 1.604210e-08 1.734555e-08 1.694634e-08 1.742806e-08 1.714492e-08 1.614793e-08 1.720923e-08
1.754781e-08 1.680947e-08 1.735611e-08 1.719517e-08 1.750133e-08 1.715089e-08 1.694500e-08 1.744804e-08 1.698985e-08 1.712518e-08
1.807130e-08 1.750177e-08 1.745950e-08 1.647165e-08 1.760626e-08 1.767300e-08 1.687447e-08 1.630220e-08 1.757025e-08 1.751698e-08
1.757565e-08 1.703061e-08 1.785914e-08 1.746654e-08 1.831705e-08 1.767881e-08 1.861682e-08 1.679922e-08 1.727067e-08 1.770692e-08
1.745592e-08 1.705660e-08 1.617839e-08 1.754289e-08 1.669568e-08 1.702873e-08 1.710484e-08 1.622745e-08 1.685280e-08 1.728271e-08
1.683489e-08 1.577380e-08 1.647207e-08 1.649073e-08 1.632209e-08 1.676005e-08 1.699468e-08 1.679437e-08 1.750520e-08 1.715061e-08
1.692577e-08 1.612940e-08 1.563763e-08 1.590747e-08 1.731620e-08 1.677503e-08 1.596756e-08 1.505527e-08 1.591201e-08 1.554272e-08
1.722912e-08 1.693627e-08 1.637244e-08 1.650057e-08 1.528217e-08 1.598840e-08 1.658487e-08 1.716911e-08 1.573498e-08 1.754696e-08
1.711729e-08 1.597027e-08 1.647044e-08 1.697388e-08 1.662393e-08 1.603655e-08 1.699892e-08 1.616982e-08 1.747768e-08 1.629520e-08
1.668263e-08 1.576815e-08 1.726060e-08 1.728481e-08 1.534053e-08 1.645112e-08 1.605066e-08 1.629086e-08 1.633278e-08 1.768211e-08
1.682076e-08 1.791527e-08 1.664105e-08 1.629689e-08 1.763351e-08 1.562910e-08 1.724593e-08 1.666936e-08 1.609681e-08 1.604161e-08
1.767384e-08 1.599783e-08 1.633817e-08 1.697354e-08 1.700159e-08 1.760961e-08 1.669003e-08 1.610124e-08 1.724528e-08 1.687408e-08
1.694218e-08 1.685437e-08 1.661192e-08 1.604918e-08 1.614597e-08 1.746416e-08 1.648354e-08 1.650180e-08 1.640679e-08 1.576998e-08
1.568368e-08 1.667360e-08 1.702004e-08 1.705463e-08 1.526349e-08 1.690295e-08 1.681200e-08 1.607831e-08 1.630930e-08 1.631240e-08
1.606076e-08 1.520157e-08 1.674749e-08 1.556094e-08 1.571387e-08 1.581029e-08 1.609320e-08 1.607195e-08 1.532578e-08 1.660074e-08
1.704741e-08 1.636297e-08 1.696751e-08 1.633882e-08 1.683990e-08 1.613081e-08 1.602970e-08 1.713076e-08 1.675486e-08 1.581447e-08
1.594688e-08 1.645909e-08 1.677936e-08 1.505849e-08 1.644331e-08 1.573116e-08 1.639227e-08 1.606762e-08 1.497284e-08 1.580576e-08
1.625308e-08 1.707311e-08 1.619422e-08 1.636121e-08 1.569104e-08 1.605074e-08 1.665960e-08 1.597198e-08 1.578260e-08 1.682154e-08
1.499748e-08 1.703902e-08 1.625885e-08 1.566772e-08 1.687072e-08 1.619969e-08 1.767118e-08 1.629401e-08 1.545981e-08 1.766577e-08
1.653049e-08 1.724680e-08 1.611308e-08 1.716283e-08 1.671880e-08 1.615919e-08 1.635198e-08 1.608577e-08 1.737589e-08 1.662207e-08
1.666309e-08 1.612518e-08 1.726285e-08 1.766601e-08 1.756590e-08 1.656015e-08 1.690949e-08 1.734485e-08 1.600858e-08 1.685207e-08
1.702549e-08 1.644744e-08 1.724957e-08 1.685080e-08 1.642987e-08 1.583754e-08 1.612543e-08 1.696347e-08 1.687362e-08 1.675854e-08
1.861857e-08 1.693172e-08 1.642504e-08 1.752188e-08 1.655178e-08 1.597018e-08 1.626909e-08 1.748213e-08 1.682251e-08 1.672352e-08
1.696968e-08 1.640223e-08 1.652010e-08 1.683444e-08 1.613068e-08 1.641505e-08 1.708312e-08 1.661044e-08 1.701023e-08 1.623134e-08
1.714231e-08 1.623773e-08 1.554325e-08 1.617703e-08 1.587968e-08 1.701561e-08 1.578491e-08 1.527825e-08 1.781560e-08 1.610104e-08
1.698306e-08
1.644125e-08 1.637659e-08 1.529813e-08 1.719353e-08 1.485718e-08 1.535443e-08 1.691887e-08 1.567234e-08 1.749309e-08 1.735863e-08
1.773989e-08 1.707452e-08 1.657578e-08 1.685654e-08 1.709998e-08 1.654851e-08 1.652441e-08 1.725468e-08 1.627186e-08 1.651222e-08
1.731106e-08 1.714195e-08 1.699036e-08 1.811907e-08 1.764542e-08 1.742358e-08 1.742974e-08 1.728434e-08 1.852501e-08 1.681437e-08
1.844126e-08 1.667763e-08 1.738209e-08 1.791620e-08 1.783835e-08 1.844526e-08 1.785067e-08 1.714764e-08 1.723327e-08 1.785864e-08
1.855390e-08 1.717504e-08 1.657961e-08 1.768809e-08 1.743505e-08 1.651975e-08 1.777040e-08 1.711075e-08 1.701359e-08 1.790758e-08
1.779562e-08 1.697655e-08 1.593019e-08 1.676535e-08 1.749078e-08 1.684266e-08 1.800744e-08 1.709004e-08 1.624068e-08 1.628395e-08
1.644192e-08 1.666092e-08 1.597005e-08 1.687763e-08 1.678946e-08 1.655931e-08 1.568489e-08 1.721209e-08 1.637917e-08 1.708112e-08
1.707470e-08 1.656990e-08 1.615578e-08 1.592830e-08 1.654122e-08 1.519985e-08 1.691602e-08 1.722676e-08 1.634123e-08 1.595598e-08
1.788877e-08 1.643573e-08 1.639037e-08 1.599247e-08 1.734607e-08 1.652972e-08 1.612843e-08 1.592240e-08 1.667561e-08 1.590816e-08
1.610521e-08 1.554961e-08 1.545157e-08 1.609454e-08 1.660788e-08 1.676144e-08 1.762702e-08 1.721626e-08 1.711568e-08 1.697343e-08
1.604766e-08 1.596936e-08 1.645791e-08 1.635675e-08 1.617299e-08 1.812020e-08 1.618209e-08 1.670310e-08 1.611273e-08 1.663313e-08
1.649442e-08 1.645194e-08 1.633573e-08 1.757043e-08 1.645072e-08 1.755860e-08 1.564386e-08 1.719010e-08 1.601489e-08 1.671768e-08
1.657845e-08 1.675904e-08 1.703821e-08 1.724788e-08 1.669865e-08 1.722595e-08 1.677617e-08 1.686778e-08 1.834192e-08 1.626862e-08
1.685069e-08 1.686421e-08 1.777681e-08 1.658830e-08 1.719283e-08 1.638121e-08 1.698475e-08 1.631074e-08 1.728259e-08 1.718084e-08
1.779700e-08 1.705202e-08 1.791072e-08 1.730566e-08 1.753748e-08 1.678968e-08 1.882678e-08 1.711770e-08 1.795427e-08 1.710377e-08
1.655389e-08 1.761424e-08 1.811704e-08 1.703756e-08 1.853603e-08 1.703810e-08 1.627703e-08 1.819278e-08 1.715362e-08 1.802946e-08
1.662687e-08 1.743848e-08 1.650563e-08 1.728507e-08 1.676085e-08 1.631461e-08 1.680365e-08 1.753719e-08 1.636647e-08 1.617810e-08
1.637858e-08 1.643220e-08 1.654339e-08 1.645033e-08 1.626217e-08 1.862196e-08 1.633247e-08 1.644608e-08 1.694991e-08 1.550111e-08
1.629573e-08 1.570266e-08 1.656026e-08 1.658329e-08 1.545700e-08 1.593532e-08 1.676311e-08 1.664696e-08 1.625621e-08 1.689680e-08
1.626965e-08 1.745600e-08 1.573611e-08 1.580497e-08 1.658547e-08 1.717413e-08 1.642960e-08 1.619869e-08 1.566251e-08 1.617129e-08
1.675453e-08 1.683778e-08 1.660177e-08 1.620001e-08 1.655134e-08 1.655241e-08 1.640479e-08 1.581616e-08 1.738558e-08 1.743805e-08
1.760762e-08 1.643425e-08 1.605079e-08 1.703141e-08 1.705495e-08 1.662537e-08 1.717675e-08 1.726715e-08 1.735487e-08 1.669783e-08
1.690627e-08 1.773727e-08 1.654085e-08 1.675768e-08 1.778760e-08 1.830227e-08 1.699219e-08 1.685903e-08 1.631093e-08 1.767156e-08
1.785719e-08 1.733840e-08 1.643735e-08 1.770776e-08 1.734653e-08 1.557385e-08 1.648533e-08 1.665817e-08 1.596030e-08 1.568715e-08
1.594231e-08 1.677170e-08 1.647381e-08 1.510591e-08 1.617646e-08 1.603914e-08 1.640166e-08 1.677199e-08 1.632561e-08 1.637381e-08
1.505618e-08 1.600683e-08 1.720432e-08 1.705721e-08 1.571978e-08 1.710588e-08 1.651413e-08 1.665319e-08 1.558947e-08 1.636459e-08
1.663412e-08 1.701710e-08 1.570612e-08 1.609124e-08 1.595345e-08 1.612509e-08 1.758736e-08 1.508183e-08 1.610419e-08 1.568360e-08
1.495965e-08 1.684173e-08 1.592444e-08 1.542085e-08 1.511008e-08 1.654113e-08 1.609431e-08 1.587338e-08 1.655670e-08 1.610146e-08
1.608496e-08 1.620002e-08 1.617523e-08 1.653468e-08 1.690178e-08 1.613505e-08 1.591199e-08 1.763118e-08 1.709336e-08 1.669877e-08
1.649050e-08 1.533980e-08 1.599404e-08 1.633456e-08 1.637391e-08 1.572102e-08 1.631580e-08 1.598908e-08 1.687588e-08 1.689722e-08
1.715533e-08 1.712290e-08 1.707439e-08 1.724148e-08 1.693190e-08 1.740298e-08 1.753607e-08 1.694417e-08 1.669705e-08 1.786212e-08
1.723709e-08 1.699460e-08 1.649556e-08 1.700440e-08 1.573222e-08 1.705511e-08 1.675654e-08 1.746432e-08 1.802397e-08 1.793398e-08
1.584404e-08 1.809333e-08 1.593436e-08 1.761605e-08 1.681263e-08 1.659458e-08 1.731792e-08 1.604442e-08 1.663034e-08 1.823116e-08
1.567827e-08 1.686288e-08 1.678068e-08 1.687348e-08 1.726895e-08 1.652078e-08 1.597575e-08 1.709933e-08 1.678084e-08 1.724099e-08
1.731710e-08 1.658983e-08 1.665379e-08 1.611207e-08 1.786347e-08 1.660607e-08 1.765186e-08 1.676254e-08 1.651247e-08 1.651839e-08
1.723193e-08 1.562540e-08 1.655173e-08 1.751110e-08 1.636552e-08 1.557322e-08 1.700085e-08 1.585554e-08 1.635119e-08 1.598784e-08
1.644125e-08
1.609699e-08 1.624981e-08 1.716559e-08 1.599591e-08 1.692384e-08 1.677911e-08 1.718644e-08 1.555729e-08 1.616420e-08 1.646126e-08
1.770359e-08 1.663932e-08 1.581583e-08 1.759406e-08 1.645279e-08 1.632403e-08 1.711497e-08 1.687113e-08 1.761620e-08 1.644151e-08
1.588061e-08 1.831526e-08 1.732669e-08 1.699860e-08 1.777977e-08 1.747586e-08 1.645864e-08 1.647760e-08 1.607373e-08 1.682607e-08
1.731394e-08 1.720897e-08 1.701383e-08 1.690351e-08 1.800686e-08 1.741572e-08 1.657453e-08 1.796701e-08 1.762515e-08 1.751671e-08
1.827949e-08 1.754786e-08 1.577902e-08 1.615740e-08 1.798165e-08 1.852239e-08 1.706617e-08 1.811690e-08 1.699471e-08 1.650323e-08
1.674738e-08 1.735104e-08 1.759718e-08 1.689131e-08 1.702010e-08 1.637631e-08 1.652829e-08 1.724051e-08 1.783934e-08 1.655847e-08
1.562431e-08 1.617338e-08 1.670656e-08 1.683099e-08 1.743749e-08 1.729507e-08 1.713497e-08 1.626293e-08 1.703163e-08 1.653116e-08
1.651232e-08 1.726181e-08 1.692375e-08 1.705824e-08 1.659932e-08 1.670752e-08 1.574313e-08 1.703600e-08 1.708443e-08 1.642161e-08
1.626231e-08 1.577985e-08 1.642020e-08 1.696241e-08 1.703741e-08 1.747299e-08 1.688187e-08 1.683940e-08 1.549748e-08 1.755962e-08
1.623084e-08 1.660281e-08 1.552417e-08 1.662384e-08 1.591544e-08 1.729178e-08 1.623994e-08 1.668147e-08 1.643786e-08 1.631587e-08
1.569181e-08 1.633296e-08 1.660923e-08 1.755067e-08 1.621895e-08 1.594061e-08 1.758424e-08 1.632819e-08 1.690609e-08 1.664945e-08
1.657003e-08 1.652955e-08 1.712812e-08 1.748869e-08 1.766798e-08 1.683217e-08 1.684516e-08 1.706516e-08 1.717498e-08 1.724743e-08
1.734776e-08 1.654446e-08 1.762567e-08 1.686330e-08 1.718619e-08 1.689815e-08 1.644531e-08 1.744827e-08 1.761967e-08 1.689890e-08
1.647751e-08 1.707184e-08 1.618034e-08 1.660427e-08 1.698666e-08 1.650763e-08 1.728647e-08 1.659790e-08 1.645393e-08 1.750346e-08
1.738476e-08 1.660226e-08 1.647336e-08 1.735177e-08 1.744342e-08 1.764116e-08 1.752160e-08 1.653699e-08 1.785573e-08 1.681073e-08
1.634844e-08 1.643252e-08 1.766248e-08 1.674855e-08 1.758938e-08 1.648280e-08 1.669149e-08 1.674412e-08 1.574599e-08 1.704618e-08
1.765583e-08 1.650794e-08 1.670827e-08 1.681550e-08 1.692213e-08 1.620141e-08 1.722616e-08 1.675510e-08 1.560701e-08 1.715293e-08
1.693799e-08 1.635391e-08 1.620997e-08 1.719437e-08 1.631051e-08 1.636331e-08 1.533159e-08 1.618002e-08 1.674370e-08 1.718142e-08
1.619469e-08 1.603608e-08 1.771807e-08 1.601292e-08 1.488378e-08 1.630567e-08 1.599713e-08 1.616287e-08 1.662484e-08 1.780707e-08
1.690040e-08 1.623965e-08 1.545975e-08 1.713401e-08 1.604291e-08 1.635767e-08 1.645492e-08 1.628391e-08 1.660657e-08 1.499795e-08
1.704979e-08 1.595768e-08 1.656126e-08 1.848533e-08 1.691066e-08 1.664801e-08 1.807067e-08 1.629515e-08 1.686064e-08 1.717565e-08
1.717510e-08 1.738661e-08 1.728083e-08 1.653911e-08 1.679712e-08 1.738199e-08 1.720799e-08 1.644310e-08 1.628483e-08 1.624291e-08
1.553528e-08 1.636303e-08 1.694249e-08 1.630849e-08 1.708499e-08 1.693977e-08 1.542703e-08 1.616508e-08 1.682930e-08 1.683901e-08
1.566360e-08 1.606167e-08 1.701479e-08 1.715090e-08 1.756114e-08 1.656007e-08 1.722080e-08 1.599316e-08 1.619154e-08 1.787778e-08
1.750403e-08 1.636091e-08 1.741016e-08 1.573784e-08 1.570038e-08 1.665544e-08 1.629912e-08 1.606256e-08 1.701771e-08 1.682054e-08
1.723403e-08 1.576126e-08 1.585770e-08 1.665697e-08 1.625875e-08 1.638057e-08 1.548426e-08 1.579789e-08 1.519270e-08 1.619153e-08
1.525147e-08 1.597771e-08 1.601123e-08 1.603924e-08 1.628116e-08 1.648771e-08 1.585700e-08 1.539148e-08 1.654213e-08 1.588012e-08
1.642411e-08 1.643301e-08 1.631132e-08 1.516487e-08 1.711016e-08 1.547692e-08 1.573274e-08 1.631988e-08 1.661380e-08 1.588948e-08
1.522477e-08 1.557500e-08 1.690245e-08 1.589981e-08 1.667528e-08 1.504280e-08 1.715255e-08 1.608664e-08 1.530019e-08 1.646947e-08
1.647902e-08 1.628301e-08 1.673504e-08 1.698855e-08 1.636280e-08 1.629104e-08 1.606098e-08 1.603230e-08 1.569893e-08 1.648931e-08
1.644898e-08 1.640547e-08 1.599664e-08 1.609668e-08 1.604104e-08 1.690927e-08 1.640089e-08 1.737536e-08 1.683114e-08 1.818272e-08
1.597274e-08 1.766042e-08 1.795448e-08 1.719295e-08 1.603702e-08 1.754738e-08 1.684250e-08 1.768057e-08 1.718230e-08 1.712012e-08
1.714554e-08 1.666415e-08 1.726004e-08 1.798618e-08 1.585060e-08 1.673000e-08 1.718438e-08 1.574652e-08 1.640032e-08 1.743204e-08
1.767645e-08 1.658581e-08 1.545702e-08 1.582812e-08 1.620012e-08 1.763169e-08 1.718971e-08 1.699215e-08 1.748380e-08 1.615583e-08
1.707340e-08 1.648007e-08 1.755359e-08 1.631424e-08 1.687656e-08 1.626154e-08 1.754485e-08 1.552750e-08 1.611142e-08 1.761042e-08
1.670181e-08 1.614524e-08 1.556882e-08 1.634459e-08 1.698797e-08 1.707461e-08 1.668627e-08 1.647264e-08 1.646810e-08 1.732844e-08
1.609699e-08
1.547166e-08 1.682854e-08 1.552349e-08 1.646141e-08 1.686647e-08 1.613137e-08 1.711331e-08 1.526482e-08 1.719562e-08 1.672893e-08
1.620351e-08 1.627119e-08 1.627911e-08 1.540621e-08 1.663115e-08 1.648952e-08 1.785155e-08 1.670025e-08 1.698419e-08 1.682116e-08
1.656499e-08 1.730838e-08 1.573377e-08 1.688983e-08 1.678596e-08 1.738195e-08 1.751410e-08 1.666791e-08 1.746268e-08 1.572133e-08
1.742338e-08 1.763775e-08 1.737174e-08 1.770127e-08 1.753787e-08 1.673730e-08 1.677821e-08 1.757529e-08 1.760048e-08 1.749473e-08
1.650967e-08 1.706529e-08 1.727877e-08 1.667986e-08 1.687156e-08 1.783141e-08 1.785016e-08 1.660739e-08 1.698092e-08 1.701091e-08
1.768743e-08 1.656589e-08 1.706656e-08 1.713471e-08 1.709834e-08 1.707497e-08 1.619064e-08 1.690680e-08 1.684478e-08 1.754029e-08
1.713115e-08 1.680182e-08 1.638624e-08 1.725738e-08 1.569842e-08 1.730713e-08 1.715180e-08 1.672045e-08 1.705630e-08 1.705652e-08
1.794722e-08 1.752510e-08 1.635836e-08 1.732337e-08 1.671765e-08 1.786986e-08 1.657229e-08 1.699834e-08 1.711428e-08 1.605588e-08
1.754927e-08 1.610926e-08 1.595530e-08 1.592579e-08 1.731847e-08 1.718386e-08 1.638498e-08 1.626577e-08 1.689769e-08 1.707517e-08
1.738228e-08 1.639348e-08 1.728478e-08 1.683774e-08 1.672811e-08 1.668385e-08 1.643886e-08 1.630165e-08 1.694912e-08 1.620610e-08
1.645879e-08 1.698304e-08 1.589234e-08 1.638396e-08 1.701467e-08 1.619716e-08 1.645201e-08 1.688351e-08 1.533724e-08 1.643332e-08
1.707734e-08 1.585691e-08 1.745238e-08 1.651370e-08 1.739719e-08 1.687891e-08 1.640054e-08 1.706124e-08 1.729999e-08 1.706766e-08
1.773633e-08 1.670457e-08 1.752749e-08 1.749212e-08 1.637275e-08 1.743991e-08 1.744661e-08 1.658457e-08 1.729957e-08 1.771254e-08
1.861160e-08 1.835847e-08 1.722020e-08 1.688907e-08 1.674902e-08 1.690567e-08 1.710511e-08 1.640014e-08 1.687536e-08 1.642144e-08
1.774900e-08 1.713916e-08 1.698480e-08 1.848792e-08 1.658997e-08 1.601020e-08 1.760804e-08 1.664396e-08 1.727193e-08 1.703240e-08
1.692846e-08 1.720267e-08 1.701252e-08 1.723919e-08 1.691813e-08 1.700762e-08 1.755811e-08 1.715098e-08 1.655024e-08 1.740410e-08
1.768299e-08 1.852491e-08 1.799442e-08 1.629057e-08 1.649416e-08 1.641776e-08 1.671692e-08 1.583272e-08 1.735738e-08 1.697161e-08
1.646730e-08 1.707768e-08 1.581912e-08 1.674107e-08 1.669327e-08 1.675666e-08 1.634824e-08 1.623479e-08 1.656879e-08 1.512011e-08
1.575239e-08 1.570741e-08 1.784528e-08 1.762874e-08 1.703793e-08 1.567644e-08 1.649651e-08 1.632526e-08 1.612863e-08 1.678324e-08
1.581528e-08 1.788572e-08 1.550966e-08 1.686228e-08 1.653215e-08 1.736222e-08 1.675858e-08 1.757456e-08 1.781974e-08 1.513684e-08
1.754955e-08 1.569658e-08 1.609001e-08 1.746365e-08 1.722809e-08 1.598931e-08 1.477956e-08 1.574584e-08 1.692925e-08 1.636742e-08
1.671190e-08 1.654774e-08 1.783598e-08 1.692228e-08 1.589145e-08 1.679986e-08 1.670531e-08 1.743442e-08 1.665649e-08 1.827375e-08
1.690739e-08 1.756172e-08 1.599041e-08 1.627633e-08 1.630523e-08 1.569300e-08 1.667929e-08 1.654700e-08 1.655668e-08 1.663994e-08
1.708347e-08 1.740448e-08 1.688073e-08 1.651407e-08 1.678411e-08 1.626968e-08 1.790171e-08 1.687786e-08 1.738268e-08 1.716826e-08
1.659845e-08 1.655884e-08 1.721051e-08 1.668641e-08 1.577065e-08 1.630684e-08 1.540668e-08 1.580551e-08 1.677042e-08 1.645894e-08
1.686850e-08 1.680870e-08 1.585492e-08 1.720726e-08 1.498551e-08 1.619566e-08 1.636445e-08 1.633208e-08 1.668242e-08 1.598737e-08
1.591911e-08 1.578045e-08 1.704832e-08 1.611566e-08 1.466321e-08 1.480020e-08 1.510725e-08 1.592434e-08 1.568996e-08 1.599033e-08
1.631531e-08 1.647326e-08 1.622101e-08 1.674565e-08 1.635310e-08 1.625952e-08 1.672539e-08 1.581596e-08 1.624588e-08 1.601789e-08
1.624212e-08 1.578597e-08 1.663648e-08 1.670344e-08 1.588896e-08 1.616059e-08 1.543647e-08 1.659005e-08 1.587601e-08 1.590951e-08
1.602806e-08 1.687798e-08 1.559682e-08 1.616465e-08 1.643971e-08 1.594510e-08 1.715386e-08 1.597133e-08 1.624944e-08 1.508892e-08
1.725991e-08 1.711970e-08 1.609735e-08 1.740247e-08 1.665535e-08 1.801303e-08 1.662563e-08 1.687408e-08 1.657894e-08 1.626729e-08
1.705898e-08 1.696727e-08 1.597765e-08 1.795886e-08 1.693279e-08 1.629216e-08 1.562026e-08 1.761118e-08 1.706190e-08 1.713358e-08
1.642469e-08 1.764529e-08 1.718135e-08 1.817132e-08 1.653764e-08 1.700303e-08 1.715545e-08 1.730855e-08 1.652985e-08 1.706216e-08
1.657477e-08 1.739195e-08 1.688888e-08 1.688551e-08 1.618566e-08 1.608650e-08 1.622290e-08 1.701817e-08 1.696948e-08 1.690591e-08
1.726287e-08 1.621749e-08 1.720902e-08 1.724946e-08 1.746949e-08 1.665371e-08 1.697480e-08 1.727297e-08 1.635835e-08 1.546943e-08
1.770747e-08 1.635172e-08 1.614980e-08 1.584315e-08 1.647367e-08 1.607068e-08 1.681969e-08 1.532406e-08 1.609328e-08 1.635236e-08
1.547166e-08
1.578327e-08 1.659514e-08 1.727330e-08 1.677048e-08 1.649730e-08 1.690780e-08 1.624752e-08 1.549991e-08 1.698680e-08 1.591275e-08
1.625103e-08 1.652931e-08 1.596116e-08 1.815538e-08 1.701418e-08 1.646943e-08 1.653321e-08 1.625145e-08 1.622378e-08 1.695195e-08
1.569956e-08 1.643250e-08 1.545362e-08 1.700468e-08 1.762361e-08 1.585929e-08 1.623047e-08 1.765072e-08 1.724714e-08 1.743663e-08
1.717250e-08 1.662065e-08 1.900891e-08 1.687003e-08 1.723349e-08 1.703262e-08 1.562697e-08 1.714929e-08 1.718193e-08 1.728150e-08
1.628386e-08 1.801857e-08 1.677225e-08 1.806920e-08 1.626815e-08 1.795199e-08 1.672757e-08 1.801715e-08 1.659219e-08 1.739209e-08
1.634080e-08 1.587049e-08 1.713230e-08 1.734059e-08 1.716298e-08 1.689122e-08 1.682063e-08 1.633203e-08 1.585013e-08 1.747015e-08
1.670366e-08 1.600974e-08 1.667486e-08 1.549283e-08 1.625107e-08 1.807736e-08 1.725439e-08 1.688739e-08 1.718863e-08 1.698064e-08
1.674320e-08 1.584731e-08 1.683730e-08 1.652268e-08 1.770064e-08 1.613727e-08 1.609412e-08 1.758558e-08 1.682307e-08 1.732970e-08
1.673827e-08 1.655045e-08 1.550479e-08 1.606924e-08 1.652499e-08 1.643813e-08 1.624687e-08 1.555545e-08 1.696455e-08 1.712360e-08
1.806751e-08 1.563977e-08 1.640826e-08 1.566322e-08 1.641721e-08 1.811267e-08 1.532161e-08 1.700484e-08 1.685581e-08 1.738948e-08
1.520325e-08 1.597097e-08 1.618397e-08 1.731677e-08 1.672075e-08 1.578666e-08 1.788871e-08 1.686429e-08 1.645708e-08 1.726945e-08
1.563784e-08 1.798632e-08 1.722549e-08 1.763557e-08 1.764705e-08 1.742223e-08 1.725336e-08 1.712377e-08 1.683267e-08 1.668175e-08
1.697789e-08 1.693850e-08 1.717147e-08 1.689932e-08 1.642755e-08 1.685144e-08 1.618461e-08 1.666338e-08 1.687885e-08 1.650742e-08
1.721270e-08 1.700668e-08 1.719229e-08 1.743201e-08 1.693102e-08 1.677764e-08 1.713926e-08 1.749733e-08 1.693949e-08 1.668557e-08
1.863382e-08 1.687616e-08 1.765805e-08 1.770451e-08 1.571419e-08 1.719994e-08 1.777864e-08 1.769440e-08 1.719955e-08 1.695880e-08
1.676092e-08 1.760823e-08 1.707932e-08 1.734881e-08 1.676291e-08 1.697582e-08 1.710298e-08 1.785573e-08 1.713471e-08 1.734139e-08
1.533687e-08 1.753796e-08 1.635703e-08 1.663773e-08 1.780662e-08 1.597131e-08 1.625247e-08 1.608123e-08 1.770840e-08 1.604720e-08
1.787686e-08 1.699764e-08 1.674221e-08 1.611940e-08 1.558757e-08 1.592944e-08 1.498540e-08 1.739212e-08 1.574507e-08 1.635213e-08
1.615377e-08 1.550654e-08 1.719032e-08 1.691696e-08 1.657695e-08 1.607959e-08 1.536187e-08 1.695107e-08 1.638772e-08 1.834548e-08
1.579261e-08 1.657740e-08 1.595151e-08 1.621900e-08 1.666882e-08 1.567649e-08 1.696783e-08 1.597050e-08 1.753984e-08 1.573428e-08
1.697073e-08 1.839509e-08 1.724027e-08 1.648576e-08 1.648353e-08 1.590116e-08 1.556990e-08 1.697238e-08 1.613466e-08 1.617485e-08
1.682631e-08 1.717578e-08 1.652588e-08 1.672097e-08 1.689427e-08 1.635491e-08 1.685247e-08 1.729316e-08 1.551527e-08 1.737980e-08
1.646798e-08 1.770759e-08 1.734736e-08 1.563238e-08 1.738240e-08 1.756093e-08 1.791825e-08 1.672976e-08 1.597746e-08 1.622863e-08
1.706501e-08 1.716832e-08 1.640354e-08 1.713088e-08 1.602785e-08 1.738970e-08 1.596418e-08 1.532331e-08 1.682805e-08 1.612939e-08
1.615288e-08 1.719538e-08 1.591157e-08 1.626915e-08 1.623400e-08 1.619341e-08 1.636457e-08 1.600957e-08 1.730530e-08 1.644254e-08
1.658324e-08 1.553113e-08 1.626847e-08 1.616855e-08 1.618866e-08 1.542581e-08 1.527416e-08 1.613854e-08 1.670787e-08 1.633550e-08
1.686363e-08 1.543806e-08 1.583931e-08 1.708784e-08 1.616043e-08 1.590198e-08 1.651740e-08 1.585941e-08 1.790129e-08 1.650578e-08
1.597258e-08 1.626960e-08 1.505038e-08 1.535741e-08 1.584752e-08 1.649674e-08 1.605251e-08 1.652992e-08 1.618473e-08 1.641911e-08
1.573773e-08 1.603022e-08 1.632238e-08 1.709141e-08 1.565199e-08 1.616653e-08 1.543699e-08 1.695625e-08 1.668896e-08 1.631298e-08
1.515500e-08 1.642327e-08 1.745302e-08 1.631519e-08 1.750494e-08 1.597757e-08 1.589598e-08 1.634460e-08 1.665214e-08 1.708284e-08
1.688438e-08 1.658258e-08 1.564832e-08 1.706473e-08 1.768982e-08 1.721765e-08 1.616234e-08 1.668293e-08 1.805586e-08 1.666179e-08
1.720756e-08 1.757770e-08 1.801770e-08 1.748131e-08 1.640155e-08 1.610233e-08 1.727069e-08 1.675696e-08 1.750865e-08 1.804135e-08
1.747214e-08 1.810922e-08 1.650758e-08 1.551956e-08 1.661367e-08 1.803775e-08 1.564462e-08 1.738424e-08 1.797200e-08 1.533627e-08
1.603647e-08 1.755012e-08 1.638916e-08 1.602631e-08 1.610163e-08 1.829510e-08 1.611809e-08 1.747007e-08 1.734679e-08 1.623403e-08
1.705928e-08 1.749497e-08 1.734933e-08 1.642587e-08 1.634560e-08 1.562417e-08 1.688335e-08 1.628663e-08 1.734033e-08 1.633644e-08
1.663282e-08 1.659878e-08 1.635365e-08 1.645470e-08 1.568939e-08 1.703966e-08 1.683941e-08 1.605210e-08 1.519019e-08 1.707354e-08
1.578327e-08
1.648916e-08 1.706387e-08 1.687446e-08 1.703511e-08 1.658979e-08 1.681990e-08 1.670855e-08 1.626528e-08 1.668483e-08 1.695286e-08
1.702210e-08 1.643552e-08 1.652481e-08 1.663513e-08 1.777155e-08 1.578414e-08 1.689960e-08 1.707852e-08 1.746924e-08 1.626706e-08
1.661579e-08 1.610232e-08 1.693874e-08 1.613920e-08 1.657248e-08 1.733506e-08 1.666509e-08 1.633049e-08 1.666768e-08 1.591209e-08
1.681915e-08 1.725941e-08 1.663539e-08 1.809796e-08 1.771358e-08 1.725414e-08 1.687993e-08 1.859801e-08 1.591508e-08 1.905711e-08
1.671616e-08 1.732973e-08 1.688862e-08 1.650577e-08 1.710637e-08 1.700121e-08 1.782583e-08 1.644385e-08 1.837040e-08 1.790765e-08
1.759064e-08 1.682372e-08 1.681478e-08 1.779714e-08 1.733080e-08 1.810380e-08 1.651937e-08 1.685349e-08 1.659385e-08 1.572663e-08
1.791980e-08 1.671081e-08 1.612377e-08 1.666549e-08 1.686377e-08 1.706587e-08 1.667731e-08 1.651483e-08 1.654236e-08 1.769317e-08
1.597435e-08 1.642636e-08 1.601208e-08 1.527190e-08 1.688527e-08 1.697429e-08 1.732518e-08 1.625643e-08 1.713352e-08 1.570172e-08
1.659013e-08 1.648076e-08 1.701182e-08 1.618347e-08 1.581717e-08 1.619918e-08 1.643432e-08 1.586214e-08 1.715060e-08 1.626147e-08
1.672553e-08 1.674264e-08 1.638248e-08 1.570277e-08 1.754371e-08 1.665092e-08 1.620867e-08 1.697844e-08 1.747597e-08 1.672711e-08
1.703672e-08 1.716065e-08 1.646622e-08 1.720388e-08 1.658366e-08 1.723878e-08 1.721922e-08 1.566447e-08 1.692389e-08 1.725045e-08
1.671195e-08 1.724794e-08 1.699149e-08 1.753383e-08 1.667088e-08 1.674627e-08 1.663455e-08 1.775303e-08 1.699086e-08 1.697606e-08
1.629893e-08 1.704365e-08 1.723261e-08 1.722289e-08 1.668117e-08 1.642859e-08 1.605925e-08 1.689991e-08 1.655512e-08 1.632566e-08
1.757566e-08 1.723295e-08 1.704367e-08 1.642691e-08 1.663874e-08 1.657257e-08 1.753806e-08 1.757620e-08 1.790335e-08 1.639184e-08
1.684097e-08 1.744265e-08 1.672139e-08 1.835886e-08 1.658684e-08 1.653873e-08 1.773156e-08 1.715099e-08 1.609517e-08 1.685789e-08
1.809258e-08 1.750640e-08 1.699202e-08 1.856876e-08 1.755610e-08 1.637757e-08 1.786917e-08 1.638828e-08 1.661104e-08 1.682924e-08
1.670787e-08 1.600111e-08 1.653441e-08 1.706733e-08 1.638583e-08 1.654057e-08 1.708406e-08 1.670499e-08 1.655713e-08 1.553146e-08
1.607494e-08 1.568556e-08 1.587487e-08 1.554657e-08 1.618341e-08 1.658905e-08 1.712209e-08 1.589811e-08 1.561978e-08 1.699497e-08
1.676828e-08 1.769320e-08 1.633316e-08 1.660900e-08 1.643658e-08 1.686320e-08 1.729513e-08 1.744208e-08 1.535447e-08 1.737849e-08
1.521173e-08 1.669601e-08 1.567917e-08 1.737985e-08 1.668476e-08 1.742215e-08 1.567446e-08 1.662181e-08 1.712614e-08 1.627607e-08
1.731799e-08 1.780984e-08 1.697901e-08 1.684407e-08 1.730561e-08 1.773707e-08 1.674422e-08 1.672291e-08 1.525315e-08 1.731842e-08
1.643493e-08 1.701024e-08 1.759152e-08 1.738874e-08 1.777961e-08 1.576440e-08 1.667358e-08 1.666312e-08 1.690958e-08 1.553461e-08
1.661093e-08 1.706372e-08 1.699099e-08 1.559119e-08 1.585124e-08 1.803707e-08 1.783011e-08 1.645882e-08 1.738671e-08 1.639230e-08
1.681620e-08 1.759286e-08 1.619527e-08 1.601069e-08 1.653159e-08 1.655637e-08 1.678675e-08 1.653694e-08 1.752362e-08 1.701105e-08
1.658321e-08 1.690643e-08 1.605737e-08 1.660948e-08 1.609796e-08 1.594037e-08 1.613345e-08 1.647949e-08 1.706039e-08 1.676850e-08
1.533625e-08 1.720040e-08 1.643633e-08 1.732298e-08 1.633543e-08 1.610940e-08 1.675824e-08 1.718916e-08 1.602371e-08 1.615557e-08
1.614315e-08 1.586591e-08 1.714702e-08 1.557473e-08 1.630537e-08 1.622996e-08 1.744521e-08 1.549520e-08 1.534844e-08 1.614623e-08
1.706995e-08 1.503151e-08 1.515017e-08 1.668561e-08 1.558451e-08 1.550945e-08 1.494784e-08 1.659002e-08 1.750969e-08 1.548324e-08
1.573598e-08 1.632060e-08 1.614314e-08 1.606393e-08 1.681280e-08 1.604736e-08 1.576364e-08 1.524161e-08 1.720108e-08 1.586007e-08
1.633051e-08 1.560915e-08 1.622239e-08 1.613745e-08 1.654025e-08 1.614285e-08 1.760371e-08 1.674663e-08 1.650695e-08 1.610442e-08
1.674251e-08 1.713230e-08 1.587243e-08 1.588574e-08 1.748232e-08 1.700092e-08 1.717223e-08 1.639036e-08 1.625652e-08 1.615724e-08
1.564993e-08 1.670589e-08 1.665503e-08 1.592328e-08 1.741774e-08 1.639474e-08 1.662070e-08 1.591570e-08 1.612359e-08 1.658432e-08
1.698535e-08 1.553197e-08 1.777227e-08 1.674717e-08 1.642395e-08 1.650606e-08 1.762612e-08 1.711886e-08 1.698583e-08 1.755520e-08
1.673201e-08 1.712784e-08 1.735617e-08 1.657991e-08 1.680745e-08 1.685035e-08 1.662241e-08 1.690115e-08 1.701108e-08 1.697207e-08
1.627584e-08 1.690680e-08 1.800584e-08 1.657157e-08 1.863259e-08 1.668973e-08 1.753594e-08 1.720150e-08 1.603572e-08 1.786123e-08
1.638351e-08 1.762402e-08 1.570871e-08 1.649360e-08 1.763189e-08 1.751899e-08 1.652693e-08 1.545504e-08 1.722911e-08 1.686387e-08
1.648916e-08
1.563433e-08 1.544545e-08 1.555661e-08 1.632091e-08 1.628072e-08 1.541676e-08 1.806457e-08 1.742068e-08 1.639215e-08 1.666691e-08
1.629098e-08 1.699116e-08 1.691648e-08 1.707243e-08 1.790265e-08 1.793128e-08 1.774579e-08 1.711488e-08 1.699524e-08 1.691914e-08
1.645956e-08 1.646526e-08 1.779799e-08 1.642202e-08 1.732974e-08 1.618975e-08 1.640049e-08 1.714577e-08 1.659011e-08 1.664851e-08
1.794763e-08 1.670142e-08 1.809846e-08 1.834407e-08 1.716754e-08 1.724031e-08 1.775388e-08 1.642801e-08 1.632706e-08 1.669258e-08
1.764673e-08 1.827372e-08 1.753987e-08 1.727919e-08 1.775050e-08 1.680534e-08 1.767690e-08 1.741530e-08 1.733547e-08 1.678996e-08
1.699817e-08 1.614298e-08 1.697376e-08 1.710591e-08 1.754854e-08 1.604358e-08 1.753764e-08 1.635336e-08 1.631393e-08 1.705136e-08
1.706751e-08 1.614838e-08 1.784685e-08 1.650003e-08 1.615179e-08 1.672212e-08 1.683714e-08 1.619507e-08 1.706107e-08 1.729854e-08
1.676974e-08 1.676001e-08 1.700620e-08 1.660386e-08 1.725615e-08 1.781141e-08 1.701422e-08 1.620878e-08 1.603341e-08 1.521675e-08
1.700423e-08 1.621830e-08 1.738942e-08 1.749115e-08 1.654894e-08 1.542833e-08 1.750170e-08 1.557892e-08 1.778544e-08 1.720136e-08
1.510372e-08 1.748506e-08 1.699207e-08 1.737437e-08 1.735214e-08 1.575380e-08 1.660441e-08 1.787557e-08 1.673264e-08 1.631006e-08
1.674430e-08 1.662788e-08 1.701637e-08 1.668046e-08 1.652110e-08 1.669657e-08 1.610456e-08 1.640118e-08 1.620627e-08 1.604440e-08
1.612269e-08 1.691870e-08 1.793749e-08 1.619769e-08 1.649712e-08 1.743873e-08 1.667854e-08 1.798942e-08 1.708516e-08 1.696052e-08
1.675734e-08 1.783621e-08 1.671303e-08 1.743845e-08 1.689444e-08 1.703818e-08 1.660902e-08 1.674578e-08 1.636639e-08 1.686760e-08
1.719880e-08 1.743291e-08 1.709426e-08 1.713668e-08 1.724328e-08 1.751184e-08 1.780669e-08 1.813604e-08 1.687579e-08 1.700468e-08
1.790418e-08 1.773356e-08 1.699521e-08 1.761304e-08 1.775565e-08 1.689882e-08 1.802233e-08 1.776952e-08 1.595227e-08 1.725767e-08
1.723484e-08 1.722993e-08 1.642427e-08 1.823515e-08 1.869899e-08 1.667471e-08 1.638195e-08 1.819128e-08 1.757454e-08 1.681369e-08
1.734651e-08 1.699735e-08 1.625265e-08 1.649677e-08 1.636412e-08 1.712015e-08 1.684017e-08 1.672016e-08 1.577562e-08 1.578051e-08
1.615710e-08 1.593267e-08 1.794886e-08 1.670727e-08 1.715775e-08 1.709364e-08 1.585260e-08 1.689501e-08 1.660727e-08 1.578975e-08
1.651694e-08 1.713672e-08 1.608606e-08 1.579863e-08 1.597498e-08 1.718016e-08 1.694883e-08 1.811329e-08 1.615521e-08 1.687827e-08
1.511851e-08 1.617460e-08 1.687525e-08 1.552443e-08 1.626531e-08 1.685371e-08 1.611540e-08 1.660595e-08 1.755530e-08 1.772460e-08
1.644256e-08 1.642412e-08 1.677551e-08 1.603117e-08 1.572180e-08 1.743649e-08 1.614318e-08 1.656850e-08 1.647864e-08 1.596158e-08
1.718113e-08 1.666383e-08 1.683452e-08 1.645272e-08 1.668088e-08 1.672731e-08 1.572236e-08 1.676768e-08 1.759744e-08 1.681075e-08
1.617222e-08 1.647497e-08 1.697416e-08 1.724881e-08 1.647684e-08 1.597928e-08 1.644476e-08 1.682917e-08 1.669735e-08 1.711702e-08
1.718059e-08 1.679158e-08 1.565935e-08 1.615800e-08 1.635259e-08 1.627364e-08 1.686963e-08 1.657699e-08 1.732067e-08 1.612002e-08
1.701057e-08 1.662593e-08 1.628539e-08 1.606714e-08 1.607045e-08 1.631077e-08 1.620818e-08 1.549117e-08 1.502762e-08 1.678716e-08
1.634521e-08 1.656187e-08 1.611414e-08 1.691515e-08 1.744463e-08 1.581811e-08 1.571773e-08 1.607205e-08 1.589106e-08 1.484627e-08
1.633831e-08 1.569590e-08 1.574896e-08 1.680639e-08 1.622447e-08 1.581780e-08 1.650043e-08 1.627180e-08 1.607324e-08 1.548862e-08
1.633648e-08 1.538339e-08 1.637327e-08 1.675467e-08 1.554279e-08 1.676300e-08 1.516277e-08 1.593233e-08 1.716121e-08 1.594255e-08
1.663057e-08 1.617755e-08 1.681378e-08 1.714571e-08 1.618567e-08 1.627993e-08 1.652911e-08 1.685790e-08 1.614864e-08 1.609773e-08
1.688616e-08 1.661326e-08 1.722691e-08 1.598774e-08 1.618201e-08 1.757285e-08 1.684701e-08 1.642463e-08 1.594607e-08 1.592041e-08
1.554210e-08 1.673496e-08 1.750183e-08 1.629073e-08 1.664093e-08 1.591294e-08 1.668702e-08 1.615923e-08 1.584879e-08 1.762088e-08
1.617268e-08 1.731332e-08 1.596267e-08 1.607297e-08 1.691893e-08 1.651711e-08 1.650087e-08 1.752244e-08 1.644090e-08 1.647714e-08
1.609571e-08 1.741119e-08 1.754531e-08 1.539952e-08 1.623080e-08 1.640156e-08 1.744580e-08 1.617615e-08 1.501804e-08 1.690937e-08
1.645593e-08 1.594785e-08 1.850549e-08 1.638775e-08 1.588515e-08 1.628225e-08 1.655913e-08 1.479615e-08 1.704026e-08 1.690195e-08
1.625283e-08 1.661093e-08 1.691867e-08 1.657041e-08 1.740043e-08 1.625528e-08 1.756852e-08 1.687600e-08 1.812998e-08 1.500697e-08
1.696215e-08 1.555568e-08 1.669491e-08 1.614238e-08 1.622049e-08 1.586249e-08 1.564631e-08 1.777036e-08 1.662738e-08 1.579544e-08
1.563433e-08
1.653566e-08 1.632487e-08 1.614463e-08 1.538884e-08 1.611092e-08 1.688687e-08 1.638685e-08 1.742093e-08 1.588035e-08 1.641371e-08
1.701400e-08 1.775386e-08 1.642020e-08 1.543081e-08 1.700662e-08 1.705731e-08 1.726917e-08 1.697294e-08 1.774934e-08 1.740946e-08
1.546918e-08 1.673754e-08 1.786407e-08 1.744190e-08 1.600109e-08 1.768112e-08 1.709000e-08 1.652916e-08 1.741711e-08 1.710269e-08
1.624508e-08 1.810445e-08 1.604706e-08 1.643294e-08 1.626495e-08 1.674798e-08 1.658398e-08 1.727988e-08 1.758158e-08 1.720899e-08
1.792362e-08 1.692882e-08 1.662763e-08 1.814570e-08 1.577779e-08 1.685767e-08 1.751748e-08 1.643481e-08 1.710141e-08 1.707776e-08
1.699594e-08 1.638382e-08 1.662792e-08 1.655838e-08 1.586730e-08 1.739330e-08 1.648776e-08 1.613994e-08 1.729139e-08 1.686223e-08
1.582259e-08 1.688023e-08 1.534257e-08 1.643132e-08 1.666568e-08 1.566000e-08 1.697111e-08 1.621950e-08 1.598025e-08 1.765167e-08
1.592707e-08 1.671854e-08 1.791712e-08 1.642579e-08 1.604575e-08 1.688007e-08 1.689628e-08 1.749294e-08 1.649402e-08 1.601231e-08
1.762919e-08 1.844190e-08 1.628926e-08 1.545492e-08 1.708281e-08 1.739880e-08 1.703089e-08 1.627765e-08 1.614528e-08 1.721177e-08
1.596531e-08 1.572578e-08 1.730459e-08 1.755714e-08 1.694862e-08 1.664653e-08 1.696290e-08 1.637965e-08 1.679606e-08 1.625189e-08
1.670633e-08 1.614567e-08 1.668642e-08 1.735483e-08 1.645902e-08 1.740067e-08 1.700067e-08 1.628018e-08 1.667724e-08 1.670660e-08
1.734385e-08 1.555611e-08 1.591126e-08 1.619207e-08 1.788272e-08 1.687411e-08 1.683517e-08 1.683991e-08 1.696396e-08 1.622340e-08
1.670692e-08 1.732916e-08 1.729500e-08 1.779240e-08 1.631039e-08 1.600176e-08 1.713136e-08 1.696287e-08 1.646629e-08 1.657037e-08
1.557471e-08 1.688457e-08 1.640841e-08 1.644718e-08 1.735453e-08 1.629385e-08 1.596654e-08 1.812465e-08 1.672340e-08 1.732842e-08
1.784017e-08 1.764989e-08 1.592602e-08 1.656369e-08 1.776479e-08 1.726934e-08 1.804224e-08 1.580169e-08 1.674204e-08 1.773543e-08
1.695726e-08 1.720116e-08 1.565864e-08 1.700798e-08 1.723931e-08 1.758524e-08 1.782791e-08 1.654789e-08 1.841287e-08 1.673841e-08
1.760162e-08 1.658583e-08 1.711435e-08 1.637084e-08 1.563458e-08 1.739125e-08 1.784218e-08 1.646581e-08 1.581655e-08 1.576512e-08
1.672345e-08 1.629689e-08 1.523648e-08 1.623848e-08 1.732198e-08 1.647525e-08 1.691180e-08 1.609857e-08 1.678915e-08 1.583475e-08
1.558319e-08 1.652385e-08 1.660340e-08 1.644175e-08 1.680662e-08 1.518087e-08 1.710578e-08 1.771859e-08 1.549206e-08 1.600215e-08
1.645629e-08 1.567578e-08 1.597517e-08 1.637812e-08 1.798021e-08 1.680516e-08 1.743849e-08 1.718725e-08 1.798199e-08 1.707740e-08
1.569110e-08 1.582469e-08 1.580760e-08 1.617134e-08 1.724772e-08 1.804859e-08 1.634195e-08 1.694373e-08 1.623351e-08 1.612693e-08
1.750151e-08 1.658145e-08 1.817577e-08 1.596346e-08 1.566312e-08 1.798749e-08 1.588937e-08 1.826604e-08 1.715576e-08 1.637361e-08
1.691649e-08 1.560271e-08 1.758334e-08 1.727936e-08 1.550629e-08 1.689615e-08 1.674641e-08 1.565613e-08 1.741365e-08 1.662774e-08
1.584690e-08 1.617571e-08 1.506184e-08 1.685649e-08 1.764881e-08 1.706749e-08 1.626992e-08 1.508270e-08 1.616818e-08 1.579848e-08
1.625632e-08 1.636868e-08 1.557184e-08 1.565405e-08 1.603852e-08 1.695158e-08 1.668988e-08 1.621815e-08 1.627344e-08 1.613653e-08
1.680840e-08 1.607544e-08 1.616213e-08 1.529170e-08 1.594637e-08 1.591049e-08 1.687499e-08 1.696563e-08 1.591676e-08 1.608460e-08
1.596166e-08 1.626641e-08 1.551830e-08 1.661162e-08 1.614021e-08 1.695372e-08 1.638444e-08 1.649908e-08 1.560732e-08 1.622057e-08
1.549274e-08 1.619557e-08 1.606990e-08 1.694394e-08 1.599168e-08 1.576308e-08 1.620763e-08 1.585571e-08 1.652473e-08 1.636673e-08
1.600176e-08 1.581690e-08 1.617470e-08 1.611700e-08 1.639320e-08 1.681784e-08 1.631190e-08 1.585161e-08 1.602802e-08 1.652762e-08
1.504504e-08 1.652681e-08 1.675948e-08 1.603813e-08 1.667544e-08 1.638664e-08 1.670828e-08 1.628529e-08 1.621610e-08 1.760490e-08
1.720440e-08 1.722450e-08 1.645141e-08 1.624656e-08 1.578536e-08 1.631193e-08 1.529803e-08 1.702531e-08 1.595000e-08 1.612803e-08
1.714093e-08 1.644889e-08 1.717409e-08 1.661775e-08 1.734167e-08 1.771692e-08 1.619342e-08 1.581390e-08 1.599869e-08 1.731733e-08
1.761033e-08 1.642001e-08 1.677024e-08 1.659527e-08 1.574129e-08 1.709040e-08 1.642871e-08 1.674366e-08 1.714507e-08 1.706631e-08
1.582972e-08 1.659157e-08 1.625534e-08 1.665177e-08 1.624832e-08 1.642915e-08 1.693032e-08 1.507381e-08 1.704878e-08 1.680678e-08
1.683268e-08 1.658902e-08 1.675064e-08 1.564651e-08 1.682943e-08 1.753954e-08 1.574390e-08 1.700266e-08 1.748990e-08 1.651787e-08
1.735802e-08 1.781340e-08 1.525275e-08 1.543170e-08 1.600768e-08 1.632778e-08 1.676217e-08 1.628035e-08 1.549135e-08 1.579195e-08
1.653566e-08
1.672418e-08 1.604147e-08 1.551468e-08 1.579783e-08 1.804887e-08 1.668065e-08 1.629426e-08 1.703354e-08 1.598312e-08 1.820519e-08
1.697227e-08 1.627342e-08 1.640766e-08 1.654219e-08 1.615949e-08 1.629106e-08 1.692218e-08 1.681546e-08 1.689064e-08 1.630315e-08
1.634145e-08 1.601115e-08 1.694711e-08 1.721344e-08 1.626443e-08 1.622898e-08 1.695821e-08 1.711320e-08 1.734974e-08 1.749259e-08
1.815261e-08 1.600985e-08 1.749434e-08 1.745085e-08 1.716226e-08 1.651903e-08 1.652530e-08 1.752888e-08 1.732158e-08 1.817582e-08
1.689715e-08 1.726388e-08 1.637541e-08 1.613843e-08 1.621181e-08 1.691056e-08 1.619838e-08 1.780299e-08 1.757962e-08 1.699300e-08
1.656207e-08 1.592083e-08 1.665937e-08 1.700034e-08 1.760190e-08 1.744631e-08 1.746286e-08 1.575721e-08 1.677440e-08 1.625184e-08
1.579714e-08 1.567159e-08 1.562732e-08 1.692397e-08 1.723881e-08 1.734804e-08 1.651954e-08 1.590168e-08 1.694218e-08 1.635412e-08
1.489682e-08 1.668551e-08 1.733273e-08 1.640658e-08 1.660069e-08 1.679753e-08 1.586332e-08 1.662385e-08 1.871341e-08 1.670883e-08
1.703849e-08 1.708724e-08 1.650348e-08 1.536461e-08 1.794181e-08 1.637626e-08 1.662832e-08 1.610685e-08 1.751573e-08 1.720110e-08
1.699446e-08 1.708848e-08 1.713263e-08 1.726935e-08 1.631008e-08 1.613197e-08 1.679899e-08 1.651754e-08 1.602128e-08 1.669889e-08
1.710668e-08 1.676006e-08 1.624912e-08 1.663004e-08 1.602478e-08 1.742163e-08 1.765561e-08 1.731887e-08 1.664963e-08 1.589718e-08
1.731434e-08 1.710587e-08 1.603588e-08 1.663600e-08 1.708062e-08 1.717420e-08 1.599214e-08 1.691888e-08 1.698990e-08 1.786781e-08
1.613565e-08 1.648871e-08 1.599761e-08 1.691879e-08 1.702113e-08 1.655247e-08 1.692186e-08 1.672284e-08 1.629357e-08 1.756255e-08
1.636433e-08 1.787546e-08 1.701598e-08 1.739633e-08 1.600585e-08 1.654044e-08 1.761775e-08 1.761713e-08 1.681437e-08 1.793701e-08
1.760468e-08 1.640020e-08 1.626970e-08 1.668714e-08 1.670079e-08 1.831726e-08 1.613921e-08 1.616716e-08 1.735845e-08 1.616685e-08
1.672793e-08 1.698941e-08 1.692660e-08 1.716064e-08 1.788394e-08 1.591771e-08 1.739730e-08 1.675060e-08 1.666534e-08 1.708881e-08
1.643403e-08 1.701307e-08 1.727574e-08 1.662131e-08 1.716987e-08 1.752985e-08 1.693863e-08 1.692026e-08 1.575336e-08 1.574109e-08
1.595450e-08 1.579566e-08 1.681743e-08 1.550077e-08 1.619441e-08 1.696812e-08 1.590975e-08 1.639345e-08 1.530423e-08 1.515559e-08
1.644496e-08 1.749608e-08 1.624744e-08 1.673370e-08 1.685343e-08 1.657044e-08 1.715524e-08 1.670167e-08 1.634047e-08 1.765692e-08
1.645054e-08 1.626275e-08 1.678266e-08 1.624677e-08 1.607116e-08 1.702815e-08 1.642062e-08 1.651247e-08 1.661856e-08 1.677865e-08
1.673580e-08 1.632800e-08 1.592921e-08 1.554378e-08 1.681079e-08 1.663126e-08 1.636786e-08 1.568455e-08 1.706918e-08 1.543769e-08
1.722486e-08 1.603780e-08 1.712372e-08 1.519377e-08 1.639348e-08 1.626574e-08 1.676814e-08 1.693139e-08 1.660767e-08 1.695942e-08
1.800864e-08 1.808778e-08 1.624941e-08 1.664798e-08 1.713592e-08 1.642371e-08 1.636318e-08 1.673614e-08 1.662619e-08 1.623128e-08
1.630205e-08 1.657030e-08 1.535018e-08 1.672853e-08 1.548717e-08 1.545904e-08 1.710911e-08 1.664792e-08 1.650822e-08 1.623964e-08
1.713323e-08 1.619392e-08 1.620386e-08 1.626375e-08 1.707661e-08 1.717381e-08 1.678541e-08 1.566770e-08 1.635173e-08 1.622438e-08
1.596191e-08 1.589923e-08 1.676217e-08 1.559858e-08 1.777012e-08 1.597987e-08 1.638500e-08 1.635992e-08 1.609625e-08 1.627761e-08
1.585276e-08 1.627311e-08 1.596563e-08 1.652713e-08 1.557376e-08 1.560168e-08 1.603013e-08 1.583451e-08 1.556481e-08 1.590814e-08
1.714869e-08 1.731192e-08 1.564549e-08 1.541225e-08 1.629206e-08 1.625884e-08 1.690984e-08 1.642670e-08 1.633472e-08 1.748090e-08
1.652784e-08 1.683744e-08 1.508331e-08 1.556965e-08 1.535830e-08 1.625321e-08 1.548841e-08 1.713680e-08 1.613792e-08 1.704730e-08
1.704030e-08 1.550079e-08 1.555126e-08 1.665035e-08 1.618152e-08 1.559868e-08 1.584662e-08 1.656982e-08 1.742247e-08 1.659708e-08
1.568981e-08 1.637120e-08 1.619038e-08 1.701990e-08 1.648157e-08 1.610472e-08 1.701295e-08 1.644506e-08 1.661425e-08 1.585848e-08
1.637252e-08 1.742053e-08 1.673824e-08 1.583220e-08 1.607083e-08 1.687561e-08 1.684696e-08 1.659131e-08 1.538142e-08 1.754355e-08
1.629315e-08 1.700458e-08 1.803619e-08 1.587946e-08 1.693567e-08 1.599118e-08 1.711629e-08 1.745754e-08 1.643932e-08 1.633875e-08
1.631394e-08 1.748963e-08 1.600913e-08 1.604811e-08 1.647209e-08 1.769019e-08 1.595976e-08 1.706904e-08 1.662739e-08 1.606817e-08
1.767389e-08 1.767264e-08 1.607606e-08 1.729356e-08 1.643471e-08 1.710277e-08 1.708009e-08 1.720373e-08 1.707248e-08 1.672388e-08
1.644136e-08 1.660581e-08 1.619440e-08 1.682927e-08 1.722558e-08 1.602033e-08 1.528369e-08 1.604081e-08 1.520637e-08 1.669275e-08
1.672418e-08
1.614670e-08 1.538015e-08 1.564426e-08 1.598845e-08 1.675918e-08 1.659735e-08 1.653026e-08 1.640482e-08 1.541177e-08 1.649971e-08
1.627991e-08 1.548587e-08 1.665540e-08 1.758807e-08 1.664937e-08 1.735094e-08 1.547006e-08 1.728841e-08 1.575980e-08 1.658608e-08
1.641493e-08 1.660729e-08 1.869522e-08 1.673470e-08 1.714659e-08 1.527751e-08 1.682030e-08 1.724947e-08 1.632067e-08 1.758507e-08
1.591318e-08 1.724134e-08 1.696440e-08 1.616671e-08 1.580000e-08 1.733449e-08 1.615768e-08 1.556742e-08 1.713879e-08 1.704353e-08
1.685140e-08 1.848942e-08 1.663987e-08 1.680842e-08 1.681698e-08 1.578787e-08 1.627382e-08 1.753857e-08 1.693053e-08 1.698814e-08
1.714332e-08 1.680643e-08 1.688255e-08 1.527083e-08 1.696431e-08 1.706280e-08 1.625254e-08 1.690901e-08 1.583796e-08 1.716973e-08
1.682786e-08 1.691384e-08 1.684865e-08 1.672122e-08 1.632144e-08 1.704695e-08 1.630817e-08 1.653826e-08 1.667209e-08 1.613398e-08
1.601892e-08 1.618188e-08 1.677862e-08 1.672726e-08 1.603767e-08 1.589754e-08 1.730326e-08 1.743239e-08 1.684131e-08 1.615304e-08
1.615750e-08 1.628745e-08 1.716023e-08 1.610819e-08 1.767942e-08 1.783011e-08 1.699813e-08 1.634138e-08 1.592063e-08 1.656361e-08
1.649384e-08 1.699582e-08 1.757564e-08 1.790362e-08 1.530396e-08 1.671222e-08 1.773984e-08 1.637495e-08 1.676431e-08 1.763441e-08
1.666525e-08 1.746193e-08 1.650694e-08 1.669760e-08 1.720230e-08 1.824191e-08 1.698576e-08 1.720095e-08 1.732452e-08 1.709727e-08
1.715011e-08 1.599315e-08 1.671529e-08 1.628393e-08 1.712305e-08 1.606851e-08 1.735128e-08 1.735437e-08 1.694475e-08 1.590187e-08
1.617734e-08 1.663207e-08 1.662515e-08 1.675791e-08 1.700167e-08 1.644853e-08 1.646102e-08 1.763827e-08 1.620750e-08 1.685430e-08
1.737207e-08 1.759963e-08 1.715654e-08 1.705875e-08 1.653916e-08 1.714574e-08 1.716802e-08 1.654959e-08 1.713996e-08 1.627779e-08
1.712860e-08 1.628687e-08 1.583791e-08 1.732906e-08 1.749210e-08 1.713846e-08 1.721015e-08 1.693159e-08 1.726959e-08 1.703712e-08
1.645265e-08 1.633382e-08 1.580068e-08 1.615679e-08 1.697871e-08 1.676833e-08 1.687960e-08 1.769633e-08 1.604854e-08 1.541449e-08
1.770659e-08 1.746526e-08 1.666539e-08 1.681760e-08 1.729137e-08 1.677085e-08 1.775601e-08 1.703485e-08 1.625810e-08 1.645857e-08
1.754212e-08 1.682230e-08 1.692234e-08 1.581799e-08 1.647280e-08 1.493129e-08 1.618425e-08 1.683959e-08 1.470847e-08 1.683137e-08
1.628438e-08 1.598595e-08 1.581767e-08 1.652804e-08 1.696501e-08 1.673480e-08 1.664804e-08 1.567690e-08 1.667196e-08 1.584481e-08
1.565566e-08 1.677513e-08 1.683446e-08 1.702425e-08 1.710245e-08 1.712720e-08 1.760848e-08 1.649227e-08 1.705130e-08 1.748193e-08
1.648989e-08 1.705057e-08 1.582410e-08 1.567733e-08 1.733276e-08 1.689235e-08 1.624237e-08 1.573124e-08 1.594541e-08 1.747007e-08
1.693478e-08 1.587545e-08 1.545315e-08 1.662568e-08 1.679201e-08 1.645711e-08 1.560481e-08 1.577961e-08 1.676322e-08 1.713910e-08
1.604577e-08 1.642885e-08 1.723750e-08 1.653265e-08 1.706703e-08 1.662895e-08 1.641804e-08 1.666790e-08 1.538833e-08 1.575950e-08
1.609829e-08 1.665925e-08 1.640382e-08 1.610184e-08 1.637067e-08 1.578089e-08 1.577138e-08 1.706706e-08 1.735484e-08 1.550837e-08
1.687551e-08 1.652805e-08 1.590419e-08 1.548033e-08 1.689847e-08 1.623219e-08 1.606768e-08 1.663549e-08 1.655091e-08 1.570407e-08
1.662960e-08 1.553788e-08 1.665183e-08 1.603762e-08 1.528101e-08 1.664623e-08 1.677186e-08 1.560860e-08 1.610557e-08 1.676781e-08
1.641866e-08 1.826225e-08 1.482438e-08 1.588575e-08 1.770682e-08 1.649560e-08 1.608733e-08 1.683515e-08 1.565812e-08 1.626618e-08
1.626040e-08 1.580833e-08 1.568218e-08 1.658126e-08 1.609173e-08 1.666890e-08 1.624483e-08 1.648547e-08 1.607045e-08 1.665037e-08
1.614173e-08 1.688622e-08 1.589532e-08 1.612750e-08 1.610499e-08 1.574634e-08 1.495137e-08 1.747384e-08 1.616868e-08 1.596837e-08
1.590124e-08 1.699045e-08 1.626105e-08 1.626968e-08 1.635549e-08 1.463416e-08 1.754995e-08 1.684215e-08 1.523020e-08 1.678674e-08
1.683700e-08 1.641363e-08 1.550209e-08 1.577911e-08 1.682336e-08 1.612510e-08 1.528208e-08 1.551918e-08 1.663903e-08 1.638001e-08
1.729412e-08 1.637322e-08 1.633862e-08 1.529134e-08 1.693931e-08 1.585719e-08 1.605422e-08 1.753325e-08 1.747137e-08 1.620340e-08
1.606149e-08 1.688367e-08 1.643499e-08 1.578032e-08 1.760777e-08 1.480114e-08 1.824844e-08 1.690435e-08 1.596872e-08 1.596183e-08
1.697000e-08 1.540760e-08 1.609417e-08 1.702195e-08 1.675046e-08 1.685328e-08 1.676978e-08 1.590561e-08 1.610966e-08 1.745243e-08
1.642598e-08 1.777462e-08 1.650897e-08 1.508659e-08 1.677515e-08 1.595815e-08 1.547936e-08 1.570770e-08 1.555890e-08 1.723998e-08
1.637302e-08 1.563051e-08 1.631257e-08 1.562334e-08 1.610237e-08 1.811217e-08 1.576800e-08 1.523585e-08 1.643996e-08 1.587504e-08
1.614670e-08
1.672751e-08 1.614552e-08 1.503695e-08 1.659783e-08 1.570501e-08 1.583343e-08 1.554477e-08 1.683520e-08 1.589693e-08 1.571511e-08
1.715947e-08 1.558241e-08 1.734070e-08 1.690347e-08 1.656331e-08 1.594025e-08 1.619675e-08 1.600094e-08 1.508885e-08 1.734267e-08
1.566916e-08 1.662183e-08 1.615213e-08 1.575553e-08 1.605315e-08 1.702973e-08 1.695533e-08 1.584958e-08 1.766323e-08 1.703981e-08
1.716448e-08 1.566416e-08 1.600456e-08 1.693242e-08 1.669662e-08 1.668120e-08 1.673158e-08 1.627917e-08 1.615228e-08 1.715389e-08
1.535268e-08 1.733746e-08 1.678184e-08 1.790753e-08 1.744404e-08 1.705529e-08 1.592588e-08 1.580270e-08 1.685999e-08 1.639528e-08
1.640642e-08 1.507416e-08 1.624607e-08 1.729017e-08 1.615221e-08 1.699503e-08 1.811924e-08 1.694239e-08 1.675760e-08 1.611515e-08
1.639206e-08 1.577746e-08 1.701395e-08 1.668962e-08 1.746465e-08 1.654622e-08 1.614329e-08 1.645474e-08 1.828700e-08 1.679823e-08
1.654289e-08 1.670147e-08 1.622248e-08 1.640706e-08 1.597009e-08 1.754338e-08 1.633528e-08 1.540571e-08 1.619832e-08 1.548056e-08
1.640548e-08 1.671072e-08 1.649140e-08 1.570231e-08 1.588120e-08 1.657929e-08 1.616516e-08 1.634089e-08 1.703998e-08 1.632806e-08
1.682677e-08 1.602486e-08 1.569262e-08 1.753151e-08 1.638672e-08 1.694689e-08 1.558316e-08 1.594160e-08 1.627040e-08 1.814062e-08
1.647184e-08 1.681193e-08 1.559024e-08 1.715699e-08 1.625090e-08 1.777559e-08 1.649237e-08 1.588596e-08 1.665236e-08 1.681726e-08
1.707876e-08 1.658897e-08 1.720154e-08 1.557652e-08 1.709935e-08 1.679416e-08 1.625971e-08 1.610468e-08 1.727914e-08 1.616428e-08
1.567894e-08 1.611252e-08 1.615948e-08 1.649626e-08 1.772666e-08 1.614665e-08 1.610878e-08 1.753003e-08 1.679618e-08 1.635696e-08
1.726083e-08 1.518070e-08 1.732368e-08 1.626015e-08 1.621676e-08 1.799850e-08 1.676097e-08 1.680334e-08 1.693427e-08 1.600821e-08
1.586577e-08 1.676355e-08 1.709662e-08 1.749845e-08 1.839923e-08 1.679287e-08 1.676763e-08 1.613707e-08 1.588374e-08 1.679839e-08
1.751047e-08 1.666808e-08 1.619220e-08 1.637547e-08 1.698202e-08 1.689772e-08 1.753373e-08 1.723680e-08 1.670503e-08 1.684660e-08
1.765061e-08 1.661568e-08 1.601552e-08 1.633905e-08 1.555672e-08 1.541169e-08 1.652262e-08 1.557985e-08 1.692740e-08 1.528831e-08
1.590165e-08 1.755818e-08 1.653673e-08 1.663538e-08 1.642613e-08 1.581423e-08 1.519378e-08 1.664564e-08 1.522868e-08 1.585382e-08
1.604833e-08 1.728636e-08 1.527536e-08 1.555256e-08 1.562864e-08 1.594191e-08 1.604730e-08 1.620069e-08 1.623539e-08 1.602253e-08
1.686342e-08 1.668075e-08 1.583473e-08 1.620122e-08 1.612374e-08 1.610822e-08 1.724794e-08 1.660051e-08 1.664312e-08 1.693158e-08
1.648491e-08 1.569520e-08 1.604175e-08 1.624934e-08 1.604563e-08 1.580175e-08 1.717696e-08 1.617333e-08 1.734527e-08 1.596092e-08
1.730763e-08 1.595322e-08 1.744812e-08 1.642996e-08 1.567818e-08 1.667136e-08 1.656780e-08 1.738449e-08 1.739381e-08 1.692779e-08
1.616969e-08 1.606868e-08 1.627588e-08 1.617481e-08 1.649041e-08 1.586359e-08 1.627668e-08 1.511573e-08 1.630937e-08 1.752544e-08
1.576837e-08 1.560037e-08 1.632217e-08 1.569917e-08 1.677499e-08 1.601148e-08 1.683438e-08 1.604706e-08 1.621592e-08 1.496695e-08
1.573699e-08 1.599926e-08 1.773813e-08 1.586893e-08 1.679325e-08 1.639350e-08 1.577364e-08 1.556554e-08 1.656571e-08 1.572709e-08
1.641545e-08 1.560310e-08 1.721383e-08 1.517104e-08 1.609608e-08 1.631452e-08 1.621817e-08 1.624456e-08 1.521151e-08 1.615447e-08
1.526296e-08 1.499521e-08 1.666170e-08 1.573216e-08 1.667610e-08 1.585055e-08 1.638300e-08 1.549648e-08 1.551513e-08 1.681100e-08
1.665759e-08 1.526829e-08 1.584642e-08 1.672010e-08 1.537205e-08 1.627301e-08 1.657179e-08 1.506010e-08 1.645391e-08 1.597449e-08
1.649953e-08 1.620271e-08 1.560756e-08 1.539317e-08 1.657703e-08 1.655245e-08 1.721766e-08 1.579382e-08 1.678551e-08 1.576285e-08
1.540086e-08 1.713008e-08 1.713647e-08 1.551399e-08 1.566205e-08 1.668652e-08 1.747914e-08 1.577803e-08 1.637581e-08 1.669224e-08
1.697204e-08 1.781319e-08 1.661015e-08 1.612091e-08 1.622145e-08 1.527842e-08 1.588988e-08 1.548077e-08 1.631997e-08 1.727476e-08
1.636138e-08 1.625287e-08 1.611031e-08 1.595378e-08 1.730422e-08 1.575389e-08 1.601006e-08 1.821523e-08 1.638711e-08 1.502247e-08
1.621715e-08 1.623642e-08 1.601191e-08 1.562604e-08 1.598101e-08 1.655353e-08 1.582573e-08 1.588649e-08 1.622350e-08 1.649922e-08
1.556925e-08 1.654756e-08 1.599682e-08 1.690979e-08 1.668374e-08 1.650796e-08 1.625019e-08 1.676407e-08 1.544559e-08 1.581346e-08
1.627595e-08 1.591640e-08 1.580935e-08 1.660397e-08 1.592100e-08 1.638785e-08 1.686214e-08 1.639354e-08 1.654769e-08 1.608295e-08
1.620273e-08 1.596906e-08 1.675295e-08 1.626761e-08 1.572117e-08 1.740313e-08 1.641005e-08 1.665095e-08 1.594436e-08 1.628523e-08
1.672751e-08
1.701163e-08 1.661241e-08 1.483884e-08 1.525998e-08 1.626757e-08 1.552615e-08 1.634369e-08 1.570693e-08 1.557094e-08 1.592694e-08
1.587618e-08 1.599202e-08 1.689611e-08 1.627003e-08 1.552959e-08 1.552556e-08 1.631300e-08 1.741515e-08 1.514969e-08 1.641392e-08
1.552156e-08 1.647695e-08 1.636678e-08 1.630671e-08 1.625294e-08 1.655167e-08 1.599615e-08 1.655706e-08 1.692599e-08 1.672145e-08
1.617281e-08 1.674277e-08 1.811011e-08 1.502759e-08 1.667726e-08 1.774415e-08 1.619903e-08 1.728732e-08 1.537898e-08 1.756177e-08
1.652504e-08 1.650690e-08 1.509592e-08 1.637752e-08 1.649891e-08 1.619143e-08 1.714282e-08 1.719089e-08 1.645786e-08 1.621567e-08
1.586499e-08 1.669871e-08 1.662932e-08 1.744346e-08 1.742663e-08 1.648041e-08 1.661977e-08 1.626842e-08 1.622521e-08 1.706809e-08
1.671452e-08 1.694039e-08 1.561765e-08 1.664008e-08 1.576410e-08 1.635419e-08 1.714780e-08 1.701899e-08 1.647050e-08 1.689862e-08
1.538818e-08 1.659035e-08 1.724838e-08 1.677460e-08 1.597862e-08 1.663921e-08 1.627810e-08 1.698159e-08 1.595498e-08 1.789201e-08
1.699437e-08 1.666488e-08 1.725272e-08 1.668296e-08 1.595532e-08 1.618095e-08 1.636514e-08 1.617994e-08 1.788788e-08 1.624494e-08
1.670309e-08 1.658301e-08 1.606793e-08 1.555956e-08 1.680925e-08 1.705237e-08 1.705674e-08 1.647734e-08 1.692868e-08 1.622232e-08
1.696560e-08 1.717356e-08 1.699126e-08 1.692312e-08 1.614020e-08 1.775949e-08 1.685156e-08 1.699908e-08 1.689033e-08 1.629631e-08
1.600326e-08 1.622319e-08 1.700213e-08 1.693501e-08 1.609454e-08 1.552326e-08 1.621416e-08 1.798592e-08 1.726657e-08 1.610074e-08
1.619395e-08 1.663083e-08 1.751160e-08 1.789925e-08 1.603322e-08 1.769987e-08 1.633114e-08 1.621392e-08 1.669850e-08 1.567913e-08
1.560359e-08 1.566223e-08 1.753919e-08 1.702263e-08 1.636736e-08 1.618287e-08 1.593304e-08 1.617772e-08 1.717315e-08 1.716283e-08
1.565598e-08 1.761576e-08 1.758195e-08 1.531567e-08 1.805277e-08 1.561853e-08 1.610794e-08 1.589548e-08 1.787527e-08 1.637530e-08
1.627006e-08 1.595423e-08 1.644611e-08 1.636315e-08 1.637225e-08 1.620167e-08 1.575338e-08 1.535116e-08 1.529525e-08 1.591301e-08
1.812400e-08 1.538606e-08 1.611835e-08 1.668266e-08 1.646273e-08 1.622781e-08 1.621810e-08 1.570047e-08 1.820346e-08 1.718395e-08
1.619562e-08 1.590333e-08 1.520574e-08 1.595732e-08 1.519398e-08 1.663333e-08 1.531786e-08 1.618454e-08 1.556827e-08 1.602477e-08
1.683776e-08 1.607496e-08 1.699631e-08 1.567720e-08 1.583842e-08 1.504083e-08 1.515530e-08 1.669015e-08 1.659941e-08 1.591729e-08
1.618206e-08 1.609534e-08 1.491919e-08 1.745081e-08 1.572138e-08 1.699938e-08 1.667899e-08 1.722660e-08 1.720925e-08 1.608649e-08
1.603456e-08 1.620815e-08 1.595705e-08 1.707260e-08 1.624037e-08 1.770540e-08 1.684449e-08 1.606619e-08 1.583765e-08 1.649501e-08
1.604680e-08 1.656094e-08 1.602923e-08 1.583987e-08 1.600944e-08 1.595865e-08 1.778667e-08 1.527755e-08 1.650046e-08 1.595985e-08
1.589271e-08 1.711066e-08 1.609638e-08 1.744864e-08 1.617411e-08 1.710383e-08 1.600078e-08 1.545933e-08 1.617288e-08 1.559074e-08
1.559461e-08 1.571857e-08 1.564167e-08 1.582438e-08 1.607266e-08 1.697598e-08 1.592531e-08 1.632990e-08 1.695971e-08 1.546058e-08
1.679463e-08 1.670294e-08 1.625486e-08 1.610469e-08 1.648293e-08 1.613162e-08 1.660018e-08 1.607540e-08 1.623105e-08 1.659631e-08
1.487402e-08 1.739009e-08 1.641701e-08 1.542885e-08 1.615003e-08 1.491087e-08 1.632187e-08 1.602421e-08 1.700100e-08 1.567418e-08
1.639624e-08 1.691564e-08 1.690836e-08 1.537282e-08 1.659849e-08 1.554873e-08 1.619113e-08 1.580621e-08 1.643222e-08 1.636813e-08
1.521466e-08 1.560648e-08 1.618851e-08 1.561682e-08 1.641871e-08 1.653592e-08 1.629395e-08 1.509575e-08 1.488161e-08 1.634029e-08
1.560475e-08 1.574720e-08 1.611180e-08 1.685971e-08 1.625879e-08 1.649270e-08 1.669913e-08 1.605556e-08 1.547736e-08 1.581100e-08
1.490216e-08 1.610621e-08 1.578548e-08 1.564375e-08 1.619220e-08 1.645612e-08 1.606490e-08 1.568990e-08 1.632306e-08 1.614852e-08
1.606703e-08 1.581372e-08 1.738974e-08 1.526823e-08 1.532850e-08 1.741300e-08 1.544938e-08 1.666407e-08 1.618942e-08 1.495480e-08
1.561450e-08 1.724849e-08 1.630017e-08 1.655231e-08 1.676248e-08 1.749864e-08 1.649441e-08 1.687709e-08 1.696636e-08 1.571152e-08
1.502143e-08 1.637332e-08 1.777170e-08 1.665343e-08 1.510894e-08 1.706424e-08 1.784818e-08 1.640477e-08 1.751484e-08 1.686928e-08
1.555841e-08 1.573610e-08 1.605682e-08 1.587869e-08 1.749167e-08 1.680301e-08 1.614492e-08 1.689904e-08 1.532992e-08 1.626864e-08
1.704490e-08 1.596176e-08 1.578070e-08 1.655164e-08 1.686261e-08 1.583838e-08 1.596815e-08 1.709513e-08 1.661544e-08 1.639413e-08
1.613317e-08 1.677294e-08 1.596791e-08 1.573681e-08 1.651583e-08 1.546526e-08 1.671670e-08 1.638061e-08 1.743988e-08 1.602109e-08
1.701163e-08
1.530528e-08 1.720685e-08 1.689993e-08 1.536836e-08 1.545140e-08 1.562920e-08 1.657214e-08 1.764158e-08 1.566112e-08 1.684846e-08
1.607489e-08 1.610536e-08 1.544558e-08 1.719132e-08 1.610291e-08 1.686801e-08 1.585275e-08 1.600612e-08 1.677355e-08 1.633258e-08
1.659913e-08 1.651628e-08 1.571305e-08 1.685863e-08 1.633637e-08 1.825002e-08 1.543255e-08 1.746125e-08 1.601153e-08 1.581031e-08
1.622947e-08 1.579787e-08 1.645709e-08 1.618905e-08 1.597147e-08 1.652216e-08 1.660461e-08 1.568175e-08 1.537938e-08 1.738584e-08
1.700006e-08 1.722814e-08 1.673582e-08 1.651700e-08 1.714680e-08 1.618746e-08 1.651071e-08 1.620009e-08 1.633965e-08 1.540613e-08
1.610720e-08 1.759224e-08 1.614817e-08 1.702745e-08 1.739510e-08 1.618519e-08 1.703242e-08 1.743172e-08 1.671078e-08 1.721338e-08
1.667166e-08 1.640032e-08 1.581038e-08 1.602618e-08 1.669798e-08 1.635312e-08 1.677497e-08 1.673946e-08 1.672441e-08 1.737434e-08
1.603962e-08 1.686544e-08 1.746297e-08 1.658717e-08 1.514768e-08 1.575807e-08 1.630302e-08 1.616538e-08 1.701199e-08 1.661365e-08
1.604760e-08 1.722861e-08 1.706016e-08 1.532847e-08 1.787735e-08 1.727229e-08 1.557848e-08 1.759717e-08 1.705464e-08 1.710620e-08
1.625812e-08 1.672738e-08 1.659038e-08 1.590651e-08 1.656152e-08 1.593721e-08 1.602664e-08 1.764603e-08 1.738243e-08 1.690723e-08
1.656884e-08 1.749364e-08 1.710706e-08 1.645689e-08 1.670349e-08 1.632710e-08 1.718764e-08 1.665244e-08 1.621436e-08 1.663124e-08
1.695187e-08 1.779134e-08 1.632771e-08 1.686789e-08 1.688271e-08 1.774107e-08 1.616148e-08 1.690686e-08 1.742206e-08 1.637372e-08
1.655103e-08 1.607433e-08 1.632936e-08 1.559536e-08 1.758664e-08 1.662579e-08 1.664055e-08 1.605734e-08 1.617682e-08 1.641684e-08
1.707734e-08 1.619596e-08 1.590375e-08 1.662975e-08 1.758075e-08 1.640053e-08 1.664633e-08 1.702447e-08 1.680296e-08 1.635855e-08
1.632988e-08 1.715093e-08 1.710442e-08 1.717815e-08 1.730117e-08 1.555504e-08 1.657592e-08 1.687995e-08 1.556536e-08 1.788269e-08
1.596798e-08 1.657554e-08 1.753710e-08 1.733481e-08 1.601632e-08 1.720912e-08 1.660897e-08 1.630366e-08 1.705874e-08 1.613436e-08
1.605748e-08 1.712728e-08 1.683612e-08 1.669664e-08 1.542652e-08 1.672396e-08 1.568014e-08 1.633238e-08 1.635479e-08 1.527868e-08
1.602231e-08 1.608119e-08 1.662953e-08 1.685782e-08 1.521643e-08 1.579977e-08 1.510512e-08 1.501936e-08 1.664923e-08 1.664958e-08
1.628304e-08 1.646592e-08 1.494884e-08 1.565066e-08 1.628548e-08 1.660709e-08 1.645565e-08 1.642494e-08 1.603920e-08 1.600187e-08
1.608969e-08 1.659083e-08 1.708610e-08 1.559986e-08 1.614298e-08 1.583002e-08 1.555522e-08 1.592292e-08 1.699232e-08 1.581965e-08
1.671547e-08 1.724722e-08 1.507274e-08 1.631615e-08 1.722324e-08 1.525836e-08 1.675374e-08 1.594720e-08 1.672138e-08 1.589043e-08
1.587049e-08 1.656761e-08 1.679519e-08 1.642527e-08 1.623499e-08 1.552925e-08 1.616743e-08 1.575637e-08 1.597023e-08 1.544272e-08
1.594551e-08 1.532938e-08 1.571738e-08 1.592272e-08 1.588412e-08 1.664170e-08 1.617660e-08 1.746801e-08 1.563747e-08 1.496769e-08
1.645823e-08 1.644111e-08 1.609497e-08 1.673653e-08 1.589878e-08 1.698824e-08 1.618837e-08 1.594035e-08 1.700905e-08 1.583590e-08
1.516561e-08 1.478840e-08 1.520390e-08 1.663718e-08 1.652398e-08 1.612339e-08 1.712653e-08 1.598196e-08 1.631124e-08 1.582930e-08
1.548498e-08 1.576793e-08 1.552195e-08 1.649478e-08 1.617751e-08 1.763393e-08 1.684631e-08 1.679276e-08 1.631719e-08 1.510299e-08
1.652996e-08 1.589227e-08 1.624477e-08 1.591881e-08 1.577080e-08 1.634074e-08 1.710179e-08 1.780208e-08 1.631515e-08 1.576259e-08
1.547953e-08 1.632923e-08 1.586581e-08 1.618416e-08 1.641743e-08 1.682991e-08 1.562815e-08 1.612268e-08 1.691074e-08 1.638399e-08
1.498218e-08 1.589241e-08 1.699948e-08 1.657215e-08 1.678201e-08 1.565508e-08 1.706894e-08 1.618062e-08 1.602963e-08 1.543757e-08
1.763117e-08 1.503957e-08 1.627855e-08 1.664165e-08 1.514822e-08 1.645687e-08 1.631816e-08 1.554780e-08 1.644678e-08 1.570672e-08
1.607310e-08 1.540909e-08 1.654146e-08 1.607574e-08 1.668607e-08 1.645562e-08 1.641557e-08 1.709318e-08 1.697641e-08 1.727697e-08
1.630925e-08 1.666091e-08 1.713530e-08 1.664515e-08 1.630029e-08 1.587549e-08 1.693710e-08 1.649470e-08 1.678979e-08 1.517045e-08
1.651491e-08 1.582242e-08 1.589290e-08 1.618232e-08 1.768832e-08 1.591958e-08 1.548610e-08 1.666451e-08 1.695867e-08 1.628837e-08
1.494468e-08 1.602919e-08 1.462216e-08 1.511426e-08 1.695676e-08 1.540718e-08 1.641870e-08 1.518571e-08 1.515681e-08 1.641963e-08
1.588103e-08 1.524962e-08 1.652629e-08 1.477393e-08 1.499757e-08 1.643018e-08 1.605011e-08 1.710990e-08 1.490996e-08 1.660232e-08
1.510562e-08 1.561560e-08 1.676512e-08 1.557589e-08 1.677554e-08 1.568723e-08 1.543867e-08 1.710363e-08 1.647404e-08 1.589480e-08
1.530528e-08
1.568965e-08 1.570564e-08 1.633848e-08 1.501069e-08 1.546737e-08 1.624838e-08 1.689594e-08 1.451306e-08 1.623265e-08 1.571389e-08
1.579480e-08 1.570819e-08 1.600504e-08 1.585613e-08 1.594140e-08 1.496238e-08 1.698686e-08 1.619985e-08 1.596612e-08 1.681601e-08
1.681423e-08 1.686921e-08 1.695090e-08 1.668694e-08 1.572350e-08 1.722905e-08 1.603891e-08 1.529242e-08 1.616975e-08 1.771721e-08
1.674932e-08 1.561670e-08 1.608104e-08 1.560509e-08 1.654135e-08 1.676261e-08 1.594773e-08 1.711551e-08 1.612586e-08 1.705367e-08
1.686078e-08 1.639501e-08 1.696963e-08 1.625983e-08 1.669273e-08 1.674910e-08 1.633594e-08 1.740004e-08 1.673302e-08 1.544076e-08
1.693599e-08 1.725249e-08 1.615060e-08 1.669096e-08 1.610560e-08 1.696831e-08 1.751406e-08 1.622603e-08 1.556339e-08 1.602573e-08
1.573709e-08 1.504574e-08 1.631808e-08 1.674490e-08 1.600313e-08 1.611400e-08 1.669387e-08 1.688997e-08 1.754630e-08 1.641337e-08
1.777247e-08 1.800608e-08 1.610404e-08 1.582717e-08 1.635261e-08 1.706564e-08 1.625702e-08 1.677492e-08 1.710064e-08 1.619846e-08
1.599697e-08 1.627253e-08 1.829156e-08 1.620551e-08 1.584712e-08 1.676545e-08 1.599079e-08 1.538193e-08 1.673989e-08 1.566112e-08
1.555902e-08 1.685518e-08 1.637026e-08 1.619502e-08 1.679554e-08 1.615689e-08 1.644840e-08 1.745036e-08 1.716124e-08 1.737665e-08
1.565803e-08 1.525900e-08 1.689424e-08 1.592566e-08 1.713162e-08 1.676101e-08 1.678454e-08 1.642566e-08 1.563357e-08 1.730332e-08
1.721221e-08 1.650874e-08 1.642356e-08 1.652254e-08 1.706292e-08 1.678995e-08 1.625275e-08 1.629986e-08 1.707152e-08 1.542252e-08
1.555735e-08 1.540294e-08 1.589098e-08 1.580044e-08 1.578022e-08 1.454061e-08 1.616636e-08 1.748327e-08 1.636481e-08 1.594937e-08
1.636256e-08 1.566640e-08 1.647073e-08 1.607308e-08 1.623227e-08 1.566712e-08 1.721176e-08 1.472294e-08 1.607294e-08 1.530930e-08
1.629006e-08 1.596605e-08 1.674695e-08 1.555999e-08 1.667182e-08 1.578827e-08 1.576870e-08 1.608027e-08 1.762614e-08 1.611700e-08
1.576786e-08 1.692970e-08 1.736893e-08 1.662030e-08 1.634933e-08 1.565320e-08 1.646458e-08 1.551715e-08 1.577957e-08 1.509059e-08
1.605583e-08 1.622713e-08 1.658852e-08 1.574796e-08 1.559331e-08 1.718683e-08 1.613232e-08 1.676796e-08 1.664908e-08 1.554060e-08
1.619371e-08 1.633739e-08 1.594528e-08 1.623020e-08 1.547706e-08 1.600132e-08 1.638639e-08 1.595992e-08 1.577004e-08 1.569822e-08
1.438839e-08 1.533364e-08 1.566842e-08 1.489336e-08 1.662505e-08 1.742146e-08 1.714834e-08 1.539972e-08 1.539782e-08 1.702010e-08
1.631427e-08 1.634649e-08 1.612976e-08 1.619653e-08 1.583950e-08 1.768990e-08 1.593189e-08 1.712325e-08 1.693513e-08 1.611966e-08
1.599245e-08 1.611160e-08 1.595726e-08 1.521042e-08 1.553995e-08 1.542831e-08 1.538113e-08 1.688693e-08 1.731111e-08 1.579022e-08
1.616232e-08 1.642193e-08 1.621816e-08 1.506183e-08 1.673602e-08 1.691004e-08 1.626925e-08 1.671584e-08 1.516764e-08 1.722048e-08
1.720125e-08 1.615810e-08 1.791485e-08 1.537555e-08 1.548605e-08 1.582191e-08 1.597988e-08 1.595006e-08 1.464023e-08 1.624987e-08
1.573211e-08 1.705966e-08 1.713916e-08 1.604837e-08 1.550458e-08 1.691222e-08 1.571991e-08 1.721710e-08 1.539956e-08 1.531520e-08
1.690030e-08 1.593503e-08 1.558705e-08 1.607754e-08 1.675431e-08 1.613155e-08 1.607389e-08 1.524304e-08 1.724459e-08 1.571173e-08
1.615860e-08 1.654839e-08 1.605224e-08 1.582151e-08 1.623586e-08 1.742444e-08 1.521782e-08 1.539695e-08 1.615770e-08 1.604787e-08
1.592874e-08 1.551832e-08 1.641469e-08 1.586152e-08 1.580561e-08 1.632336e-08 1.626257e-08 1.580781e-08 1.693512e-08 1.597685e-08
1.745256e-08 1.639017e-08 1.557899e-08 1.680741e-08 1.572089e-08 1.706818e-08 1.556445e-08 1.628621e-08 1.613960e-08 1.547635e-08
1.644838e-08 1.677158e-08 1.626024e-08 1.602446e-08 1.497578e-08 1.604216e-08 1.559679e-08 1.571314e-08 1.557650e-08 1.557767e-08
1.595227e-08 1.546109e-08 1.674831e-08 1.673018e-08 1.607708e-08 1.593317e-08 1.575407e-08 1.607983e-08 1.725887e-08 1.579878e-08
1.573737e-08 1.561849e-08 1.623953e-08 1.554450e-08 1.660214e-08 1.615440e-08 1.602017e-08 1.617745e-08 1.735413e-08 1.504258e-08
1.590105e-08 1.555306e-08 1.554347e-08 1.545307e-08 1.613633e-08 1.745598e-08 1.613299e-08 1.705106e-08 1.557090e-08 1.583679e-08
1.609746e-08 1.627534e-08 1.675579e-08 1.511142e-08 1.693186e-08 1.690810e-08 1.653128e-08 1.558426e-08 1.623630e-08 1.584384e-08
1.497031e-08 1.600422e-08 1.589031e-08 1.656412e-08 1.556737e-08 1.683756e-08 1.636877e-08 1.660148e-08 1.583834e-08 1.678143e-08
1.607718e-08 1.644023e-08 1.557339e-08 1.713386e-08 1.590377e-08 1.563331e-08 1.634326e-08 1.628609e-08 1.529888e-08 1.544813e-08
1.553612e-08 1.530187e-08 1.707319e-08 1.682576e-08 1.470933e-08 1.526671e-08 1.550498e-08 1.638575e-08 1.555305e-08 1.673252e-08
1.568965e-08
1.537957e-08 1.650115e-08 1.498248e-08 1.602438e-08 1.637663e-08 1.736038e-08 1.670856e-08 1.587279e-08 1.541385e-08 1.531671e-08
1.600206e-08 1.641660e-08 1.712748e-08 1.387071e-08 1.671945e-08 1.651929e-08 1.665062e-08 1.513908e-08 1.619942e-08 1.582082e-08
1.597919e-08 1.607963e-08 1.541011e-08 1.607657e-08 1.615900e-08 1.684646e-08 1.565313e-08 1.657640e-08 1.622074e-08 1.641478e-08
1.657160e-08 1.535261e-08 1.460409e-08 1.727723e-08 1.524869e-08 1.537296e-08 1.618198e-08 1.522884e-08 1.671862e-08 1.624279e-08
1.527968e-08 1.599445e-08 1.671326e-08 1.601776e-08 1.625997e-08 1.736829e-08 1.620338e-08 1.699294e-08 1.650444e-08 1.664792e-08
1.807132e-08 1.720533e-08 1.685826e-08 1.615798e-08 1.591953e-08 1.651126e-08 1.659171e-08 1.625888e-08 1.588230e-08 1.716669e-08
1.708842e-08 1.601538e-08 1.643732e-08 1.735333e-08 1.768611e-08 1.757079e-08 1.623232e-08 1.694839e-08 1.627121e-08 1.522327e-08
1.838621e-08 1.680495e-08 1.729328e-08 1.611915e-08 1.602824e-08 1.797238e-08 1.735028e-08 1.557255e-08 1.633627e-08 1.575842e-08
1.575630e-08 1.632790e-08 1.687119e-08 1.648576e-08 1.679931e-08 1.576481e-08 1.578536e-08 1.641084e-08 1.630086e-08 1.637098e-08
1.569271e-08 1.541957e-08 1.636038e-08 1.749017e-08 1.652766e-08 1.541216e-08 1.486922e-08 1.634158e-08 1.664313e-08 1.520385e-08
1.668155e-08 1.663782e-08 1.597641e-08 1.659285e-08 1.630248e-08 1.681383e-08 1.704334e-08 1.603021e-08 1.664723e-08 1.734806e-08
1.616379e-08 1.571099e-08 1.706485e-08 1.639810e-08 1.672380e-08 1.693166e-08 1.542890e-08 1.579394e-08 1.677198e-08 1.574584e-08
1.740032e-08 1.651793e-08 1.691769e-08 1.695094e-08 1.679998e-08 1.606534e-08 1.653331e-08 1.597088e-08 1.486810e-08 1.737645e-08
1.576074e-08 1.736271e-08 1.823500e-08 1.762726e-08 1.655739e-08 1.530926e-08 1.594269e-08 1.564695e-08 1.678961e-08 1.631896e-08
1.704354e-08 1.584272e-08 1.575575e-08 1.651260e-08 1.588291e-08 1.653482e-08 1.608374e-08 1.588609e-08 1.620347e-08 1.603697e-08
1.568021e-08 1.573103e-08 1.535727e-08 1.778612e-08 1.631307e-08 1.636381e-08 1.695144e-08 1.601454e-08 1.639276e-08 1.605928e-08
1.486891e-08 1.630674e-08 1.531311e-08 1.688178e-08 1.502628e-08 1.605289e-08 1.646027e-08 1.563502e-08 1.440732e-08 1.477495e-08
1.720806e-08 1.660102e-08 1.731667e-08 1.618023e-08 1.713452e-08 1.414828e-08 1.573958e-08 1.511813e-08 1.720715e-08 1.416462e-08
1.661590e-08 1.717048e-08 1.519189e-08 1.526311e-08 1.599202e-08 1.618712e-08 1.583322e-08 1.558795e-08 1.606804e-08 1.661959e-08
1.628424e-08 1.613116e-08 1.486794e-08 1.525404e-08 1.599309e-08 1.603856e-08 1.650343e-08 1.609069e-08 1.765815e-08 1.721840e-08
1.470994e-08 1.677419e-08 1.479874e-08 1.582701e-08 1.629606e-08 1.588272e-08 1.647483e-08 1.673978e-08 1.615702e-08 1.648198e-08
1.592757e-08 1.693303e-08 1.587458e-08 1.556507e-08 1.530140e-08 1.480406e-08 1.567565e-08 1.665840e-08 1.471821e-08 1.588517e-08
1.798561e-08 1.530691e-08 1.692841e-08 1.556133e-08 1.504220e-08 1.662466e-08 1.646950e-08 1.648535e-08 1.563560e-08 1.659986e-08
1.610513e-08 1.727997e-08 1.554969e-08 1.667145e-08 1.584351e-08 1.503098e-08 1.627606e-08 1.503066e-08 1.608886e-08 1.640188e-08
1.716822e-08 1.729798e-08 1.644460e-08 1.515619e-08 1.572117e-08 1.649217e-08 1.620305e-08 1.706448e-08 1.692588e-08 1.589425e-08
1.494962e-08 1.716642e-08 1.503732e-08 1.606787e-08 1.540390e-08 1.577013e-08 1.559389e-08 1.623595e-08 1.652855e-08 1.589633e-08
1.578643e-08 1.565054e-08 1.603442e-08 1.635878e-08 1.569434e-08 1.573904e-08 1.597027e-08 1.473395e-08 1.640415e-08 1.530380e-08
1.567256e-08 1.492603e-08 1.807094e-08 1.542798e-08 1.587557e-08 1.593966e-08 1.512024e-08 1.517725e-08 1.501994e-08 1.607955e-08
1.621344e-08 1.671761e-08 1.650723e-08 1.611029e-08 1.613719e-08 1.683429e-08 1.662437e-08 1.618815e-08 1.565176e-08 1.630440e-08
1.560379e-08 1.554962e-08 1.634784e-08 1.531753e-08 1.633271e-08 1.591803e-08 1.610837e-08 1.449659e-08 1.569883e-08 1.483758e-08
1.700600e-08 1.631346e-08 1.708772e-08 1.711785e-08 1.511745e-08 1.601654e-08 1.655774e-08 1.667778e-08 1.582150e-08 1.650419e-08
1.510344e-08 1.648108e-08 1.594232e-08 1.555931e-08 1.566610e-08 1.671128e-08 1.630431e-08 1.714676e-08 1.491407e-08 1.717447e-08
1.647705e-08 1.416482e-08 1.546064e-08 1.755021e-08 1.694140e-08 1.586787e-08 1.549476e-08 1.560248e-08 1.587036e-08 1.631622e-08
1.506925e-08 1.552564e-08 1.616044e-08 1.678644e-08 1.535923e-08 1.519936e-08 1.458611e-08 1.659150e-08 1.624828e-08 1.544993e-08
1.593389e-08 1.568111e-08 1.590468e-08 1.614924e-08 1.579353e-08 1.603781e-08 1.654066e-08 1.520554e-08 1.569566e-08 1.691422e-08
1.548161e-08 1.683162e-08 1.708450e-08 1.606529e-08 1.585533e-08 1.653589e-08 1.549258e-08 1.566616e-08 1.559184e-08 1.615548e-08
1.537957e-08
1.616180e-08 1.593960e-08 1.560799e-08 1.468313e-08 1.514628e-08 1.522436e-08 1.567773e-08 1.588448e-08 1.563271e-08 1.527064e-08
1.620110e-08 1.505365e-08 1.550397e-08 1.558109e-08 1.483127e-08 1.546103e-08 1.645136e-08 1.608171e-08 1.576029e-08 1.530572e-08
1.563217e-08 1.515562e-08 1.529054e-08 1.558002e-08 1.564112e-08 1.564118e-08 1.434319e-08 1.474884e-08 1.609244e-08 1.626831e-08
1.688947e-08 1.572129e-08 1.657892e-08 1.750681e-08 1.763992e-08 1.554294e-08 1.675083e-08 1.690711e-08 1.665163e-08 1.526308e-08
1.562351e-08 1.530653e-08 1.696946e-08 1.724086e-08 1.657836e-08 1.755547e-08 1.538284e-08 1.624076e-08 1.723763e-08 1.555450e-08
1.512653e-08 1.555999e-08 1.604932e-08 1.676723e-08 1.549292e-08 1.662930e-08 1.553238e-08 1.499066e-08 1.657450e-08 1.717199e-08
1.680376e-08 1.672012e-08 1.608993e-08 1.710377e-08 1.618603e-08 1.582960e-08 1.626155e-08 1.585599e-08 1.637886e-08 1.661727e-08
1.645977e-08 1.677102e-08 1.603865e-08 1.792557e-08 1.629506e-08 1.603269e-08 1.583177e-08 1.691014e-08 1.504955e-08 1.660796e-08
1.509511e-08 1.599765e-08 1.574268e-08 1.634400e-08 1.780657e-08 1.593302e-08 1.626797e-08 1.693713e-08 1.584824e-08 1.722445e-08
1.646755e-08 1.596463e-08 1.592599e-08 1.660025e-08 1.614279e-08 1.663038e-08 1.606083e-08 1.776775e-08 1.682075e-08 1.668595e-08
1.708028e-08 1.658844e-08 1.747329e-08 1.738458e-08 1.669057e-08 1.631370e-08 1.533926e-08 1.551863e-08 1.610099e-08 1.710922e-08
1.581125e-08 1.661046e-08 1.643223e-08 1.609153e-08 1.603180e-08 1.616016e-08 1.656388e-08 1.602297e-08 1.556547e-08 1.521010e-08
1.602086e-08 1.520688e-08 1.691253e-08 1.615605e-08 1.720785e-08 1.581981e-08 1.566529e-08 1.724047e-08 1.733858e-08 1.681279e-08
1.558677e-08 1.557867e-08 1.608949e-08 1.602229e-08 1.630312e-08 1.718274e-08 1.663624e-08 1.566096e-08 1.610096e-08 1.621781e-08
1.691681e-08 1.539750e-08 1.669009e-08 1.598120e-08 1.550264e-08 1.615404e-08 1.610173e-08 1.595966e-08 1.654945e-08 1.684754e-08
1.631882e-08 1.702248e-08 1.658510e-08 1.564510e-08 1.618773e-08 1.671764e-08 1.667384e-08 1.614405e-08 1.555221e-08 1.617437e-08
1.540866e-08 1.509367e-08 1.717781e-08 1.623646e-08 1.553945e-08 1.681598e-08 1.663773e-08 1.579773e-08 1.451329e-08 1.555893e-08
1.546208e-08 1.528795e-08 1.535443e-08 1.618284e-08 1.484557e-08 1.664528e-08 1.510574e-08 1.525019e-08 1.665072e-08 1.569248e-08
1.700604e-08 1.607201e-08 1.557309e-08 1.603861e-08 1.524722e-08 1.589449e-08 1.597327e-08 1.700249e-08 1.619942e-08 1.629124e-08
1.690190e-08 1.547029e-08 1.499055e-08 1.555567e-08 1.549910e-08 1.579112e-08 1.598873e-08 1.466219e-08 1.590202e-08 1.546468e-08
1.533946e-08 1.550691e-08 1.587864e-08 1.578057e-08 1.518642e-08 1.563486e-08 1.674537e-08 1.580618e-08 1.543482e-08 1.670126e-08
1.499169e-08 1.570054e-08 1.616067e-08 1.497083e-08 1.440208e-08 1.613676e-08 1.625203e-08 1.523603e-08 1.504064e-08 1.603975e-08
1.586274e-08 1.561835e-08 1.581620e-08 1.688729e-08 1.770755e-08 1.636509e-08 1.552455e-08 1.479675e-08 1.535110e-08 1.525352e-08
1.540235e-08 1.622725e-08 1.507027e-08 1.717898e-08 1.604703e-08 1.529442e-08 1.799659e-08 1.646111e-08 1.650087e-08 1.548296e-08
1.676250e-08 1.505668e-08 1.646656e-08 1.653751e-08 1.714359e-08 1.456750e-08 1.566227e-08 1.577383e-08 1.570273e-08 1.605112e-08
1.709865e-08 1.552480e-08 1.606271e-08 1.575285e-08 1.698164e-08 1.531131e-08 1.759406e-08 1.545616e-08 1.652037e-08 1.593450e-08
1.550171e-08 1.644509e-08 1.723337e-08 1.574938e-08 1.472470e-08 1.573102e-08 1.595568e-08 1.602538e-08 1.472007e-08 1.468535e-08
1.595205e-08 1.483145e-08 1.590521e-08 1.485638e-08 1.692184e-08 1.476372e-08 1.520402e-08 1.524533e-08 1.552045e-08 1.665504e-08
1.683268e-08 1.626140e-08 1.618910e-08 1.563473e-08 1.609379e-08 1.683409e-08 1.703611e-08 1.539196e-08 1.599517e-08 1.543106e-08
1.571801e-08 1.659820e-08 1.591679e-08 1.516356e-08 1.579865e-08 1.656135e-08 1.635371e-08 1.663050e-08 1.588386e-08 1.600955e-08
1.596296e-08 1.563546e-08 1.578679e-08 1.496508e-08 1.442292e-08 1.625168e-08 1.660987e-08 1.582752e-08 1.641157e-08 1.604400e-08
1.753812e-08 1.633155e-08 1.682724e-08 1.688634e-08 1.603753e-08 1.642107e-08 1.704400e-08 1.612849e-08 1.594856e-08 1.576561e-08
1.581880e-08 1.535962e-08 1.637777e-08 1.634895e-08 1.640628e-08 1.506339e-08 1.603716e-08 1.559829e-08 1.546223e-08 1.577620e-08
1.505669e-08 1.637759e-08 1.597508e-08 1.531382e-08 1.565744e-08 1.559340e-08 1.631167e-08 1.576203e-08 1.560011e-08 1.584601e-08
1.632401e-08 1.561212e-08 1.620983e-08 1.634720e-08 1.529706e-08 1.636780e-08 1.524935e-08 1.516567e-08 1.577012e-08 1.538089e-08
1.526588e-08 1.512340e-08 1.580778e-08 1.621779e-08 1.611018e-08 1.492810e-08 1.568179e-08 1.541633e-08 1.534649e-08 1.443586e-08
1.616180e-08
1.651381e-08 1.609233e-08 1.567197e-08 1.581103e-08 1.507365e-08 1.466636e-08 1.553751e-08 1.591739e-08 1.602907e-08 1.562333e-08
1.580955e-08 1.629316e-08 1.698298e-08 1.524181e-08 1.646884e-08 1.470936e-08 1.665458e-08 1.572183e-08 1.652598e-08 1.765870e-08
1.491242e-08 1.534349e-08 1.501530e-08 1.553042e-08 1.575167e-08 1.687266e-08 1.667607e-08 1.638050e-08 1.594317e-08 1.575929e-08
1.545415e-08 1.503670e-08 1.487873e-08 1.635699e-08 1.757233e-08 1.601179e-08 1.549800e-08 1.746555e-08 1.750895e-08 1.569747e-08
1.621752e-08 1.768402e-08 1.533128e-08 1.624808e-08 1.553372e-08 1.688614e-08 1.645646e-08 1.643592e-08 1.662991e-08 1.515501e-08
1.663437e-08 1.670786e-08 1.597274e-08 1.679657e-08 1.551268e-08 1.526302e-08 1.563650e-08 1.712866e-08 1.666913e-08 1.678240e-08
1.648864e-08 1.631448e-08 1.487685e-08 1.655691e-08 1.568763e-08 1.738898e-08 1.700878e-08 1.751949e-08 1.605678e-08 1.662545e-08
1.630801e-08 1.612227e-08 1.685457e-08 1.577699e-08 1.605800e-08 1.715545e-08 1.571776e-08 1.663895e-08 1.545500e-08 1.625308e-08
1.686877e-08 1.538793e-08 1.585790e-08 1.558579e-08 1.618845e-08 1.553429e-08 1.520608e-08 1.523462e-08 1.589887e-08 1.584835e-08
1.651953e-08 1.552091e-08 1.729614e-08 1.657609e-08 1.643251e-08 1.570408e-08 1.527567e-08 1.716519e-08 1.581400e-08 1.575056e-08
1.703589e-08 1.706177e-08 1.633470e-08 1.727187e-08 1.726519e-08 1.692410e-08 1.700859e-08 1.733686e-08 1.617904e-08 1.582334e-08
1.670870e-08 1.571982e-08 1.630986e-08 1.541232e-08 1.700862e-08 1.674865e-08 1.543233e-08 1.580709e-08 1.673627e-08 1.581640e-08
1.530796e-08 1.658280e-08 1.675686e-08 1.666300e-08 1.652662e-08 1.601053e-08 1.605724e-08 1.606520e-08 1.678564e-08 1.507018e-08
1.613843e-08 1.511030e-08 1.538577e-08 1.543876e-08 1.614490e-08 1.775256e-08 1.642955e-08 1.532726e-08 1.579847e-08 1.741977e-08
1.557974e-08 1.638429e-08 1.596405e-08 1.620750e-08 1.461608e-08 1.599277e-08 1.634904e-08 1.518430e-08 1.621153e-08 1.659969e-08
1.594828e-08 1.620421e-08 1.498377e-08 1.473354e-08 1.717061e-08 1.640104e-08 1.592324e-08 1.528933e-08 1.656812e-08 1.588387e-08
1.604354e-08 1.574789e-08 1.706507e-08 1.595308e-08 1.638888e-08 1.543493e-08 1.576928e-08 1.621876e-08 1.441660e-08 1.533565e-08
1.609519e-08 1.434810e-08 1.672254e-08 1.631734e-08 1.491167e-08 1.505452e-08 1.640513e-08 1.550227e-08 1.609963e-08 1.642001e-08
1.493401e-08 1.602883e-08 1.464275e-08 1.635215e-08 1.685069e-08 1.566727e-08 1.602846e-08 1.588987e-08 1.499898e-08 1.606388e-08
1.605851e-08 1.528537e-08 1.562440e-08 1.538746e-08 1.476902e-08 1.599973e-08 1.585980e-08 1.776273e-08 1.623455e-08 1.582485e-08
1.549976e-08 1.603186e-08 1.593820e-08 1.521743e-08 1.527570e-08 1.539517e-08 1.629238e-08 1.675873e-08 1.521050e-08 1.586087e-08
1.657934e-08 1.497764e-08 1.584172e-08 1.667699e-08 1.642908e-08 1.594864e-08 1.587110e-08 1.627241e-08 1.666607e-08 1.585068e-08
1.691027e-08 1.606960e-08 1.559972e-08 1.652247e-08 1.577114e-08 1.607136e-08 1.583819e-08 1.709715e-08 1.508944e-08 1.631405e-08
1.665556e-08 1.635390e-08 1.603357e-08 1.754119e-08 1.658353e-08 1.481269e-08 1.599720e-08 1.588734e-08 1.557910e-08 1.513202e-08
1.637215e-08 1.557760e-08 1.669548e-08 1.506735e-08 1.576662e-08 1.657572e-08 1.559715e-08 1.662883e-08 1.549302e-08 1.602851e-08
1.634550e-08 1.568013e-08 1.644995e-08 1.600568e-08 1.627896e-08 1.528975e-08 1.564680e-08 1.478399e-08 1.592213e-08 1.606083e-08
1.444984e-08 1.697837e-08 1.581669e-08 1.577354e-08 1.633678e-08 1.616654e-08 1.579133e-08 1.489132e-08 1.615643e-08 1.532917e-08
1.629802e-08 1.681623e-08 1.575810e-08 1.667130e-08 1.634681e-08 1.652198e-08 1.498981e-08 1.576282e-08 1.640679e-08 1.717339e-08
1.587880e-08 1.516604e-08 1.679279e-08 1.529496e-08 1.586420e-08 1.704081e-08 1.626656e-08 1.594830e-08 1.442092e-08 1.594928e-08
1.510970e-08 1.657768e-08 1.536247e-08 1.629196e-08 1.578679e-08 1.609552e-08 1.562187e-08 1.567362e-08 1.588020e-08 1.481892e-08
1.531917e-08 1.581054e-08 1.497664e-08 1.512191e-08 1.658599e-08 1.594768e-08 1.562269e-08 1.589931e-08 1.652886e-08 1.555299e-08
1.664077e-08 1.590474e-08 1.612264e-08 1.613125e-08 1.647798e-08 1.620264e-08 1.582513e-08 1.733643e-08 1.601936e-08 1.547330e-08
1.635005e-08 1.636684e-08 1.673206e-08 1.606279e-08 1.559194e-08 1.601746e-08 1.543967e-08 1.487572e-08 1.500160e-08 1.512878e-08
1.533215e-08 1.645935e-08 1.597445e-08 1.535968e-08 1.641118e-08 1.508035e-08 1.639375e-08 1.576740e-08 1.599157e-08 1.628801e-08
1.585565e-08 1.535809e-08 1.531389e-08 1.546069e-08 1.696695e-08 1.524589e-08 1.637314e-08 1.632969e-08 1.647110e-08 1.532425e-08
1.620974e-08 1.518988e-08 1.615554e-08 1.544342e-08 1.710945e-08 1.496097e-08 1.577152e-08 1.379076e-08 1.545605e-08 1.538602e-08
1.651381e-08
1.503027e-08 1.614344e-08 1.721102e-08 1.579568e-08 1.555299e-08 1.453137e-08 1.558316e-08 1.665228e-08 1.578000e-08 1.526085e-08
1.604248e-08 1.388687e-08 1.626382e-08 1.605449e-08 1.622580e-08 1.474839e-08 1.566538e-08 1.680276e-08 1.573010e-08 1.647257e-08
1.603506e-08 1.530496e-08 1.594968e-08 1.566650e-08 1.542685e-08 1.667058e-08 1.574215e-08 1.503432e-08 1.613025e-08 1.580596e-08
1.630160e-08 1.622804e-08 1.578744e-08 1.611031e-08 1.642260e-08 1.542271e-08 1.567227e-08 1.592396e-08 1.666072e-08 1.519775e-08
1.531307e-08 1.526550e-08 1.569236e-08 1.684233e-08 1.716603e-08 1.642112e-08 1.768960e-08 1.494168e-08 1.692637e-08 1.553269e-08
1.589503e-08 1.642739e-08 1.607531e-08 1.527209e-08 1.675340e-08 1.730399e-08 1.777321e-08 1.525952e-08 1.606465e-08 1.797568e-08
1.464694e-08 1.634202e-08 1.484187e-08 1.626404e-08 1.641290e-08 1.657483e-08 1.714695e-08 1.575255e-08 1.699020e-08 1.637102e-08
1.587917e-08 1.705811e-08 1.573205e-08 1.681368e-08 1.578401e-08 1.538105e-08 1.669121e-08 1.628318e-08 1.602701e-08 1.600922e-08
1.550267e-08 1.697148e-08 1.668665e-08 1.612915e-08 1.624102e-08 1.655783e-08 1.607657e-08 1.618580e-08 1.597897e-08 1.665036e-08
1.706780e-08 1.607159e-08 1.632226e-08 1.662020e-08 1.579790e-08 1.467563e-08 1.684584e-08 1.580904e-08 1.648606e-08 1.660672e-08
1.617392e-08 1.725713e-08 1.692697e-08 1.606401e-08 1.472888e-08 1.656180e-08 1.615584e-08 1.653376e-08 1.574608e-08 1.645749e-08
1.698382e-08 1.561706e-08 1.609487e-08 1.644909e-08 1.580981e-08 1.684909e-08 1.568962e-08 1.669249e-08 1.549648e-08 1.602075e-08
1.625150e-08 1.707867e-08 1.600100e-08 1.552524e-08 1.634636e-08 1.584446e-08 1.547986e-08 1.627841e-08 1.721838e-08 1.667578e-08
1.688510e-08 1.727616e-08 1.461417e-08 1.503939e-08 1.553138e-08 1.627565e-08 1.760342e-08 1.542477e-08 1.647573e-08 1.519893e-08
1.721920e-08 1.620373e-08 1.507620e-08 1.595654e-08 1.523103e-08 1.496769e-08 1.653618e-08 1.756645e-08 1.576965e-08 1.618992e-08
1.527834e-08 1.619708e-08 1.574254e-08 1.657512e-08 1.436517e-08 1.606378e-08 1.594628e-08 1.565289e-08 1.460034e-08 1.682641e-08
1.603552e-08 1.596720e-08 1.557550e-08 1.468510e-08 1.610269e-08 1.497176e-08 1.445061e-08 1.594157e-08 1.522655e-08 1.492783e-08
1.600123e-08 1.557873e-08 1.707386e-08 1.606973e-08 1.609977e-08 1.587406e-08 1.427563e-08 1.513672e-08 1.547212e-08 1.562520e-08
1.718510e-08 1.519079e-08 1.563126e-08 1.570005e-08 1.573359e-08 1.564641e-08 1.555209e-08 1.596649e-08 1.554680e-08 1.584851e-08
1.443254e-08 1.480471e-08 1.543484e-08 1.466797e-08 1.543155e-08 1.600706e-08 1.505713e-08 1.433744e-08 1.624218e-08 1.647989e-08
1.643574e-08 1.648517e-08 1.716614e-08 1.535268e-08 1.626135e-08 1.721746e-08 1.648534e-08 1.681940e-08 1.576202e-08 1.629838e-08
1.651498e-08 1.498830e-08 1.616985e-08 1.634811e-08 1.566767e-08 1.648933e-08 1.517383e-08 1.592135e-08 1.745298e-08 1.621675e-08
1.527035e-08 1.590792e-08 1.546400e-08 1.517053e-08 1.435975e-08 1.699343e-08 1.444668e-08 1.559614e-08 1.505126e-08 1.592734e-08
1.424980e-08 1.559877e-08 1.590367e-08 1.583033e-08 1.702560e-08 1.639972e-08 1.586806e-08 1.597645e-08 1.422523e-08 1.560623e-08
1.560844e-08 1.603101e-08 1.612708e-08 1.676124e-08 1.539481e-08 1.565349e-08 1.463248e-08 1.650972e-08 1.678100e-08 1.556608e-08
1.578681e-08 1.462577e-08 1.494470e-08 1.585579e-08 1.544233e-08 1.552865e-08 1.499720e-08 1.557988e-08 1.674490e-08 1.614190e-08
1.451926e-08 1.597393e-08 1.589823e-08 1.703253e-08 1.655711e-08 1.642185e-08 1.674932e-08 1.534062e-08 1.588187e-08 1.479208e-08
1.569840e-08 1.548596e-08 1.567344e-08 1.471025e-08 1.528198e-08 1.575433e-08 1.509580e-08 1.553837e-08 1.489285e-08 1.581991e-08
1.679310e-08 1.644122e-08 1.665337e-08 1.645120e-08 1.575914e-08 1.589781e-08 1.588359e-08 1.469777e-08 1.635299e-08 1.629292e-08
1.710845e-08 1.529286e-08 1.611986e-08 1.563432e-08 1.616467e-08 1.598142e-08 1.604516e-08 1.648879e-08 1.671346e-08 1.438218e-08
1.494348e-08 1.563219e-08 1.448319e-08 1.616865e-08 1.615757e-08 1.625047e-08 1.550471e-08 1.630264e-08 1.627325e-08 1.577700e-08
1.621016e-08 1.575470e-08 1.704979e-08 1.564082e-08 1.648323e-08 1.577140e-08 1.669989e-08 1.628393e-08 1.526348e-08 1.718876e-08
1.600499e-08 1.469032e-08 1.528919e-08 1.582330e-08 1.597591e-08 1.474508e-08 1.704821e-08 1.546256e-08 1.709123e-08 1.599066e-08
1.495570e-08 1.526647e-08 1.521144e-08 1.656370e-08 1.477149e-08 1.575803e-08 1.585666e-08 1.639243e-08 1.626684e-08 1.598620e-08
1.565853e-08 1.494540e-08 1.695348e-08 1.676417e-08 1.486020e-08 1.621190e-08 1.491049e-08 1.646101e-08 1.561283e-08 1.586203e-08
1.599303e-08 1.737141e-08 1.570911e-08 1.449988e-08 1.483941e-08 1.487111e-08 1.533853e-08 1.600608e-08 1.524409e-08 1.544790e-08
1.503027e-08
1.420374e-08 1.640168e-08 1.425261e-08 1.586307e-08 1.581987e-08 1.620218e-08 1.482621e-08 1.532797e-08 1.523120e-08 1.682426e-08
1.656309e-08 1.524124e-08 1.650766e-08 1.540140e-08 1.535381e-08 1.364410e-08 1.522668e-08 1.533154e-08 1.498790e-08 1.562614e-08
1.461307e-08 1.555578e-08 1.679747e-08 1.481176e-08 1.613359e-08 1.684073e-08 1.555484e-08 1.619176e-08 1.576871e-08 1.659852e-08
1.605972e-08 1.525585e-08 1.678483e-08 1.573630e-08 1.765219e-08 1.534910e-08 1.592657e-08 1.531733e-08 1.665562e-08 1.562178e-08
1.609774e-08 1.530566e-08 1.670009e-08 1.659230e-08 1.623872e-08 1.625059e-08 1.542328e-08 1.719927e-08 1.656731e-08 1.510610e-08
1.592750e-08 1.628695e-08 1.646616e-08 1.645103e-08 1.751706e-08 1.632911e-08 1.674846e-08 1.535931e-08 1.568982e-08 1.712066e-08
1.591716e-08 1.594282e-08 1.576532e-08 1.540760e-08 1.660337e-08 1.700919e-08 1.674193e-08 1.574971e-08 1.685251e-08 1.531145e-08
1.607218e-08 1.555654e-08 1.508201e-08 1.708051e-08 1.594091e-08 1.776061e-08 1.542725e-08 1.563059e-08 1.692058e-08 1.679683e-08
1.533748e-08 1.548362e-08 1.603966e-08 1.758627e-08 1.627522e-08 1.547557e-08 1.537239e-08 1.626553e-08 1.601459e-08 1.574803e-08
1.611280e-08 1.515683e-08 1.450335e-08 1.534887e-08 1.555771e-08 1.562593e-08 1.636129e-08 1.649396e-08 1.672361e-08 1.571037e-08
1.672025e-08 1.631893e-08 1.700336e-08 1.487084e-08 1.504188e-08 1.605416e-08 1.633261e-08 1.628943e-08 1.554311e-08 1.534265e-08
1.645862e-08 1.518076e-08 1.720438e-08 1.521068e-08 1.583769e-08 1.562804e-08 1.642823e-08 1.565284e-08 1.688811e-08 1.628671e-08
1.573236e-08 1.573262e-08 1.611091e-08 1.609083e-08 1.625081e-08 1.644923e-08 1.624367e-08 1.753550e-08 1.628524e-08 1.576340e-08
1.697182e-08 1.473905e-08 1.629932e-08 1.604385e-08 1.507594e-08 1.584621e-08 1.547733e-08 1.665331e-08 1.675838e-08 1.599064e-08
1.465618e-08 1.571492e-08 1.567883e-08 1.523456e-08 1.573806e-08 1.507726e-08 1.598609e-08 1.560135e-08 1.636943e-08 1.687335e-08
1.466203e-08 1.633228e-08 1.552061e-08 1.555860e-08 1.645270e-08 1.634914e-08 1.578996e-08 1.519697e-08 1.650035e-08 1.614749e-08
1.615411e-08 1.640117e-08 1.466871e-08 1.516629e-08 1.679419e-08 1.457717e-08 1.636314e-08 1.576214e-08 1.572761e-08 1.623729e-08
1.640735e-08 1.498939e-08 1.631928e-08 1.481706e-08 1.521805e-08 1.523543e-08 1.482158e-08 1.691969e-08 1.570104e-08 1.480099e-08
1.579785e-08 1.608485e-08 1.450602e-08 1.482502e-08 1.484263e-08 1.526095e-08 1.560922e-08 1.615665e-08 1.510831e-08 1.488276e-08
1.495994e-08 1.503730e-08 1.650988e-08 1.552746e-08 1.406067e-08 1.619983e-08 1.530007e-08 1.475345e-08 1.476938e-08 1.610240e-08
1.586562e-08 1.540070e-08 1.549704e-08 1.698988e-08 1.671472e-08 1.609242e-08 1.671917e-08 1.494369e-08 1.531608e-08 1.646493e-08
1.668724e-08 1.668411e-08 1.594687e-08 1.554792e-08 1.661448e-08 1.557952e-08 1.579636e-08 1.537193e-08 1.718661e-08 1.603390e-08
1.632462e-08 1.487398e-08 1.667906e-08 1.495822e-08 1.707150e-08 1.515880e-08 1.578645e-08 1.574839e-08 1.605097e-08 1.519309e-08
1.694453e-08 1.609153e-08 1.728340e-08 1.618096e-08 1.669374e-08 1.600348e-08 1.643627e-08 1.382088e-08 1.636608e-08 1.512025e-08
1.574812e-08 1.671149e-08 1.491928e-08 1.495709e-08 1.594972e-08 1.590692e-08 1.653872e-08 1.596277e-08 1.591484e-08 1.552949e-08
1.646680e-08 1.618000e-08 1.608509e-08 1.573230e-08 1.579410e-08 1.536910e-08 1.542809e-08 1.531036e-08 1.594834e-08 1.597608e-08
1.566285e-08 1.555974e-08 1.621108e-08 1.503739e-08 1.539022e-08 1.639169e-08 1.453344e-08 1.491108e-08 1.646873e-08 1.554442e-08
1.426448e-08 1.599964e-08 1.554034e-08 1.672311e-08 1.498250e-08 1.425149e-08 1.482670e-08 1.424450e-08 1.538330e-08 1.592663e-08
1.609436e-08 1.530850e-08 1.515381e-08 1.550594e-08 1.609171e-08 1.627047e-08 1.604580e-08 1.459878e-08 1.548976e-08 1.500258e-08
1.586366e-08 1.476821e-08 1.623574e-08 1.690854e-08 1.511268e-08 1.741008e-08 1.564054e-08 1.509569e-08 1.662665e-08 1.640157e-08
1.463345e-08 1.601945e-08 1.512792e-08 1.723605e-08 1.568030e-08 1.553963e-08 1.535089e-08 1.517192e-08 1.550299e-08 1.582480e-08
1.542056e-08 1.507760e-08 1.577797e-08 1.653310e-08 1.559502e-08 1.609047e-08 1.502787e-08 1.572989e-08 1.539416e-08 1.637180e-08
1.561032e-08 1.515772e-08 1.579980e-08 1.612022e-08 1.591667e-08 1.468633e-08 1.524945e-08 1.689469e-08 1.665442e-08 1.640056e-08
1.573587e-08 1.568868e-08 1.575050e-08 1.499931e-08 1.609469e-08 1.529193e-08 1.482596e-08 1.671414e-08 1.576484e-08 1.477517e-08
1.499196e-08 1.563396e-08 1.652083e-08 1.569615e-08 1.570369e-08 1.550043e-08 1.646999e-08 1.690477e-08 1.457528e-08 1.603035e-08
1.652791e-08 1.477973e-08 1.545692e-08 1.597950e-08 1.527055e-08 1.507851e-08 1.625210e-08 1.594135e-08 1.554174e-08 1.676750e-08
1.420374e-08
1.575187e-08 1.546116e-08 1.601013e-08 1.497221e-08 1.564011e-08 1.484326e-08 1.474448e-08 1.567684e-08 1.490627e-08 1.451011e-08
1.527447e-08 1.708919e-08 1.433623e-08 1.697156e-08 1.555177e-08 1.499933e-08 1.512844e-08 1.572707e-08 1.605538e-08 1.478125e-08
1.617124e-08 1.520539e-08 1.530938e-08 1.563097e-08 1.560692e-08 1.637931e-08 1.573387e-08 1.557745e-08 1.680378e-08 1.620088e-08
1.449082e-08 1.500075e-08 1.638568e-08 1.549292e-08 1.620834e-08 1.617529e-08 1.592946e-08 1.571351e-08 1.637598e-08 1.566716e-08
1.623954e-08 1.606737e-08 1.520839e-08 1.630140e-08 1.643468e-08 1.565675e-08 1.674133e-08 1.558445e-08 1.639966e-08 1.540307e-08
1.544370e-08 1.582139e-08 1.698703e-08 1.584578e-08 1.590722e-08 1.659419e-08 1.693143e-08 1.642272e-08 1.669027e-08 1.546831e-08
1.501024e-08 1.596010e-08 1.581586e-08 1.732139e-08 1.609741e-08 1.546531e-08 1.649823e-08 1.519050e-08 1.623982e-08 1.670030e-08
1.636610e-08 1.648387e-08 1.602823e-08 1.475058e-08 1.485217e-08 1.688222e-08 1.571931e-08 1.440701e-08 1.641385e-08 1.480355e-08
1.618736e-08 1.576342e-08 1.552156e-08 1.597933e-08 1.611294e-08 1.621216e-08 1.595465e-08 1.813569e-08 1.564307e-08 1.578998e-08
1.689071e-08 1.537610e-08 1.566265e-08 1.556425e-08 1.693801e-08 1.575243e-08 1.558806e-08 1.564208e-08 1.502836e-08 1.652555e-08
1.590490e-08 1.534548e-08 1.664142e-08 1.518684e-08 1.580060e-08 1.533398e-08 1.636412e-08 1.551694e-08 1.516767e-08 1.532311e-08
1.529751e-08 1.619087e-08 1.776525e-08 1.520277e-08 1.784524e-08 1.535577e-08 1.619221e-08 1.516537e-08 1.541793e-08 1.632006e-08
1.602185e-08 1.647824e-08 1.524364e-08 1.470558e-08 1.570849e-08 1.527819e-08 1.664523e-08 1.625032e-08 1.601687e-08 1.587142e-08
1.576390e-08 1.677465e-08 1.596691e-08 1.695606e-08 1.666077e-08 1.697916e-08 1.531493e-08 1.521224e-08 1.660265e-08 1.604273e-08
1.556304e-08 1.612706e-08 1.564891e-08 1.684748e-08 1.644274e-08 1.578395e-08 1.612573e-08 1.619434e-08 1.528334e-08 1.445429e-08
1.532139e-08 1.558360e-08 1.552409e-08 1.602342e-08 1.535281e-08 1.532779e-08 1.474066e-08 1.524578e-08 1.691857e-08 1.632040e-08
1.621577e-08 1.574275e-08 1.622601e-08 1.585754e-08 1.587996e-08 1.593967e-08 1.527898e-08 1.460717e-08 1.561581e-08 1.602831e-08
1.574468e-08 1.744771e-08 1.693616e-08 1.426670e-08 1.584853e-08 1.577274e-08 1.454482e-08 1.610051e-08 1.546049e-08 1.411601e-08
1.604675e-08 1.408006e-08 1.587151e-08 1.453613e-08 1.538858e-08 1.645723e-08 1.567214e-08 1.558536e-08 1.685656e-08 1.593557e-08
1.461117e-08 1.393734e-08 1.508364e-08 1.619759e-08 1.547537e-08 1.502846e-08 1.578180e-08 1.626048e-08 1.632268e-08 1.503284e-08
1.565032e-08 1.574155e-08 1.561752e-08 1.575170e-08 1.657133e-08 1.473480e-08 1.594251e-08 1.554570e-08 1.559578e-08 1.515693e-08
1.578279e-08 1.618474e-08 1.527193e-08 1.541517e-08 1.529848e-08 1.631163e-08 1.481029e-08 1.719049e-08 1.478558e-08 1.526751e-08
1.573633e-08 1.482908e-08 1.652852e-08 1.558836e-08 1.549053e-08 1.586686e-08 1.628707e-08 1.632986e-08 1.529940e-08 1.451924e-08
1.588953e-08 1.555816e-08 1.465315e-08 1.539099e-08 1.589149e-08 1.583977e-08 1.604140e-08 1.532191e-08 1.639924e-08 1.588250e-08
1.550172e-08 1.643082e-08 1.547135e-08 1.594343e-08 1.438939e-08 1.609147e-08 1.604587e-08 1.721696e-08 1.495379e-08 1.570684e-08
1.576651e-08 1.635464e-08 1.496045e-08 1.509371e-08 1.529647e-08 1.504169e-08 1.693854e-08 1.489446e-08 1.457121e-08 1.573354e-08
1.589579e-08 1.511231e-08 1.580540e-08 1.472602e-08 1.518750e-08 1.488888e-08 1.663713e-08 1.547314e-08 1.625878e-08 1.604464e-08
1.522870e-08 1.499575e-08 1.589888e-08 1.596855e-08 1.442959e-08 1.467327e-08 1.561389e-08 1.572921e-08 1.543921e-08 1.528629e-08
1.510583e-08 1.566689e-08 1.500604e-08 1.619474e-08 1.473874e-08 1.644246e-08 1.631452e-08 1.596774e-08 1.675449e-08 1.763814e-08
1.421569e-08 1.523568e-08 1.630419e-08 1.595947e-08 1.517101e-08 1.531496e-08 1.670926e-08 1.429567e-08 1.627521e-08 1.520326e-08
1.639856e-08 1.638210e-08 1.505011e-08 1.524645e-08 1.572634e-08 1.595011e-08 1.612445e-08 1.547532e-08 1.491473e-08 1.582175e-08
1.545604e-08 1.462894e-08 1.571462e-08 1.608504e-08 1.529236e-08 1.568939e-08 1.669390e-08 1.548756e-08 1.543618e-08 1.706283e-08
1.533958e-08 1.481524e-08 1.601043e-08 1.541753e-08 1.644525e-08 1.562950e-08 1.538772e-08 1.542219e-08 1.620803e-08 1.548499e-08
1.638973e-08 1.722587e-08 1.480848e-08 1.589303e-08 1.465256e-08 1.477037e-08 1.512219e-08 1.562424e-08 1.567934e-08 1.535508e-08
1.595066e-08 1.549935e-08 1.556079e-08 1.476884e-08 1.552874e-08 1.503838e-08 1.499952e-08 1.598086e-08 1.614867e-08 1.498636e-08
1.544222e-08 1.627938e-08 1.611716e-08 1.543786e-08 1.606355e-08 1.554201e-08 1.612964e-08 1.454430e-08 1.579606e-08 1.536175e-08
1.575187e-08
1.503011e-08 1.492208e-08 1.430981e-08 1.487259e-08 1.464100e-08 1.532467e-08 1.500259e-08 1.449135e-08 1.536958e-08 1.556070e-08
1.614144e-08 1.444241e-08 1.561695e-08 1.496765e-08 1.483230e-08 1.495664e-08 1.390801e-08 1.540577e-08 1.582661e-08 1.611831e-08
1.607081e-08 1.585142e-08 1.488369e-08 1.548121e-08 1.590343e-08 1.578440e-08 1.499868e-08 1.445534e-08 1.495930e-08 1.590061e-08
1.606287e-08 1.467012e-08 1.541696e-08 1.565613e-08 1.514234e-08 1.611094e-08 1.560087e-08 1.660686e-08 1.434335e-08 1.567081e-08
1.583093e-08 1.568764e-08 1.614318e-08 1.554193e-08 1.613136e-08 1.615096e-08 1.638233e-08 1.563782e-08 1.542378e-08 1.522649e-08
1.652064e-08 1.557234e-08 1.521303e-08 1.677393e-08 1.589795e-08 1.708680e-08 1.541819e-08 1.565319e-08 1.475248e-08 1.607018e-08
1.561304e-08 1.598382e-08 1.564834e-08 1.511750e-08 1.565921e-08 1.613171e-08 1.482407e-08 1.687054e-08 1.503324e-08 1.502831e-08
1.626321e-08 1.666194e-08 1.613009e-08 1.617678e-08 1.591880e-08 1.629426e-08 1.625866e-08 1.612819e-08 1.656998e-08 1.540256e-08
1.466987e-08 1.585973e-08 1.699325e-08 1.624455e-08 1.625883e-08 1.609652e-08 1.595318e-08 1.491834e-08 1.569929e-08 1.718439e-08
1.573457e-08 1.705400e-08 1.576652e-08 1.556188e-08 1.621023e-08 1.468548e-08 1.529803e-08 1.618891e-08 1.471418e-08 1.447454e-08
1.655392e-08 1.643202e-08 1.662857e-08 1.724545e-08 1.489627e-08 1.535615e-08 1.605384e-08 1.604185e-08 1.666498e-08 1.632422e-08
1.632122e-08 1.637594e-08 1.821117e-08 1.551105e-08 1.678146e-08 1.533997e-08 1.694263e-08 1.625717e-08 1.564491e-08 1.635121e-08
1.652667e-08 1.529947e-08 1.554125e-08 1.565239e-08 1.685506e-08 1.699239e-08 1.680828e-08 1.597355e-08 1.568215e-08 1.589253e-08
1.670139e-08 1.523899e-08 1.668678e-08 1.507307e-08 1.599029e-08 1.605342e-08 1.576623e-08 1.556604e-08 1.471998e-08 1.456483e-08
1.473778e-08 1.591681e-08 1.620344e-08 1.574851e-08 1.617337e-08 1.628506e-08 1.632850e-08 1.697985e-08 1.542621e-08 1.566365e-08
1.543061e-08 1.570594e-08 1.558092e-08 1.667450e-08 1.665157e-08 1.583952e-08 1.576629e-08 1.508886e-08 1.648645e-08 1.467404e-08
1.618768e-08 1.498360e-08 1.455082e-08 1.637070e-08 1.712035e-08 1.472964e-08 1.574153e-08 1.607190e-08 1.494203e-08 1.498192e-08
1.603025e-08 1.508560e-08 1.458684e-08 1.575077e-08 1.543755e-08 1.508804e-08 1.528551e-08 1.543308e-08 1.505645e-08 1.499380e-08
1.505464e-08 1.678918e-08 1.511774e-08 1.443929e-08 1.576858e-08 1.592895e-08 1.503506e-08 1.585397e-08 1.584880e-08 1.471907e-08
1.671541e-08 1.604066e-08 1.674377e-08 1.612815e-08 1.516005e-08 1.650773e-08 1.448706e-08 1.569993e-08 1.534980e-08 1.566367e-08
1.540730e-08 1.468131e-08 1.407749e-08 1.588890e-08 1.544908e-08 1.601849e-08 1.506283e-08 1.617000e-08 1.620330e-08 1.625452e-08
1.514126e-08 1.554190e-08 1.693256e-08 1.487989e-08 1.662593e-08 1.431866e-08 1.622685e-08 1.584895e-08 1.610437e-08 1.693942e-08
1.514012e-08 1.673375e-08 1.556136e-08 1.597972e-08 1.437368e-08 1.571387e-08 1.595260e-08 1.574289e-08 1.553021e-08 1.570392e-08
1.599367e-08 1.465666e-08 1.528789e-08 1.701037e-08 1.693738e-08 1.611963e-08 1.523562e-08 1.658683e-08 1.666139e-08 1.569586e-08
1.498465e-08 1.487374e-08 1.501308e-08 1.485489e-08 1.527910e-08 1.448133e-08 1.548705e-08 1.638437e-08 1.644014e-08 1.587463e-08
1.632752e-08 1.641301e-08 1.601798e-08 1.586697e-08 1.601367e-08 1.607464e-08 1.693481e-08 1.559775e-08 1.589345e-08 1.545152e-08
1.546806e-08 1.451365e-08 1.550495e-08 1.682078e-08 1.484514e-08 1.590901e-08 1.620863e-08 1.559667e-08 1.537388e-08 1.551012e-08
1.443836e-08 1.517101e-08 1.406107e-08 1.635337e-08 1.586303e-08 1.396725e-08 1.678990e-08 1.571321e-08 1.480996e-08 1.584220e-08
1.604814e-08 1.463137e-08 1.625844e-08 1.661635e-08 1.552021e-08 1.482499e-08 1.660907e-08 1.635104e-08 1.538687e-08 1.478197e-08
1.546474e-08 1.486550e-08 1.550749e-08 1.698577e-08 1.595378e-08 1.621045e-08 1.534850e-08 1.491689e-08 1.538906e-08 1.540463e-08
1.653469e-08 1.545044e-08 1.541271e-08 1.431013e-08 1.643864e-08 1.522884e-08 1.539626e-08 1.644498e-08 1.494336e-08 1.566124e-08
1.558507e-08 1.555244e-08 1.525356e-08 1.592906e-08 1.478245e-08 1.620676e-08 1.519853e-08 1.487918e-08 1.601606e-08 1.643695e-08
1.584324e-08 1.514738e-08 1.461676e-08 1.534000e-08 1.563917e-08 1.552637e-08 1.633422e-08 1.435922e-08 1.476600e-08 1.574294e-08
1.594181e-08 1.596975e-08 1.537609e-08 1.568997e-08 1.471169e-08 1.634670e-08 1.561715e-08 1.655105e-08 1.422911e-08 1.373828e-08
1.582330e-08 1.547998e-08 1.566399e-08 1.613652e-08 1.429623e-08 1.603793e-08 1.523624e-08 1.624558e-08 1.477816e-08 1.525909e-08
1.530390e-08 1.517489e-08 1.643216e-08 1.515627e-08 1.416163e-08 1.511858e-08 1.534329e-08 1.532064e-08 1.453570e-08 1.505555e-08
1.503011e-08
1.581497e-08 1.410553e-08 1.511058e-08 1.492212e-08 1.520374e-08 1.522570e-08 1.591264e-08 1.436338e-08 1.548634e-08 1.590561e-08
1.632120e-08 1.579476e-08 1.642615e-08 1.663861e-08 1.544893e-08 1.683831e-08 1.518259e-08 1.493973e-08 1.371249e-08 1.433530e-08
1.574843e-08 1.645137e-08 1.585663e-08 1.581788e-08 1.619672e-08 1.514943e-08 1.683425e-08 1.490901e-08 1.533080e-08 1.593360e-08
1.601469e-08 1.534294e-08 1.463494e-08 1.525317e-08 1.613261e-08 1.480396e-08 1.510764e-08 1.596954e-08 1.645508e-08 1.635896e-08
1.527249e-08 1.608152e-08 1.691718e-08 1.647674e-08 1.564224e-08 1.523407e-08 1.538638e-08 1.633724e-08 1.556181e-08 1.541564e-08
1.576052e-08 1.540644e-08 1.533223e-08 1.434117e-08 1.682259e-08 1.639244e-08 1.501003e-08 1.527375e-08 1.654144e-08 1.684390e-08
1.536974e-08 1.643803e-08 1.641371e-08 1.659738e-08 1.625159e-08 1.525438e-08 1.631603e-08 1.417006e-08 1.591318e-08 1.548146e-08
1.585486e-08 1.585636e-08 1.541849e-08 1.586869e-08 1.525232e-08 1.529052e-08 1.484116e-08 1.540742e-08 1.579716e-08 1.651568e-08
1.665276e-08 1.650740e-08 1.460887e-08 1.577399e-08 1.627786e-08 1.566210e-08 1.605298e-08 1.735749e-08 1.536985e-08 1.530616e-08
1.499385e-08 1.505285e-08 1.730508e-08 1.534884e-08 1.542298e-08 1.453804e-08 1.554713e-08 1.615169e-08 1.668021e-08 1.687186e-08
1.532285e-08 1.690613e-08 1.613835e-08 1.623953e-08 1.430277e-08 1.627623e-08 1.651378e-08 1.490508e-08 1.481036e-08 1.645734e-08
1.526945e-08 1.553490e-08 1.499506e-08 1.752055e-08 1.635010e-08 1.613356e-08 1.469131e-08 1.667279e-08 1.525019e-08 1.602447e-08
1.474681e-08 1.563344e-08 1.648674e-08 1.532698e-08 1.548253e-08 1.623736e-08 1.511519e-08 1.564561e-08 1.586252e-08 1.692207e-08
1.608642e-08 1.540979e-08 1.598788e-08 1.657382e-08 1.616640e-08 1.650110e-08 1.593847e-08 1.628422e-08 1.465351e-08 1.741670e-08
1.608624e-08 1.600874e-08 1.487836e-08 1.678708e-08 1.463555e-08 1.558016e-08 1.599872e-08 1.508314e-08 1.620792e-08 1.594170e-08
1.563280e-08 1.445360e-08 1.521989e-08 1.602620e-08 1.459161e-08 1.646483e-08 1.592405e-08 1.449087e-08 1.615601e-08 1.543125e-08
1.475580e-08 1.619050e-08 1.565719e-08 1.658324e-08 1.606383e-08 1.568174e-08 1.533371e-08 1.502871e-08 1.482738e-08 1.551734e-08
1.445245e-08 1.532896e-08 1.630311e-08 1.567336e-08 1.441558e-08 1.473493e-08 1.504386e-08 1.689977e-08 1.573049e-08 1.463370e-08
1.504975e-08 1.435176e-08 1.597833e-08 1.643157e-08 1.647468e-08 1.447631e-08 1.613450e-08 1.497524e-08 1.497141e-08 1.434559e-08
1.506690e-08 1.593318e-08 1.510772e-08 1.664714e-08 1.502919e-08 1.470581e-08 1.489907e-08 1.497617e-08 1.433747e-08 1.357309e-08
1.594840e-08 1.671686e-08 1.565546e-08 1.545331e-08 1.441103e-08 1.618850e-08 1.613838e-08 1.486809e-08 1.539743e-08 1.485078e-08
1.596636e-08 1.574576e-08 1.573246e-08 1.585276e-08 1.478085e-08 1.552528e-08 1.704114e-08 1.448142e-08 1.577357e-08 1.477005e-08
1.485177e-08 1.538771e-08 1.522287e-08 1.536306e-08 1.557125e-08 1.393110e-08 1.591374e-08 1.571161e-08 1.586422e-08 1.624055e-08
1.520829e-08 1.580463e-08 1.687851e-08 1.600814e-08 1.682607e-08 1.485316e-08 1.589619e-08 1.679171e-08 1.691420e-08 1.505318e-08
1.565417e-08 1.608322e-08 1.539099e-08 1.655052e-08 1.540893e-08 1.489546e-08 1.675169e-08 1.501983e-08 1.579872e-08 1.590507e-08
1.612413e-08 1.442514e-08 1.566285e-08 1.540750e-08 1.469071e-08 1.679477e-08 1.621805e-08 1.653680e-08 1.580422e-08 1.564190e-08
1.489723e-08 1.645177e-08 1.494881e-08 1.631636e-08 1.608548e-08 1.492095e-08 1.561908e-08 1.668304e-08 1.578601e-08 1.515829e-08
1.690872e-08 1.541137e-08 1.582052e-08 1.549469e-08 1.617376e-08 1.583835e-08 1.453703e-08 1.504645e-08 1.598189e-08 1.650259e-08
1.675850e-08 1.461567e-08 1.614209e-08 1.509110e-08 1.422961e-08 1.506183e-08 1.535320e-08 1.450160e-08 1.509338e-08 1.556200e-08
1.476969e-08 1.552750e-08 1.503362e-08 1.733520e-08 1.524150e-08 1.604853e-08 1.610249e-08 1.529997e-08 1.464998e-08 1.525279e-08
1.634088e-08 1.463901e-08 1.569947e-08 1.575105e-08 1.530007e-08 1.468921e-08 1.552536e-08 1.506966e-08 1.577658e-08 1.458932e-08
1.571146e-08 1.530252e-08 1.540346e-08 1.707591e-08 1.600409e-08 1.669618e-08 1.601407e-08 1.593892e-08 1.537093e-08 1.583394e-08
1.697896e-08 1.549527e-08 1.429686e-08 1.620593e-08 1.537946e-08 1.599827e-08 1.488816e-08 1.674237e-08 1.512167e-08 1.427803e-08
1.550734e-08 1.533891e-08 1.656691e-08 1.435436e-08 1.443453e-08 1.551616e-08 1.468503e-08 1.494485e-08 1.447193e-08 1.526661e-08
1.442054e-08 1.624835e-08 1.440761e-08 1.487304e-08 1.466764e-08 1.619512e-08 1.620094e-08 1.518559e-08 1.499759e-08 1.519320e-08
1.466464e-08 1.575502e-08 1.539247e-08 1.464653e-08 1.480536e-08 1.500639e-08 1.560294e-08 1.433323e-08 1.544318e-08 1.501697e-08
1.581497e-08
1.649463e-08 1.498038e-08 1.603473e-08 1.575343e-08 1.420143e-08 1.645886e-08 1.501988e-08 1.427953e-08 1.520597e-08 1.587932e-08
1.504612e-08 1.626683e-08 1.540102e-08 1.387329e-08 1.497168e-08 1.585498e-08 1.369277e-08 1.529442e-08 1.480936e-08 1.478477e-08
1.690010e-08 1.433787e-08 1.599446e-08 1.647357e-08 1.531378e-08 1.557404e-08 1.440774e-08 1.699975e-08 1.516555e-08 1.415361e-08
1.442686e-08 1.554485e-08 1.332241e-08 1.552521e-08 1.633936e-08 1.493083e-08 1.570007e-08 1.592535e-08 1.583479e-08 1.564539e-08
1.617254e-08 1.569265e-08 1.615417e-08 1.534131e-08 1.600421e-08 1.581822e-08 1.442337e-08 1.540818e-08 1.425611e-08 1.524729e-08
1.555665e-08 1.621600e-08 1.494744e-08 1.573386e-08 1.537447e-08 1.710610e-08 1.578228e-08 1.528557e-08 1.514232e-08 1.675919e-08
1.499939e-08 1.682722e-08 1.506212e-08 1.530680e-08 1.507805e-08 1.549112e-08 1.567845e-08 1.586955e-08 1.464083e-08 1.484557e-08
1.570755e-08 1.563111e-08 1.517715e-08 1.615128e-08 1.468673e-08 1.609557e-08 1.660218e-08 1.534099e-08 1.575639e-08 1.489302e-08
1.516900e-08 1.541727e-08 1.666101e-08 1.556385e-08 1.701416e-08 1.417712e-08 1.528360e-08 1.609502e-08 1.492629e-08 1.587462e-08
1.556538e-08 1.517758e-08 1.630906e-08 1.527637e-08 1.607487e-08 1.557480e-08 1.687884e-08 1.603934e-08 1.521452e-08 1.523556e-08
1.583455e-08 1.544376e-08 1.719537e-08 1.571591e-08 1.492224e-08 1.567730e-08 1.553230e-08 1.527071e-08 1.487440e-08 1.643425e-08
1.469166e-08 1.594778e-08 1.664705e-08 1.572252e-08 1.618651e-08 1.490823e-08 1.696921e-08 1.599163e-08 1.523096e-08 1.636706e-08
1.536677e-08 1.528625e-08 1.625111e-08 1.533793e-08 1.507531e-08 1.575697e-08 1.631055e-08 1.746460e-08 1.693471e-08 1.568518e-08
1.536708e-08 1.569577e-08 1.650982e-08 1.602096e-08 1.484370e-08 1.538058e-08 1.624403e-08 1.510162e-08 1.544181e-08 1.550319e-08
1.566966e-08 1.524293e-08 1.512934e-08 1.558398e-08 1.564379e-08 1.681316e-08 1.659152e-08 1.542485e-08 1.479847e-08 1.475591e-08
1.452213e-08 1.457595e-08 1.612138e-08 1.623762e-08 1.494934e-08 1.529403e-08 1.571476e-08 1.596337e-08 1.611031e-08 1.581329e-08
1.513552e-08 1.464770e-08 1.699352e-08 1.526599e-08 1.587394e-08 1.466501e-08 1.562325e-08 1.575057e-08 1.549605e-08 1.464146e-08
1.621207e-08 1.545752e-08 1.655985e-08 1.563853e-08 1.461833e-08 1.537163e-08 1.643221e-08 1.452146e-08 1.610024e-08 1.462925e-08
1.400071e-08 1.440155e-08 1.597287e-08 1.361813e-08 1.552799e-08 1.530173e-08 1.568523e-08 1.487773e-08 1.468727e-08 1.675272e-08
1.541254e-08 1.624193e-08 1.603307e-08 1.537793e-08 1.440257e-08 1.563810e-08 1.580356e-08 1.565455e-08 1.644232e-08 1.683032e-08
1.519006e-08 1.556251e-08 1.556632e-08 1.599215e-08 1.508257e-08 1.593222e-08 1.615210e-08 1.516331e-08 1.514143e-08 1.535222e-08
1.574098e-08 1.596588e-08 1.561071e-08 1.514578e-08 1.568128e-08 1.552279e-08 1.526430e-08 1.579939e-08 1.586038e-08 1.680892e-08
1.508550e-08 1.516153e-08 1.490140e-08 1.473625e-08 1.542821e-08 1.666568e-08 1.503744e-08 1.519802e-08 1.479013e-08 1.478378e-08
1.557285e-08 1.494869e-08 1.641865e-08 1.597780e-08 1.679251e-08 1.442424e-08 1.426638e-08 1.532469e-08 1.569624e-08 1.420092e-08
1.488895e-08 1.476644e-08 1.524249e-08 1.496301e-08 1.533420e-08 1.469238e-08 1.488923e-08 1.607478e-08 1.577032e-08 1.584969e-08
1.532388e-08 1.557951e-08 1.619881e-08 1.554677e-08 1.448841e-08 1.511723e-08 1.512930e-08 1.579953e-08 1.467793e-08 1.578244e-08
1.582391e-08 1.589410e-08 1.598394e-08 1.484792e-08 1.534441e-08 1.544388e-08 1.565896e-08 1.662864e-08 1.426026e-08 1.602705e-08
1.642375e-08 1.560021e-08 1.490665e-08 1.432994e-08 1.490345e-08 1.464749e-08 1.606669e-08 1.502673e-08 1.591174e-08 1.477775e-08
1.502002e-08 1.581968e-08 1.479860e-08 1.606700e-08 1.572509e-08 1.387393e-08 1.518571e-08 1.391237e-08 1.582139e-08 1.604093e-08
1.558867e-08 1.455562e-08 1.470928e-08 1.522253e-08 1.566723e-08 1.512527e-08 1.595479e-08 1.484222e-08 1.497332e-08 1.660264e-08
1.540319e-08 1.424381e-08 1.515752e-08 1.638515e-08 1.677369e-08 1.616325e-08 1.476460e-08 1.517784e-08 1.512906e-08 1.486666e-08
1.724164e-08 1.518492e-08 1.465894e-08 1.617158e-08 1.485009e-08 1.619433e-08 1.550429e-08 1.484829e-08 1.509722e-08 1.449743e-08
1.427291e-08 1.577948e-08 1.456758e-08 1.474185e-08 1.534566e-08 1.579935e-08 1.532223e-08 1.453196e-08 1.645218e-08 1.499017e-08
1.526213e-08 1.551112e-08 1.532121e-08 1.523335e-08 1.682759e-08 1.622404e-08 1.494980e-08 1.616944e-08 1.638630e-08 1.674521e-08
1.616159e-08 1.636950e-08 1.566895e-08 1.619385e-08 1.563716e-08 1.594425e-08 1.517169e-08 1.605653e-08 1.428987e-08 1.573485e-08
1.550195e-08 1.542613e-08 1.524753e-08 1.397138e-08 1.534743e-08 1.479524e-08 1.538346e-08 1.510438e-08 1.542864e-08 1.608960e-08
1.649463e-08
1.502730e-08 1.484428e-08 1.475502e-08 1.657837e-08 1.493857e-08 1.478494e-08 1.392732e-08 1.614841e-08 1.462773e-08 1.506655e-08
1.499825e-08 1.464058e-08 1.412155e-08 1.503463e-08 1.453436e-08 1.358601e-08 1.519724e-08 1.509653e-08 1.588907e-08 1.565602e-08
1.575103e-08 1.739451e-08 1.396229e-08 1.529816e-08 1.530735e-08 1.627238e-08 1.540505e-08 1.487011e-08 1.663970e-08 1.543439e-08
1.500982e-08 1.625561e-08 1.458190e-08 1.572589e-08 1.523629e-08 1.490219e-08 1.564263e-08 1.492319e-08 1.476984e-08 1.530152e-08
1.583892e-08 1.586897e-08 1.513073e-08 1.555658e-08 1.631113e-08 1.656400e-08 1.486420e-08 1.661916e-08 1.546871e-08 1.520487e-08
1.562700e-08 1.559101e-08 1.536298e-08 1.517215e-08 1.530146e-08 1.517806e-08 1.485826e-08 1.542728e-08 1.504193e-08 1.626125e-08
1.548526e-08 1.527795e-08 1.512110e-08 1.644459e-08 1.515251e-08 1.667578e-08 1.515443e-08 1.653665e-08 1.572563e-08 1.470287e-08
1.565271e-08 1.578615e-08 1.533139e-08 1.480968e-08 1.658221e-08 1.566944e-08 1.529851e-08 1.464225e-08 1.623877e-08 1.495169e-08
1.455839e-08 1.613729e-08 1.494612e-08 1.576708e-08 1.649648e-08 1.614338e-08 1.467943e-08 1.604620e-08 1.498127e-08 1.466656e-08
1.627921e-08 1.442887e-08 1.450767e-08 1.655653e-08 1.602002e-08 1.565228e-08 1.628366e-08 1.529430e-08 1.470973e-08 1.565316e-08
1.442010e-08 1.541092e-08 1.495374e-08 1.459587e-08 1.531608e-08 1.557859e-08 1.542691e-08 1.499877e-08 1.369404e-08 1.578668e-08
1.575808e-08 1.571166e-08 1.543535e-08 1.474945e-08 1.610270e-08 1.547475e-08 1.479057e-08 1.580248e-08 1.509478e-08 1.571194e-08
1.636307e-08 1.523710e-08 1.515527e-08 1.492904e-08 1.520752e-08 1.620184e-08 1.437444e-08 1.556439e-08 1.718953e-08 1.619854e-08
1.494574e-08 1.471692e-08 1.452300e-08 1.515363e-08 1.532214e-08 1.598939e-08 1.688339e-08 1.531307e-08 1.508420e-08 1.556715e-08
1.546750e-08 1.473779e-08 1.592695e-08 1.524704e-08 1.458761e-08 1.454673e-08 1.556641e-08 1.596045e-08 1.572442e-08 1.607734e-08
1.508090e-08 1.613794e-08 1.574447e-08 1.631779e-08 1.631564e-08 1.526803e-08 1.515477e-08 1.518281e-08 1.631745e-08 1.539255e-08
1.581722e-08 1.624693e-08 1.440444e-08 1.484255e-08 1.601922e-08 1.512009e-08 1.495603e-08 1.578537e-08 1.412842e-08 1.684955e-08
1.686397e-08 1.517284e-08 1.495753e-08 1.525385e-08 1.569745e-08 1.599147e-08 1.504427e-08 1.455170e-08 1.509340e-08 1.436354e-08
1.616437e-08 1.484387e-08 1.545308e-08 1.445054e-08 1.442714e-08 1.468859e-08 1.681194e-08 1.470965e-08 1.553803e-08 1.562338e-08
1.684787e-08 1.587217e-08 1.538005e-08 1.468036e-08 1.580855e-08 1.469459e-08 1.515137e-08 1.555936e-08 1.475923e-08 1.599980e-08
1.539677e-08 1.606877e-08 1.513059e-08 1.503845e-08 1.433384e-08 1.576523e-08 1.605423e-08 1.581528e-08 1.557768e-08 1.529624e-08
1.581638e-08 1.567128e-08 1.669888e-08 1.492504e-08 1.576131e-08 1.664844e-08 1.518744e-08 1.697497e-08 1.462879e-08 1.487187e-08
1.567553e-08 1.600026e-08 1.499976e-08 1.554528e-08 1.454352e-08 1.593230e-08 1.515957e-08 1.644119e-08 1.458771e-08 1.574586e-08
1.591589e-08 1.556614e-08 1.461471e-08 1.420935e-08 1.417268e-08 1.420139e-08 1.463865e-08 1.442113e-08 1.486800e-08 1.562214e-08
1.444441e-08 1.574876e-08 1.452177e-08 1.493743e-08 1.432929e-08 1.599583e-08 1.408263e-08 1.507087e-08 1.533605e-08 1.548184e-08
1.575390e-08 1.445754e-08 1.436542e-08 1.624444e-08 1.490254e-08 1.446812e-08 1.500141e-08 1.535764e-08 1.604541e-08 1.492533e-08
1.563132e-08 1.503081e-08 1.561317e-08 1.652645e-08 1.520620e-08 1.482206e-08 1.492462e-08 1.500584e-08 1.529239e-08 1.466226e-08
1.470319e-08 1.528040e-08 1.499870e-08 1.584552e-08 1.500455e-08 1.553032e-08 1.546325e-08 1.443599e-08 1.524106e-08 1.581547e-08
1.487940e-08 1.453714e-08 1.646658e-08 1.560978e-08 1.467358e-08 1.534249e-08 1.571120e-08 1.519588e-08 1.415742e-08 1.524164e-08
1.491516e-08 1.451873e-08 1.391356e-08 1.437879e-08 1.440706e-08 1.526391e-08 1.442578e-08 1.478047e-08 1.527240e-08 1.477497e-08
1.604207e-08 1.560211e-08 1.503726e-08 1.531327e-08 1.549968e-08 1.552562e-08 1.524367e-08 1.490607e-08 1.486223e-08 1.493887e-08
1.545536e-08 1.504216e-08 1.494902e-08 1.505340e-08 1.456264e-08 1.535483e-08 1.464832e-08 1.575497e-08 1.431560e-08 1.653653e-08
1.467608e-08 1.508975e-08 1.624134e-08 1.652504e-08 1.655822e-08 1.539483e-08 1.558696e-08 1.630586e-08 1.465660e-08 1.665271e-08
1.429116e-08 1.565929e-08 1.585242e-08 1.618544e-08 1.654586e-08 1.431532e-08 1.606326e-08 1.543230e-08 1.601699e-08 1.517726e-08
1.538330e-08 1.500602e-08 1.484382e-08 1.538701e-08 1.579793e-08 1.597740e-08 1.439631e-08 1.583974e-08 1.527902e-08 1.463286e-08
1.598330e-08 1.529610e-08 1.548846e-08 1.488202e-08 1.487658e-08 1.593515e-08 1.425385e-08 1.605205e-08 1.327254e-08 1.619491e-08
1.502730e-08
1.491039e-08 1.524185e-08 1.499215e-08 1.516951e-08 1.441933e-08 1.450248e-08 1.520393e-08 1.388877e-08 1.505475e-08 1.640967e-08
1.522017e-08 1.546917e-08 1.465950e-08 1.526486e-08 1.468142e-08 1.422228e-08 1.521364e-08 1.454311e-08 1.457669e-08 1.472911e-08
1.537985e-08 1.608664e-08 1.515915e-08 1.504800e-08 1.529539e-08 1.567036e-08 1.510375e-08 1.491638e-08 1.540775e-08 1.463767e-08
1.557567e-08 1.507326e-08 1.546559e-08 1.453928e-08 1.445174e-08 1.424707e-08 1.483530e-08 1.511759e-08 1.487939e-08 1.566297e-08
1.505654e-08 1.566532e-08 1.650834e-08 1.402302e-08 1.564844e-08 1.648565e-08 1.553573e-08 1.485615e-08 1.621128e-08 1.470333e-08
1.507645e-08 1.507936e-08 1.568744e-08 1.548569e-08 1.518909e-08 1.492125e-08 1.548167e-08 1.461032e-08 1.555595e-08 1.663789e-08
1.506274e-08 1.553947e-08 1.505039e-08 1.501003e-08 1.373038e-08 1.432987e-08 1.574412e-08 1.647336e-08 1.476455e-08 1.467654e-08
1.576225e-08 1.510358e-08 1.640564e-08 1.698424e-08 1.623565e-08 1.552876e-08 1.502954e-08 1.614572e-08 1.623055e-08 1.505225e-08
1.538255e-08 1.509728e-08 1.579107e-08 1.564498e-08 1.498105e-08 1.587062e-08 1.573465e-08 1.452346e-08 1.555118e-08 1.447842e-08
1.447465e-08 1.644043e-08 1.413656e-08 1.485199e-08 1.500356e-08 1.517010e-08 1.425735e-08 1.476272e-08 1.480175e-08 1.458805e-08
1.551104e-08 1.480408e-08 1.482725e-08 1.418847e-08 1.538332e-08 1.474032e-08 1.608417e-08 1.549396e-08 1.456716e-08 1.588746e-08
1.591036e-08 1.647300e-08 1.492995e-08 1.536231e-08 1.494388e-08 1.619152e-08 1.422436e-08 1.554898e-08 1.467467e-08 1.423989e-08
1.644641e-08 1.484272e-08 1.444831e-08 1.557283e-08 1.502643e-08 1.632218e-08 1.519986e-08 1.483961e-08 1.557323e-08 1.624356e-08
1.688763e-08 1.524468e-08 1.375313e-08 1.564625e-08 1.472359e-08 1.578911e-08 1.512533e-08 1.571964e-08 1.477460e-08 1.485882e-08
1.623837e-08 1.496877e-08 1.525725e-08 1.404997e-08 1.413795e-08 1.555573e-08 1.466910e-08 1.542487e-08 1.613339e-08 1.443631e-08
1.605242e-08 1.411155e-08 1.551497e-08 1.532128e-08 1.598621e-08 1.511980e-08 1.416689e-08 1.561446e-08 1.594440e-08 1.637845e-08
1.485229e-08 1.628516e-08 1.540436e-08 1.531942e-08 1.565965e-08 1.376178e-08 1.507695e-08 1.458949e-08 1.419099e-08 1.407107e-08
1.553706e-08 1.510188e-08 1.376333e-08 1.496835e-08 1.542437e-08 1.408371e-08 1.360128e-08 1.656115e-08 1.540392e-08 1.546796e-08
1.469415e-08 1.426333e-08 1.510379e-08 1.565151e-08 1.510183e-08 1.417698e-08 1.535236e-08 1.406154e-08 1.465307e-08 1.501189e-08
1.546830e-08 1.547762e-08 1.534472e-08 1.509360e-08 1.634672e-08 1.568462e-08 1.445864e-08 1.488181e-08 1.569997e-08 1.558643e-08
1.478554e-08 1.570675e-08 1.619088e-08 1.530374e-08 1.487951e-08 1.498112e-08 1.531969e-08 1.384799e-08 1.475541e-08 1.450306e-08
1.628620e-08 1.601928e-08 1.577365e-08 1.414467e-08 1.497980e-08 1.405630e-08 1.463138e-08 1.475242e-08 1.549729e-08 1.392655e-08
1.546801e-08 1.532100e-08 1.534728e-08 1.508307e-08 1.440863e-08 1.528685e-08 1.384291e-08 1.518639e-08 1.494506e-08 1.591936e-08
1.503100e-08 1.650108e-08 1.599918e-08 1.456434e-08 1.484737e-08 1.617482e-08 1.566482e-08 1.583979e-08 1.377794e-08 1.494412e-08
1.583587e-08 1.626096e-08 1.455254e-08 1.526461e-08 1.518607e-08 1.438645e-08 1.399925e-08 1.446272e-08 1.605709e-08 1.432353e-08
1.530799e-08 1.577024e-08 1.475581e-08 1.583851e-08 1.524942e-08 1.511563e-08 1.532390e-08 1.542104e-08 1.429796e-08 1.487345e-08
1.550055e-08 1.424356e-08 1.595009e-08 1.583130e-08 1.489627e-08 1.499589e-08 1.484485e-08 1.374978e-08 1.401885e-08 1.566731e-08
1.578236e-08 1.407743e-08 1.450845e-08 1.592964e-08 1.539776e-08 1.459976e-08 1.517959e-08 1.470115e-08 1.444576e-08 1.529786e-08
1.436464e-08 1.540640e-08 1.637701e-08 1.395501e-08 1.373187e-08 1.476019e-08 1.551937e-08 1.564511e-08 1.462244e-08 1.521761e-08
1.554678e-08 1.385994e-08 1.551051e-08 1.589025e-08 1.503389e-08 1.462794e-08 1.555583e-08 1.526727e-08 1.488931e-08 1.475342e-08
1.469514e-08 1.465383e-08 1.523935e-08 1.354751e-08 1.669900e-08 1.590523e-08 1.395558e-08 1.617776e-08 1.582649e-08 1.581502e-08
1.603628e-08 1.463665e-08 1.472210e-08 1.569761e-08 1.495382e-08 1.411463e-08 1.481698e-08 1.580502e-08 1.642700e-08 1.555862e-08
1.507100e-08 1.493985e-08 1.438450e-08 1.472831e-08 1.612309e-08 1.600585e-08 1.541741e-08 1.546228e-08 1.573562e-08 1.498231e-08
1.528611e-08 1.550710e-08 1.296674e-08 1.637368e-08 1.500886e-08 1.491276e-08 1.655122e-08 1.572764e-08 1.416346e-08 1.521226e-08
1.475258e-08 1.564047e-08 1.499936e-08 1.642193e-08 1.520220e-08 1.563138e-08 1.590452e-08 1.482840e-08 1.365227e-08 1.478741e-08
1.522963e-08 1.583054e-08 1.584402e-08 1.566464e-08 1.553613e-08 1.332299e-08 1.591736e-08 1.408328e-08 1.618975e-08 1.397336e-08
1.491039e-08
1.561615e-08 1.523497e-08 1.444210e-08 1.524571e-08 1.504801e-08 1.396328e-08 1.532925e-08 1.444419e-08 1.516208e-08 1.622626e-08
1.571894e-08 1.577845e-08 1.524242e-08 1.513698e-08 1.507227e-08 1.382543e-08 1.600454e-08 1.439876e-08 1.551980e-08 1.555022e-08
1.498499e-08 1.375133e-08 1.470960e-08 1.538307e-08 1.485783e-08 1.449360e-08 1.526339e-08 1.555530e-08 1.422845e-08 1.516342e-08
1.566885e-08 1.541790e-08 1.448183e-08 1.514530e-08 1.635900e-08 1.452507e-08 1.565357e-08 1.483125e-08 1.511876e-08 1.592754e-08
1.568273e-08 1.508855e-08 1.538657e-08 1.554797e-08 1.519583e-08 1.393989e-08 1.364829e-08 1.511296e-08 1.485782e-08 1.334524e-08
1.531130e-08 1.478883e-08 1.614402e-08 1.552602e-08 1.453755e-08 1.504465e-08 1.377184e-08 1.570318e-08 1.467061e-08 1.436136e-08
1.594844e-08 1.633927e-08 1.332709e-08 1.469096e-08 1.516809e-08 1.519910e-08 1.354108e-08 1.514077e-08 1.491676e-08 1.563613e-08
1.431548e-08 1.525252e-08 1.492160e-08 1.604045e-08 1.454979e-08 1.539102e-08 1.559042e-08 1.529559e-08 1.493400e-08 1.532916e-08
1.614127e-08 1.367654e-08 1.625526e-08 1.509975e-08 1.467034e-08 1.472275e-08 1.417023e-08 1.514931e-08 1.544376e-08 1.450835e-08
1.492274e-08 1.503351e-08 1.457474e-08 1.511714e-08 1.500709e-08 1.479954e-08 1.580229e-08 1.556103e-08 1.451723e-08 1.586821e-08
1.600091e-08 1.493193e-08 1.447294e-08 1.549216e-08 1.545592e-08 1.543864e-08 1.452885e-08 1.547132e-08 1.550332e-08 1.529154e-08
1.510554e-08 1.556385e-08 1.552617e-08 1.538602e-08 1.517514e-08 1.412983e-08 1.426039e-08 1.463649e-08 1.556331e-08 1.548088e-08
1.550533e-08 1.708933e-08 1.544854e-08 1.353934e-08 1.360397e-08 1.576475e-08 1.426017e-08 1.437408e-08 1.584690e-08 1.576840e-08
1.557236e-08 1.533524e-08 1.588659e-08 1.550960e-08 1.580978e-08 1.381134e-08 1.424318e-08 1.493504e-08 1.532707e-08 1.521382e-08
1.473459e-08 1.445167e-08 1.480806e-08 1.499977e-08 1.540466e-08 1.468868e-08 1.506580e-08 1.671190e-08 1.700031e-08 1.521452e-08
1.506170e-08 1.499663e-08 1.490179e-08 1.468383e-08 1.475948e-08 1.673106e-08 1.410233e-08 1.546635e-08 1.443824e-08 1.467939e-08
1.548857e-08 1.435406e-08 1.569255e-08 1.479001e-08 1.396158e-08 1.481315e-08 1.375003e-08 1.543872e-08 1.409416e-08 1.544384e-08
1.557996e-08 1.539622e-08 1.453966e-08 1.432350e-08 1.419703e-08 1.621546e-08 1.541841e-08 1.614500e-08 1.505811e-08 1.470288e-08
1.549228e-08 1.441328e-08 1.472039e-08 1.499519e-08 1.481060e-08 1.442167e-08 1.424790e-08 1.568480e-08 1.475260e-08 1.553651e-08
1.613017e-08 1.356838e-08 1.456600e-08 1.464171e-08 1.506088e-08 1.501515e-08 1.548517e-08 1.540651e-08 1.474391e-08 1.445233e-08
1.418476e-08 1.461408e-08 1.510244e-08 1.524107e-08 1.563227e-08 1.538136e-08 1.396170e-08 1.371858e-08 1.593661e-08 1.581835e-08
1.633028e-08 1.550114e-08 1.410184e-08 1.483461e-08 1.529616e-08 1.568961e-08 1.519848e-08 1.589688e-08 1.430463e-08 1.605073e-08
1.619565e-08 1.418657e-08 1.529023e-08 1.518640e-08 1.426657e-08 1.490470e-08 1.469871e-08 1.389039e-08 1.630348e-08 1.545473e-08
1.622367e-08 1.570044e-08 1.511555e-08 1.558353e-08 1.503378e-08 1.523858e-08 1.576797e-08 1.627355e-08 1.534424e-08 1.420027e-08
1.610677e-08 1.538891e-08 1.529194e-08 1.517111e-08 1.526590e-08 1.486629e-08 1.562628e-08 1.394241e-08 1.523633e-08 1.533081e-08
1.459733e-08 1.484340e-08 1.514017e-08 1.395420e-08 1.622777e-08 1.462414e-08 1.498888e-08 1.575876e-08 1.484553e-08 1.382385e-08
1.469924e-08 1.577519e-08 1.538314e-08 1.560609e-08 1.497044e-08 1.648514e-08 1.396356e-08 1.531575e-08 1.518367e-08 1.589484e-08
1.477948e-08 1.570500e-08 1.536964e-08 1.357526e-08 1.447286e-08 1.486040e-08 1.544693e-08 1.627759e-08 1.376745e-08 1.485016e-08
1.470903e-08 1.508549e-08 1.580135e-08 1.584715e-08 1.517591e-08 1.517940e-08 1.518048e-08 1.414532e-08 1.493960e-08 1.426545e-08
1.424752e-08 1.466260e-08 1.481311e-08 1.575480e-08 1.444189e-08 1.576611e-08 1.473702e-08 1.531063e-08 1.483949e-08 1.463674e-08
1.531692e-08 1.380279e-08 1.543670e-08 1.565651e-08 1.558221e-08 1.373066e-08 1.378002e-08 1.584347e-08 1.436672e-08 1.615573e-08
1.483028e-08 1.474170e-08 1.469699e-08 1.540974e-08 1.580880e-08 1.470204e-08 1.561758e-08 1.524191e-08 1.408565e-08 1.589897e-08
1.676910e-08 1.519339e-08 1.508643e-08 1.550149e-08 1.501992e-08 1.465130e-08 1.555921e-08 1.516313e-08 1.543712e-08 1.601249e-08
1.432384e-08 1.441699e-08 1.512496e-08 1.557496e-08 1.376314e-08 1.500480e-08 1.510093e-08 1.695375e-08 1.470961e-08 1.524612e-08
1.355371e-08 1.404642e-08 1.542532e-08 1.491024e-08 1.407120e-08 1.480062e-08 1.553268e-08 1.481154e-08 1.398838e-08 1.501745e-08
1.476805e-08 1.619591e-08 1.567286e-08 1.560459e-08 1.504788e-08 1.419453e-08 1.505759e-08 1.466311e-08 1.345990e-08 1.576309e-08
1.561615e-08
1.554360e-08 1.435626e-08 1.484966e-08 1.298803e-08 1.457865e-08 1.375990e-08 1.426923e-08 1.422397e-08 1.542919e-08 1.591048e-08
1.570306e-08 1.556870e-08 1.444927e-08 1.651802e-08 1.573328e-08 1.459690e-08 1.475668e-08 1.472420e-08 1.404171e-08 1.408143e-08
1.360323e-08 1.387980e-08 1.519418e-08 1.476591e-08 1.417049e-08 1.515094e-08 1.443918e-08 1.505624e-08 1.459716e-08 1.497335e-08
1.498728e-08 1.423226e-08 1.469040e-08 1.441745e-08 1.490454e-08 1.411694e-08 1.384680e-08 1.538103e-08 1.442652e-08 1.560406e-08
1.426188e-08 1.543390e-08 1.462555e-08 1.475382e-08 1.349745e-08 1.620044e-08 1.474563e-08 1.483236e-08 1.444646e-08 1.547520e-08
1.550642e-08 1.445713e-08 1.415134e-08 1.504818e-08 1.501049e-08 1.549215e-08 1.435266e-08 1.440298e-08 1.530177e-08 1.463624e-08
1.546866e-08 1.420870e-08 1.465285e-08 1.447526e-08 1.422763e-08 1.605244e-08 1.540842e-08 1.464308e-08 1.368574e-08 1.399094e-08
1.486016e-08 1.562405e-08 1.587157e-08 1.475559e-08 1.438333e-08 1.486765e-08 1.562906e-08 1.450160e-08 1.348896e-08 1.573869e-08
1.482416e-08 1.721760e-08 1.387422e-08 1.470976e-08 1.500977e-08 1.430582e-08 1.413519e-08 1.535464e-08 1.378276e-08 1.463789e-08
1.410383e-08 1.462729e-08 1.502605e-08 1.543632e-08 1.528869e-08 1.609014e-08 1.422502e-08 1.536267e-08 1.585460e-08 1.500909e-08
1.541806e-08 1.519398e-08 1.491743e-08 1.483000e-08 1.413557e-08 1.481054e-08 1.463657e-08 1.507880e-08 1.466395e-08 1.517472e-08
1.464114e-08 1.478053e-08 1.476197e-08 1.437880e-08 1.409573e-08 1.461190e-08 1.471909e-08 1.585903e-08 1.612934e-08 1.526145e-08
1.554946e-08 1.549257e-08 1.525953e-08 1.441668e-08 1.449882e-08 1.495535e-08 1.381809e-08 1.499289e-08 1.521776e-08 1.428387e-08
1.446680e-08 1.633106e-08 1.548461e-08 1.513352e-08 1.475726e-08 1.452442e-08 1.525107e-08 1.472881e-08 1.427852e-08 1.464543e-08
1.417504e-08 1.477857e-08 1.488831e-08 1.503991e-08 1.578857e-08 1.446555e-08 1.453311e-08 1.436323e-08 1.408214e-08 1.446071e-08
1.505756e-08 1.447605e-08 1.456492e-08 1.486484e-08 1.576444e-08 1.502559e-08 1.553437e-08 1.494885e-08 1.567397e-08 1.515926e-08
1.546118e-08 1.484051e-08 1.467999e-08 1.382912e-08 1.521128e-08 1.491001e-08 1.451056e-08 1.504526e-08 1.402753e-08 1.531489e-08
1.405294e-08 1.522176e-08 1.427513e-08 1.536610e-08 1.533860e-08 1.442474e-08 1.406771e-08 1.420870e-08 1.616620e-08 1.437291e-08
1.364797e-08 1.476329e-08 1.467944e-08 1.518128e-08 1.408379e-08 1.625266e-08 1.406570e-08 1.436244e-08 1.511422e-08 1.484612e-08
1.482120e-08 1.475893e-08 1.477855e-08 1.451124e-08 1.511354e-08 1.520826e-08 1.554629e-08 1.474472e-08 1.454709e-08 1.403347e-08
1.516747e-08 1.504871e-08 1.456035e-08 1.512551e-08 1.480837e-08 1.429025e-08 1.493283e-08 1.558734e-08 1.508400e-08 1.603034e-08
1.451052e-08 1.448492e-08 1.384449e-08 1.563961e-08 1.564445e-08 1.341102e-08 1.415248e-08 1.521514e-08 1.546584e-08 1.430185e-08
1.480666e-08 1.555213e-08 1.488782e-08 1.421714e-08 1.425395e-08 1.485442e-08 1.427507e-08 1.502083e-08 1.304396e-08 1.544608e-08
1.398031e-08 1.531324e-08 1.382976e-08 1.481483e-08 1.537142e-08 1.563179e-08 1.445297e-08 1.367749e-08 1.482530e-08 1.512077e-08
1.356603e-08 1.435029e-08 1.513727e-08 1.553804e-08 1.475362e-08 1.488834e-08 1.381667e-08 1.461608e-08 1.496993e-08 1.454493e-08
1.380630e-08 1.437484e-08 1.464784e-08 1.471746e-08 1.410663e-08 1.460717e-08 1.530658e-08 1.367884e-08 1.474606e-08 1.470388e-08
1.378809e-08 1.557686e-08 1.371342e-08 1.569796e-08 1.540079e-08 1.472950e-08 1.436935e-08 1.465311e-08 1.536592e-08 1.472350e-08
1.549613e-08 1.483928e-08 1.446710e-08 1.415215e-08 1.470754e-08 1.479756e-08 1.471586e-08 1.465237e-08 1.413662e-08 1.488819e-08
1.608063e-08 1.355941e-08 1.454826e-08 1.496042e-08 1.445741e-08 1.571870e-08 1.553768e-08 1.614905e-08 1.529587e-08 1.462952e-08
1.516197e-08 1.493814e-08 1.542320e-08 1.534637e-08 1.492733e-08 1.489948e-08 1.570158e-08 1.483644e-08 1.540126e-08 1.494213e-08
1.612075e-08 1.419958e-08 1.625178e-08 1.455425e-08 1.430818e-08 1.425971e-08 1.436964e-08 1.547146e-08 1.509908e-08 1.498615e-08
1.453444e-08 1.621279e-08 1.455064e-08 1.471857e-08 1.628394e-08 1.519747e-08 1.556977e-08 1.420988e-08 1.479437e-08 1.557252e-08
1.503838e-08 1.448375e-08 1.525604e-08 1.450985e-08 1.553873e-08 1.435029e-08 1.430394e-08 1.432748e-08 1.599181e-08 1.389283e-08
1.496536e-08 1.638557e-08 1.496406e-08 1.507047e-08 1.499560e-08 1.396753e-08 1.515593e-08 1.473350e-08 1.472619e-08 1.605083e-08
1.459937e-08 1.432281e-08 1.551657e-08 1.459092e-08 1.586430e-08 1.485796e-08 1.521442e-08 1.348137e-08 1.536147e-08 1.489227e-08
1.358056e-08 1.573270e-08 1.492577e-08 1.624320e-08 1.404907e-08 1.407732e-08 1.397951e-08 1.563063e-08 1.653775e-08 1.452517e-08
1.554360e-08
-1.875701e-08 -1.713014e-08 -1.953206e-08 -2.091894e-08 -1.950784e-08 -1.972742e-08 -1.867345e-08 -1.686975e-08 -1.866718e-08 -1.872967e-08
-1.937190e-08 -1.915652e-08 -1.747392e-08 -1.965364e-08 -1.983423e-08 -1.946809e-08 -1.928245e-08 -1.921988e-08 -1.864216e-08 -1.850995e-08
-1.739255e-08 -1.803785e-08 -1.843475e-08 -1.852498e-08 -1.860841e-08 -2.046703e-08 -1.948251e-08 -1.794490e-08 -2.034202e-08 -2.034103e-08
-1.915080e-08 -1.817727e-08 -1.974722e-08 -1.922474e-08 -1.791525e-08 -1.789895e-08 -1.724982e-08 -1.895973e-08 -1.884506e-08 -1.778636e-08
-1.914042e-08 -1.831848e-08 -1.864984e-08 -1.888920e-08 -1.856986e-08 -1.962754e-08 -2.059670e-08 -2.050506e-08 -2.108984e-08 -1.854763e-08
-1.772548e-08 -1.937724e-08 -1.952957e-08 -1.653862e-08 -1.880206e-08 -1.888770e-08 -1.850850e-08 -1.849384e-08 -1.884262e-08 -1.896929e-08
-2.077639e-08 -1.707403e-08 -1.834426e-08 -1.822591e-08 -1.653638e-08 -1.774047e-08 -1.934779e-08 -1.949613e-08 -1.832156e-08 -1.906797e-08
-1.899703e-08 -1.924732e-08 -1.758060e-08 -1.886888e-08 -1.933511e-08 -1.785006e-08 -1.962255e-08 -1.761126e-08 -1.707100e-08 -1.841945e-08
-1.960707e-08 -2.150468e-08 -1.861143e-08 -1.672489e-08 -1.777292e-08 -1.844773e-08 -1.742036e-08 -1.917847e-08 -1.953412e-08 -1.771693e-08
-1.784688e-08 -1.969945e-08 -1.682294e-08 -1.832461e-08 -1.904369e-08 -2.046467e-08 -1.828927e-08 -1.596280e-08 -1.941920e-08 -1.873946e-08
-1.653879e-08 -1.728228e-08 -1.833205e-08 -1.810754e-08 -1.859688e-08 -2.050948e-08 -1.892678e-08 -1.760586e-08 -1.803886e-08 -1.864261e-08
-1.667020e-08 -1.957265e-08 -1.792546e-08 -1.933564e-08 -2.037737e-08 -1.807307e-08 -1.861792e-08 -1.781052e-08 -1.904617e-08 -1.826541e-08
-1.916990e-08 -1.734882e-08 -1.831232e-08 -1.857003e-08 -1.846031e-08 -1.845438e-08 -1.904130e-08 -1.989088e-08 -1.763656e-08 -1.846331e-08
-2.096344e-08 -2.034038e-08 -1.711588e-08 -1.881127e-08 -1.877156e-08 -1.833727e-08 -1.965857e-08 -1.914356e-08 -1.852569e-08 -1.914991e-08
-1.742100e-08 -1.952223e-08 -1.815295e-08 -1.890553e-08 -1.896774e-08 -1.908612e-08 -1.921724e-08 -1.878344e-08 -1.869818e-08 -2.015748e-08
-1.832009e-08 -1.919555e-08 -1.884227e-08 -1.897226e-08 -1.803466e-08 -1.924552e-08 -1.806170e-08 -1.904063e-08 -1.942858e-08 -1.860002e-08
-1.905970e-08 -1.831207e-08 -1.993901e-08 -1.839419e-08 -1.821758e-08 -1.895655e-08 -1.958741e-08 -1.829087e-08 -1.974125e-08 -1.947911e-08
-1.909213e-08 -1.981622e-08 -2.042130e-08 -1.626406e-08 -1.798615e-08 -1.722849e-08 -1.797536e-08 -1.986577e-08 -1.864581e-08 -1.918343e-08
-2.081481e-08 -1.928164e-08 -1.831511e-08 -1.893657e-08 -1.783717e-08 -2.061071e-08 -1.754074e-08 -1.883553e-08 -1.734706e-08 -1.906991e-08
-1.788921e-08 -1.758136e-08 -1.847133e-08 -1.873971e-08 -1.858409e-08 -1.979864e-08 -1.885556e-08 -2.080786e-08 -1.810117e-08 -1.776720e-08
-1.720322e-08 -1.780650e-08 -1.813306e-08 -1.789703e-08 -1.731637e-08 -1.835582e-08 -2.071321e-08 -2.002488e-08 -1.846323e-08 -1.985629e-08
-1.899087e-08 -1.799859e-08 -1.821517e-08 -1.891843e-08 -1.964734e-08 -1.961443e-08 -1.816280e-08 -1.852688e-08 -1.946216e-08 -1.887695e-08
-1.874340e-08 -1.963188e-08 -1.920191e-08 -1.744512e-08 -1.769487e-08 -1.905470e-08 -1.970545e-08 -1.805582e-08 -1.794180e-08 -1.778213e-08
-1.938417e-08 -1.947425e-08 -1.920310e-08 -1.904510e-08 -1.802304e-08 -1.852549e-08 -1.688812e-08 -1.853384e-08 -1.875140e-08 -1.939980e-08
-1.953773e-08 -1.986961e-08 -1.896116e-08 -2.059673e-08 -1.825153e-08 -1.719182e-08 -1.949738e-08 -1.806057e-08 -1.717074e-08 -1.902022e-08
-1.995509e-08 -1.985496e-08 -1.850321e-08 -1.735711e-08 -1.959984e-08 -1.969685e-08 -1.942006e-08 -1.758205e-08 -1.911766e-08 -1.869506e-08
-1.831675e-08 -1.901293e-08 -1.878287e-08 -1.974978e-08 -1.820923e-08 -1.746651e-08 -1.958844e-08 -1.862851e-08 -1.913173e-08 -1.818220e-08
-1.959415e-08 -1.823905e-08 -1.825559e-08 -1.778658e-08 -2.114811e-08 -1.716628e-08 -1.862139e-08 -1.912361e-08 -1.970024e-08 -1.819044e-08
-1.778212e-08 -1.861422e-08 -1.909287e-08 -1.935654e-08 -1.825872e-08 -1.742514e-08 -1.995811e-08 -1.944329e-08 -1.974333e-08 -1.815510e-08
-1.948869e-08 -1.688659e-08 -1.832642e-08 -1.851181e-08 -2.039783e-08 -1.908808e-08 -1.980209e-08 -1.861490e-08 -1.943717e-08 -1.815313e-08
-1.869986e-08 -2.045290e-08 -1.903102e-08 -1.643723e-08 -1.960893e-08 -1.928893e-08 -1.937904e-08 -1.730428e-08 -2.057322e-08 -1.805360e-08
-1.991166e-08 -1.969086e-08 -2.003888e-08 -1.866795e-08 -2.027193e-08 -1.944331e-08 -1.859649e-08 -1.823408e-08 -1.933328e-08 -1.803649e-08
-1.812283e-08 -1.889615e-08 -1.809859e-08 -1.952670e-08 -1.921987e-08 -1.941311e-08 -1.880511e-08 -1.942695e-08 -1.899415e-08 -1.789756e-08
-1.983822e-08 -1.743386e-08 -1.852315e-08 -1.850162e-08 -1.727023e-08 -1.979363e-08 -1.925867e-08 -1.922864e-08 -1.835428e-08 -1.780685e-08
-1.738316e-08 -1.963176e-08 -1.909045e-08 -1.774451e-08 -1.633081e-08 -1.753570e-08 -1.806839e-08 -1.870515e-08 -1.945773e-08 -1.916272e-08
-1.977581e-08 -1.809127e-08 -1.925088e-08 -1.786257e-08 -1.927692e-08 -1.820687e-08 -1.985515e-08 -1.907235e-08 -1.873407e-08 -1.874834e-08
-1.875701e-08
