DSAA
361 181
-180 180
-90 90
-2.185666e-08 2.176659e-08
-1.462990e-10 2.453407e-10 1.789132e-10 -3.268460e-10 5.041882e-10 -2.720205e-10 -3.338155e-10 4.659766e-11 1.578906e-10 1.412278e-10
-2.677785e-10 5.388989e-11 2.720779e-10 -1.067390e-10 3.036072e-10 -1.584295e-10 -2.876646e-10 -5.370750e-11 -7.088419e-11 -1.518233e-10
-1.247695e-10 2.261413e-10 -3.177830e-10 3.172903e-10 3.991750e-11 -6.940144e-11 -3.246885e-10 2.736877e-10 1.366037e-10 1.349187e-10
1.562101e-10 6.784674e-10 -1.000519e-10 2.029230e-10 -3.989655e-10 7.682093e-11 -5.452006e-11 3.636418e-10 4.524180e-10 -1.583489e-10
-4.295173e-10 -4.889800e-11 2.221409e-11 3.770657e-10 -5.012890e-10 -4.795904e-10 1.439888e-10 -1.583245e-10 1.259658e-10 -3.920403e-10
2.251469e-10 -4.008539e-10 5.561675e-12 8.049942e-10 5.921796e-10 -4.621832e-10 3.978305e-11 -1.382986e-10 6.357163e-10 -5.322143e-10
2.959859e-10 2.590593e-10 7.019619e-10 -2.499355e-10 6.257537e-10 3.432798e-10 5.994694e-11 -5.160970e-10 -1.984527e-10 -6.916141e-11
-2.367508e-11 -4.304444e-10 3.449710e-10 1.047263e-10 -7.594866e-11 3.872033e-10 6.667777e-11 -2.278416e-10 -2.144746e-10 4.679345e-11
6.563926e-11 3.285927e-10 2.818498e-10 -7.894618e-10 -6.308361e-11 3.139914e-10 2.720541e-10 2.130579e-10 -3.643749e-10 -1.394654e-10
4.813339e-10 1.837461e-10 -2.972476e-10 -2.787451e-10 2.872058e-10 4.633299e-10 5.091932e-11 3.800301e-10 2.222249e-10 -5.198621e-10
4.125741e-11 -1.574625e-10 -2.972177e-10 2.917026e-10 -3.163063e-10 5.065148e-11 -6.246093e-11 1.148064e-09 4.050652e-10 -3.156498e-10
-1.053957e-10 -5.120281e-10 -2.608989e-10 3.858253e-11 5.374163e-10 -3.166954e-11 -3.918351e-10 -3.624145e-10 -1.998796e-10 6.013930e-11
8.139231e-10 3.546687e-10 -5.904421e-11 1.435173e-10 4.032640e-10 -4.041943e-11 -1.950776e-10 2.044167e-10 3.009057e-10 3.449666e-10
-1.736211e-10 -2.311867e-10 1.010129e-10 4.201613e-11 -3.849172e-10 3.717080e-10 3.492853e-10 -2.728730e-10 -1.481396e-10 -2.984182e-10
4.354374e-11 2.551105e-10 2.091163e-10 1.808703e-10 -2.439951e-10 7.250422e-12 -7.425240e-11 1.423229e-10 4.541885e-10 -1.133893e-10
-3.021831e-10 -5.203991e-10 2.185846e-10 4.193581e-10 -6.090864e-10 1.784020e-10 -3.273092e-10 -4.218089e-10 5.681309e-10 -5.715250e-11
3.005652e-10 -1.018093e-10 -5.994292e-10 -4.788297e-10 -7.490555e-10 7.606903e-11 -3.816585e-10 2.703340e-11 2.771116e-11 4.271779e-10
-4.278007e-10 -3.177017e-10 -1.165998e-10 -3.576968e-10 3.743465e-10 -5.794734e-11 -9.720221e-11 9.136444e-10 3.024294e-10 -1.081856e-10
6.006544e-10 1.625109e-10 -2.206184e-10 8.412868e-11 -1.548508e-10 1.441279e-11 -1.402163e-11 -1.102996e-10 2.986273e-10 5.435625e-10
5.849781e-10 -1.224506e-10 -1.460031e-10 -9.439047e-11 1.758160e-10 -1.683362e-10 4.639371e-10 -2.076073e-10 1.380839e-10 1.706288e-10
1.188370e-10 2.672224e-10 6.507601e-10 -4.491138e-10 -2.530024e-10 4.411564e-10 5.362025e-10 -3.344055e-10 4.699329e-10 3.497551e-11
-1.086254e-10 6.217143e-11 3.122576e-10 -2.311221e-10 -1.482951e-10 -5.748356e-11 -3.294534e-11 -6.386987e-10 -3.533130e-10 7.491926e-11
-2.955321e-10 -5.350683e-10 4.026301e-10 2.102945e-10 -1.633621e-10 -5.843145e-10 7.651524e-10 -1.834920e-10 -2.700276e-10 2.719933e-10
-3.065036e-10 -4.002108e-11 -1.176861e-10 -4.368716e-11 -5.293215e-10 4.459300e-10 -6.776644e-11 4.825286e-11 6.109884e-10 -3.333369e-10
3.729105e-10 -4.287800e-10 3.737845e-10 -1.866531e-10 6.748246e-11 -1.321965e-10 -8.326171e-11 -1.404927e-10 -1.412840e-10 -2.373175e-10
-1.072155e-10 9.141948e-10 8.393843e-10 -7.681531e-10 5.988748e-11 -6.989329e-12 -7.719900e-10 -2.089477e-10 1.601292e-10 2.761797e-10
1.341592e-10 -1.293444e-10 -5.860704e-11 -2.013199e-10 3.879916e-10 2.704801e-10 -1.349305e-10 -1.691635e-10 1.434943e-10 1.097217e-10
1.542226e-10 4.275655e-11 3.711914e-10 -6.144414e-10 2.417243e-10 3.404762e-10 1.823223e-10 -1.974587e-10 -1.101043e-10 3.955754e-11
-6.312614e-10 -5.278261e-10 2.317373e-10 -1.256076e-10 4.571977e-10 2.535273e-10 3.277793e-10 -2.719216e-10 -1.609378e-10 8.977541e-11
5.959346e-10 5.306658e-10 -1.093530e-11 -2.471448e-10 2.723683e-10 7.438099e-11 -1.069543e-11 -4.247703e-10 -7.659911e-10 -3.224510e-11
-5.675770e-11 -1.828000e-10 -2.475584e-10 -5.576404e-11 -2.075977e-10 3.926967e-10 1.989972e-10 -5.996894e-10 4.757648e-10 -1.846621e-10
2.070538e-10 -7.438151e-10 -2.271234e-10 3.239974e-10 1.139980e-10 1.054778e-10 -4.165612e-12 -5.637290e-10 -1.624916e-11 5.529958e-11
1.627434e-10 -3.210904e-10 2.747965e-10 5.569321e-10 7.061798e-10 -3.096731e-10 -5.422240e-10 3.548838e-10 3.814234e-10 -1.201944e-10
2.917257e-10 5.102397e-10 -2.760680e-10 -2.953667e-10 -5.908200e-11 -6.453575e-10 5.007124e-10 1.988391e-11 -6.300323e-10 6.696937e-11
1.599649e-10 -3.209971e-10 4.967304e-10 2.252036e-10 -2.617073e-10 1.269629e-10 7.904563e-11 3.104330e-10 1.252496e-10 9.058645e-11
-4.158025e-10 1.927232e-10 2.712463e-10 -3.586639e-10 7.741254e-10 -3.514370e-10 1.544110e-10 5.876159e-11 -2.737513e-10 -4.599411e-10
-1.462990e-10
7.220555e-11 -1.214356e-10 -5.963801e-10 2.747853e-10 4.306878e-10 -4.661105e-10 -5.659702e-11 9.726373e-11 -2.149708e-11 -5.255575e-10
-5.588048e-10 -2.476584e-11 2.905901e-10 1.547314e-11 5.688010e-10 -1.139715e-10 3.137618e-10 9.138660e-10 -1.343281e-10 -1.573749e-10
-1.444789e-11 1.747259e-10 -3.160222e-10 5.116521e-10 1.905662e-10 3.731286e-11 1.535358e-10 3.342353e-11 -5.074567e-10 1.729327e-10
6.430524e-10 -7.653345e-11 -4.384983e-11 2.512392e-10 6.634200e-10 8.288050e-10 6.854662e-10 -3.723242e-10 2.279159e-10 2.865697e-10
8.957188e-10 9.615447e-12 1.609700e-10 2.051931e-10 1.277618e-10 2.560615e-10 -4.195496e-11 4.909810e-10 -3.425724e-10 2.645726e-10
-7.689937e-11 -2.617615e-11 3.157253e-10 4.186194e-10 1.918822e-10 3.725542e-10 8.734876e-10 3.568149e-10 8.451062e-10 8.465411e-11
8.161579e-11 9.502940e-11 2.824543e-10 1.449969e-10 1.315658e-10 2.789956e-10 4.669547e-10 6.617543e-11 -3.837623e-10 -6.022969e-10
-2.575778e-10 -1.862693e-10 -4.601070e-12 3.852140e-10 2.007049e-10 7.854570e-11 7.679903e-10 2.583692e-11 5.410674e-10 4.213510e-10
7.975034e-11 5.768717e-10 1.010030e-10 2.496424e-10 8.426430e-11 8.266672e-10 -1.099552e-10 8.140398e-10 2.140869e-10 9.159116e-10
-2.766473e-10 2.888439e-10 4.251171e-10 3.327153e-10 -1.656841e-10 6.598462e-10 8.314081e-10 4.751384e-10 2.426842e-10 -4.068143e-10
2.080899e-10 8.422652e-10 -1.974382e-10 7.287921e-10 3.694549e-10 9.918100e-11 4.757338e-10 5.955738e-10 2.875350e-11 2.327750e-10
2.900811e-10 5.950476e-10 -1.130970e-10 -2.656357e-10 -6.204731e-12 6.792187e-10 5.470907e-10 -2.544337e-11 3.693406e-10 3.797911e-10
-5.712542e-11 3.712832e-10 6.768587e-10 4.047980e-10 6.225296e-10 1.744698e-10 -2.386630e-10 -7.359620e-10 2.588174e-10 7.160512e-10
3.713284e-10 2.462056e-10 9.761989e-11 3.112413e-10 -2.894995e-10 -2.634328e-10 9.670031e-11 -3.286086e-11 2.186863e-10 5.317577e-10
3.581492e-10 -6.653150e-11 4.404966e-10 7.301273e-10 -3.527291e-10 2.558650e-10 -4.227249e-11 -1.112001e-10 -4.728433e-10 -4.300155e-10
4.381154e-10 -9.059939e-11 4.120664e-10 5.356575e-10 3.646595e-10 1.575438e-10 1.514784e-10 -4.209532e-10 4.145720e-10 6.000537e-11
6.207426e-11 -2.245284e-11 3.400105e-10 -1.619955e-10 2.039776e-10 9.977208e-11 -8.554362e-10 -8.545650e-11 -3.687596e-10 6.670746e-10
-2.869728e-10 4.173783e-10 -3.915396e-10 2.838161e-10 -1.901099e-10 5.056718e-10 -3.423731e-10 -5.224747e-10 -1.543024e-11 2.709936e-10
2.404877e-10 2.187157e-10 -3.722086e-10 1.300154e-10 -6.559344e-10 7.856505e-11 -3.056536e-11 2.808257e-10 4.828493e-10 -1.026815e-09
-1.458100e-10 1.393308e-10 4.991201e-10 -5.880232e-10 -4.744117e-10 -2.079623e-10 -1.278836e-11 5.324783e-11 -3.313889e-10 -7.088688e-10
-4.053881e-10 -2.975339e-10 9.086141e-11 -4.551544e-11 -6.965082e-10 5.673472e-10 5.193430e-10 -8.217071e-11 1.346279e-10 7.167384e-11
-3.586946e-10 -1.624714e-10 -1.649242e-10 -5.085029e-10 4.013510e-10 4.124668e-10 -7.981851e-10 -2.059597e-10 -3.207762e-10 -7.002978e-10
-9.874545e-10 -1.890261e-10 -5.242562e-10 -4.721434e-10 2.223299e-11 -9.633753e-11 -1.872449e-10 1.982230e-11 -1.401816e-10 -2.503980e-10
2.609175e-10 -2.477926e-10 -6.707745e-10 3.972050e-11 2.079454e-10 -8.244223e-10 -2.863596e-10 -4.060381e-10 -5.852634e-10 -2.067492e-10
-4.551994e-10 -1.485783e-11 1.848130e-11 -4.131198e-10 -3.331559e-10 -4.296169e-10 -1.159869e-10 -6.051394e-10 -1.595325e-10 -3.638356e-10
-4.452958e-10 -2.865637e-11 6.785174e-12 -1.775192e-10 -9.748349e-11 -2.165379e-10 -7.057953e-10 -4.104043e-10 -1.682151e-10 -1.345364e-10
-7.583691e-10 -1.006260e-10 -1.009065e-09 -2.427512e-10 -8.666404e-10 -1.503101e-10 -2.895658e-10 -8.797558e-10 -5.716380e-10 -2.897838e-10
-1.811220e-10 9.283182e-11 -3.530788e-10 -6.676807e-10 -7.851519e-10 1.689620e-10 -7.478548e-11 -8.918640e-11 1.288322e-10 -8.679970e-10
-5.802965e-11 -4.734715e-10 -2.266347e-10 -6.304894e-10 -3.779123e-10 -4.704999e-10 -5.969762e-10 -3.330018e-10 -5.546388e-10 1.799916e-10
-4.404671e-11 -1.758913e-10 -2.471726e-10 -3.398978e-10 -3.612034e-10 -3.179521e-10 1.855822e-10 -8.353537e-11 1.832212e-11 -2.282173e-10
-4.810711e-11 -1.549042e-11 -7.913747e-10 -5.142028e-10 2.650445e-10 -5.369648e-10 -2.195800e-10 -5.898346e-10 -1.127812e-09 -7.621287e-10
1.339817e-10 2.980932e-10 1.973373e-11 -3.915481e-10 -1.001069e-09 -1.551454e-11 2.002251e-11 -3.202159e-10 1.927847e-10 -6.129971e-11
1.476301e-10 2.548381e-11 -4.672124e-11 -6.536874e-10 1.456400e-10 -5.667727e-10 -9.448429e-11 -5.919694e-10 -4.663615e-10 2.060104e-10
-1.887969e-10 -7.040757e-13 2.131690e-11 -1.829921e-10 2.123826e-10 1.244021e-10 -1.748753e-10 1.682412e-10 2.546474e-10 1.848556e-10
-3.805711e-10 2.655363e-10 -1.517755e-10 -2.771829e-11 3.528356e-10 -5.408727e-10 -9.661501e-11 2.287888e-10 3.320975e-10 2.068456e-10
-6.304339e-10 -4.101365e-10 -4.573788e-10 5.833421e-11 4.486722e-11 1.613690e-10 1.295895e-10 5.368667e-11 2.004839e-10 -5.580504e-10
7.220555e-11
-5.901279e-12 4.111657e-11 -2.171724e-10 3.987429e-10 -2.304404e-10 -4.219673e-10 -2.177657e-11 4.651106e-11 2.567966e-10 6.617234e-10
-1.249433e-10 8.959249e-11 -1.240441e-10 -4.203686e-10 5.708266e-10 4.950315e-10 -7.006187e-11 4.012028e-10 4.891598e-10 6.274924e-10
2.985596e-11 2.687921e-10 2.155593e-11 3.990826e-12 4.003129e-10 2.078519e-10 1.378786e-10 4.438440e-10 -2.402435e-10 -8.780127e-11
1.050560e-09 6.509882e-10 -6.374570e-11 2.723444e-11 3.665448e-10 4.832674e-10 5.397690e-10 3.638638e-10 7.211748e-10 4.124065e-10
4.835567e-10 3.768628e-10 -9.684938e-13 3.515818e-10 -6.392734e-11 -5.524957e-11 1.605894e-10 7.554457e-12 6.683349e-10 4.038788e-10
1.816006e-10 1.144078e-09 8.241145e-10 3.014194e-10 6.196357e-10 3.348211e-10 7.685155e-10 5.966083e-10 4.103481e-10 3.076733e-10
5.847466e-10 5.586389e-10 1.424886e-11 3.445344e-11 4.090019e-10 6.706402e-10 4.970609e-10 1.716151e-10 4.544063e-10 5.554912e-11
7.278815e-10 2.557774e-10 8.420684e-11 8.514355e-10 9.112779e-11 2.166528e-10 1.299576e-10 1.221821e-09 2.830805e-10 1.087225e-11
4.475452e-10 3.045404e-10 1.516167e-09 1.374179e-10 5.698723e-10 9.456199e-10 3.649990e-11 4.953499e-10 3.564578e-10 1.918221e-11
-3.240324e-10 3.240973e-10 6.334552e-10 7.715826e-10 2.187701e-10 5.661663e-10 2.520029e-10 5.934480e-10 8.568819e-10 1.012728e-09
5.320254e-10 4.701335e-10 1.315487e-09 6.443570e-10 4.232777e-10 4.431009e-10 7.351034e-10 7.105537e-10 4.816123e-10 2.717422e-10
1.048025e-09 5.248070e-10 -3.615104e-10 3.126275e-10 6.915295e-10 6.109659e-10 3.331170e-11 8.344714e-10 3.511816e-10 5.618242e-11
1.174366e-09 7.512305e-10 7.798786e-10 5.009413e-10 8.948082e-10 1.095258e-09 2.351933e-10 7.874461e-10 5.709971e-10 -8.727643e-11
-2.135457e-11 6.290233e-10 1.310724e-10 9.662041e-11 5.017549e-12 4.184223e-10 3.873284e-10 3.237447e-12 -5.553615e-10 4.594053e-10
8.664264e-11 4.907020e-10 7.273538e-10 1.902868e-10 8.960524e-11 -3.587912e-11 -2.599009e-11 2.747766e-10 3.616739e-10 3.567426e-10
5.574943e-10 -8.615089e-11 2.131689e-10 4.165530e-10 1.117207e-10 5.778057e-10 -5.253572e-11 2.490084e-10 2.194294e-10 2.934583e-10
-1.357535e-10 -4.487739e-11 -4.618916e-10 1.022502e-09 -1.294277e-10 -3.901589e-10 -8.858844e-11 3.260766e-10 4.225677e-10 -9.826220e-11
-9.807893e-11 4.785610e-10 -5.407486e-10 -9.583314e-11 9.843177e-11 4.881905e-12 -7.173592e-10 -3.941433e-10 -8.058589e-10 1.123622e-10
4.747920e-10 -1.490299e-10 3.267108e-10 4.024464e-10 -1.801377e-10 2.464124e-10 -4.894035e-10 1.007879e-10 1.436462e-10 -1.794549e-10
-2.516037e-10 -1.465635e-11 -2.110899e-11 -8.686394e-11 2.310710e-11 -7.512765e-11 4.119623e-10 -4.429489e-10 -3.050521e-10 -5.581373e-10
-9.835497e-10 -6.064843e-10 1.779715e-11 1.854668e-10 -3.837279e-10 -2.656642e-11 2.391526e-10 1.874974e-10 -6.302487e-10 -1.001785e-10
-3.044160e-10 -8.695711e-10 -5.721778e-10 -3.409435e-10 -5.268991e-10 -2.827069e-10 -7.152778e-10 -4.375626e-10 -4.208399e-10 -8.725211e-10
2.654676e-10 -3.179742e-10 -5.543199e-10 -3.711044e-10 3.029759e-10 -7.322490e-10 -8.833823e-10 -9.137534e-12 -3.905622e-10 -2.030860e-10
-9.055681e-10 2.405626e-10 -3.113508e-10 -6.443313e-10 -6.029908e-10 -3.604577e-10 -3.808477e-10 -7.086446e-10 -1.116295e-09 -8.164955e-10
-5.919360e-10 3.061045e-10 -5.164352e-10 -9.775187e-10 -9.233712e-10 -2.000024e-10 -1.369703e-09 -1.280422e-09 -4.046801e-10 -2.313472e-10
-7.164302e-10 -1.383775e-10 3.080757e-10 -1.200421e-09 -3.039884e-11 -7.729422e-10 -2.348240e-10 -6.876591e-10 -5.504016e-10 -4.077171e-10
-8.101017e-11 -3.350631e-10 -4.836103e-10 -9.657117e-10 -8.870180e-10 -7.828941e-10 -9.197961e-10 -3.611599e-10 -6.340011e-10 -2.090003e-10
-5.752189e-10 -1.111972e-09 -5.205507e-10 -8.768231e-10 -1.033373e-11 -4.516846e-10 -2.347544e-11 -3.819026e-10 -7.983716e-10 4.199350e-11
-1.005736e-09 -7.746737e-10 -3.504467e-10 -8.293790e-10 -4.076178e-10 -3.092621e-10 -5.931482e-10 8.084616e-11 -3.394626e-10 -6.844554e-10
-5.026534e-10 -1.000663e-09 -4.546058e-10 -5.674618e-10 -4.493164e-10 -4.995329e-10 -3.573021e-11 -4.545448e-10 9.280646e-11 -1.110156e-10
1.700990e-10 -5.521791e-10 -2.102485e-10 4.288329e-12 1.103548e-10 -1.288600e-10 -5.049040e-10 -4.545067e-10 3.761800e-10 1.763888e-10
-1.133628e-10 4.696142e-10 -5.362291e-10 -2.111609e-10 -1.951614e-10 -7.793431e-10 -5.777667e-10 -4.138488e-10 -3.986158e-10 -6.116709e-10
3.679094e-10 -4.944443e-10 1.421385e-10 -1.852205e-10 -2.562330e-10 -5.106048e-10 3.443628e-10 -7.409809e-10 -5.959519e-10 -2.091694e-10
8.806624e-10 -2.976243e-10 -4.405407e-10 2.140299e-10 -2.928317e-10 3.149196e-10 -3.267988e-10 -1.884776e-10 -1.430552e-10 -6.766399e-10
2.795962e-10 -3.459924e-10 -5.225885e-11 1.945254e-10 3.973505e-10 -3.734383e-11 -7.140769e-10 -1.560024e-10 -9.654098e-11 -3.822804e-10
-1.646877e-10 9.975176e-11 -6.726925e-11 -4.579633e-11 -8.442810e-11 -1.718327e-10 3.472680e-10 7.142155e-10 -3.012215e-10 2.012822e-10
-5.901279e-12
4.379270e-10 1.757445e-10 1.588923e-11 -3.495667e-10 -2.829683e-10 -1.672773e-10 -2.850201e-10 1.764054e-10 -2.809946e-10 2.492810e-10
3.666807e-10 5.083425e-10 -8.842341e-11 1.512402e-10 2.262128e-10 5.165932e-10 3.215465e-12 3.690650e-10 8.278318e-10 8.103747e-10
4.965857e-10 2.829366e-10 4.956298e-10 -4.131890e-10 4.601926e-11 -9.865544e-11 8.026777e-11 2.987239e-10 7.818597e-10 5.445068e-10
1.494869e-10 8.481809e-10 1.446600e-09 3.383779e-10 3.902446e-10 3.128587e-10 1.574886e-10 1.641290e-10 9.820313e-11 4.466194e-10
1.112188e-09 6.430056e-10 4.364274e-10 1.138717e-09 2.070450e-10 7.863734e-10 7.796708e-10 4.650291e-10 3.876651e-10 9.505031e-10
5.147013e-10 3.419276e-10 3.136628e-10 8.861931e-10 6.847277e-10 8.363383e-10 1.657866e-10 1.018226e-09 3.877899e-10 1.330875e-10
3.419071e-10 6.944167e-10 7.093335e-10 8.556726e-10 6.804974e-10 4.259006e-10 4.153750e-10 -1.955988e-11 6.028097e-10 5.345479e-10
5.564317e-10 3.649569e-10 6.677862e-10 6.618343e-10 7.701659e-10 6.714171e-10 7.241184e-10 6.603448e-10 3.466308e-10 7.268650e-10
1.057407e-09 8.172212e-10 3.404098e-10 6.621158e-10 7.087890e-10 3.333192e-10 6.237542e-10 1.014432e-09 1.029269e-09 4.515287e-10
9.478412e-10 1.336899e-09 9.406416e-10 8.205954e-10 6.429846e-10 1.024128e-09 5.933045e-10 6.650729e-10 9.778910e-10 -4.725635e-11
6.515736e-10 8.332878e-10 3.944621e-10 6.237178e-10 1.403174e-10 8.639680e-11 3.863121e-10 5.223497e-10 5.371065e-10 6.690282e-10
5.402067e-10 4.769378e-10 5.061456e-10 1.103985e-09 8.498948e-10 4.891330e-10 7.188133e-10 3.685756e-10 7.146275e-10 6.381180e-10
1.482238e-09 6.826179e-10 6.277430e-10 3.831431e-10 4.497881e-10 1.036679e-09 6.335946e-11 5.524388e-10 2.589969e-10 8.401466e-11
9.743847e-10 8.389181e-10 9.648234e-10 3.769419e-10 6.115858e-10 -1.315811e-10 6.592327e-10 3.075348e-10 5.092657e-10 2.232466e-10
1.799112e-10 2.438672e-10 7.187693e-11 9.144796e-10 5.121082e-10 -2.474612e-10 8.512150e-10 5.635845e-10 9.819919e-11 1.020335e-09
4.704708e-10 -1.648684e-10 -5.930406e-10 7.860718e-10 -2.227032e-10 5.602342e-10 9.804575e-10 6.446380e-10 1.492390e-10 -1.186458e-10
3.552089e-10 4.837186e-10 7.181651e-10 -8.029174e-11 -3.076952e-10 -2.600569e-10 2.153773e-10 1.202520e-10 7.648173e-10 -1.716833e-11
-1.227043e-10 4.477481e-10 4.682892e-10 -3.761315e-11 7.051944e-10 6.826584e-11 -6.052254e-11 -6.285750e-10 3.360892e-11 -1.989040e-10
2.990354e-11 -5.152940e-11 5.302314e-11 1.085725e-10 2.288092e-10 -2.949663e-10 6.160478e-11 1.734981e-10 -2.827243e-10 -9.017994e-11
-5.143883e-10 1.004489e-10 1.210415e-10 -4.217379e-10 1.172570e-10 -2.636341e-10 -9.416384e-11 2.083394e-10 -6.122011e-10 -1.988069e-11
-8.566181e-11 -6.177018e-10 -4.713037e-10 -4.817310e-10 3.066976e-10 -2.840634e-10 -4.362185e-10 -4.171762e-10 1.155831e-10 1.174023e-10
-5.001250e-10 -7.695254e-10 -7.440424e-10 -3.609343e-10 -3.618739e-10 -9.276795e-10 -8.305690e-11 -4.425174e-10 -3.196991e-10 -2.128138e-11
-2.743981e-10 -2.996418e-10 -2.834089e-10 -8.498588e-10 -5.034863e-10 -1.346040e-09 -3.333901e-10 -5.084098e-10 -9.305690e-10 -6.917738e-10
-7.892023e-11 -3.573879e-10 -1.360922e-10 -8.460064e-10 -9.302488e-10 -5.586787e-10 -7.076614e-10 -8.646550e-10 -1.874574e-10 -5.932054e-10
-9.269419e-10 -7.032752e-10 -1.195781e-09 -8.590930e-10 -2.785226e-11 -7.012855e-10 -1.029774e-09 -4.918080e-10 -1.185194e-09 -8.255734e-10
-1.253130e-09 -1.286896e-09 -7.426226e-10 -5.919910e-10 -1.260222e-09 -8.526064e-10 -3.741396e-10 -6.638353e-10 -1.014492e-09 -4.688114e-10
-9.489582e-10 -1.190885e-09 -5.030011e-10 -1.284155e-09 -1.633917e-09 -8.299798e-10 -8.999035e-10 -1.353978e-09 -8.914849e-10 -1.013207e-09
2.277110e-11 -3.253563e-10 -8.627295e-10 -1.529465e-09 -1.473669e-09 -3.373273e-10 -8.141545e-10 -1.031446e-09 -8.873535e-10 -7.841934e-10
-1.000449e-09 -8.297345e-10 -4.989241e-10 -7.837745e-10 -9.869762e-10 -5.935814e-10 -1.155598e-09 -9.327822e-10 -8.294532e-10 -2.674931e-10
-1.418882e-10 -4.638016e-10 -1.424199e-09 -7.026624e-10 -6.113690e-10 -7.987768e-10 -4.886740e-10 -8.970075e-10 -9.238327e-10 -8.279135e-10
-7.418441e-10 -4.127105e-10 -1.055209e-09 -1.053882e-09 -5.906611e-10 -5.083247e-10 -9.035388e-10 -7.537548e-10 -8.350359e-10 -6.760557e-10
-7.582072e-10 -8.770383e-10 -5.141396e-10 -2.837733e-10 -5.731485e-10 -4.434082e-10 -6.782724e-10 -1.068303e-10 -9.019461e-10 -4.267131e-10
-3.793711e-10 -4.986505e-10 -2.507740e-10 -5.301594e-10 -3.853937e-10 -1.551607e-10 2.881482e-11 3.051346e-10 -2.934335e-10 -8.084748e-10
-6.681158e-10 1.244632e-10 -1.306152e-10 -6.057741e-10 -1.358199e-11 -1.516640e-10 -1.467787e-10 -3.851198e-10 -4.259832e-10 -1.658225e-10
-3.711129e-10 -5.443079e-10 -4.904995e-11 -2.376923e-10 -5.087530e-10 -4.546916e-10 -1.942991e-10 4.097226e-11 -4.407964e-10 -6.099465e-10
9.199269e-10 -3.816779e-10 -5.346106e-10 -3.819497e-10 -2.652179e-10 -4.244175e-10 -8.063179e-12 2.638747e-10 -7.143459e-10 -2.022539e-10
4.379270e-10
1.633761e-11 -2.287357e-10 -1.063688e-10 -2.491042e-10 1.085782e-09 3.445268e-10 5.341598e-10 -2.328525e-10 -6.485378e-11 1.140784e-10
6.095038e-10 3.509225e-10 4.837902e-11 3.406053e-10 -2.146409e-10 -7.826053e-11 1.077055e-09 -2.362339e-10 4.221116e-10 8.947617e-10
5.768986e-10 1.466195e-10 8.326764e-10 6.142045e-10 2.273481e-10 3.157373e-10 8.759161e-10 4.072020e-10 5.693517e-10 2.686966e-10
3.597330e-10 -8.167269e-11 6.699810e-10 4.504321e-10 4.267416e-10 7.082190e-10 4.731666e-10 9.754588e-10 1.353134e-09 6.953354e-10
2.865862e-10 5.149159e-10 2.824999e-10 8.540684e-10 8.968493e-10 1.119326e-09 6.430751e-10 3.718505e-10 1.136984e-09 3.549878e-10
1.180507e-09 9.390421e-10 8.385188e-10 1.299244e-09 1.305490e-09 5.664082e-10 1.046420e-09 8.866196e-10 1.129904e-09 8.076603e-10
7.103623e-10 7.116925e-10 3.608319e-10 1.412950e-10 2.255888e-10 1.057573e-09 7.323242e-10 1.558901e-09 1.090459e-09 8.221263e-10
5.845582e-10 4.662518e-10 7.353245e-10 1.302927e-09 7.740752e-10 9.569184e-10 1.163840e-09 1.253761e-09 8.297371e-10 9.942233e-10
4.608526e-10 8.337240e-10 1.410160e-09 1.102334e-09 8.045969e-10 8.589749e-10 8.893585e-10 1.146143e-09 1.288626e-09 7.305164e-10
4.897660e-10 8.966938e-10 7.917604e-10 9.213510e-10 6.513359e-10 8.408541e-10 9.339122e-10 1.414902e-09 9.854494e-10 1.307146e-09
1.134947e-09 7.531684e-10 7.946425e-10 9.294636e-10 4.361648e-10 1.056508e-09 9.245948e-10 6.097667e-10 1.990502e-10 1.644382e-09
6.321417e-10 8.773586e-10 9.626419e-10 7.795191e-10 8.756011e-10 3.228282e-10 6.107945e-10 9.989981e-10 1.109304e-09 1.419725e-09
1.611306e-09 8.026575e-10 9.399993e-10 5.392413e-10 4.055404e-10 1.352420e-09 6.533291e-10 1.084767e-09 8.166032e-10 8.405190e-10
9.725195e-10 6.132850e-10 1.067875e-09 1.279799e-09 5.887684e-10 7.804211e-10 1.223749e-10 6.618078e-10 9.563075e-10 3.503798e-10
6.018668e-10 5.389567e-10 6.382646e-10 1.093458e-09 8.819532e-10 7.117001e-10 2.719217e-10 5.052074e-10 8.063480e-10 6.739775e-10
5.744201e-10 1.841460e-10 1.870567e-10 8.459633e-11 -1.883139e-10 1.151331e-10 5.215042e-10 5.379123e-10 9.459432e-10 5.682452e-10
-2.231504e-10 1.125032e-10 5.627079e-10 -2.575483e-10 -4.603074e-10 4.810900e-10 -1.716994e-10 7.805854e-11 4.125638e-10 1.856247e-10
1.958404e-10 -4.571399e-10 1.646460e-10 -1.690505e-11 2.903876e-10 4.592512e-12 7.948832e-10 -4.835483e-10 4.411167e-10 7.150196e-10
-4.114145e-10 -3.794584e-10 -1.431187e-10 -4.533746e-10 1.794829e-10 1.951129e-10 -2.166014e-10 8.495047e-11 3.926192e-10 -3.893536e-10
-6.888414e-10 1.229268e-10 -2.054225e-10 -4.772318e-10 -6.262351e-10 -3.168197e-12 -1.713813e-10 -2.813235e-10 -1.505094e-10 1.434716e-10
-7.077455e-10 -2.542402e-10 -5.534981e-10 2.301076e-10 -6.229985e-10 -9.254097e-10 -1.030626e-10 -8.024590e-10 -4.753843e-10 -4.675168e-10
-5.684865e-10 -5.590919e-10 -4.918635e-10 -3.018561e-10 -1.718431e-10 -8.410900e-10 -7.606353e-10 -7.894593e-10 -4.723544e-10 -4.802380e-10
-9.640161e-10 -1.171118e-09 -7.140034e-10 -8.511654e-10 -8.551992e-10 -6.342067e-10 -2.765896e-10 -1.162106e-09 -1.051223e-09 -9.114711e-10
-1.208947e-09 -6.337205e-10 -4.383159e-10 -1.043259e-09 -7.529665e-10 -4.137269e-10 -6.220586e-10 -1.413716e-09 -1.203560e-09 1.314891e-10
-4.785540e-10 -1.234970e-09 -7.803226e-10 -6.296292e-10 -6.719412e-10 -9.921818e-10 -3.326240e-10 -7.471396e-10 -1.163773e-09 -3.928431e-10
-7.262753e-10 -1.376012e-09 -6.721024e-10 -1.051549e-09 -7.061411e-10 -9.898171e-10 -6.561661e-10 -8.761231e-10 -7.130231e-10 -1.115922e-09
-1.256455e-09 -9.842360e-10 -8.200046e-10 -7.884565e-10 -5.837815e-10 -9.790997e-10 -2.651041e-10 -6.767479e-10 -7.718118e-10 -5.239365e-10
-6.361376e-10 -1.282226e-09 -9.280183e-10 -8.536478e-10 -5.860515e-10 -9.251542e-10 -1.393722e-09 -6.769164e-10 -9.379870e-10 -7.339734e-10
-9.092506e-10 -6.447156e-10 -1.202280e-09 -1.220376e-09 -1.406594e-09 -1.324797e-09 -9.148547e-10 -1.017864e-09 -1.044500e-09 -1.030943e-09
-6.354502e-10 -1.754525e-09 -5.101822e-10 -9.034838e-10 -1.607276e-10 -5.664024e-10 -9.467750e-10 -9.524723e-10 -4.873429e-10 -8.836797e-10
-1.019267e-09 -4.272798e-10 -1.228270e-09 -1.054318e-09 -7.102872e-10 -1.609747e-10 -9.602975e-10 -1.370669e-09 -6.075934e-10 -5.180091e-10
-1.286094e-10 -3.307328e-10 -1.130313e-09 -5.477547e-10 -5.448715e-10 -8.725555e-10 -8.861210e-10 -1.996849e-10 -8.243281e-10 -4.343947e-10
-4.139193e-10 -4.155414e-10 -8.515633e-10 -8.431777e-11 -6.918108e-10 -7.894925e-10 -1.460975e-09 -1.059154e-09 -3.293287e-10 -4.844693e-10
-1.617518e-10 -4.289750e-10 -9.501492e-10 -4.132279e-10 -4.210835e-10 8.410046e-11 -6.402620e-10 -3.270053e-11 -7.298793e-10 4.518974e-10
5.288297e-10 -3.137598e-10 -4.291216e-10 -7.065148e-10 -9.471848e-11 -8.107345e-11 -8.268431e-10 1.285576e-10 -1.045270e-10 -7.751300e-13
-5.775159e-10 -7.656646e-10 3.975131e-10 -4.596719e-10 -1.436600e-10 2.189395e-10 -1.018107e-09 -3.582912e-10 3.659371e-11 1.822783e-12
1.633761e-11
1.093003e-11 1.257675e-10 4.605905e-10 6.603445e-10 -4.882898e-10 6.851650e-11 -6.198985e-10 -8.526408e-11 -2.818881e-10 7.724271e-11
1.068123e-10 -1.213595e-10 -2.435642e-10 7.424475e-10 -1.874836e-10 3.036517e-10 3.772821e-10 8.112342e-10 2.112868e-10 5.699137e-10
9.719119e-10 5.802673e-10 5.991720e-10 3.715868e-10 2.669329e-10 9.712079e-10 2.885590e-10 3.973871e-10 1.013659e-09 8.823344e-10
1.003418e-09 8.058623e-10 1.105947e-09 1.221110e-09 4.760114e-10 1.001763e-09 1.154583e-09 7.568164e-10 9.660569e-10 9.588415e-10
5.091376e-10 9.294103e-10 1.007032e-09 4.999974e-10 1.450310e-09 9.844263e-10 1.481704e-09 1.376055e-09 3.177404e-10 7.697409e-10
1.015888e-09 9.722836e-10 1.551706e-09 7.619239e-10 9.309368e-10 1.307178e-09 7.804666e-10 3.109537e-10 1.517145e-09 9.703407e-10
7.974794e-10 1.244028e-09 9.108893e-10 1.348486e-09 8.203136e-10 1.658541e-09 8.571242e-10 1.347841e-09 9.492918e-10 1.521436e-09
9.701457e-10 9.961016e-10 8.597382e-10 1.489714e-09 9.794713e-10 9.954847e-10 1.055110e-09 8.068195e-10 8.814645e-10 1.165901e-09
1.016937e-09 7.232465e-10 1.272879e-09 1.040028e-09 1.615359e-09 1.147344e-09 9.140138e-10 1.328300e-09 1.209956e-09 1.111660e-09
1.738593e-09 1.629698e-09 1.315217e-09 1.030265e-09 1.227930e-09 9.221626e-10 1.073739e-09 1.529277e-09 1.462013e-09 1.019315e-09
2.647839e-10 1.174250e-09 9.476632e-10 9.288192e-10 1.040834e-09 1.062450e-09 1.284347e-09 1.222547e-09 8.214873e-10 1.139538e-09
1.491265e-09 1.558797e-09 1.419912e-09 4.808258e-10 9.377122e-10 1.058877e-09 1.326026e-09 9.238261e-10 9.681975e-10 1.578606e-09
1.459852e-09 1.099673e-09 1.429808e-09 1.076896e-09 1.025625e-09 1.322994e-09 6.938844e-10 5.287445e-10 1.014716e-09 7.429380e-10
7.057341e-10 6.342578e-10 1.358689e-09 -7.405596e-11 1.154400e-09 1.143105e-09 7.472508e-10 7.584944e-10 6.331832e-10 7.310449e-11
1.045780e-09 1.486894e-09 6.640499e-10 1.471752e-09 5.788952e-10 6.607517e-10 9.485569e-10 -1.951513e-10 9.396457e-10 6.131926e-10
1.227447e-09 3.437023e-10 5.377039e-10 2.422157e-10 7.025749e-10 3.527398e-10 4.034757e-10 2.541731e-10 7.550752e-10 1.042735e-11
-1.502973e-10 -7.562343e-11 4.884282e-10 -1.496234e-11 6.092664e-10 6.413740e-10 4.783786e-10 -4.597263e-10 3.657072e-10 2.787878e-10
3.828774e-11 -1.370235e-10 7.272129e-10 3.313431e-10 2.094903e-10 -1.464480e-10 5.811987e-10 9.320694e-11 -1.433627e-10 7.776816e-11
5.713773e-10 -2.337455e-10 3.141475e-10 2.438795e-10 -1.414301e-11 3.175008e-10 -3.081952e-10 5.412970e-11 -1.979903e-10 2.185120e-10
1.035292e-10 1.320134e-10 -1.124398e-09 -3.149971e-10 -1.040599e-09 -5.561163e-10 -5.701970e-10 3.636894e-11 -3.875497e-10 -4.641985e-10
-3.326596e-10 -4.132090e-10 -4.289805e-10 -4.835998e-10 3.375261e-10 -3.301911e-10 -8.729271e-10 -3.876849e-10 -4.833175e-10 -9.823309e-10
-8.725521e-10 -4.649068e-10 -7.670951e-10 -7.196986e-10 -6.640532e-10 -4.073930e-10 -5.041367e-10 -3.342357e-10 9.137663e-11 -8.692742e-10
-1.011775e-09 -6.717919e-11 -6.781192e-10 -1.315073e-09 -1.313063e-09 -5.979923e-10 -1.104155e-09 -4.531156e-10 -7.308683e-10 -9.496455e-10
-1.019605e-09 -1.552976e-09 -1.002148e-09 -1.394465e-09 -6.359125e-10 -8.798419e-10 -3.736063e-10 -8.609541e-10 -6.828658e-10 -4.298251e-10
-9.707765e-10 -1.677954e-09 -1.766360e-09 -4.789036e-10 -1.472060e-09 -1.238381e-09 -1.168587e-09 -9.457461e-10 -1.440132e-09 -8.446734e-10
-1.225218e-09 -4.064477e-10 -1.122857e-09 -9.143579e-10 -9.043576e-10 -1.122996e-09 -1.077791e-09 -1.410740e-09 -9.163499e-10 -1.769799e-09
-1.411415e-09 -8.152970e-10 -1.177150e-09 -9.407889e-10 -1.684257e-09 -1.226491e-09 -1.423560e-09 -1.105683e-09 -1.053037e-09 -1.689954e-09
-1.131697e-09 -1.107595e-09 -2.048416e-09 -1.317693e-09 -1.370625e-09 -9.892477e-10 -1.434414e-09 -1.256769e-09 -2.017521e-09 -1.575811e-09
-1.009022e-09 -9.924837e-10 -1.446425e-09 -9.227650e-10 -1.361694e-09 -9.926047e-10 -2.044105e-09 -8.753966e-10 -1.189147e-09 -8.213128e-10
-1.342255e-09 -1.264696e-09 -1.342497e-09 -2.194949e-09 -8.159171e-10 -1.347093e-09 -9.348063e-10 -1.061586e-09 -7.710368e-10 -9.617442e-10
-8.548365e-10 -1.641514e-09 -1.075222e-09 -1.433758e-09 -7.028472e-10 -1.514855e-09 -7.452581e-10 -7.196351e-10 -8.220981e-10 -1.531837e-09
-1.328492e-09 -3.994240e-10 -1.246771e-09 -1.078323e-09 -8.148147e-10 -1.420834e-09 -5.949604e-10 -8.075911e-10 -5.795926e-10 -8.678331e-10
-4.880883e-10 -4.699831e-10 -5.617648e-10 -5.974395e-10 -5.255709e-10 -1.453992e-09 -2.426831e-10 -8.676748e-10 -3.954037e-10 -8.222087e-10
-2.530376e-10 -5.629537e-10 -5.402445e-10 -1.354253e-09 -5.641600e-10 -8.962731e-10 -1.001907e-09 -4.825778e-10 -7.975750e-10 -6.533342e-10
-5.316573e-10 6.642503e-11 -3.316067e-10 2.103661e-10 -1.632879e-10 -4.445746e-10 -1.669575e-10 1.916273e-10 -1.778226e-10 -2.813498e-10
-4.056199e-10 3.747055e-10 5.908352e-10 2.434916e-10 -1.175995e-10 -3.516956e-10 -1.096410e-10 6.177430e-10 9.906187e-11 -4.640839e-11
1.093003e-11
3.027485e-10 -2.057488e-10 -2.544551e-10 -2.086178e-10 -5.602579e-10 2.346345e-10 6.440692e-10 8.492134e-10 -8.444310e-11 -1.935775e-10
-4.666773e-10 1.731327e-10 -3.475782e-10 -2.077819e-10 6.006010e-12 1.089878e-09 3.218609e-10 1.954441e-10 2.677998e-10 3.187318e-10
1.089308e-09 3.820700e-10 3.129955e-10 1.273375e-09 3.954591e-10 3.416872e-10 8.298923e-10 2.985644e-10 1.133617e-09 7.227167e-10
4.837332e-10 1.020809e-09 1.853077e-11 1.105926e-09 2.338181e-10 1.010022e-09 1.071083e-09 6.197846e-10 7.009482e-10 5.000707e-10
9.689679e-10 1.400540e-09 7.148040e-10 4.752700e-10 9.603808e-10 1.546406e-09 8.727732e-10 6.731828e-10 9.486525e-10 7.512661e-10
1.521550e-09 1.312868e-09 1.292912e-09 1.714754e-09 6.970628e-10 1.330795e-09 1.652777e-09 5.473953e-10 9.057686e-10 1.501744e-09
1.558907e-09 1.239879e-09 1.725485e-09 1.284061e-09 1.175995e-09 1.387336e-09 1.615280e-09 1.416530e-09 1.139786e-09 9.246364e-10
5.906775e-10 1.465207e-09 8.434847e-10 1.763313e-09 1.711522e-09 1.213516e-09 7.267735e-10 1.521048e-09 1.822238e-09 1.577187e-09
1.835332e-09 1.588852e-09 1.283643e-09 1.027234e-09 1.029060e-09 1.334762e-09 2.179739e-09 2.054557e-09 1.568621e-09 1.602783e-09
1.530855e-09 1.780646e-09 1.340821e-09 2.093054e-09 1.087036e-09 1.450570e-09 1.302959e-09 1.858749e-09 1.563821e-09 1.255576e-09
1.651927e-09 1.568143e-09 1.840658e-09 1.498945e-09 8.834158e-10 1.784258e-09 1.619004e-09 1.242074e-09 8.054963e-10 1.358536e-09
1.493549e-09 1.361029e-09 1.568690e-09 7.812375e-10 1.958765e-09 1.080994e-09 1.166030e-09 1.388433e-09 1.389950e-09 9.229519e-10
2.306731e-09 8.175584e-10 1.387872e-09 1.068424e-09 1.113148e-09 7.266356e-10 1.083158e-09 1.185248e-09 1.314187e-09 1.074641e-09
1.073478e-09 1.324482e-09 9.811978e-10 7.805634e-10 9.086532e-10 1.949202e-09 4.328051e-10 1.192706e-09 4.754286e-10 7.031339e-10
6.922643e-10 1.453685e-09 1.280064e-09 8.385445e-10 1.383585e-09 1.469751e-09 4.487752e-10 1.144780e-09 6.667065e-10 1.368588e-09
1.978960e-10 7.197256e-11 2.543799e-10 2.926686e-10 1.064127e-09 1.240790e-09 3.023243e-10 1.202752e-09 4.151877e-10 4.311493e-10
-3.603772e-10 3.100788e-10 2.464924e-10 3.313444e-10 1.334617e-10 -1.629576e-10 6.220204e-10 9.553648e-10 -8.733945e-11 2.096821e-10
-1.338098e-10 3.469205e-10 -3.320483e-10 -7.924830e-11 -1.719056e-10 1.014215e-10 4.407502e-10 -1.091719e-14 1.933612e-10 1.323712e-10
2.127015e-10 7.607596e-11 -3.554672e-10 -3.182738e-10 -1.074980e-10 5.363184e-10 -5.255791e-10 4.201547e-13 4.186370e-11 -1.491387e-11
8.688017e-11 -2.495918e-11 -5.774488e-10 -1.475041e-10 -2.727287e-10 -2.352409e-10 -2.945340e-10 -3.534774e-10 -1.009452e-09 -5.634002e-10
-6.389090e-10 -9.074130e-10 -4.542381e-10 -1.091120e-10 -5.952625e-10 -4.787851e-10 -3.258152e-10 -5.149082e-10 -5.060464e-10 -2.680665e-10
-8.857112e-10 -6.779947e-10 -3.617633e-10 -3.664216e-10 -1.026844e-09 -1.518273e-09 -5.477461e-10 -5.914283e-10 -6.048480e-10 -1.524270e-09
-1.550889e-09 -1.061748e-09 -3.641867e-10 -1.446720e-09 -1.370390e-09 -1.782411e-09 -1.105964e-09 -1.071022e-09 -1.081952e-09 -9.773481e-10
-1.405469e-09 -1.156775e-09 -8.299055e-10 -1.510224e-09 -1.553320e-09 -1.161465e-09 -1.130023e-09 -5.541614e-10 -1.128684e-09 -1.339644e-09
-1.388852e-09 -1.714795e-09 -7.768992e-10 -1.171353e-09 -1.503846e-09 -1.907613e-09 -1.237870e-09 -1.456396e-09 -1.468887e-09 -1.431008e-09
-1.240481e-09 -1.055416e-09 -1.385265e-09 -1.352578e-09 -1.448440e-09 -1.929297e-09 -7.655210e-10 -1.097277e-09 -1.513886e-09 -1.447326e-09
-1.233122e-09 -1.815771e-09 -1.600137e-09 -1.627323e-09 -1.210942e-09 -1.889203e-09 -1.442778e-09 -9.850737e-10 -1.960548e-09 -9.825054e-10
-1.249164e-09 -2.233127e-09 -1.267228e-09 -1.539818e-09 -1.639882e-09 -1.336892e-09 -1.223368e-09 -1.277725e-09 -1.350854e-09 -1.478383e-09
-1.252273e-09 -1.003841e-09 -1.464466e-09 -1.349708e-09 -1.007277e-09 -1.886607e-09 -1.281323e-09 -1.577678e-09 -1.667688e-09 -9.448827e-10
-1.670733e-09 -9.891818e-10 -2.196207e-09 -1.092515e-09 -1.243152e-09 -1.664159e-09 -1.109798e-09 -1.217306e-09 -1.426399e-09 -1.785472e-09
-6.661635e-10 -1.448417e-09 -1.556862e-09 -1.524437e-09 -7.749210e-10 -1.166650e-09 -1.259677e-09 -1.593226e-09 -1.872847e-09 -1.519907e-09
-1.260377e-09 -8.403696e-10 -3.769642e-10 -7.099399e-10 -1.080361e-09 -9.586488e-10 -1.497410e-09 -1.153155e-09 -1.108376e-09 -7.726181e-10
-1.394167e-09 -5.313522e-10 -1.515389e-09 -3.131483e-10 -1.160007e-09 -1.241407e-09 -7.628644e-10 -7.038199e-10 -6.853965e-10 -4.856184e-10
-1.215202e-09 -5.049312e-10 -3.573633e-10 -1.145558e-09 -1.231424e-09 -7.824137e-10 -2.093334e-10 -4.874514e-10 -8.673588e-10 -1.137729e-10
-8.410284e-11 -7.490428e-10 -6.373171e-10 4.016354e-11 -1.382162e-09 -6.636573e-10 -6.326539e-10 -4.512508e-10 -1.943814e-11 4.768115e-11
1.300464e-10 -8.293309e-10 6.779949e-11 -8.467815e-10 5.565214e-10 2.474541e-10 -2.995330e-10 5.196627e-10 3.867808e-11 -1.419249e-10
3.027485e-10
4.814664e-10 2.786627e-10 -4.486605e-10 -2.078987e-12 3.303915e-10 2.376662e-10 -3.137578e-10 7.238038e-11 3.402182e-10 7.265607e-11
3.635629e-10 1.144541e-10 9.430303e-10 1.073153e-09 3.013910e-11 8.516569e-10 7.054621e-10 1.091182e-09 7.034595e-10 6.165790e-10
8.938690e-10 4.147516e-10 6.953924e-10 2.980817e-10 1.115875e-09 4.703357e-10 1.061202e-09 1.269483e-09 1.348285e-09 6.550918e-10
8.428665e-10 1.114443e-09 1.202575e-09 1.080741e-09 9.899807e-10 1.046126e-09 7.578868e-10 6.341174e-10 4.851125e-10 6.020529e-10
1.373471e-09 1.177876e-09 2.018758e-09 1.438744e-09 1.443609e-09 9.120469e-10 6.747864e-10 7.819836e-10 1.264852e-09 1.302873e-09
1.445317e-09 1.359489e-09 1.537647e-09 1.239738e-09 8.868250e-10 6.074032e-10 1.175596e-09 1.388666e-09 1.314718e-09 1.578076e-09
1.721465e-09 2.210652e-09 1.301267e-09 1.761904e-09 1.738767e-09 1.542976e-09 1.468682e-09 2.331405e-09 1.310567e-09 1.362276e-09
1.822229e-09 1.202098e-09 1.376713e-09 1.716669e-09 2.241020e-09 2.080087e-09 1.389950e-09 1.880428e-09 1.590717e-09 1.873155e-09
1.397329e-09 1.624876e-09 1.190657e-09 1.745908e-09 2.160265e-09 1.795745e-09 1.536261e-09 2.099191e-09 2.129855e-09 1.594732e-09
1.473419e-09 2.066260e-09 1.997225e-09 1.916505e-09 1.759093e-09 1.582839e-09 1.905254e-09 1.981714e-09 2.046829e-09 1.904182e-09
2.029815e-09 1.800960e-09 1.292088e-09 1.899904e-09 1.410232e-09 1.652488e-09 9.561283e-10 1.718290e-09 1.953469e-09 1.498122e-09
1.356475e-09 1.895866e-09 1.624416e-09 1.937182e-09 1.807387e-09 1.451042e-09 1.965352e-09 1.686536e-09 1.286894e-09 1.730497e-09
2.019696e-09 1.586906e-09 2.015915e-09 1.175930e-09 1.494327e-09 1.308232e-09 1.712402e-09 1.185262e-09 1.565149e-09 1.541287e-09
9.785592e-10 1.376256e-09 1.117188e-09 1.334408e-09 7.816272e-10 1.003696e-09 8.520993e-10 1.616730e-09 1.097385e-09 9.400661e-10
1.261922e-09 1.198529e-09 1.219112e-09 1.058370e-09 1.065265e-09 9.668502e-10 9.605398e-10 1.126710e-09 6.739828e-10 1.264543e-09
1.244378e-09 6.050566e-10 6.716925e-10 1.254101e-09 8.295767e-10 6.992985e-10 8.760772e-10 4.899333e-10 1.001984e-09 6.079522e-10
8.663538e-10 5.709666e-10 2.313275e-10 2.596201e-10 1.339820e-10 5.556355e-10 3.784666e-10 2.981967e-10 -3.854507e-10 4.694395e-10
3.352602e-10 -4.833878e-10 7.049587e-10 2.525195e-10 -2.532124e-10 -2.013796e-10 -2.256525e-10 4.618034e-11 -1.637548e-10 5.992863e-10
7.800192e-11 5.608191e-10 -3.006361e-10 5.307726e-10 -7.691793e-10 -1.982263e-10 4.977033e-11 2.158597e-10 -4.739527e-10 -7.466383e-10
-4.375550e-10 3.990168e-10 -4.110140e-11 -1.588853e-10 -4.497046e-10 -1.142971e-11 -2.157753e-10 -9.828725e-10 -4.105070e-10 -5.544918e-10
9.089988e-12 -4.604564e-10 -4.940263e-10 -1.113503e-09 -1.471345e-09 -1.038499e-09 -8.920172e-10 -5.255262e-10 -1.610919e-09 -6.098024e-10
-1.031687e-09 -6.620403e-10 -1.127605e-09 -9.007232e-10 -1.010220e-09 -8.346421e-10 -1.302431e-09 -3.861255e-10 -9.322750e-10 -8.334544e-10
-1.361076e-09 -1.279742e-09 -1.456796e-09 -8.650279e-10 -9.742543e-10 -1.183587e-09 -5.870697e-10 -1.212173e-09 -7.848167e-10 -1.815020e-09
-1.742993e-09 -1.303732e-09 -7.885818e-10 -1.200656e-09 -1.273656e-09 -1.724751e-09 -1.438487e-09 -1.822128e-09 -1.928154e-09 -1.208888e-09
-1.609160e-09 -1.340231e-09 -1.478423e-09 -1.365465e-09 -1.491611e-09 -1.687927e-09 -2.214607e-09 -1.819228e-09 -2.218635e-09 -1.989761e-09
-2.037518e-09 -1.294871e-09 -1.929695e-09 -1.523344e-09 -1.512184e-09 -1.499797e-09 -1.403826e-09 -1.580656e-09 -1.343465e-09 -1.692823e-09
-2.303593e-09 -2.038413e-09 -1.498851e-09 -1.925364e-09 -2.359508e-09 -1.714527e-09 -1.487718e-09 -2.254722e-09 -1.806666e-09 -2.299392e-09
-2.337271e-09 -1.345823e-09 -1.741998e-09 -1.301791e-09 -1.930364e-09 -1.587325e-09 -2.130932e-09 -1.535990e-09 -1.501062e-09 -2.025466e-09
-1.625039e-09 -1.441923e-09 -2.194843e-09 -1.494967e-09 -1.260596e-09 -1.640279e-09 -1.429252e-09 -2.105977e-09 -1.275879e-09 -1.735514e-09
-1.436944e-09 -1.349988e-09 -2.251193e-09 -1.468898e-09 -1.852013e-09 -1.786702e-09 -1.546388e-09 -1.499905e-09 -1.392761e-09 -1.872908e-09
-1.179689e-09 -1.458213e-09 -1.154735e-09 -1.285213e-09 -1.224918e-09 -1.547928e-09 -1.808230e-09 -1.146035e-09 -1.246824e-09 -1.026371e-09
-2.013544e-09 -1.460602e-09 -1.637766e-09 -2.627346e-10 -1.411002e-09 -9.313019e-10 -1.097363e-09 -1.106579e-09 -8.914675e-10 -1.166767e-09
-9.974982e-10 -1.039599e-09 -1.002873e-09 -6.299674e-10 -1.347661e-09 -1.300929e-09 -1.010957e-09 -1.003885e-09 -5.659435e-10 -1.079521e-09
-1.375238e-09 -1.216512e-09 -7.067886e-10 -7.708730e-10 -8.216118e-10 -9.471637e-10 -6.531358e-10 -3.754122e-10 -2.538920e-10 -1.004999e-09
-1.017425e-09 -4.855861e-10 5.560497e-12 -9.403188e-10 -3.078254e-10 -7.950465e-10 7.607343e-11 -2.338331e-10 -5.498743e-10 -5.142591e-10
-6.735170e-10 -4.257097e-10 -9.901043e-11 -4.263137e-11 -9.548591e-10 -5.405176e-12 -2.885522e-10 -8.642885e-10 -6.906393e-11 -1.667014e-10
4.814664e-10
-3.095526e-10 -3.469600e-10 3.177380e-10 1.736402e-10 2.838105e-10 1.943321e-10 -3.841334e-10 2.759560e-10 -1.761014e-10 4.112814e-10
4.188735e-10 5.226014e-10 -1.338473e-10 1.458212e-10 4.898514e-10 3.418101e-10 1.011721e-09 3.264989e-10 7.061356e-10 1.062999e-09
1.343022e-10 6.445404e-10 8.465093e-10 7.822714e-10 5.579259e-10 8.701107e-10 7.130292e-10 9.536564e-10 9.985898e-10 1.051504e-09
6.260228e-10 1.313846e-09 1.199942e-09 9.501572e-10 1.350520e-09 1.613031e-09 1.005723e-09 1.046535e-09 1.891271e-09 1.131201e-09
1.641891e-09 1.398787e-09 1.178878e-09 1.228904e-09 7.355105e-10 1.120459e-09 1.096247e-09 1.578118e-09 1.486106e-09 2.041724e-09
8.134404e-10 1.648078e-09 2.126024e-09 2.269923e-09 2.160599e-09 2.087418e-09 1.396829e-09 1.411583e-09 1.194500e-09 1.865018e-09
1.794678e-09 9.529768e-10 1.995078e-09 2.178187e-09 2.006035e-09 2.287923e-09 1.678604e-09 1.935275e-09 1.543934e-09 1.597457e-09
1.834579e-09 1.605775e-09 2.130371e-09 2.061469e-09 1.996955e-09 1.911995e-09 1.869967e-09 1.620638e-09 1.857815e-09 1.805606e-09
1.221983e-09 2.627381e-09 1.783214e-09 1.761060e-09 2.188546e-09 1.317546e-09 1.919615e-09 1.828837e-09 2.347061e-09 1.916928e-09
1.733329e-09 2.097228e-09 2.032227e-09 2.272649e-09 2.366175e-09 1.707852e-09 2.001229e-09 1.875045e-09 2.074630e-09 2.546949e-09
2.032416e-09 1.860881e-09 2.059761e-09 1.957213e-09 1.909087e-09 2.298828e-09 2.382424e-09 1.847596e-09 2.277257e-09 2.221573e-09
1.993398e-09 1.410803e-09 1.376661e-09 2.109221e-09 1.854641e-09 1.654340e-09 1.921513e-09 1.657426e-09 1.555537e-09 2.699172e-09
1.658987e-09 2.053122e-09 1.701990e-09 1.722684e-09 1.601663e-09 2.034579e-09 1.691900e-09 1.349221e-09 1.493710e-09 1.728317e-09
1.097188e-09 1.597985e-09 1.054271e-09 1.695315e-09 1.697536e-09 1.934304e-09 1.528773e-09 1.672005e-09 1.721492e-09 1.577580e-09
1.170875e-09 8.388288e-10 1.624607e-09 5.733757e-10 1.033496e-09 1.128062e-09 1.120017e-09 1.605395e-09 1.545389e-09 1.402226e-10
1.045632e-09 1.199933e-09 9.583968e-10 7.199985e-10 6.241153e-10 6.661787e-10 5.920765e-10 1.310685e-09 1.885198e-10 6.549941e-10
8.833257e-10 8.456204e-12 1.177478e-09 6.590521e-10 -1.406671e-12 3.118434e-10 3.666819e-10 5.097345e-10 6.582129e-10 2.322476e-10
4.442309e-10 -2.140097e-10 7.138234e-10 -1.559864e-10 1.094334e-10 -1.302706e-10 3.369881e-10 -3.193372e-11 1.001100e-10 -7.122705e-10
2.350859e-10 -3.667510e-10 -7.007014e-11 -1.306267e-10 -7.399950e-10 2.766714e-11 -7.328992e-10 2.681785e-10 -4.658367e-10 -5.550999e-10
-8.247539e-10 -2.331982e-10 -8.680940e-10 -4.232759e-10 -5.780933e-10 -5.683554e-10 -6.747003e-10 5.149391e-11 -7.562861e-10 -6.872021e-10
-9.337534e-10 -6.886220e-10 -1.032934e-09 -1.179179e-09 -1.464335e-09 -9.072815e-10 -4.021990e-10 -9.439557e-11 -1.253276e-09 -1.298790e-09
-8.587838e-10 -5.068740e-10 -9.823539e-10 -7.978875e-10 -1.436087e-09 -6.449047e-10 -1.688914e-09 -8.582142e-10 -1.748099e-09 -1.511933e-09
-6.756087e-10 -1.297076e-09 -9.992557e-10 -1.934214e-09 -6.593412e-10 -1.978076e-09 -1.359975e-09 -8.256349e-10 -7.266008e-10 -1.054601e-09
-1.409785e-09 -1.651165e-09 -8.725872e-10 -1.882899e-09 -2.254742e-09 -1.580284e-09 -2.447684e-09 -1.667496e-09 -1.856957e-09 -2.138738e-09
-1.579429e-09 -1.625682e-09 -1.577848e-09 -2.296527e-09 -2.387485e-09 -1.945091e-09 -2.164618e-09 -2.104370e-09 -1.672368e-09 -1.898307e-09
-1.732293e-09 -2.081028e-09 -2.059571e-09 -2.008690e-09 -2.133635e-09 -2.174089e-09 -2.198972e-09 -2.235338e-09 -2.041308e-09 -2.109009e-09
-1.900101e-09 -2.293141e-09 -2.360219e-09 -1.943146e-09 -2.488506e-09 -1.783696e-09 -2.221890e-09 -2.559283e-09 -1.690014e-09 -1.592566e-09
-2.343319e-09 -1.861463e-09 -1.948002e-09 -1.716176e-09 -2.508544e-09 -1.688365e-09 -2.200818e-09 -2.793338e-09 -2.253860e-09 -2.011654e-09
-2.721677e-09 -2.056919e-09 -2.463820e-09 -1.658077e-09 -2.091069e-09 -1.951728e-09 -1.942182e-09 -1.442516e-09 -1.700713e-09 -2.107759e-09
-1.707917e-09 -2.212889e-09 -1.854083e-09 -1.284982e-09 -1.667019e-09 -1.557714e-09 -2.016244e-09 -1.828463e-09 -1.490247e-09 -2.085683e-09
-1.858493e-09 -1.708459e-09 -1.338816e-09 -1.292478e-09 -1.941877e-09 -1.284333e-09 -1.942934e-09 -1.991596e-09 -1.396807e-09 -1.406134e-09
-9.962642e-10 -1.693264e-09 -1.013079e-09 -1.211061e-09 -1.386003e-09 -1.702457e-09 -1.325820e-09 -1.819730e-09 -1.461728e-09 -1.443159e-09
-1.304363e-09 -1.343857e-09 -9.274251e-10 -8.993266e-10 -1.643416e-09 -8.741464e-10 -1.024992e-09 -1.647754e-09 -4.629548e-10 -9.207943e-10
-1.159960e-09 -3.756282e-10 -7.055330e-10 -4.467706e-10 -1.202638e-09 -8.361336e-10 -5.293965e-10 -8.651582e-10 -1.660482e-09 -5.483092e-10
-6.235396e-10 -5.097241e-10 -6.662084e-10 -4.543916e-10 -1.531943e-09 -9.224456e-10 -1.117935e-09 -2.378270e-10 -1.807558e-10 -3.915468e-10
1.298972e-10 -4.800127e-10 -2.088747e-10 1.234104e-10 1.335663e-10 -7.078065e-10 1.704275e-10 2.689349e-10 1.588118e-10 -1.556302e-10
-3.095526e-10
-5.681435e-10 -3.422334e-10 2.928656e-10 -2.497766e-10 -9.915072e-11 7.108234e-11 3.938168e-10 1.002265e-09 -1.053956e-11 5.215349e-11
3.206418e-10 1.294987e-10 4.331651e-10 5.171304e-10 6.466713e-10 4.259073e-10 4.688669e-10 5.272242e-10 7.356730e-10 1.448925e-09
8.679976e-11 4.652265e-10 1.471556e-09 5.558115e-10 9.231600e-10 8.133236e-10 1.349505e-09 1.197861e-09 1.001389e-09 1.476653e-09
9.745784e-10 1.068552e-09 6.114049e-10 1.602259e-09 1.662448e-09 1.791876e-09 1.267133e-09 1.620565e-09 1.560251e-09 1.126375e-09
1.741797e-09 1.678305e-09 1.441642e-09 1.669878e-09 1.774830e-09 1.606291e-09 1.578633e-09 2.009636e-09 1.606004e-09 1.567528e-09
1.801360e-09 1.762185e-09 1.781868e-09 1.546028e-09 1.622215e-09 1.674369e-09 1.732575e-09 2.002840e-09 1.931627e-09 2.368861e-09
1.242747e-09 1.537858e-09 1.779280e-09 1.784156e-09 2.402199e-09 1.959082e-09 2.093903e-09 2.560903e-09 2.547760e-09 2.168155e-09
2.167176e-09 1.973792e-09 2.390437e-09 2.347782e-09 2.421464e-09 2.522698e-09 2.351415e-09 2.551272e-09 2.366484e-09 2.220856e-09
2.029068e-09 2.310047e-09 2.642964e-09 3.486679e-09 2.367725e-09 1.998112e-09 2.307557e-09 2.593460e-09 2.657948e-09 2.404072e-09
2.182134e-09 2.679062e-09 2.669973e-09 1.801536e-09 2.246596e-09 2.461478e-09 2.254845e-09 2.290038e-09 2.192218e-09 2.767549e-09
2.483952e-09 1.669930e-09 2.661302e-09 1.617388e-09 1.864151e-09 2.084426e-09 2.499875e-09 2.333966e-09 2.422074e-09 2.542700e-09
3.106361e-09 2.171818e-09 2.809925e-09 2.243870e-09 2.478001e-09 2.218554e-09 2.128353e-09 2.656207e-09 2.325743e-09 2.073338e-09
1.721639e-09 2.412498e-09 1.877864e-09 2.553816e-09 1.936857e-09 1.893253e-09 2.172580e-09 1.352304e-09 1.716539e-09 2.009258e-09
1.552419e-09 2.176674e-09 9.313997e-10 1.944596e-09 2.064975e-09 1.319231e-09 1.538039e-09 2.154204e-09 9.002616e-10 1.927438e-09
1.543770e-09 1.669927e-09 1.166760e-09 1.490606e-09 1.860776e-09 1.475278e-09 1.697477e-09 1.511975e-09 1.801274e-09 1.667265e-09
1.299915e-09 1.089581e-09 7.608418e-10 1.294522e-09 9.559292e-10 9.580979e-10 5.296463e-10 3.511194e-10 6.175787e-10 8.042242e-10
4.157402e-10 6.043669e-10 1.379836e-09 -2.245189e-10 4.170202e-10 1.769571e-10 4.755878e-10 2.064692e-10 -5.227925e-10 8.169672e-10
8.304439e-10 -4.751767e-10 6.659682e-10 1.706140e-10 6.247756e-10 3.827885e-11 -6.238748e-11 -2.024722e-10 2.440867e-10 1.045535e-10
5.525950e-13 -2.215534e-10 4.906184e-10 3.806739e-11 -5.024146e-10 1.078103e-10 -1.708162e-10 -1.344112e-09 -4.402819e-10 -2.459246e-10
-1.884366e-10 -1.189269e-10 2.452117e-10 -4.589568e-10 -7.544287e-10 -6.256922e-10 -2.417598e-10 -7.497967e-10 -1.145732e-09 -1.055884e-09
-1.657141e-09 -5.235218e-10 -1.176534e-09 -1.591942e-09 -9.924221e-10 -1.034667e-09 -9.742245e-10 -1.213465e-09 -8.848304e-10 -1.252858e-09
-1.232013e-09 -1.674069e-09 -1.157402e-09 -9.689993e-10 -1.415245e-09 -1.404592e-09 -1.375509e-09 -1.222569e-09 -6.878835e-10 -1.277295e-09
-1.370205e-09 -1.518409e-09 -1.669816e-09 -8.829035e-10 -1.976200e-09 -1.006363e-09 -2.160767e-09 -1.597959e-09 -2.455103e-09 -1.493144e-09
-2.111768e-09 -1.724514e-09 -2.077525e-09 -1.911581e-09 -1.358943e-09 -2.297150e-09 -2.477954e-09 -2.197378e-09 -2.255970e-09 -2.212990e-09
-1.723306e-09 -2.217328e-09 -2.056863e-09 -1.586805e-09 -2.024718e-09 -2.173208e-09 -2.313572e-09 -2.602224e-09 -1.866685e-09 -2.059980e-09
-2.361706e-09 -2.504039e-09 -2.374683e-09 -2.099203e-09 -2.381307e-09 -2.262340e-09 -2.493474e-09 -2.587191e-09 -2.334352e-09 -2.299745e-09
-1.918921e-09 -2.510986e-09 -1.778377e-09 -1.753912e-09 -2.681005e-09 -2.280310e-09 -2.069910e-09 -2.637266e-09 -2.521420e-09 -2.394729e-09
-2.711696e-09 -2.423035e-09 -2.471589e-09 -2.498929e-09 -1.922713e-09 -1.829408e-09 -2.048846e-09 -1.763047e-09 -2.089610e-09 -1.980121e-09
-2.626018e-09 -1.826424e-09 -2.503857e-09 -1.853305e-09 -2.338493e-09 -1.515184e-09 -2.204237e-09 -2.058290e-09 -1.848470e-09 -2.246614e-09
-2.173815e-09 -2.266311e-09 -2.372891e-09 -2.588975e-09 -2.284247e-09 -2.131485e-09 -2.518663e-09 -1.474186e-09 -2.129975e-09 -1.592165e-09
-2.606803e-09 -2.857453e-09 -2.025192e-09 -1.514271e-09 -2.193858e-09 -1.986410e-09 -1.475371e-09 -1.703466e-09 -1.989686e-09 -2.112580e-09
-1.931822e-09 -2.225687e-09 -1.558091e-09 -1.690961e-09 -1.582201e-09 -1.546439e-09 -1.786531e-09 -1.611937e-09 -1.618202e-09 -1.465754e-09
-2.055598e-09 -1.377523e-09 -1.388916e-09 -6.023260e-10 -1.063118e-09 -1.126343e-09 -1.751959e-09 -8.096614e-10 -9.903047e-10 -1.057076e-09
-1.404322e-09 -1.044719e-09 -1.346356e-09 -8.324008e-10 -1.017813e-09 -5.872807e-10 -1.201526e-09 -5.776280e-10 -8.566306e-10 -6.414204e-10
-1.029280e-09 -1.079797e-09 1.084319e-10 -4.674514e-10 -2.194251e-10 -4.803188e-10 -5.784054e-10 -6.367313e-10 -3.294411e-10 -5.733092e-10
-4.139548e-10 -8.464993e-10 6.725100e-10 -6.508988e-10 9.621446e-11 -8.157797e-11 -1.841796e-10 -1.497805e-11 -4.949394e-10 -4.406188e-10
-5.681435e-10
-3.858312e-10 -3.313518e-11 -1.307344e-10 -7.631487e-10 1.484397e-10 -6.555703e-11 1.922065e-10 2.288120e-10 7.131547e-10 8.211841e-10
8.032963e-10 7.662804e-11 6.804941e-10 4.058377e-10 4.981093e-10 -1.757763e-10 1.167942e-09 -1.121041e-10 1.016216e-10 1.088764e-09
9.794804e-10 6.498168e-10 1.303119e-09 1.050127e-09 1.009643e-09 7.704506e-10 1.271736e-09 1.893269e-09 1.088179e-09 1.281431e-09
1.350545e-09 1.255956e-09 7.828815e-10 1.279417e-09 1.982257e-09 1.292531e-09 1.233349e-09 1.009167e-09 1.292555e-09 1.615935e-09
1.661294e-09 1.654491e-09 1.420210e-09 1.220133e-09 1.363063e-09 1.186991e-09 1.871029e-09 1.354021e-09 1.872430e-09 2.062366e-09
1.812812e-09 1.785264e-09 2.122458e-09 2.553462e-09 2.302362e-09 2.161332e-09 1.521783e-09 2.248845e-09 2.068631e-09 2.567417e-09
2.809879e-09 1.964340e-09 2.143630e-09 2.072443e-09 1.945514e-09 2.239453e-09 1.852374e-09 2.415124e-09 2.325824e-09 3.072294e-09
2.504276e-09 2.419928e-09 2.357737e-09 2.599763e-09 2.117668e-09 2.696690e-09 2.469615e-09 2.462746e-09 2.907765e-09 3.110334e-09
2.426219e-09 3.062652e-09 2.478229e-09 2.464786e-09 3.243775e-09 2.107058e-09 2.347838e-09 2.660441e-09 2.282045e-09 2.892079e-09
2.710270e-09 2.825378e-09 2.408817e-09 2.963450e-09 2.082533e-09 2.379291e-09 2.336330e-09 2.926942e-09 3.157722e-09 3.214924e-09
2.533435e-09 2.631392e-09 2.264472e-09 2.417393e-09 2.641206e-09 2.815251e-09 2.446088e-09 2.533440e-09 2.365390e-09 2.997974e-09
2.276975e-09 2.418665e-09 2.653268e-09 1.612685e-09 2.157613e-09 2.013284e-09 1.819911e-09 2.417719e-09 2.369046e-09 2.077691e-09
2.143145e-09 1.808911e-09 2.106119e-09 1.980841e-09 1.872134e-09 2.090725e-09 2.267113e-09 2.484023e-09 2.262450e-09 2.300642e-09
2.718747e-09 1.228881e-09 1.981328e-09 2.059310e-09 1.754441e-09 1.978846e-09 2.008507e-09 2.500146e-09 1.476179e-09 1.701962e-09
1.719509e-09 1.029623e-09 1.819324e-09 1.984931e-09 1.591014e-09 1.921092e-09 8.108731e-10 1.329881e-09 1.037897e-09 1.374696e-09
8.657075e-10 1.764508e-09 7.015677e-10 1.485528e-09 1.165851e-09 1.297603e-09 5.172466e-10 9.495847e-10 6.734071e-10 5.559330e-10
1.170002e-10 7.535892e-10 4.664144e-10 9.206243e-10 6.899663e-10 8.226945e-10 8.799540e-11 7.837459e-10 8.255941e-10 1.827207e-10
8.146972e-10 2.561542e-10 1.234927e-10 1.866441e-10 1.199223e-09 1.886233e-10 -5.743907e-11 2.683707e-10 -6.016049e-10 -6.921795e-10
1.391475e-10 8.543670e-10 -5.582092e-10 -5.282663e-10 9.205411e-11 -2.729570e-10 -2.468160e-10 -4.937708e-11 -4.065060e-10 8.779747e-11
-9.380835e-10 -4.443681e-10 -1.323017e-09 -7.506616e-10 -6.443578e-10 -3.785005e-10 -1.233781e-09 -8.340829e-10 -7.982610e-10 -1.018225e-09
-1.109546e-09 -1.083130e-09 -9.822635e-10 -1.296713e-09 -8.583398e-10 -8.267101e-10 -9.129934e-10 -4.665254e-10 -8.419683e-10 -1.209351e-09
-1.348175e-09 -1.457488e-09 -1.527181e-09 -1.080395e-09 -1.970754e-09 -1.273175e-09 -1.738588e-09 -2.540946e-09 -1.493802e-09 -1.774263e-09
-8.553195e-10 -2.431890e-09 -1.804551e-09 -1.220270e-09 -2.161888e-09 -2.265606e-09 -2.372297e-09 -1.621114e-09 -2.464813e-09 -2.041782e-09
-2.179837e-09 -2.243862e-09 -2.537987e-09 -1.871417e-09 -2.486273e-09 -1.566081e-09 -1.686096e-09 -2.284919e-09 -1.673762e-09 -1.906381e-09
-2.064793e-09 -2.058989e-09 -2.358267e-09 -2.443445e-09 -2.292961e-09 -2.437300e-09 -2.735987e-09 -2.225602e-09 -2.129315e-09 -2.178016e-09
-2.271594e-09 -3.186636e-09 -2.157206e-09 -2.264658e-09 -2.970993e-09 -3.389976e-09 -2.817274e-09 -2.532427e-09 -2.341759e-09 -2.633180e-09
-2.692940e-09 -2.425012e-09 -2.381457e-09 -2.178068e-09 -3.037270e-09 -2.513938e-09 -2.668411e-09 -2.398052e-09 -3.079879e-09 -2.323931e-09
-2.767536e-09 -2.903241e-09 -2.789585e-09 -3.071458e-09 -3.118052e-09 -2.159459e-09 -2.665006e-09 -2.526585e-09 -2.442401e-09 -2.314313e-09
-3.225439e-09 -2.221481e-09 -2.190481e-09 -3.104393e-09 -2.826834e-09 -2.846611e-09 -1.680443e-09 -2.666421e-09 -2.871660e-09 -2.671279e-09
-2.975536e-09 -2.714563e-09 -2.241750e-09 -2.251631e-09 -2.452828e-09 -1.900065e-09 -2.289104e-09 -2.073573e-09 -2.714245e-09 -2.030658e-09
-2.178873e-09 -2.649580e-09 -2.001850e-09 -2.339843e-09 -2.503646e-09 -1.810016e-09 -1.982321e-09 -1.907663e-09 -2.190997e-09 -1.757232e-09
-2.345131e-09 -1.929253e-09 -1.563468e-09 -1.864997e-09 -1.841567e-09 -2.061009e-09 -2.306063e-09 -2.001997e-09 -2.377113e-09 -2.076044e-09
-1.474360e-09 -1.575663e-09 -1.802648e-09 -1.441157e-09 -1.492908e-09 -1.808024e-09 -1.753082e-09 -1.421500e-09 -1.607824e-09 -9.276500e-10
-8.017926e-10 -1.572919e-09 -1.307040e-09 -9.334765e-10 -1.492542e-09 -1.126997e-09 -1.107215e-09 -1.096263e-09 -7.102354e-10 -6.528525e-10
-1.075999e-09 -1.235890e-09 -5.478893e-10 -3.090344e-10 -5.293135e-10 -9.323790e-10 -2.711375e-10 -3.633567e-10 -1.476450e-11 -1.332308e-10
-5.070321e-10 -6.077311e-10 5.749907e-10 -4.299899e-10 -3.174237e-10 7.049274e-11 1.580109e-10 -6.971521e-10 5.123358e-10 -7.350281e-10
-3.858312e-10
-2.117192e-10 -3.999209e-12 -5.992999e-10 1.663429e-11 -3.717725e-10 2.168968e-10 4.406628e-10 6.145510e-10 -2.865791e-10 7.215595e-11
1.787442e-10 3.042381e-10 2.169420e-10 9.835969e-10 6.107889e-10 1.109159e-09 7.497787e-10 7.964660e-10 6.404306e-10 8.596350e-10
9.322262e-10 4.348534e-10 7.899718e-10 1.482409e-09 1.002109e-09 1.424471e-09 1.450768e-09 1.154423e-09 1.705939e-09 1.878759e-09
1.152238e-09 1.260548e-09 1.271657e-09 1.251783e-09 1.292429e-09 1.244950e-09 2.442918e-09 1.882693e-09 1.956064e-09 1.895051e-09
2.226058e-09 1.663672e-09 1.684546e-09 2.366960e-09 2.519154e-09 2.174072e-09 1.633251e-09 1.798321e-09 1.832226e-09 1.603793e-09
1.933727e-09 2.785040e-09 2.026609e-09 2.844627e-09 1.953764e-09 2.362989e-09 3.358331e-09 1.749335e-09 2.347500e-09 2.874223e-09
2.556736e-09 2.311439e-09 2.772332e-09 2.611717e-09 3.118815e-09 2.526360e-09 2.395850e-09 2.548791e-09 2.817623e-09 2.951192e-09
2.836033e-09 3.197467e-09 2.350953e-09 2.702008e-09 2.498856e-09 2.433524e-09 3.068948e-09 2.402677e-09 2.896738e-09 2.150064e-09
2.860864e-09 2.105971e-09 2.669558e-09 3.129601e-09 2.675007e-09 2.952118e-09 2.722648e-09 2.721975e-09 2.690466e-09 2.493254e-09
2.494957e-09 2.715344e-09 2.776166e-09 2.962385e-09 2.472532e-09 2.851746e-09 2.893055e-09 2.831529e-09 2.926730e-09 3.168713e-09
3.215201e-09 3.248757e-09 2.978924e-09 2.746322e-09 2.821235e-09 3.105329e-09 2.718152e-09 2.685263e-09 2.951688e-09 2.324676e-09
2.225013e-09 3.595567e-09 3.072097e-09 2.781418e-09 2.896605e-09 2.351679e-09 2.497788e-09 2.989349e-09 2.366940e-09 2.527260e-09
2.218706e-09 2.346834e-09 2.706870e-09 2.492950e-09 2.205853e-09 1.897237e-09 3.072287e-09 2.557436e-09 2.466997e-09 2.169958e-09
2.398564e-09 2.337189e-09 2.004509e-09 2.709091e-09 1.450163e-09 1.647509e-09 2.788333e-09 1.937861e-09 1.755975e-09 1.209372e-09
2.079312e-09 2.123773e-09 1.897273e-09 7.405558e-10 1.934968e-09 1.336348e-09 1.767149e-09 1.425428e-09 1.923389e-09 1.542282e-09
1.481750e-09 1.515964e-09 1.697389e-09 1.317949e-09 1.286927e-09 8.284290e-10 4.869632e-10 1.157713e-09 1.261177e-09 7.056625e-10
6.465226e-10 1.161637e-09 1.470452e-09 3.249190e-10 1.183405e-09 8.410678e-10 8.786809e-10 2.897037e-10 1.069558e-09 1.509096e-11
4.967985e-10 1.563728e-10 1.498645e-10 7.832689e-10 3.972608e-10 3.834741e-10 -8.375167e-11 -1.353639e-10 1.571501e-11 2.839371e-10
-4.400119e-10 3.475817e-10 7.026332e-10 -4.885455e-11 -3.439763e-10 -1.168106e-10 -8.003752e-10 -3.843455e-10 -1.515197e-10 -1.774105e-10
-2.070174e-11 -4.575532e-10 -1.949565e-10 -9.863812e-10 -3.668316e-10 -9.099050e-10 -9.993891e-10 -8.678812e-10 -6.068614e-10 -1.205596e-09
-9.066117e-10 -9.697501e-10 -8.538801e-10 -1.327122e-09 -1.270024e-09 -8.669529e-10 -1.138362e-09 -1.024614e-09 -1.921783e-09 -1.891295e-09
-1.103020e-09 -1.691467e-09 -9.285099e-10 -2.273328e-09 -1.027736e-09 -1.944440e-09 -1.517077e-09 -1.815469e-09 -1.838716e-09 -1.716914e-09
-1.451261e-09 -1.739902e-09 -1.554896e-09 -1.704838e-09 -1.464340e-09 -2.110370e-09 -1.752391e-09 -1.578711e-09 -2.899790e-09 -2.202600e-09
-2.405425e-09 -2.268066e-09 -2.515901e-09 -2.421861e-09 -2.236636e-09 -1.895162e-09 -2.694776e-09 -2.558393e-09 -2.501691e-09 -2.485674e-09
-2.461206e-09 -2.868360e-09 -2.448880e-09 -2.722908e-09 -2.186997e-09 -2.365999e-09 -2.787050e-09 -2.657559e-09 -2.187755e-09 -2.807053e-09
-2.617983e-09 -2.629407e-09 -2.920623e-09 -2.969840e-09 -3.211986e-09 -3.180581e-09 -2.475852e-09 -3.405264e-09 -2.718304e-09 -2.531312e-09
-2.798367e-09 -2.502932e-09 -2.601710e-09 -2.921273e-09 -3.380923e-09 -3.053332e-09 -3.131755e-09 -3.237495e-09 -2.931062e-09 -2.499343e-09
-3.432001e-09 -2.368460e-09 -3.205264e-09 -2.844860e-09 -2.673464e-09 -3.459978e-09 -2.880780e-09 -3.539916e-09 -2.153842e-09 -2.856498e-09
-3.397695e-09 -3.145003e-09 -3.053007e-09 -2.799239e-09 -2.452325e-09 -2.418489e-09 -2.646086e-09 -2.753856e-09 -2.754321e-09 -3.145806e-09
-2.656245e-09 -3.282369e-09 -2.506734e-09 -2.614402e-09 -2.493726e-09 -3.188407e-09 -2.756904e-09 -2.979434e-09 -2.866287e-09 -2.650237e-09
-2.458842e-09 -2.440832e-09 -2.506062e-09 -2.763200e-09 -2.418946e-09 -2.222878e-09 -2.302310e-09 -2.458261e-09 -2.222057e-09 -2.131320e-09
-2.372454e-09 -1.931919e-09 -2.326189e-09 -2.404435e-09 -1.535922e-09 -1.646565e-09 -2.107437e-09 -2.273823e-09 -1.837115e-09 -1.578461e-09
-1.723668e-09 -1.740206e-09 -1.537341e-09 -2.180194e-09 -1.860008e-09 -1.993355e-09 -1.793755e-09 -1.227573e-09 -1.318952e-09 -1.540909e-09
-1.826308e-09 -1.277290e-09 -7.451507e-10 -7.053795e-10 -1.565052e-09 -1.338104e-09 -1.316559e-09 -1.373445e-09 -5.575037e-10 -1.338027e-09
-1.098748e-09 -1.358588e-09 -2.105819e-10 -8.318288e-11 -1.398425e-09 -2.180647e-10 -5.751260e-10 -7.744476e-10 -4.897009e-10 -2.184622e-10
-8.443755e-10 -5.032422e-10 -2.291402e-10 -1.192593e-09 1.360056e-10 -7.060863e-10 1.426049e-10 -1.464258e-10 -4.199097e-10 -3.795747e-10
-2.117192e-10
-6.411749e-10 3.415462e-10 2.796034e-10 1.058676e-10 2.614437e-10 4.652968e-10 2.133940e-10 7.896588e-10 7.108873e-10 5.170994e-10
-9.980133e-11 3.269710e-10 2.849691e-10 7.871286e-10 1.084149e-09 7.229594e-10 1.024818e-09 1.515167e-09 1.793182e-09 6.192640e-10
8.582728e-10 1.553561e-09 1.032281e-09 1.452627e-09 9.512579e-10 1.781459e-09 1.272985e-09 1.752223e-09 1.712818e-09 1.174483e-09
2.050232e-09 1.786062e-09 1.306338e-09 1.815301e-09 2.098117e-09 1.324280e-09 1.548832e-09 2.266501e-09 1.943585e-09 2.132055e-09
2.642723e-09 2.120884e-09 1.958806e-09 1.974186e-09 2.272679e-09 1.896847e-09 2.387645e-09 2.114638e-09 1.879028e-09 2.978176e-09
2.508371e-09 2.657600e-09 2.012705e-09 2.320400e-09 2.291611e-09 2.767497e-09 2.504335e-09 2.663633e-09 3.173777e-09 2.613953e-09
2.257224e-09 2.948815e-09 2.516789e-09 3.000859e-09 2.610441e-09 1.885770e-09 3.295423e-09 2.435803e-09 3.026082e-09 2.837060e-09
2.986464e-09 3.566285e-09 3.002787e-09 2.669377e-09 2.716733e-09 3.251681e-09 3.292965e-09 2.275352e-09 2.515183e-09 3.295765e-09
2.926402e-09 2.938082e-09 3.399772e-09 3.393419e-09 3.327117e-09 2.647663e-09 2.977629e-09 3.146768e-09 3.299609e-09 2.699780e-09
2.874356e-09 3.162825e-09 2.603144e-09 3.160149e-09 3.141021e-09 3.670439e-09 3.041754e-09 2.859475e-09 2.966825e-09 2.428889e-09
3.133817e-09 2.954273e-09 3.748039e-09 2.600973e-09 3.059096e-09 3.197946e-09 2.880527e-09 3.101420e-09 2.498010e-09 2.667354e-09
3.188638e-09 2.956489e-09 2.950163e-09 2.899484e-09 2.134403e-09 2.557637e-09 2.295803e-09 2.427414e-09 2.042302e-09 2.508896e-09
3.276056e-09 3.012319e-09 2.407728e-09 2.058170e-09 2.309502e-09 2.705373e-09 2.197892e-09 2.477427e-09 2.385293e-09 3.028036e-09
2.095835e-09 2.405853e-09 2.450570e-09 2.073738e-09 2.824995e-09 2.114733e-09 1.706764e-09 1.722050e-09 1.893601e-09 1.858391e-09
1.816295e-09 1.901445e-09 1.813017e-09 1.596049e-09 2.038070e-09 1.940919e-09 1.521484e-09 2.001937e-09 1.474420e-09 1.757956e-09
1.761355e-09 1.721599e-09 9.835815e-10 6.845764e-10 1.292792e-09 1.338949e-09 1.164205e-09 1.356347e-09 8.977850e-10 1.054614e-09
1.590158e-09 9.762745e-10 7.138771e-10 1.078034e-09 7.492605e-10 9.962741e-10 1.423807e-09 7.666832e-10 8.954755e-10 -4.096279e-12
7.288659e-10 6.423557e-10 1.885831e-10 2.705537e-10 -4.821980e-10 2.772898e-10 4.186398e-10 5.908567e-10 2.234874e-10 -2.287309e-10
5.661063e-10 -1.015727e-09 -4.228422e-11 2.870003e-10 -5.717517e-10 9.658856e-11 7.685621e-11 -8.397209e-10 -5.092207e-10 -7.393217e-10
-1.502644e-10 -8.475424e-10 -7.868965e-10 -7.165369e-10 -1.115343e-09 -6.462250e-10 -4.301692e-10 -9.622106e-10 -1.528352e-09 -6.350654e-10
-8.197481e-10 -1.059302e-09 -1.638524e-09 -1.572473e-09 -1.065005e-09 -1.586599e-09 -1.004101e-09 -1.479762e-09 -7.166461e-10 -2.138545e-09
-1.979692e-09 -2.003281e-09 -1.544784e-09 -2.352138e-09 -1.970628e-09 -1.991995e-09 -1.118034e-09 -1.684694e-09 -1.142832e-09 -1.719145e-09
-2.008671e-09 -1.655204e-09 -2.466605e-09 -2.551535e-09 -2.285315e-09 -1.936280e-09 -2.503601e-09 -2.423736e-09 -2.678340e-09 -1.605913e-09
-3.173368e-09 -2.612514e-09 -2.171297e-09 -1.825839e-09 -2.636991e-09 -2.454079e-09 -3.426725e-09 -2.837598e-09 -3.058999e-09 -3.449893e-09
-3.388662e-09 -2.640871e-09 -3.391466e-09 -2.511438e-09 -2.845015e-09 -3.831475e-09 -3.189372e-09 -2.672572e-09 -3.056702e-09 -2.987283e-09
-4.015261e-09 -2.686870e-09 -3.168199e-09 -3.479494e-09 -3.210006e-09 -3.595876e-09 -3.850313e-09 -2.863191e-09 -3.481277e-09 -2.980646e-09
-3.498756e-09 -3.158998e-09 -3.191895e-09 -2.980221e-09 -3.962760e-09 -2.807579e-09 -3.320256e-09 -3.114015e-09 -3.413741e-09 -3.668874e-09
-3.130996e-09 -3.259931e-09 -3.545673e-09 -3.692388e-09 -3.358466e-09 -3.049952e-09 -2.544967e-09 -3.750817e-09 -2.912466e-09 -3.435075e-09
-3.367288e-09 -2.538726e-09 -3.248948e-09 -3.025486e-09 -2.588620e-09 -3.268763e-09 -3.407181e-09 -3.323350e-09 -3.159533e-09 -3.117423e-09
-2.480238e-09 -2.583486e-09 -3.242846e-09 -3.072308e-09 -3.182614e-09 -3.643837e-09 -2.842092e-09 -2.863271e-09 -2.354155e-09 -2.729485e-09
-3.165769e-09 -2.803815e-09 -2.486074e-09 -2.783014e-09 -2.990958e-09 -2.315095e-09 -2.474355e-09 -2.516047e-09 -2.578383e-09 -2.230122e-09
-2.510565e-09 -1.939321e-09 -2.170467e-09 -2.693777e-09 -2.283799e-09 -2.302440e-09 -2.157684e-09 -2.175467e-09 -2.005706e-09 -1.706503e-09
-1.835239e-09 -1.730036e-09 -1.773400e-09 -2.129929e-09 -2.114299e-09 -1.930580e-09 -1.865976e-09 -1.516177e-09 -1.272677e-09 -1.788946e-09
-1.340467e-09 -1.016460e-09 -1.318856e-09 -3.410519e-10 -1.418084e-09 -1.605720e-09 -1.718051e-09 -6.632637e-10 -5.698908e-10 -6.517851e-10
-9.381951e-10 -1.183620e-09 -8.538497e-10 -9.010965e-10 -6.344643e-10 -1.326390e-09 -1.339348e-09 -8.890631e-10 -8.468024e-10 -8.184659e-10
-7.880698e-10 -8.998267e-10 -6.560152e-10 -6.842182e-10 5.819936e-10 -3.826377e-10 -6.200312e-10 1.624712e-10 3.929045e-10 -1.941293e-10
-6.411749e-10
5.437326e-12 3.189822e-10 2.888214e-10 3.419545e-10 -1.679728e-10 5.046401e-10 3.793352e-10 -6.637196e-11 5.591922e-10 2.031377e-10
5.026484e-10 3.110335e-10 9.300210e-10 9.247394e-10 1.624855e-09 2.035088e-09 1.158895e-09 1.073304e-09 1.080905e-09 1.264661e-09
7.345808e-10 1.707325e-09 6.154752e-10 1.522238e-09 1.455584e-09 1.699050e-09 1.394468e-09 1.744076e-09 1.824598e-09 8.383474e-10
2.226236e-09 1.666740e-09 1.699660e-09 1.871038e-09 2.421848e-09 1.686683e-09 1.817610e-09 1.700210e-09 2.333034e-09 1.861861e-09
2.659122e-09 2.086826e-09 2.275680e-09 2.549889e-09 2.541051e-09 2.184985e-09 2.235777e-09 3.127377e-09 2.420866e-09 2.644959e-09
2.716438e-09 2.949697e-09 3.351853e-09 2.959492e-09 2.759271e-09 3.144731e-09 2.932824e-09 2.036106e-09 2.708601e-09 2.593682e-09
3.068922e-09 3.528083e-09 3.323049e-09 3.167806e-09 3.866119e-09 3.186351e-09 3.176651e-09 2.522583e-09 3.602837e-09 2.952646e-09
2.861206e-09 3.824059e-09 3.010340e-09 3.264119e-09 3.304572e-09 3.770065e-09 3.390522e-09 3.224924e-09 3.364777e-09 3.266588e-09
3.066511e-09 3.650780e-09 3.273953e-09 3.443119e-09 4.017250e-09 3.954700e-09 3.791971e-09 3.370177e-09 3.406324e-09 3.962884e-09
3.542667e-09 2.948887e-09 3.537574e-09 3.027977e-09 3.695457e-09 3.627526e-09 3.192727e-09 3.684653e-09 2.902293e-09 2.974035e-09
3.540644e-09 4.106438e-09 3.639322e-09 3.420194e-09 2.900121e-09 3.894878e-09 3.690625e-09 2.994563e-09 3.252266e-09 2.855886e-09
3.342254e-09 3.339136e-09 3.519586e-09 3.036104e-09 2.861237e-09 3.477260e-09 3.095569e-09 2.629801e-09 3.809766e-09 2.684073e-09
2.614085e-09 2.892777e-09 2.775332e-09 3.344335e-09 3.011321e-09 2.650866e-09 2.510770e-09 2.065661e-09 2.142451e-09 2.413281e-09
2.519812e-09 2.323735e-09 2.313966e-09 2.109738e-09 2.151479e-09 2.630897e-09 2.024858e-09 1.738938e-09 2.008926e-09 1.903611e-09
1.848880e-09 2.447955e-09 1.909032e-09 2.139133e-09 2.557402e-09 2.303547e-09 2.296820e-09 2.528508e-09 1.918815e-09 2.064851e-09
1.745558e-09 1.690111e-09 1.316622e-09 9.442859e-10 1.567644e-09 6.665626e-10 1.369486e-09 1.014703e-09 1.457443e-09 1.457575e-09
1.437603e-09 7.017800e-10 9.517986e-10 9.918694e-10 7.896275e-10 9.317211e-10 1.910186e-10 3.002358e-10 1.060042e-09 5.131018e-10
7.084928e-10 3.967420e-10 1.480926e-12 9.758628e-10 1.309494e-10 6.694434e-10 7.707548e-10 1.155390e-09 -4.582249e-11 2.105897e-11
4.794152e-10 1.099169e-10 -3.675635e-10 -2.263399e-10 -5.548952e-10 -3.821701e-10 -5.606124e-10 -6.234029e-10 -1.015393e-09 -1.126276e-09
-9.265146e-10 -6.542306e-10 -4.852186e-10 -9.689086e-10 -1.385970e-09 -8.253342e-10 -1.194797e-09 -1.069370e-09 -1.268672e-09 -1.085652e-09
-1.558045e-09 -2.233292e-09 -1.539327e-09 -1.679409e-09 -1.715704e-09 -2.247700e-09 -1.846028e-09 -1.481547e-09 -2.509167e-09 -1.933144e-09
-2.191626e-09 -1.608447e-09 -1.958088e-09 -1.838708e-09 -2.270804e-09 -1.825230e-09 -2.038880e-09 -1.701888e-09 -2.003413e-09 -1.566392e-09
-2.500753e-09 -2.015122e-09 -2.828404e-09 -2.953475e-09 -3.121526e-09 -2.093964e-09 -2.915231e-09 -2.373131e-09 -2.820108e-09 -2.238442e-09
-2.786485e-09 -2.716110e-09 -2.995088e-09 -3.099852e-09 -2.922837e-09 -2.061961e-09 -3.488441e-09 -2.778905e-09 -2.369388e-09 -2.622874e-09
-2.842184e-09 -2.966134e-09 -2.822416e-09 -3.063026e-09 -2.977300e-09 -3.524654e-09 -3.256473e-09 -3.618751e-09 -3.826678e-09 -2.789985e-09
-3.304341e-09 -3.600112e-09 -3.615099e-09 -3.471949e-09 -3.590820e-09 -3.783199e-09 -3.919528e-09 -3.569428e-09 -4.045419e-09 -3.295191e-09
-3.643115e-09 -3.692151e-09 -3.970591e-09 -3.527768e-09 -3.112145e-09 -2.565294e-09 -3.592772e-09 -3.104042e-09 -3.174790e-09 -3.507279e-09
-3.579785e-09 -3.580903e-09 -2.974514e-09 -3.388070e-09 -3.589448e-09 -3.319069e-09 -4.071374e-09 -3.895900e-09 -2.744795e-09 -3.559776e-09
-3.478336e-09 -3.516051e-09 -3.795136e-09 -3.487079e-09 -3.760273e-09 -3.456114e-09 -2.906099e-09 -3.693372e-09 -3.317084e-09 -4.097299e-09
-3.506278e-09 -3.488672e-09 -3.714629e-09 -3.177623e-09 -3.358779e-09 -3.473935e-09 -3.158481e-09 -2.783924e-09 -3.282831e-09 -3.036788e-09
-2.787841e-09 -3.213958e-09 -3.093040e-09 -2.677053e-09 -2.728489e-09 -2.754987e-09 -2.997518e-09 -3.236787e-09 -2.960069e-09 -3.232035e-09
-2.820177e-09 -2.712309e-09 -2.152229e-09 -3.018099e-09 -2.120063e-09 -2.509069e-09 -1.858669e-09 -2.340093e-09 -2.420812e-09 -2.143978e-09
-2.632720e-09 -2.445910e-09 -1.306821e-09 -2.292738e-09 -2.521461e-09 -1.530687e-09 -1.490104e-09 -2.003746e-09 -1.486477e-09 -2.299042e-09
-1.999101e-09 -1.732997e-09 -2.302752e-09 -1.582453e-09 -1.913148e-09 -1.631792e-09 -1.163116e-09 -1.235681e-09 -1.376566e-09 -1.285973e-09
-1.070435e-09 -9.421631e-10 -5.259936e-10 -1.416478e-09 -9.742308e-10 -1.568606e-09 -1.642248e-10 -3.162734e-10 -4.489434e-10 -3.060875e-10
-9.748922e-11 -7.413617e-10 -8.237915e-10 -1.165514e-09 -3.079666e-10 -3.519915e-10 1.081997e-10 7.201795e-10 1.280511e-10 2.563400e-10
5.437326e-12
3.743108e-10 4.910132e-11 3.495310e-10 3.780699e-10 2.598645e-11 3.336924e-10 8.237045e-10 7.494830e-10 2.561405e-10 6.706322e-10
5.234796e-10 1.587969e-10 1.410512e-09 6.170965e-10 1.550082e-09 8.381508e-10 1.312176e-09 5.485575e-10 4.644680e-10 1.216239e-09
1.190282e-09 2.392067e-09 1.347059e-09 1.818831e-09 2.099488e-09 1.490516e-09 1.778980e-09 1.446690e-09 2.076979e-09 2.074960e-09
1.812077e-09 2.693783e-09 2.082084e-09 1.933312e-09 2.617977e-09 2.229278e-09 1.885244e-09 1.952808e-09 1.799178e-09 2.417612e-09
2.611867e-09 2.564950e-09 2.464411e-09 2.582165e-09 2.323074e-09 2.332891e-09 3.400163e-09 2.780469e-09 2.585179e-09 2.632607e-09
2.619151e-09 2.955296e-09 3.242710e-09 3.721109e-09 3.356968e-09 3.423928e-09 3.035260e-09 3.436504e-09 2.578465e-09 3.642831e-09
3.053366e-09 2.964624e-09 3.055043e-09 3.208664e-09 3.626281e-09 3.911699e-09 3.350057e-09 3.811421e-09 3.985245e-09 3.057564e-09
3.754336e-09 3.677624e-09 3.580037e-09 3.369235e-09 3.726031e-09 4.561484e-09 4.345083e-09 3.520088e-09 3.531150e-09 3.305185e-09
3.559973e-09 3.434194e-09 3.317192e-09 3.716209e-09 3.216535e-09 4.148956e-09 3.640124e-09 4.831943e-09 3.885073e-09 3.589069e-09
3.672661e-09 4.136719e-09 3.238121e-09 3.418776e-09 4.247774e-09 3.948847e-09 3.764496e-09 2.942733e-09 3.756156e-09 3.491774e-09
3.110259e-09 3.314571e-09 4.212474e-09 4.008839e-09 3.706422e-09 3.242207e-09 3.808843e-09 3.307832e-09 3.654761e-09 3.068496e-09
3.824621e-09 3.310229e-09 3.609019e-09 3.254622e-09 3.783619e-09 3.179896e-09 3.623205e-09 3.275009e-09 3.068706e-09 3.025050e-09
3.349098e-09 3.194670e-09 3.015705e-09 3.156796e-09 3.280441e-09 3.381155e-09 3.162353e-09 3.829967e-09 3.434630e-09 3.585431e-09
2.081270e-09 2.668400e-09 2.805018e-09 2.368774e-09 2.274028e-09 2.701521e-09 2.287054e-09 2.434279e-09 2.889796e-09 2.214713e-09
2.100300e-09 2.035696e-09 1.651721e-09 2.806492e-09 1.631856e-09 2.599619e-09 1.851315e-09 1.358258e-09 1.824435e-09 2.300155e-09
1.986361e-09 1.912037e-09 1.782402e-09 1.505609e-09 1.933111e-09 1.462991e-09 2.013697e-09 1.338827e-09 1.362181e-09 9.043743e-10
9.324107e-10 1.520517e-09 4.101361e-10 9.844138e-10 6.997691e-10 4.986131e-10 1.435091e-09 7.346276e-10 9.754285e-10 1.019607e-09
3.938210e-10 3.285024e-10 -2.806823e-11 6.867338e-10 3.298923e-10 -3.464991e-10 3.616736e-10 -4.233730e-10 4.988139e-10 1.373571e-10
-1.915548e-10 1.513600e-10 -7.296518e-10 1.908314e-10 6.354565e-12 -5.177913e-11 -1.015529e-09 5.670009e-11 -6.653786e-10 -4.623234e-10
-1.138866e-09 -4.718486e-11 -8.377435e-10 -4.684202e-10 -9.024237e-10 -1.642734e-09 -9.592708e-10 -1.196034e-09 -7.434018e-10 -6.620148e-10
-1.246072e-09 -1.489065e-09 -1.652576e-09 -1.064871e-09 -1.512802e-09 -9.450961e-10 -1.462118e-09 -1.602663e-09 -2.048744e-09 -1.666775e-09
-2.370484e-09 -1.921829e-09 -2.540630e-09 -2.075100e-09 -2.272471e-09 -2.272656e-09 -2.629832e-09 -2.472389e-09 -2.451498e-09 -2.768619e-09
-3.084291e-09 -1.990152e-09 -3.420082e-09 -3.192838e-09 -1.970277e-09 -2.235641e-09 -2.693307e-09 -2.945673e-09 -2.749721e-09 -3.005577e-09
-2.981724e-09 -2.815695e-09 -2.864557e-09 -2.415855e-09 -3.438615e-09 -2.998482e-09 -2.767738e-09 -3.986697e-09 -3.688035e-09 -3.345026e-09
-3.259454e-09 -3.814828e-09 -3.007597e-09 -3.588114e-09 -3.439841e-09 -3.738225e-09 -2.741944e-09 -4.253466e-09 -3.284894e-09 -3.037445e-09
-3.562901e-09 -3.801734e-09 -3.146545e-09 -3.602906e-09 -3.345456e-09 -3.719308e-09 -3.623976e-09 -3.908496e-09 -3.481738e-09 -3.634392e-09
-3.957731e-09 -3.157243e-09 -4.514058e-09 -3.426356e-09 -4.363923e-09 -3.421554e-09 -3.625812e-09 -3.536988e-09 -3.821335e-09 -3.813875e-09
-3.752472e-09 -4.137501e-09 -3.963684e-09 -3.631804e-09 -4.007969e-09 -3.534539e-09 -3.900376e-09 -3.588706e-09 -3.750198e-09 -4.190368e-09
-3.858714e-09 -3.921399e-09 -4.653453e-09 -4.278014e-09 -3.935672e-09 -4.217528e-09 -3.743029e-09 -4.115296e-09 -3.325821e-09 -3.483544e-09
-3.887591e-09 -3.736328e-09 -4.003419e-09 -2.850304e-09 -3.088955e-09 -2.888892e-09 -3.077493e-09 -3.527094e-09 -3.870285e-09 -2.879162e-09
-3.392578e-09 -3.261749e-09 -3.004523e-09 -2.692901e-09 -3.606190e-09 -3.325782e-09 -3.282999e-09 -2.579917e-09 -3.089805e-09 -3.085671e-09
-3.174620e-09 -2.555756e-09 -3.276805e-09 -3.000932e-09 -2.785085e-09 -2.020606e-09 -2.572673e-09 -3.407078e-09 -2.602062e-09 -2.770256e-09
-2.104328e-09 -2.555863e-09 -2.566753e-09 -2.173393e-09 -1.539834e-09 -2.167071e-09 -2.364647e-09 -2.563197e-09 -2.257527e-09 -2.290666e-09
-2.227505e-09 -1.805648e-09 -1.551270e-09 -1.448921e-09 -1.570077e-09 -1.431038e-09 -1.880931e-09 -1.276470e-09 -6.437061e-10 -1.154485e-09
-1.849876e-09 -1.499420e-09 -1.829454e-09 -7.221697e-10 -9.622211e-10 -6.183784e-10 -1.344270e-09 -9.702928e-10 -4.631360e-10 -6.618510e-10
-2.416706e-10 -1.099224e-09 -5.588380e-10 -9.672744e-10 -1.719827e-10 5.536027e-11 -6.189897e-10 -2.923873e-10 -6.442389e-10 4.542307e-10
3.743108e-10
1.144593e-10 -4.621913e-10 5.802636e-10 6.144654e-10 2.595877e-10 3.519376e-10 9.089804e-10 4.424030e-10 4.619748e-10 1.275835e-09
1.289195e-09 7.223644e-10 7.764640e-10 9.024212e-10 9.212180e-10 9.753075e-10 1.044114e-09 1.173592e-09 1.440014e-09 1.432933e-09
1.530327e-09 8.798580e-10 1.930819e-09 2.019179e-09 1.111018e-09 1.817052e-09 2.573995e-09 1.818688e-09 1.906922e-09 1.500473e-09
2.593116e-09 2.185440e-09 1.440323e-09 1.955522e-09 2.586273e-09 2.385063e-09 2.589700e-09 2.073623e-09 2.672236e-09 2.788819e-09
2.719805e-09 2.354596e-09 2.929602e-09 2.865728e-09 2.936014e-09 3.780916e-09 3.245383e-09 2.828007e-09 3.415530e-09 3.264786e-09
2.679827e-09 3.442899e-09 3.589261e-09 3.302906e-09 3.719332e-09 3.450327e-09 3.211189e-09 3.149990e-09 3.160288e-09 3.647325e-09
3.934229e-09 3.401736e-09 4.197100e-09 3.678959e-09 3.753265e-09 3.541948e-09 3.723891e-09 3.801147e-09 4.198744e-09 4.035476e-09
3.603616e-09 4.184881e-09 4.507093e-09 3.614628e-09 3.900756e-09 3.738592e-09 4.458954e-09 3.423026e-09 4.770633e-09 4.108482e-09
4.357759e-09 3.208775e-09 4.116479e-09 4.089403e-09 3.871577e-09 3.710662e-09 3.836737e-09 4.191177e-09 4.188380e-09 4.440015e-09
4.043821e-09 4.121256e-09 3.863937e-09 4.081058e-09 3.908167e-09 3.807919e-09 4.430457e-09 3.778570e-09 3.889439e-09 4.068345e-09
3.904776e-09 3.749744e-09 3.644071e-09 3.867364e-09 4.050807e-09 3.851151e-09 4.392269e-09 3.904663e-09 3.799457e-09 3.588615e-09
3.571540e-09 3.721076e-09 3.713594e-09 3.739644e-09 3.452186e-09 3.800516e-09 3.879041e-09 3.711560e-09 4.049084e-09 3.408822e-09
3.447786e-09 3.376696e-09 3.659823e-09 3.047693e-09 3.400812e-09 3.954959e-09 3.000611e-09 3.569131e-09 3.223114e-09 2.964042e-09
3.304996e-09 2.858887e-09 3.470811e-09 3.085207e-09 3.106430e-09 2.438450e-09 2.826944e-09 3.575053e-09 2.304438e-09 3.004513e-09
2.298750e-09 2.297822e-09 2.626274e-09 1.947230e-09 1.925790e-09 1.780457e-09 1.533889e-09 2.100442e-09 1.472916e-09 2.222784e-09
2.097194e-09 1.802736e-09 1.955011e-09 1.444694e-09 1.956737e-09 1.180141e-09 1.727107e-09 5.606073e-10 1.439588e-09 1.151283e-09
1.839152e-09 1.503908e-09 1.787204e-09 1.379719e-09 1.150759e-09 1.002173e-09 1.022667e-09 7.050020e-11 5.751364e-10 8.824655e-10
1.066877e-09 5.763741e-10 6.936142e-10 5.995155e-10 3.049631e-10 3.499022e-10 -4.227478e-11 1.213725e-09 3.773757e-11 -1.069894e-10
-1.493025e-10 -3.516418e-10 8.679535e-11 -3.299263e-10 -4.846632e-10 -6.887084e-10 -7.655330e-10 -8.649352e-10 -1.352451e-10 -3.492526e-10
-2.385868e-10 -1.210185e-09 -1.618641e-09 -9.149968e-10 -6.866612e-10 -1.072516e-09 -1.250373e-09 -2.019996e-09 -1.152729e-09 -7.676457e-10
-1.641898e-09 -1.883848e-09 -2.070872e-09 -2.212361e-09 -7.370073e-10 -1.162977e-09 -1.951433e-09 -1.740594e-09 -1.569926e-09 -1.939527e-09
-2.228033e-09 -2.479426e-09 -1.667705e-09 -2.031610e-09 -2.658717e-09 -2.604902e-09 -1.752544e-09 -1.836884e-09 -2.525515e-09 -2.246805e-09
-2.570644e-09 -3.247122e-09 -2.628746e-09 -2.573173e-09 -3.003455e-09 -3.122299e-09 -3.271940e-09 -2.883961e-09 -3.206774e-09 -3.071540e-09
-3.029485e-09 -3.387093e-09 -3.633589e-09 -3.373169e-09 -3.843567e-09 -3.485244e-09 -3.701086e-09 -3.271164e-09 -3.476010e-09 -3.472791e-09
-3.876680e-09 -3.735496e-09 -3.481664e-09 -4.037048e-09 -3.569776e-09 -3.226800e-09 -3.451182e-09 -3.711962e-09 -3.794951e-09 -4.446346e-09
-3.861225e-09 -3.902883e-09 -3.845266e-09 -4.572236e-09 -3.782991e-09 -3.465864e-09 -4.425389e-09 -4.017426e-09 -4.213764e-09 -4.725930e-09
-4.360041e-09 -4.612259e-09 -4.108053e-09 -3.746675e-09 -4.070807e-09 -3.939221e-09 -4.167800e-09 -4.055400e-09 -4.303762e-09 -4.417119e-09
-3.668761e-09 -4.294355e-09 -4.187484e-09 -4.155141e-09 -4.065784e-09 -4.416687e-09 -4.237114e-09 -3.874161e-09 -4.364601e-09 -4.219561e-09
-4.135792e-09 -3.901895e-09 -4.341272e-09 -4.229848e-09 -3.945910e-09 -4.720709e-09 -3.426682e-09 -3.737137e-09 -3.714381e-09 -4.219020e-09
-3.746538e-09 -3.844195e-09 -3.263085e-09 -4.312219e-09 -3.977492e-09 -3.739152e-09 -3.782787e-09 -3.538988e-09 -3.127830e-09 -3.723517e-09
-3.225208e-09 -3.195714e-09 -4.110789e-09 -4.405263e-09 -3.632852e-09 -2.798408e-09 -3.598122e-09 -3.277276e-09 -3.693496e-09 -3.095098e-09
-3.000959e-09 -2.982229e-09 -2.712021e-09 -2.577413e-09 -3.212079e-09 -3.651965e-09 -2.580504e-09 -2.824999e-09 -2.686343e-09 -2.797767e-09
-2.854141e-09 -1.868508e-09 -1.935155e-09 -2.292430e-09 -1.588785e-09 -2.136746e-09 -2.447826e-09 -2.442119e-09 -1.882395e-09 -1.976364e-09
-1.321537e-09 -2.258147e-09 -1.749913e-09 -2.017732e-09 -1.566739e-09 -1.482152e-09 -1.458499e-09 -1.778181e-09 -1.546839e-09 -1.418854e-09
-1.606744e-09 -1.320714e-09 -8.798577e-10 -8.248350e-10 -1.420181e-09 -6.875141e-10 -1.058473e-09 -1.393180e-09 -7.381503e-10 -9.167731e-11
-9.028938e-10 -8.337302e-10 -1.204282e-10 -5.038662e-10 -7.976473e-10 -8.476755e-10 -2.134647e-10 -6.412217e-10 -2.436190e-10 6.390528e-10
1.144593e-10
-2.551291e-10 6.200659e-10 3.097773e-10 8.336525e-10 2.173815e-10 1.187663e-10 7.118233e-10 1.078945e-09 7.920149e-11 7.219481e-10
1.204673e-09 1.090779e-09 5.546949e-10 1.205047e-09 9.679569e-10 1.402018e-09 1.905276e-09 2.063744e-09 1.958570e-09 6.872125e-10
1.562870e-09 1.808170e-09 1.967728e-09 2.203320e-09 1.976180e-09 1.908474e-09 2.086345e-09 1.776128e-09 1.570729e-09 2.221954e-09
2.592799e-09 2.054718e-09 2.957250e-09 2.813935e-09 2.227089e-09 2.223134e-09 2.567726e-09 2.950341e-09 2.638899e-09 3.601888e-09
2.737612e-09 3.140579e-09 2.453678e-09 2.848662e-09 2.361387e-09 2.559062e-09 2.962847e-09 3.324775e-09 3.484564e-09 2.582830e-09
3.566154e-09 2.974882e-09 3.088766e-09 3.697291e-09 4.393846e-09 3.410546e-09 4.162628e-09 4.075977e-09 3.586447e-09 3.303622e-09
3.285817e-09 3.602682e-09 3.558152e-09 3.913925e-09 4.117008e-09 3.728497e-09 3.701163e-09 4.124558e-09 4.296621e-09 3.711382e-09
4.479613e-09 4.059296e-09 4.568791e-09 4.260892e-09 4.696668e-09 4.461574e-09 3.925664e-09 4.126587e-09 3.921672e-09 4.141498e-09
4.301567e-09 4.241709e-09 4.249927e-09 4.443840e-09 3.873580e-09 3.964779e-09 4.163034e-09 4.335198e-09 4.164793e-09 4.387340e-09
3.998886e-09 4.164684e-09 3.597241e-09 4.263031e-09 4.544502e-09 4.652337e-09 4.688858e-09 4.256075e-09 4.231758e-09 4.248318e-09
4.958779e-09 4.089714e-09 4.147590e-09 3.836165e-09 3.925825e-09 4.254114e-09 4.897128e-09 4.350373e-09 4.270477e-09 4.191547e-09
3.980923e-09 4.071016e-09 3.119489e-09 4.106928e-09 3.628301e-09 4.578916e-09 4.791619e-09 3.614889e-09 3.959725e-09 3.554958e-09
4.032871e-09 3.480823e-09 4.037924e-09 3.753766e-09 3.715477e-09 3.543928e-09 3.438972e-09 3.366906e-09 3.154478e-09 2.554500e-09
3.979783e-09 3.130942e-09 3.154375e-09 3.485939e-09 3.292703e-09 2.925662e-09 2.776852e-09 3.208608e-09 2.514785e-09 2.649426e-09
3.153909e-09 2.929016e-09 2.510260e-09 3.052917e-09 3.055094e-09 1.895701e-09 2.078257e-09 2.185875e-09 2.646092e-09 2.132923e-09
1.976381e-09 2.284777e-09 2.214079e-09 2.352601e-09 1.595729e-09 1.162412e-09 2.010059e-09 1.618154e-09 1.257049e-09 1.713516e-09
1.555554e-09 1.210407e-09 8.856958e-10 7.544633e-10 7.981646e-10 3.783545e-10 2.859079e-10 1.376052e-09 9.293735e-10 1.008696e-09
3.128795e-10 4.655888e-10 -8.559992e-11 7.785205e-10 1.174223e-09 4.013594e-10 2.706657e-10 5.194690e-10 1.182536e-10 3.548639e-10
4.069623e-10 -1.385157e-10 -5.737962e-10 7.268338e-11 -1.067754e-10 -8.482968e-11 -3.385219e-10 -6.843574e-10 -8.636014e-10 -4.575232e-10
-2.098550e-10 -1.191476e-09 -1.151296e-09 -7.554471e-10 -1.689352e-09 -6.579058e-10 -1.257665e-09 -1.458898e-09 -7.879951e-10 -1.332073e-09
-1.683460e-09 -1.000521e-09 -1.551711e-09 -1.418905e-09 -1.801907e-09 -2.235672e-09 -2.189121e-09 -2.188591e-09 -2.160574e-09 -2.293614e-09
-2.104092e-09 -1.777368e-09 -1.925169e-09 -1.960921e-09 -2.637482e-09 -2.837898e-09 -2.695269e-09 -2.278165e-09 -3.165901e-09 -2.703815e-09
-2.646759e-09 -2.677635e-09 -2.803911e-09 -3.197292e-09 -3.345559e-09 -2.411940e-09 -3.221776e-09 -2.983403e-09 -3.752913e-09 -3.059122e-09
-2.984162e-09 -3.351722e-09 -3.293065e-09 -4.004413e-09 -3.788264e-09 -3.589539e-09 -4.679416e-09 -4.172213e-09 -3.737928e-09 -3.808681e-09
-3.470030e-09 -3.854511e-09 -3.815272e-09 -4.044224e-09 -3.841846e-09 -4.310939e-09 -4.415789e-09 -4.398963e-09 -5.025386e-09 -4.540602e-09
-4.128046e-09 -4.372170e-09 -4.077754e-09 -4.223404e-09 -4.343942e-09 -3.564433e-09 -4.545499e-09 -4.308166e-09 -4.142497e-09 -4.115645e-09
-4.494650e-09 -3.955443e-09 -4.247612e-09 -4.348033e-09 -3.798825e-09 -4.607283e-09 -4.068049e-09 -4.241505e-09 -4.818763e-09 -4.558420e-09
-4.545578e-09 -4.409196e-09 -4.476896e-09 -4.658497e-09 -4.293395e-09 -5.107192e-09 -4.247220e-09 -4.139892e-09 -4.297672e-09 -4.188478e-09
-3.961990e-09 -4.588300e-09 -4.183593e-09 -4.512975e-09 -4.423838e-09 -5.048333e-09 -4.245289e-09 -4.118018e-09 -3.576053e-09 -4.180494e-09
-4.281457e-09 -4.082352e-09 -4.431891e-09 -3.908660e-09 -4.518288e-09 -4.328219e-09 -3.877418e-09 -3.912586e-09 -3.807452e-09 -4.075591e-09
-3.822858e-09 -3.485684e-09 -3.670597e-09 -3.209863e-09 -3.820988e-09 -3.876031e-09 -3.840599e-09 -3.834807e-09 -3.297740e-09 -3.251553e-09
-4.083791e-09 -3.464415e-09 -3.177497e-09 -2.957521e-09 -3.278796e-09 -3.148438e-09 -3.202835e-09 -2.484934e-09 -2.674912e-09 -3.183284e-09
-2.686864e-09 -2.471228e-09 -3.217531e-09 -1.800367e-09 -2.914015e-09 -3.118217e-09 -2.421426e-09 -2.183568e-09 -2.086690e-09 -2.561551e-09
-2.844911e-09 -1.486960e-09 -1.968081e-09 -2.126695e-09 -1.405568e-09 -2.009207e-09 -1.745451e-09 -2.353770e-09 -1.125554e-09 -2.067159e-09
-8.565553e-10 -1.867738e-09 -1.725982e-09 -1.259569e-09 -1.136864e-09 -1.303569e-09 -7.654672e-10 -9.638098e-10 -1.809262e-09 -7.123329e-10
-7.946825e-10 -9.755233e-10 2.717472e-10 -5.749248e-10 -6.832741e-10 -4.755000e-10 2.936541e-10 -2.884714e-10 -8.575381e-11 3.644003e-10
-2.551291e-10
-7.755383e-11 -3.334662e-10 2.659387e-12 1.072784e-09 7.080026e-10 -3.418639e-10 1.074827e-09 7.113745e-10 9.738026e-11 3.818119e-10
1.146058e-09 8.608634e-10 1.436743e-09 1.394697e-09 1.180057e-09 3.286859e-10 9.194312e-10 1.844058e-09 1.899377e-09 1.773202e-09
1.449707e-09 1.546288e-09 1.902852e-09 1.692896e-09 2.298971e-09 2.099038e-09 1.133843e-09 2.301592e-09 2.554591e-09 2.454239e-09
2.548451e-09 1.963559e-09 2.729662e-09 3.114081e-09 3.166760e-09 2.581805e-09 2.505297e-09 2.890696e-09 2.833601e-09 3.337582e-09
2.674583e-09 2.456056e-09 3.986230e-09 3.287304e-09 3.752468e-09 2.589313e-09 3.292138e-09 3.347269e-09 3.369841e-09 3.218503e-09
2.895240e-09 3.778837e-09 3.463677e-09 3.682921e-09 4.343324e-09 3.766203e-09 4.149023e-09 4.114685e-09 4.304614e-09 3.877468e-09
4.342175e-09 4.538478e-09 4.138575e-09 4.153398e-09 4.759669e-09 4.254748e-09 4.053641e-09 3.682998e-09 4.294327e-09 4.315284e-09
4.371814e-09 3.979435e-09 4.974913e-09 4.894110e-09 4.506944e-09 4.291442e-09 4.533848e-09 4.213516e-09 4.918967e-09 4.686798e-09
4.442416e-09 5.747165e-09 4.178376e-09 4.613622e-09 4.810193e-09 4.735407e-09 5.155069e-09 4.528399e-09 4.610388e-09 4.722263e-09
4.386618e-09 4.339488e-09 4.757700e-09 4.746137e-09 4.380985e-09 5.002270e-09 4.760069e-09 4.206172e-09 4.861656e-09 4.696389e-09
4.758254e-09 4.654316e-09 4.563205e-09 4.778859e-09 4.027881e-09 4.372016e-09 4.237013e-09 5.440116e-09 4.309372e-09 4.805748e-09
4.347215e-09 5.240644e-09 4.275762e-09 4.572221e-09 4.799377e-09 3.814758e-09 4.128410e-09 3.744919e-09 3.858012e-09 4.272704e-09
3.616227e-09 3.794817e-09 3.707851e-09 4.487039e-09 3.565479e-09 3.987274e-09 3.520837e-09 3.741185e-09 3.116207e-09 3.854524e-09
2.967171e-09 3.316224e-09 3.223934e-09 3.378946e-09 3.049402e-09 3.307334e-09 2.917149e-09 3.349772e-09 3.081914e-09 3.273490e-09
3.198413e-09 2.672418e-09 2.859746e-09 2.735228e-09 2.317088e-09 2.461040e-09 2.394389e-09 2.856716e-09 2.699788e-09 2.615498e-09
1.510765e-09 2.038992e-09 2.560752e-09 1.886324e-09 2.350726e-09 1.396909e-09 1.295986e-09 1.722607e-09 1.650362e-09 1.734314e-09
8.946103e-10 1.259581e-09 1.577882e-09 1.005273e-09 8.009715e-10 1.305701e-09 1.225239e-09 4.538009e-10 8.481442e-10 1.216363e-09
5.051773e-10 9.022371e-10 3.771770e-10 9.372857e-10 6.209180e-10 7.072791e-10 2.355641e-10 -7.939791e-11 1.466259e-10 1.846324e-10
3.532612e-10 -1.446302e-10 -2.245555e-11 4.208361e-10 -3.263018e-10 2.424227e-10 5.257049e-10 -6.120160e-10 -4.704013e-10 -8.163500e-10
-1.410614e-09 -9.972355e-10 -8.509276e-10 -1.209960e-09 -9.418798e-10 -1.064792e-09 -1.189431e-09 -1.712475e-09 -1.468091e-09 -1.340298e-09
-1.361315e-09 -1.231902e-09 -1.813064e-09 -1.707175e-09 -2.136278e-09 -1.720653e-09 -2.510539e-09 -2.089547e-09 -1.969882e-09 -2.550157e-09
-2.153282e-09 -2.731120e-09 -3.112216e-09 -2.584946e-09 -2.445048e-09 -3.199141e-09 -2.828193e-09 -2.804567e-09 -2.841257e-09 -2.380249e-09
-3.680211e-09 -2.939752e-09 -3.277690e-09 -2.752979e-09 -3.165227e-09 -3.110085e-09 -3.089882e-09 -3.552225e-09 -3.791057e-09 -4.027226e-09
-3.968540e-09 -3.472043e-09 -3.966383e-09 -3.620458e-09 -3.109542e-09 -3.570528e-09 -3.555368e-09 -3.492204e-09 -3.973406e-09 -3.416427e-09
-4.028518e-09 -3.625852e-09 -4.383195e-09 -3.967439e-09 -3.979999e-09 -4.344041e-09 -4.639737e-09 -4.209153e-09 -4.276548e-09 -4.053643e-09
-4.161480e-09 -4.422084e-09 -4.536355e-09 -4.990091e-09 -4.487632e-09 -4.521570e-09 -5.040244e-09 -5.148269e-09 -4.881170e-09 -4.832000e-09
-4.418642e-09 -4.846887e-09 -4.377999e-09 -4.410621e-09 -5.382939e-09 -5.525335e-09 -4.339417e-09 -4.689794e-09 -5.009680e-09 -4.649779e-09
-4.547216e-09 -4.960728e-09 -5.181763e-09 -5.228296e-09 -4.655564e-09 -4.970397e-09 -5.304315e-09 -4.642983e-09 -4.989919e-09 -5.635191e-09
-4.716470e-09 -5.139748e-09 -5.012513e-09 -4.646214e-09 -5.461469e-09 -5.483057e-09 -4.906242e-09 -4.096686e-09 -4.562035e-09 -4.976214e-09
-3.647947e-09 -4.007940e-09 -4.551576e-09 -4.010279e-09 -4.145374e-09 -4.429485e-09 -4.839747e-09 -3.994491e-09 -4.018352e-09 -4.337841e-09
-4.155387e-09 -4.051090e-09 -4.381475e-09 -3.674142e-09 -4.110609e-09 -3.906456e-09 -3.923056e-09 -3.055781e-09 -3.476072e-09 -3.878962e-09
-3.310444e-09 -4.131315e-09 -3.329620e-09 -3.423162e-09 -3.905974e-09 -2.721984e-09 -2.936329e-09 -3.018145e-09 -3.437988e-09 -3.080731e-09
-3.570704e-09 -2.962772e-09 -2.689017e-09 -3.543395e-09 -3.186919e-09 -2.436404e-09 -3.088306e-09 -3.617387e-09 -2.801879e-09 -2.681706e-09
-2.073544e-09 -2.509588e-09 -1.892804e-09 -2.009106e-09 -2.487222e-09 -1.647452e-09 -2.167391e-09 -2.556690e-09 -1.971554e-09 -1.544871e-09
-2.450493e-09 -1.548330e-09 -8.754213e-10 -1.904548e-09 -1.525039e-09 -1.267631e-09 -1.639143e-09 -4.152342e-10 -1.482002e-09 -9.532745e-10
-7.009510e-10 -9.291141e-10 -1.442147e-10 -5.234473e-10 -1.575645e-10 -2.205832e-10 -6.016397e-10 6.761775e-10 -5.293073e-11 2.871868e-10
-7.755383e-11
-3.394637e-10 5.331320e-10 4.517331e-10 -5.261869e-11 -4.064364e-10 -9.197653e-11 9.578115e-10 3.380220e-10 8.499089e-10 9.753708e-10
7.215060e-10 4.714989e-10 1.859971e-09 9.981050e-10 1.278820e-09 1.460007e-09 1.530525e-09 8.669101e-10 1.771881e-09 2.029404e-09
1.820454e-09 2.294527e-09 1.637805e-09 1.853117e-09 1.364320e-09 2.757737e-09 1.578102e-09 1.968681e-09 2.046050e-09 1.994460e-09
2.671838e-09 2.612767e-09 2.920444e-09 2.730449e-09 3.053417e-09 2.843768e-09 2.934507e-09 3.548033e-09 3.394787e-09 2.996646e-09
3.367299e-09 3.917934e-09 3.257421e-09 3.334306e-09 2.944734e-09 3.881385e-09 3.438942e-09 3.634097e-09 4.016141e-09 3.876556e-09
3.906562e-09 4.047524e-09 3.789823e-09 3.948634e-09 3.930878e-09 4.172051e-09 4.909160e-09 4.679829e-09 4.445549e-09 4.826009e-09
5.102894e-09 4.029404e-09 4.100915e-09 4.521182e-09 4.720301e-09 5.164690e-09 4.268425e-09 4.509751e-09 4.743822e-09 4.702556e-09
4.585409e-09 4.955490e-09 4.889465e-09 4.613971e-09 4.821414e-09 5.161298e-09 5.172243e-09 4.520733e-09 4.710533e-09 5.078395e-09
4.811252e-09 5.232261e-09 4.978543e-09 5.649609e-09 5.051898e-09 4.713094e-09 4.860888e-09 5.005924e-09 5.162790e-09 5.394688e-09
5.415513e-09 4.805271e-09 5.203312e-09 5.215978e-09 5.206906e-09 5.153564e-09 5.657389e-09 4.742181e-09 4.933979e-09 5.039373e-09
4.958979e-09 4.788797e-09 4.753241e-09 4.618475e-09 4.875073e-09 4.356667e-09 4.462782e-09 4.956363e-09 5.094789e-09 4.410232e-09
4.732686e-09 4.543123e-09 4.606995e-09 5.268216e-09 4.853005e-09 4.728950e-09 3.957601e-09 4.214036e-09 4.761731e-09 4.848900e-09
4.020153e-09 3.946057e-09 3.957836e-09 3.647856e-09 3.931423e-09 4.149860e-09 3.519942e-09 3.925977e-09 3.732470e-09 3.596569e-09
4.274704e-09 4.530624e-09 3.638192e-09 3.922990e-09 3.752913e-09 3.478105e-09 3.773990e-09 4.146119e-09 3.282374e-09 2.743081e-09
3.333701e-09 2.526053e-09 3.918712e-09 2.301932e-09 3.379174e-09 2.535829e-09 2.361491e-09 2.289771e-09 2.603385e-09 2.158514e-09
2.176585e-09 1.632587e-09 2.593997e-09 2.526755e-09 2.098922e-09 2.390072e-09 2.006705e-09 1.995591e-09 1.430079e-09 1.400563e-09
1.108852e-09 1.089675e-09 1.501665e-09 1.752533e-09 9.287049e-10 1.600755e-09 2.734297e-10 6.883579e-10 4.503017e-10 1.270660e-09
1.201277e-09 4.203381e-10 1.058110e-09 2.035361e-10 -4.261095e-10 5.435634e-10 5.820088e-10 7.995806e-11 2.748995e-10 9.504697e-10
-1.403758e-10 4.610022e-10 -4.226171e-10 -4.071341e-10 -1.181035e-09 -3.049465e-11 -6.684333e-10 -1.165653e-09 -6.814771e-10 4.340498e-11
-1.615468e-09 -5.357567e-10 -2.049327e-10 -4.267011e-10 -9.139778e-10 -5.052272e-10 -7.491819e-10 -1.997128e-09 -1.301190e-09 -1.586106e-09
-2.261777e-09 -1.076453e-09 -1.440674e-09 -2.163929e-09 -1.704940e-09 -2.063267e-09 -2.269807e-09 -2.650754e-09 -2.553187e-09 -1.916075e-09
-2.568990e-09 -2.642410e-09 -3.225194e-09 -2.325965e-09 -3.466040e-09 -3.102447e-09 -2.570696e-09 -3.598678e-09 -2.071897e-09 -3.626528e-09
-3.675029e-09 -3.160969e-09 -3.257367e-09 -3.426242e-09 -3.376441e-09 -3.632382e-09 -3.507284e-09 -4.013073e-09 -4.611443e-09 -4.281668e-09
-3.668938e-09 -3.784466e-09 -4.117612e-09 -4.766315e-09 -4.466677e-09 -4.507809e-09 -4.773362e-09 -4.004131e-09 -4.633140e-09 -4.352058e-09
-4.107967e-09 -4.534113e-09 -4.322793e-09 -4.184956e-09 -4.970691e-09 -4.329268e-09 -4.800523e-09 -4.546559e-09 -4.742658e-09 -4.289191e-09
-4.567058e-09 -4.580910e-09 -4.651660e-09 -4.866958e-09 -4.540576e-09 -5.216666e-09 -5.067622e-09 -4.451383e-09 -4.806087e-09 -4.765497e-09
-5.528660e-09 -4.432635e-09 -4.988514e-09 -4.834705e-09 -5.819194e-09 -5.284270e-09 -4.768263e-09 -5.030612e-09 -5.670441e-09 -5.337072e-09
-5.122061e-09 -5.222024e-09 -5.323761e-09 -5.375744e-09 -4.476000e-09 -4.644788e-09 -4.683645e-09 -4.714920e-09 -4.958677e-09 -5.002553e-09
-4.898812e-09 -5.034405e-09 -5.079821e-09 -4.982541e-09 -5.033154e-09 -5.248519e-09 -4.822928e-09 -4.599786e-09 -4.891267e-09 -4.477756e-09
-4.688869e-09 -4.647101e-09 -4.837022e-09 -5.075721e-09 -4.925251e-09 -4.975719e-09 -4.484532e-09 -4.589724e-09 -4.772607e-09 -4.482109e-09
-4.561771e-09 -4.511665e-09 -4.266656e-09 -3.776293e-09 -3.708835e-09 -4.173847e-09 -3.929236e-09 -3.978906e-09 -4.238375e-09 -4.483016e-09
-3.517943e-09 -3.224754e-09 -4.044197e-09 -3.710026e-09 -4.044477e-09 -3.276202e-09 -3.109095e-09 -3.179326e-09 -3.089801e-09 -2.696663e-09
-3.055330e-09 -2.943630e-09 -3.573577e-09 -2.646634e-09 -3.066370e-09 -3.250895e-09 -2.795107e-09 -3.145770e-09 -2.046965e-09 -2.599935e-09
-2.553458e-09 -2.321646e-09 -2.221199e-09 -2.472930e-09 -2.207273e-09 -1.927484e-09 -2.360963e-09 -2.501789e-09 -2.129913e-09 -1.957292e-09
-2.024575e-09 -1.752934e-09 -1.412740e-09 -1.406922e-09 -7.593088e-10 -1.692887e-09 -1.246440e-09 -1.293365e-09 -1.013437e-09 -7.505643e-10
-1.184178e-09 -7.167874e-10 -3.738424e-10 -4.775154e-10 -5.967153e-10 -1.032833e-09 2.905909e-11 -2.398079e-10 -1.190249e-10 1.321184e-10
-3.394637e-10
4.145848e-10 -2.355406e-10 9.257193e-10 5.191558e-10 7.023950e-11 6.617596e-10 8.621139e-10 -1.218653e-10 9.883410e-10 1.033202e-09
2.220712e-10 4.099477e-10 1.130773e-09 1.276742e-09 7.069723e-10 1.163893e-09 1.462504e-09 2.187815e-09 2.600842e-09 1.919096e-09
1.934683e-09 1.916873e-09 1.387336e-09 1.859738e-09 1.904099e-09 2.301428e-09 2.617808e-09 1.744824e-09 2.449522e-09 2.447985e-09
3.194930e-09 2.803535e-09 3.188645e-09 2.806104e-09 2.752195e-09 3.687955e-09 3.018160e-09 3.873079e-09 2.754208e-09 2.618699e-09
3.362235e-09 3.219571e-09 4.348304e-09 3.608766e-09 3.951250e-09 3.537855e-09 3.720514e-09 3.457379e-09 4.275650e-09 4.430399e-09
3.425422e-09 4.367944e-09 3.905974e-09 4.127508e-09 4.676020e-09 4.645049e-09 3.959645e-09 4.245384e-09 4.268687e-09 4.664459e-09
4.205502e-09 4.897335e-09 4.954024e-09 4.386246e-09 4.935686e-09 5.058314e-09 4.958650e-09 4.665784e-09 4.538576e-09 4.702799e-09
5.399605e-09 5.158645e-09 5.389725e-09 4.755660e-09 5.046387e-09 4.622020e-09 5.033624e-09 5.885322e-09 5.442930e-09 4.935079e-09
5.122727e-09 5.289670e-09 4.980664e-09 5.500226e-09 5.446203e-09 5.306538e-09 5.471005e-09 5.439379e-09 4.875421e-09 5.036805e-09
5.316648e-09 5.628155e-09 5.300211e-09 5.760240e-09 5.700574e-09 5.324178e-09 5.031527e-09 4.887701e-09 5.490254e-09 5.298448e-09
4.901121e-09 4.731120e-09 4.831852e-09 5.013531e-09 4.284665e-09 4.970307e-09 4.464546e-09 5.282381e-09 5.053964e-09 4.566308e-09
4.349501e-09 4.354422e-09 4.537489e-09 5.034765e-09 5.020887e-09 4.660020e-09 4.567642e-09 5.248278e-09 4.978306e-09 4.068598e-09
4.960120e-09 4.729796e-09 4.884560e-09 4.124837e-09 4.506229e-09 4.228513e-09 3.972713e-09 4.411622e-09 4.154827e-09 4.083210e-09
4.912118e-09 4.360903e-09 4.452584e-09 3.805127e-09 3.909738e-09 3.612938e-09 3.345604e-09 3.537843e-09 3.212712e-09 3.315066e-09
3.371868e-09 3.059629e-09 2.943538e-09 3.294629e-09 2.870060e-09 2.314157e-09 2.554542e-09 3.396397e-09 3.066691e-09 2.608841e-09
2.588356e-09 1.472837e-09 2.044842e-09 1.922994e-09 1.954562e-09 2.455794e-09 2.062511e-09 1.824349e-09 1.860510e-09 2.131747e-09
2.681627e-09 1.417159e-09 9.983402e-10 1.750511e-09 1.085206e-09 7.149550e-10 1.523593e-09 5.804583e-10 1.998234e-09 9.269848e-10
1.219329e-09 1.142977e-09 5.405989e-10 3.745720e-10 5.484764e-10 8.186596e-10 7.411864e-10 5.350711e-12 2.012726e-10 1.186932e-10
1.875725e-10 1.114528e-10 -1.342779e-10 -6.134752e-10 -3.372541e-10 -8.418717e-10 2.908086e-11 -7.393733e-10 -9.257731e-10 -7.718528e-10
-8.480927e-10 -5.498142e-10 -1.583222e-09 -7.125836e-10 -5.666254e-10 -1.407629e-09 -1.241524e-09 -1.365744e-09 -2.380930e-09 -2.110195e-09
-1.961266e-09 -1.999847e-09 -2.632188e-09 -1.719609e-09 -2.012105e-09 -2.914412e-09 -1.853051e-09 -2.336671e-09 -2.050405e-09 -1.847205e-09
-2.470631e-09 -2.261521e-09 -2.707849e-09 -3.072458e-09 -3.124660e-09 -3.062008e-09 -3.370075e-09 -2.975217e-09 -3.464711e-09 -3.676916e-09
-4.294619e-09 -3.856176e-09 -4.048081e-09 -4.034295e-09 -3.500627e-09 -4.217320e-09 -4.195977e-09 -3.773001e-09 -4.664680e-09 -4.336327e-09
-4.075005e-09 -4.082478e-09 -4.578289e-09 -3.995865e-09 -4.488980e-09 -4.034149e-09 -4.169083e-09 -4.379039e-09 -4.487583e-09 -4.561728e-09
-4.872144e-09 -4.408336e-09 -4.514563e-09 -4.714670e-09 -5.184142e-09 -4.832570e-09 -5.171886e-09 -4.916805e-09 -5.246032e-09 -6.021036e-09
-4.922070e-09 -4.994124e-09 -5.787010e-09 -5.110861e-09 -5.242497e-09 -4.790496e-09 -5.100689e-09 -5.427923e-09 -4.711588e-09 -4.854769e-09
-5.819111e-09 -6.029021e-09 -4.975362e-09 -5.024992e-09 -5.282413e-09 -5.442537e-09 -5.381947e-09 -5.094215e-09 -5.518626e-09 -5.508214e-09
-5.428650e-09 -5.253293e-09 -5.687946e-09 -5.922141e-09 -6.039613e-09 -5.764678e-09 -5.459882e-09 -5.491345e-09 -4.895601e-09 -5.069394e-09
-5.217405e-09 -5.307591e-09 -5.718352e-09 -5.278116e-09 -5.428359e-09 -4.736299e-09 -4.618333e-09 -4.775874e-09 -5.152053e-09 -5.201414e-09
-5.615946e-09 -4.941633e-09 -5.196263e-09 -5.129162e-09 -5.050980e-09 -5.351104e-09 -4.970741e-09 -5.453058e-09 -4.657074e-09 -5.114574e-09
-5.049809e-09 -5.317594e-09 -4.404949e-09 -5.036470e-09 -4.028946e-09 -4.205660e-09 -4.992785e-09 -4.961188e-09 -3.643300e-09 -4.574469e-09
-4.006094e-09 -4.145937e-09 -4.255388e-09 -4.200607e-09 -3.992600e-09 -4.111319e-09 -3.541387e-09 -3.475009e-09 -3.544829e-09 -4.088252e-09
-3.216212e-09 -3.163814e-09 -3.282846e-09 -2.950619e-09 -3.888382e-09 -2.424182e-09 -2.944059e-09 -3.030948e-09 -2.958626e-09 -2.449751e-09
-2.582794e-09 -2.439231e-09 -2.717871e-09 -2.437851e-09 -2.646223e-09 -2.206565e-09 -2.455602e-09 -2.116159e-09 -1.978658e-09 -2.466814e-09
-1.791754e-09 -1.814951e-09 -1.701136e-09 -1.984763e-09 -1.685073e-09 -1.729302e-09 -2.082286e-09 -7.344398e-10 -1.221597e-09 -1.214247e-09
-7.667244e-10 -5.742737e-10 -5.575300e-10 -2.523794e-10 -1.092048e-09 -9.281670e-10 -1.083455e-09 1.034067e-10 -4.712473e-10 2.766011e-10
4.145848e-10
5.612487e-10 6.769331e-10 2.859327e-10 9.143906e-10 4.855976e-10 1.153787e-09 1.496680e-09 4.989281e-10 4.025628e-10 4.117716e-10
9.828399e-10 5.747799e-10 1.673456e-09 9.486453e-10 9.300625e-10 2.343388e-09 1.698602e-09 1.272038e-09 1.986654e-09 1.993264e-09
1.577268e-09 1.988374e-09 2.405102e-09 2.119059e-09 2.137629e-09 2.174916e-09 2.237263e-09 3.145661e-09 2.895568e-09 2.528238e-09
3.254075e-09 3.210203e-09 2.836354e-09 2.774419e-09 3.392172e-09 3.187184e-09 3.006111e-09 4.044293e-09 3.863618e-09 3.768553e-09
3.263364e-09 3.795163e-09 4.274980e-09 4.562545e-09 4.006104e-09 4.012056e-09 4.522137e-09 4.559871e-09 3.882241e-09 4.405884e-09
5.196740e-09 5.098749e-09 4.236857e-09 4.805897e-09 4.502990e-09 4.907941e-09 4.852798e-09 4.865944e-09 5.138113e-09 4.739884e-09
4.373689e-09 5.269901e-09 4.764477e-09 5.274055e-09 5.260946e-09 5.344846e-09 5.047923e-09 5.086406e-09 5.056298e-09 5.480989e-09
5.826953e-09 5.754407e-09 5.625793e-09 5.647845e-09 6.394350e-09 4.907911e-09 5.261921e-09 4.999338e-09 5.312923e-09 5.168340e-09
5.405727e-09 5.664825e-09 5.304901e-09 5.675224e-09 5.680981e-09 5.505925e-09 5.865139e-09 6.058603e-09 5.497849e-09 5.295602e-09
5.301810e-09 5.499619e-09 5.969609e-09 5.390812e-09 5.307699e-09 6.224509e-09 5.435644e-09 5.412114e-09 6.078449e-09 5.294601e-09
5.704436e-09 5.953080e-09 6.057478e-09 5.822964e-09 5.444462e-09 5.864848e-09 5.468344e-09 4.547163e-09 5.711437e-09 5.542539e-09
5.465379e-09 4.997946e-09 5.520961e-09 5.237949e-09 5.138832e-09 5.981813e-09 5.138526e-09 4.916404e-09 5.140579e-09 4.725152e-09
4.926758e-09 4.856526e-09 5.216515e-09 4.910969e-09 4.978973e-09 4.962885e-09 5.047412e-09 4.037412e-09 4.329458e-09 4.069694e-09
4.637486e-09 3.893769e-09 4.449187e-09 3.672200e-09 3.968840e-09 4.205785e-09 4.232973e-09 3.996764e-09 4.115112e-09 4.043457e-09
3.769958e-09 3.661634e-09 3.282151e-09 3.494885e-09 3.344108e-09 2.844198e-09 3.611073e-09 3.104773e-09 2.775174e-09 2.753391e-09
2.356108e-09 2.314469e-09 2.716379e-09 2.158805e-09 2.691035e-09 1.790248e-09 2.149444e-09 2.052162e-09 2.570554e-09 1.064646e-09
2.332214e-09 1.380771e-09 1.729268e-09 9.963861e-10 5.903542e-10 1.091618e-09 1.624573e-09 1.544844e-09 1.635519e-09 8.999638e-10
1.312511e-10 4.835088e-10 1.986248e-09 7.898990e-10 -1.221837e-10 1.479083e-10 6.261930e-10 2.567906e-10 -1.752583e-10 9.110077e-11
3.411778e-10 3.236759e-10 -2.539337e-10 9.478465e-11 -5.781659e-10 -3.166140e-10 -4.036680e-10 -8.317456e-10 -4.673116e-10 -9.619301e-10
-8.665813e-10 -5.541669e-10 -1.865404e-09 -8.476370e-10 -1.670150e-09 -1.962018e-09 -1.487741e-09 -1.682723e-09 -1.154446e-09 -2.131839e-09
-1.618718e-09 -1.788373e-09 -2.293163e-09 -2.376659e-09 -2.568113e-09 -1.908733e-09 -2.894683e-09 -2.602503e-09 -2.473293e-09 -3.081079e-09
-2.216963e-09 -2.238050e-09 -3.940783e-09 -4.234832e-09 -3.400416e-09 -3.074428e-09 -3.450862e-09 -3.368529e-09 -3.177075e-09 -3.872386e-09
-3.361983e-09 -4.502123e-09 -3.770740e-09 -3.726526e-09 -4.564698e-09 -3.587546e-09 -4.764209e-09 -4.119750e-09 -4.481588e-09 -4.246802e-09
-4.469529e-09 -4.644172e-09 -4.267894e-09 -4.759523e-09 -4.786958e-09 -4.928567e-09 -5.236641e-09 -4.817823e-09 -4.956456e-09 -5.154441e-09
-4.904105e-09 -5.040744e-09 -5.929504e-09 -5.367029e-09 -5.266473e-09 -5.010650e-09 -5.723443e-09 -4.900720e-09 -5.922054e-09 -5.147526e-09
-5.620482e-09 -5.382407e-09 -5.367802e-09 -5.461979e-09 -5.574714e-09 -5.444901e-09 -5.822727e-09 -5.434006e-09 -5.746469e-09 -5.456312e-09
-5.894373e-09 -5.854034e-09 -5.923912e-09 -5.434373e-09 -5.793573e-09 -5.666646e-09 -6.190127e-09 -5.597390e-09 -5.801779e-09 -5.938438e-09
-5.472117e-09 -6.359921e-09 -5.300560e-09 -5.371724e-09 -6.433047e-09 -5.477941e-09 -5.858940e-09 -6.089377e-09 -5.791944e-09 -5.848519e-09
-5.807264e-09 -5.580828e-09 -5.950710e-09 -5.775135e-09 -5.887807e-09 -5.807371e-09 -5.109524e-09 -5.754848e-09 -5.275092e-09 -5.207458e-09
-5.176918e-09 -5.124902e-09 -5.190664e-09 -5.016326e-09 -5.685317e-09 -5.651336e-09 -5.136576e-09 -5.642222e-09 -5.099600e-09 -4.976876e-09
-4.955751e-09 -5.736748e-09 -4.843651e-09 -4.551282e-09 -5.390429e-09 -4.605328e-09 -4.506349e-09 -4.585929e-09 -4.351029e-09 -4.119241e-09
-4.900239e-09 -3.700987e-09 -3.642890e-09 -4.379843e-09 -4.080234e-09 -3.965516e-09 -3.991472e-09 -4.119296e-09 -3.622661e-09 -4.202466e-09
-3.585625e-09 -3.785032e-09 -3.446362e-09 -4.090283e-09 -2.727569e-09 -3.562323e-09 -2.949948e-09 -3.089211e-09 -3.044287e-09 -3.167022e-09
-3.410285e-09 -2.768686e-09 -2.865919e-09 -3.144207e-09 -3.011734e-09 -2.878836e-09 -2.533801e-09 -2.437263e-09 -1.272344e-09 -2.140212e-09
-1.662534e-09 -1.451264e-09 -2.030714e-09 -1.894538e-09 -1.510376e-09 -2.093197e-09 -1.355741e-09 -1.813892e-09 -4.907110e-10 -1.371292e-09
-1.586206e-09 -6.195732e-10 -1.718521e-10 -5.226252e-10 -1.633502e-09 3.003617e-10 -3.220626e-11 -7.932733e-10 1.713756e-10 -3.647762e-10
5.612487e-10
5.638670e-10 7.056410e-10 3.194294e-10 1.047629e-09 1.016549e-09 1.393701e-10 4.593290e-10 9.774751e-11 1.056301e-09 1.173020e-09
8.068854e-10 1.431978e-09 7.573727e-10 1.369995e-09 1.910808e-09 1.573046e-09 1.527651e-09 1.591962e-09 2.315563e-09 2.029119e-09
1.904930e-09 2.742758e-09 2.535199e-09 2.912137e-09 3.037983e-09 2.537127e-09 3.045402e-09 3.093371e-09 2.710931e-09 3.053400e-09
3.094335e-09 3.323865e-09 3.816659e-09 2.373772e-09 2.498886e-09 3.398267e-09 3.470219e-09 4.171050e-09 3.344586e-09 3.695480e-09
4.046498e-09 3.697467e-09 4.272385e-09 3.840905e-09 4.213548e-09 4.697770e-09 4.835654e-09 4.023948e-09 4.344246e-09 4.501836e-09
5.082050e-09 4.633192e-09 4.872630e-09 4.556297e-09 4.891171e-09 5.459802e-09 5.087094e-09 4.878360e-09 4.971141e-09 5.559603e-09
5.734350e-09 5.773844e-09 5.592232e-09 5.890514e-09 5.166330e-09 5.345779e-09 5.748733e-09 5.671837e-09 6.216947e-09 5.434574e-09
5.247021e-09 6.277411e-09 5.883930e-09 5.772405e-09 5.985061e-09 5.352685e-09 5.396552e-09 6.490922e-09 5.452441e-09 5.942120e-09
5.951899e-09 5.780406e-09 5.817747e-09 5.868342e-09 6.125020e-09 6.165717e-09 5.941743e-09 5.740455e-09 5.550061e-09 5.912374e-09
6.851039e-09 5.624262e-09 5.634252e-09 6.249869e-09 5.889058e-09 5.658087e-09 5.583309e-09 5.874732e-09 6.798421e-09 5.330648e-09
5.663444e-09 5.797239e-09 6.206356e-09 6.003830e-09 5.750473e-09 6.069095e-09 5.537219e-09 5.307360e-09 4.846633e-09 5.332173e-09
4.931322e-09 5.469654e-09 5.189722e-09 5.628195e-09 5.379297e-09 5.071919e-09 5.292694e-09 5.427168e-09 5.622088e-09 5.202466e-09
5.276250e-09 6.022739e-09 5.077906e-09 4.649702e-09 4.934320e-09 4.662418e-09 4.806433e-09 5.269657e-09 4.921449e-09 4.446713e-09
4.393899e-09 4.516889e-09 4.232918e-09 4.206758e-09 3.673121e-09 3.809371e-09 4.277264e-09 3.835313e-09 4.020238e-09 4.390408e-09
3.404314e-09 3.789494e-09 3.091262e-09 3.473430e-09 3.218894e-09 3.762390e-09 3.518327e-09 3.239487e-09 2.782185e-09 3.181603e-09
3.110826e-09 2.828522e-09 2.857349e-09 3.179112e-09 1.954641e-09 2.436226e-09 1.816797e-09 2.448726e-09 2.517093e-09 2.183878e-09
1.791617e-09 1.225446e-09 1.416117e-09 1.882005e-09 7.423812e-10 1.520575e-09 9.799680e-10 1.519099e-09 1.169854e-09 5.674886e-11
1.059677e-09 5.554894e-10 3.856761e-10 5.268825e-10 8.378430e-10 1.948437e-10 2.126774e-10 -2.179840e-10 4.763257e-10 6.495348e-10
-2.585374e-10 -3.244121e-10 -5.710915e-10 -6.183347e-10 -3.296908e-10 1.880305e-10 -1.133925e-09 -9.774811e-10 -3.237940e-10 -3.904741e-10
-1.659274e-09 -1.676284e-09 -1.278896e-09 -1.178380e-09 -1.019845e-09 -1.674234e-09 -1.794200e-09 -2.063326e-09 -1.556260e-09 -1.431992e-09
-2.350427e-09 -1.450807e-09 -1.856887e-09 -2.500514e-09 -2.413902e-09 -2.601321e-09 -2.369939e-09 -2.553671e-09 -2.766578e-09 -3.024445e-09
-2.551437e-09 -3.026109e-09 -2.710745e-09 -3.585394e-09 -2.248899e-09 -3.678228e-09 -3.401667e-09 -3.789238e-09 -3.762166e-09 -5.396564e-09
-4.368572e-09 -3.348612e-09 -4.109042e-09 -4.172004e-09 -4.314522e-09 -4.162298e-09 -4.999534e-09 -4.179094e-09 -5.247641e-09 -5.484823e-09
-4.864775e-09 -5.164939e-09 -4.812769e-09 -5.250492e-09 -4.952113e-09 -5.008581e-09 -5.313883e-09 -5.489907e-09 -5.188776e-09 -4.959284e-09
-5.747578e-09 -5.162590e-09 -4.945468e-09 -5.181037e-09 -5.307092e-09 -5.922149e-09 -4.936012e-09 -5.452707e-09 -5.549064e-09 -5.857953e-09
-5.387890e-09 -6.116090e-09 -5.633496e-09 -5.547337e-09 -5.998371e-09 -5.941668e-09 -5.826274e-09 -5.953962e-09 -5.843333e-09 -5.667266e-09
-5.966295e-09 -6.020243e-09 -6.614852e-09 -5.521130e-09 -5.875298e-09 -5.277758e-09 -5.756048e-09 -5.705756e-09 -6.240452e-09 -5.772437e-09
-5.809878e-09 -6.160317e-09 -6.049806e-09 -5.346867e-09 -6.459069e-09 -6.564796e-09 -5.991827e-09 -6.179659e-09 -6.629392e-09 -6.254316e-09
-5.885866e-09 -5.864749e-09 -6.118972e-09 -6.561899e-09 -5.805646e-09 -6.165820e-09 -5.707696e-09 -5.671239e-09 -6.141307e-09 -6.227664e-09
-5.507994e-09 -5.654305e-09 -5.364553e-09 -5.698278e-09 -6.004463e-09 -5.738916e-09 -4.826165e-09 -5.091863e-09 -5.402370e-09 -5.027238e-09
-5.339257e-09 -5.579364e-09 -5.469726e-09 -5.388237e-09 -5.359718e-09 -5.043058e-09 -4.694424e-09 -4.766697e-09 -4.626967e-09 -4.553721e-09
-5.158843e-09 -4.540173e-09 -4.812862e-09 -4.234502e-09 -4.193079e-09 -4.042634e-09 -4.373243e-09 -3.781577e-09 -4.122368e-09 -3.330298e-09
-4.200715e-09 -4.309920e-09 -3.539999e-09 -3.357869e-09 -3.389245e-09 -3.405907e-09 -3.973064e-09 -3.417916e-09 -3.426784e-09 -3.391536e-09
-3.846617e-09 -2.449067e-09 -3.216450e-09 -3.918007e-09 -2.184096e-09 -2.943061e-09 -2.345020e-09 -2.460479e-09 -1.703535e-09 -2.212888e-09
-2.007926e-09 -1.740148e-09 -2.074076e-09 -2.135158e-09 -1.496291e-09 -2.131603e-09 -1.721714e-09 -1.238314e-09 -6.940644e-10 -8.968857e-10
-1.080430e-09 -9.827520e-10 -1.055013e-09 -7.934570e-10 -8.230944e-10 -8.453844e-10 -1.180052e-09 -3.064421e-10 -2.685844e-11 5.911285e-10
5.638670e-10
-5.965413e-10 2.024008e-10 3.062032e-10 1.025236e-09 7.187542e-10 7.111982e-10 8.074435e-10 6.632447e-10 1.520603e-09 1.703037e-09
1.441120e-09 2.031081e-09 1.037007e-09 1.854860e-09 1.001088e-09 1.967720e-09 1.969651e-09 1.659853e-09 2.311199e-09 2.223161e-09
2.235119e-09 3.543057e-09 2.460112e-09 2.081920e-09 3.176297e-09 2.806142e-09 2.321640e-09 2.701443e-09 2.823748e-09 2.765855e-09
3.042668e-09 3.871399e-09 3.086845e-09 3.498132e-09 4.065563e-09 3.400436e-09 3.757983e-09 3.862759e-09 3.573977e-09 3.526891e-09
3.822694e-09 5.012045e-09 3.921439e-09 4.282070e-09 5.053568e-09 4.121921e-09 4.931985e-09 4.736069e-09 4.532030e-09 4.887435e-09
5.344498e-09 4.865763e-09 5.048803e-09 5.213824e-09 5.123417e-09 5.579011e-09 5.484493e-09 5.014824e-09 5.648195e-09 5.024077e-09
5.466854e-09 5.152059e-09 5.549474e-09 6.055747e-09 5.432403e-09 5.567988e-09 5.843342e-09 5.868787e-09 6.273450e-09 5.763802e-09
5.726948e-09 6.094767e-09 5.893600e-09 6.136543e-09 5.927831e-09 5.781757e-09 5.690523e-09 6.246455e-09 6.326923e-09 6.202650e-09
6.606348e-09 6.113864e-09 5.967227e-09 6.819013e-09 6.543805e-09 6.099518e-09 6.318165e-09 6.480116e-09 7.389902e-09 6.455973e-09
6.533712e-09 6.200962e-09 6.089456e-09 6.268934e-09 6.189235e-09 5.807266e-09 6.491876e-09 6.452058e-09 6.454517e-09 6.526557e-09
6.014109e-09 6.030181e-09 6.298178e-09 6.576567e-09 5.912438e-09 6.367099e-09 5.998885e-09 6.301353e-09 6.045186e-09 5.768912e-09
5.789820e-09 5.918379e-09 6.244276e-09 5.488549e-09 6.165708e-09 5.793494e-09 5.195950e-09 5.789189e-09 5.927058e-09 5.356500e-09
5.059612e-09 5.269542e-09 5.403014e-09 5.800014e-09 5.851832e-09 5.178286e-09 4.989833e-09 5.469200e-09 5.595227e-09 5.083492e-09
4.874033e-09 4.671397e-09 5.241701e-09 4.968506e-09 4.259894e-09 4.548993e-09 4.146359e-09 4.474947e-09 4.261336e-09 4.802729e-09
3.598143e-09 4.732006e-09 3.426695e-09 3.833885e-09 3.629645e-09 3.781475e-09 3.513088e-09 3.198467e-09 3.716679e-09 3.088789e-09
3.178614e-09 3.595458e-09 2.894110e-09 2.677861e-09 3.010105e-09 2.579882e-09 1.991890e-09 1.552641e-09 1.579782e-09 1.770262e-09
1.383709e-09 2.758529e-09 2.858395e-09 1.713621e-09 9.376516e-10 1.236568e-09 9.470733e-10 1.277971e-09 7.479484e-10 7.681817e-10
1.353411e-09 2.117874e-10 6.705225e-10 6.925691e-10 4.687992e-10 -2.764405e-10 5.306643e-10 -5.050769e-10 -2.055588e-10 -2.955223e-10
7.662768e-11 7.016325e-10 -2.304072e-10 -1.005161e-09 -2.988219e-10 -6.825795e-10 -6.106427e-10 -5.762023e-10 -1.248048e-09 -6.613884e-10
-8.458721e-10 -1.534506e-09 -1.569095e-09 -2.176337e-09 -5.717973e-10 -1.543763e-09 -1.655217e-09 -1.317098e-09 -1.704878e-09 -2.377988e-09
-2.363512e-09 -2.704879e-09 -2.211988e-09 -2.049698e-09 -3.348869e-09 -2.658412e-09 -2.720648e-09 -2.467405e-09 -2.790626e-09 -3.721256e-09
-3.022901e-09 -3.277267e-09 -2.977240e-09 -4.377094e-09 -3.661427e-09 -3.953978e-09 -3.742212e-09 -3.758777e-09 -3.508313e-09 -3.950355e-09
-4.332875e-09 -4.010944e-09 -3.923524e-09 -4.718959e-09 -4.502253e-09 -3.929822e-09 -4.858370e-09 -4.885494e-09 -4.222374e-09 -4.711378e-09
-5.155806e-09 -4.939200e-09 -5.042958e-09 -4.993087e-09 -5.324722e-09 -5.800452e-09 -5.114033e-09 -5.749615e-09 -5.519812e-09 -5.115936e-09
-6.018464e-09 -5.475981e-09 -5.878839e-09 -5.600548e-09 -5.154388e-09 -5.799693e-09 -5.717284e-09 -6.010677e-09 -5.514190e-09 -6.268011e-09
-6.607221e-09 -5.715710e-09 -6.414725e-09 -6.360516e-09 -6.705880e-09 -5.956153e-09 -6.450255e-09 -6.220897e-09 -5.732206e-09 -6.818455e-09
-6.671285e-09 -6.334906e-09 -6.302685e-09 -6.185441e-09 -6.204052e-09 -6.376763e-09 -6.694572e-09 -6.277951e-09 -6.663968e-09 -6.104223e-09
-7.505316e-09 -6.189705e-09 -6.576776e-09 -6.027490e-09 -6.227675e-09 -7.078324e-09 -6.176852e-09 -6.722466e-09 -6.648633e-09 -6.717675e-09
-5.908880e-09 -5.838986e-09 -6.317137e-09 -6.751080e-09 -5.814524e-09 -6.079556e-09 -6.816303e-09 -5.352152e-09 -5.984749e-09 -5.849044e-09
-5.638640e-09 -6.492761e-09 -5.987812e-09 -6.119893e-09 -6.628071e-09 -5.863499e-09 -5.611444e-09 -6.098464e-09 -6.346978e-09 -5.959611e-09
-5.831868e-09 -5.262059e-09 -5.216103e-09 -5.774238e-09 -5.115508e-09 -4.788243e-09 -4.960945e-09 -4.978675e-09 -5.187326e-09 -5.359587e-09
-5.486034e-09 -4.411363e-09 -4.861150e-09 -4.517920e-09 -4.454067e-09 -4.917279e-09 -4.554275e-09 -5.168948e-09 -4.130927e-09 -4.765663e-09
-4.768658e-09 -4.207901e-09 -4.117423e-09 -3.601844e-09 -3.647599e-09 -3.036853e-09 -4.684864e-09 -2.986162e-09 -2.817284e-09 -3.465918e-09
-3.780373e-09 -3.230608e-09 -2.704935e-09 -2.845578e-09 -3.153063e-09 -3.025217e-09 -2.650928e-09 -2.770820e-09 -2.873420e-09 -1.766453e-09
-2.052124e-09 -2.172134e-09 -1.960977e-09 -1.895350e-09 -1.994781e-09 -1.286413e-09 -1.156157e-09 -1.047391e-09 -1.126251e-09 -1.487123e-09
-7.540368e-10 -6.412819e-10 -9.948514e-10 -6.855455e-10 -7.515590e-10 -2.303703e-10 -5.829217e-10 7.845419e-10 -2.733809e-11 -2.634406e-10
-5.965413e-10
2.953815e-10 4.534931e-10 1.031497e-09 4.222991e-10 3.118999e-10 5.044400e-10 1.232236e-09 8.608053e-10 7.721995e-10 4.183812e-10
8.716549e-10 2.218595e-09 1.202855e-09 1.714107e-09 2.081179e-09 2.158820e-09 9.195026e-10 2.518669e-09 2.844201e-09 1.709838e-09
2.819139e-09 2.532398e-09 2.607220e-09 2.629246e-09 3.489783e-09 3.193890e-09 2.829353e-09 2.856472e-09 3.476937e-09 2.768978e-09
3.682453e-09 3.683833e-09 3.723875e-09 4.398084e-09 3.934122e-09 3.702528e-09 3.890086e-09 4.324678e-09 3.980229e-09 4.287448e-09
4.425039e-09 4.926295e-09 3.930268e-09 4.397335e-09 4.505951e-09 4.568198e-09 5.457314e-09 4.952785e-09 5.122281e-09 5.102493e-09
5.486938e-09 5.706083e-09 5.419573e-09 5.317873e-09 5.588221e-09 5.255202e-09 6.602096e-09 5.574047e-09 5.854354e-09 6.107509e-09
6.131310e-09 5.915951e-09 6.179070e-09 6.315667e-09 5.909455e-09 6.514306e-09 5.786807e-09 5.702179e-09 6.488488e-09 6.179322e-09
6.098568e-09 6.170081e-09 6.038171e-09 7.178771e-09 6.083278e-09 6.386607e-09 6.260514e-09 6.754286e-09 7.123733e-09 6.374524e-09
6.223960e-09 6.511402e-09 7.218362e-09 6.564350e-09 6.088064e-09 6.111978e-09 6.484839e-09 6.445272e-09 6.270894e-09 6.192329e-09
7.033770e-09 6.921942e-09 7.000266e-09 7.001753e-09 6.379383e-09 6.260629e-09 6.605637e-09 6.806838e-09 6.971030e-09 6.454339e-09
6.571117e-09 6.292578e-09 6.440441e-09 6.218794e-09 6.139042e-09 5.889136e-09 6.144127e-09 6.512488e-09 6.476850e-09 5.931923e-09
6.339990e-09 6.339867e-09 5.783797e-09 5.955036e-09 6.358364e-09 5.912787e-09 6.377558e-09 5.429136e-09 5.395248e-09 5.345383e-09
6.282625e-09 5.614116e-09 5.293559e-09 4.964939e-09 5.174529e-09 6.304463e-09 5.177455e-09 5.036780e-09 5.261548e-09 5.036120e-09
4.795803e-09 4.917214e-09 4.719966e-09 5.199531e-09 4.715088e-09 4.821370e-09 4.512760e-09 4.500404e-09 5.173067e-09 4.089188e-09
4.715837e-09 4.214185e-09 4.030023e-09 3.218864e-09 3.405352e-09 4.479090e-09 4.156132e-09 3.351744e-09 3.444291e-09 2.917598e-09
3.666747e-09 3.019141e-09 3.074460e-09 2.629706e-09 2.715107e-09 2.155210e-09 3.235858e-09 3.171101e-09 2.123803e-09 2.396564e-09
2.017559e-09 2.271736e-09 1.601158e-09 1.160682e-09 1.021977e-09 1.551018e-09 1.923413e-09 1.212659e-09 9.719404e-10 1.190064e-09
1.044817e-09 1.119863e-09 4.609547e-10 2.109391e-10 8.696118e-10 7.195989e-10 9.639592e-10 2.480706e-10 -4.046196e-10 8.394713e-10
5.430851e-10 6.416085e-10 2.324579e-11 -3.303201e-10 -7.442739e-10 -7.618035e-10 -7.316487e-10 -8.041945e-10 -1.258543e-09 -7.920246e-10
-9.912516e-10 -1.718739e-09 -1.690450e-09 -1.421239e-09 -1.559490e-09 -1.486141e-09 -1.462320e-09 -1.368941e-09 -2.267404e-09 -1.552472e-09
-1.898806e-09 -2.539496e-09 -2.526719e-09 -2.342928e-09 -2.463518e-09 -2.814734e-09 -3.060469e-09 -3.280182e-09 -3.197674e-09 -3.318538e-09
-3.974378e-09 -3.703084e-09 -3.901135e-09 -4.426670e-09 -3.032081e-09 -4.100429e-09 -3.839122e-09 -4.270270e-09 -4.162051e-09 -4.193915e-09
-4.497888e-09 -4.777637e-09 -4.012872e-09 -4.112574e-09 -4.799633e-09 -4.288268e-09 -5.177083e-09 -5.028876e-09 -5.481807e-09 -5.106878e-09
-4.356831e-09 -5.335239e-09 -5.612881e-09 -5.353508e-09 -5.708605e-09 -5.851317e-09 -5.631787e-09 -5.781390e-09 -5.887438e-09 -5.958435e-09
-6.466950e-09 -5.092181e-09 -5.579066e-09 -6.451106e-09 -6.070591e-09 -5.421930e-09 -6.256572e-09 -6.177387e-09 -6.168972e-09 -6.525800e-09
-6.776673e-09 -6.468791e-09 -6.146397e-09 -6.059292e-09 -6.601125e-09 -6.553095e-09 -6.374319e-09 -6.410232e-09 -6.281838e-09 -6.316897e-09
-6.399536e-09 -6.488072e-09 -6.418626e-09 -6.465124e-09 -6.729632e-09 -6.853730e-09 -6.452744e-09 -6.495311e-09 -6.833089e-09 -7.059420e-09
-7.146632e-09 -6.594617e-09 -7.334946e-09 -7.075743e-09 -6.765660e-09 -7.000887e-09 -6.590444e-09 -6.504715e-09 -6.364115e-09 -6.308066e-09
-6.977966e-09 -6.790476e-09 -6.635235e-09 -6.857396e-09 -6.286674e-09 -5.952470e-09 -6.461417e-09 -6.373128e-09 -5.916361e-09 -5.856269e-09
-6.508837e-09 -6.215178e-09 -7.120459e-09 -5.840846e-09 -6.967633e-09 -6.279328e-09 -5.855100e-09 -6.241053e-09 -6.538698e-09 -5.320771e-09
-6.187156e-09 -6.101979e-09 -5.666931e-09 -5.759758e-09 -5.656107e-09 -5.500431e-09 -5.419816e-09 -5.176197e-09 -5.784187e-09 -5.213499e-09
-5.963446e-09 -4.753368e-09 -4.714356e-09 -4.897044e-09 -4.936282e-09 -4.675702e-09 -5.173930e-09 -4.680901e-09 -4.619226e-09 -4.173962e-09
-4.241435e-09 -4.298882e-09 -4.328368e-09 -4.141898e-09 -3.800580e-09 -3.691844e-09 -4.439305e-09 -2.983513e-09 -3.627560e-09 -3.468279e-09
-3.305052e-09 -2.975762e-09 -3.962165e-09 -3.558074e-09 -2.628497e-09 -2.636261e-09 -2.368457e-09 -2.858848e-09 -2.541772e-09 -3.052251e-09
-2.723491e-09 -2.424082e-09 -1.453158e-09 -1.421862e-09 -1.214118e-09 -1.190282e-09 -1.934017e-09 -1.933033e-09 -6.670324e-10 -1.365691e-09
-8.152027e-10 -2.612610e-10 -7.322126e-10 -1.072593e-09 -8.525978e-10 -1.359489e-09 -1.377534e-10 4.411278e-10 -8.462361e-11 1.670511e-11
2.953815e-10
7.533914e-10 1.077164e-09 6.944417e-10 1.804262e-11 5.732133e-10 9.994466e-10 5.546801e-10 5.209176e-10 1.673991e-09 1.527590e-09
1.436840e-09 1.801535e-09 1.345977e-09 1.394675e-09 2.045086e-09 1.618276e-09 2.103932e-09 1.373362e-09 2.358331e-09 2.231290e-09
2.109965e-09 2.167496e-09 3.413665e-09 3.233593e-09 2.665256e-09 2.430378e-09 2.810382e-09 3.268043e-09 3.380435e-09 3.980468e-09
4.090673e-09 3.866949e-09 3.807460e-09 4.080251e-09 3.721241e-09 4.081727e-09 4.344662e-09 4.256194e-09 4.293734e-09 4.404475e-09
4.433853e-09 4.661409e-09 4.958786e-09 5.102820e-09 5.047061e-09 5.707898e-09 4.697592e-09 4.695412e-09 4.924332e-09 5.900740e-09
5.346890e-09 5.659436e-09 5.547472e-09 5.788062e-09 5.296055e-09 5.603603e-09 6.006094e-09 6.045761e-09 6.067021e-09 6.742550e-09
6.726342e-09 5.912865e-09 6.623631e-09 6.373307e-09 6.368723e-09 6.824812e-09 6.773929e-09 6.502348e-09 6.145074e-09 6.384591e-09
7.044557e-09 6.776693e-09 6.571665e-09 7.069764e-09 6.623908e-09 6.805311e-09 6.707481e-09 6.404450e-09 6.289183e-09 6.953063e-09
6.379919e-09 6.989353e-09 6.575315e-09 6.821924e-09 6.625901e-09 7.082235e-09 6.918589e-09 6.578372e-09 6.740714e-09 6.694815e-09
6.718397e-09 6.640759e-09 7.117038e-09 6.387154e-09 7.249329e-09 6.810394e-09 6.632924e-09 6.780080e-09 7.055172e-09 6.721780e-09
6.337206e-09 6.768602e-09 6.668429e-09 6.770057e-09 7.114715e-09 6.397707e-09 7.194224e-09 6.947515e-09 6.625223e-09 6.480022e-09
6.793909e-09 7.038823e-09 7.056039e-09 6.848387e-09 6.904242e-09 6.347186e-09 5.781405e-09 6.525452e-09 6.036473e-09 6.670048e-09
5.939715e-09 5.891918e-09 5.939848e-09 5.951568e-09 5.807152e-09 5.493211e-09 5.782498e-09 5.721867e-09 5.978343e-09 5.362149e-09
5.359008e-09 5.775294e-09 5.306891e-09 4.694035e-09 4.851678e-09 4.426067e-09 4.365036e-09 4.575764e-09 4.379074e-09 5.027344e-09
4.140741e-09 4.882219e-09 3.960316e-09 4.943885e-09 4.128088e-09 3.430676e-09 3.668680e-09 3.357532e-09 3.699573e-09 4.153880e-09
3.240575e-09 3.591428e-09 3.123700e-09 3.099485e-09 2.407380e-09 2.502354e-09 2.735171e-09 2.900547e-09 3.451652e-09 2.347082e-09
1.302978e-09 1.561465e-09 2.715226e-09 2.457005e-09 1.198547e-09 1.616487e-09 1.634032e-09 1.137972e-09 1.089170e-09 7.640928e-10
1.103715e-09 6.555903e-10 1.081517e-09 9.224519e-10 1.214361e-09 1.227344e-09 -4.890712e-10 5.780297e-10 -2.035042e-10 -6.520428e-10
-1.964453e-10 8.076944e-11 -2.368357e-10 -4.343641e-10 2.630298e-11 -1.473858e-10 -8.228638e-10 -8.937388e-10 -6.701550e-10 -1.037517e-09
-1.647961e-09 -1.620384e-09 -1.115224e-09 -1.512552e-09 -1.624825e-09 -1.862987e-09 -2.308660e-09 -1.664584e-09 -2.542880e-09 -1.522923e-09
-2.757184e-09 -2.726307e-09 -2.259237e-09 -2.281443e-09 -3.569872e-09 -3.051176e-09 -2.955084e-09 -3.628650e-09 -3.391080e-09 -2.791668e-09
-4.318016e-09 -3.355654e-09 -3.683994e-09 -3.766717e-09 -4.174076e-09 -4.182781e-09 -4.139879e-09 -4.373562e-09 -4.624413e-09 -5.037661e-09
-4.289963e-09 -4.132475e-09 -4.360615e-09 -4.644152e-09 -5.541558e-09 -4.682366e-09 -5.584059e-09 -5.837709e-09 -5.156105e-09 -5.691496e-09
-5.072325e-09 -5.911438e-09 -5.786723e-09 -5.818142e-09 -6.043624e-09 -5.586265e-09 -5.923830e-09 -6.150066e-09 -6.272007e-09 -5.853597e-09
-6.024321e-09 -5.898071e-09 -5.847266e-09 -6.315320e-09 -6.001075e-09 -6.133050e-09 -6.473819e-09 -6.325671e-09 -6.681192e-09 -6.855715e-09
-6.535013e-09 -6.605797e-09 -6.808406e-09 -6.576734e-09 -6.882782e-09 -6.835720e-09 -6.660073e-09 -7.409148e-09 -6.613007e-09 -6.622686e-09
-6.913103e-09 -6.875109e-09 -6.948639e-09 -7.389251e-09 -7.305788e-09 -7.647500e-09 -7.028022e-09 -7.287676e-09 -6.531785e-09 -7.559367e-09
-6.819950e-09 -7.159322e-09 -6.572426e-09 -6.658711e-09 -7.002503e-09 -6.860933e-09 -6.757568e-09 -7.113558e-09 -7.107339e-09 -6.683301e-09
-6.898996e-09 -6.739798e-09 -6.833814e-09 -7.328496e-09 -6.693727e-09 -6.913068e-09 -6.872549e-09 -6.819232e-09 -6.406000e-09 -7.097840e-09
-6.422132e-09 -6.806049e-09 -6.591203e-09 -6.655315e-09 -6.443231e-09 -6.391334e-09 -6.534597e-09 -6.111519e-09 -6.019346e-09 -6.312666e-09
-6.141176e-09 -6.268599e-09 -6.053504e-09 -6.261985e-09 -6.064623e-09 -5.789598e-09 -5.486708e-09 -5.729755e-09 -5.929511e-09 -5.855112e-09
-5.285036e-09 -5.899449e-09 -5.251625e-09 -4.918955e-09 -5.183184e-09 -4.821037e-09 -4.777987e-09 -5.010913e-09 -4.818347e-09 -4.551714e-09
-5.154244e-09 -4.028482e-09 -4.495973e-09 -3.725624e-09 -3.953916e-09 -4.338302e-09 -5.074624e-09 -3.463866e-09 -3.361318e-09 -3.989543e-09
-3.447727e-09 -3.253284e-09 -3.042410e-09 -3.209792e-09 -3.483789e-09 -2.970210e-09 -2.737652e-09 -2.790685e-09 -2.532753e-09 -2.294322e-09
-1.583115e-09 -2.115921e-09 -2.706759e-09 -2.136249e-09 -2.542334e-09 -1.099088e-09 -1.020970e-09 -2.000264e-09 -1.174939e-09 -2.263687e-09
-3.294933e-10 -1.118727e-09 -1.372995e-09 -1.313211e-09 -9.801451e-10 -1.119030e-10 -7.292983e-10 -9.698075e-10 -8.051669e-10 -7.519048e-10
7.533914e-10
-1.716148e-10 -2.561184e-10 1.124306e-09 1.247817e-10 3.096009e-10 6.813253e-10 1.083761e-09 1.309175e-09 1.101245e-09 1.659417e-09
1.112271e-09 2.041719e-09 1.240569e-09 1.547206e-09 2.012887e-09 2.547027e-09 2.505786e-09 1.869148e-09 1.756727e-09 2.494637e-09
3.015110e-09 3.093115e-09 3.102562e-09 2.245600e-09 3.370840e-09 2.433297e-09 3.551645e-09 3.457939e-09 2.951277e-09 3.803616e-09
4.327337e-09 3.744690e-09 3.904814e-09 4.133165e-09 4.517054e-09 4.702841e-09 4.782062e-09 4.528596e-09 4.098073e-09 4.490357e-09
5.307222e-09 5.480200e-09 4.752447e-09 5.495378e-09 5.392174e-09 5.762376e-09 5.925221e-09 4.811741e-09 5.364110e-09 6.450269e-09
5.770430e-09 5.861723e-09 5.492467e-09 6.525719e-09 6.703887e-09 5.878358e-09 6.201578e-09 5.969165e-09 6.411332e-09 5.936612e-09
6.664916e-09 6.303278e-09 6.720910e-09 6.136029e-09 6.542543e-09 6.829080e-09 6.751658e-09 7.125517e-09 6.625106e-09 7.301226e-09
6.420510e-09 6.825470e-09 7.891023e-09 7.502046e-09 6.993365e-09 7.562206e-09 7.378707e-09 7.150456e-09 6.835789e-09 6.910106e-09
7.287536e-09 7.655733e-09 7.084065e-09 7.103308e-09 6.807892e-09 7.130849e-09 7.751599e-09 7.027231e-09 7.178258e-09 6.924472e-09
6.860389e-09 7.700942e-09 7.424519e-09 7.216626e-09 7.016741e-09 6.855654e-09 7.003642e-09 7.020079e-09 7.453136e-09 7.089790e-09
6.943341e-09 7.171931e-09 6.930366e-09 7.636946e-09 7.247154e-09 7.247291e-09 6.743143e-09 7.120302e-09 7.024201e-09 7.190542e-09
6.685088e-09 6.528204e-09 6.285409e-09 6.916034e-09 6.908300e-09 6.256988e-09 6.958308e-09 6.714146e-09 6.434813e-09 6.016716e-09
7.114295e-09 6.601117e-09 6.057858e-09 6.879843e-09 5.750698e-09 5.462692e-09 6.456211e-09 5.135714e-09 6.108216e-09 5.911934e-09
6.211356e-09 5.040810e-09 5.202166e-09 5.652960e-09 4.999043e-09 5.766669e-09 5.046634e-09 4.344258e-09 5.666760e-09 4.611100e-09
4.198955e-09 3.850552e-09 4.698196e-09 4.907210e-09 4.450263e-09 4.124171e-09 4.511753e-09 3.903981e-09 4.055382e-09 4.022254e-09
3.571512e-09 3.429341e-09 3.465559e-09 3.263147e-09 2.753882e-09 2.975182e-09 3.335397e-09 2.227935e-09 2.716379e-09 2.228437e-09
1.658962e-09 1.982224e-09 2.408080e-09 1.561717e-09 1.074147e-09 2.262172e-09 1.381572e-09 1.550550e-09 1.855443e-09 1.018329e-09
1.134761e-09 7.440010e-10 9.318180e-10 4.055294e-10 8.949195e-10 2.196269e-10 -8.535501e-10 2.996162e-10 3.462669e-10 -1.754161e-10
-6.938262e-10 -4.916414e-10 -5.088677e-10 -2.602286e-10 -7.273792e-10 -8.670919e-10 -5.109502e-10 -6.671514e-10 -1.042758e-09 -1.048081e-09
-9.995568e-10 -1.322424e-10 -1.845539e-09 -1.270913e-09 -1.316231e-09 -1.382697e-09 -1.584150e-09 -2.388478e-09 -2.636968e-09 -2.352049e-09
-2.431257e-09 -3.234466e-09 -2.092857e-09 -2.904237e-09 -1.605736e-09 -3.388655e-09 -3.659392e-09 -3.730228e-09 -4.180817e-09 -3.384314e-09
-3.780846e-09 -4.142239e-09 -4.002593e-09 -4.259512e-09 -4.691904e-09 -4.447269e-09 -3.699739e-09 -4.277627e-09 -4.167462e-09 -4.623013e-09
-5.437224e-09 -5.137486e-09 -5.150829e-09 -5.389695e-09 -5.926033e-09 -5.103052e-09 -5.081196e-09 -5.229862e-09 -5.422047e-09 -6.222380e-09
-5.942429e-09 -6.255514e-09 -5.795375e-09 -6.139043e-09 -6.270520e-09 -6.105963e-09 -7.098661e-09 -6.676660e-09 -6.054337e-09 -5.893098e-09
-6.302261e-09 -6.530167e-09 -6.481021e-09 -6.169379e-09 -6.621550e-09 -7.020065e-09 -6.624449e-09 -7.184533e-09 -6.472008e-09 -6.590501e-09
-6.894571e-09 -6.915884e-09 -6.793828e-09 -6.820004e-09 -7.641915e-09 -6.759092e-09 -6.899108e-09 -7.440358e-09 -7.325797e-09 -7.045446e-09
-7.845588e-09 -6.850498e-09 -7.139976e-09 -7.050904e-09 -7.594796e-09 -7.549258e-09 -7.175502e-09 -7.161350e-09 -7.386134e-09 -7.437849e-09
-7.212903e-09 -7.343677e-09 -7.010666e-09 -7.040585e-09 -7.725756e-09 -7.452123e-09 -7.403150e-09 -7.211803e-09 -7.678425e-09 -7.393866e-09
-6.529588e-09 -7.324413e-09 -7.129040e-09 -7.479655e-09 -7.328659e-09 -7.065317e-09 -6.678320e-09 -7.000206e-09 -7.086394e-09 -7.089447e-09
-6.501539e-09 -6.450966e-09 -6.435383e-09 -7.530931e-09 -6.516675e-09 -7.461863e-09 -6.699768e-09 -6.105540e-09 -5.930680e-09 -6.577897e-09
-6.356520e-09 -6.229942e-09 -6.382110e-09 -6.018080e-09 -6.082201e-09 -6.236842e-09 -5.953933e-09 -5.838553e-09 -6.207676e-09 -5.918473e-09
-5.746791e-09 -5.516952e-09 -5.629239e-09 -5.191423e-09 -5.071493e-09 -5.476586e-09 -5.676294e-09 -4.999002e-09 -5.001243e-09 -4.446854e-09
-5.347775e-09 -5.119073e-09 -4.681634e-09 -4.727752e-09 -4.988231e-09 -4.672101e-09 -4.989125e-09 -4.031233e-09 -2.857299e-09 -2.996776e-09
-3.795425e-09 -4.013156e-09 -3.374826e-09 -3.946196e-09 -4.006997e-09 -3.300554e-09 -3.232345e-09 -3.819569e-09 -2.595505e-09 -2.641917e-09
-2.168632e-09 -1.902170e-09 -3.015194e-09 -1.952126e-09 -1.271172e-09 -1.349058e-09 -1.751945e-09 -1.445818e-09 -1.767333e-09 -1.699105e-09
-1.078874e-09 -1.669994e-09 -9.978232e-10 -3.154850e-10 -1.573390e-09 1.867548e-10 -3.545037e-10 3.707057e-10 2.228251e-11 -4.668562e-12
-1.716148e-10
2.207180e-10 6.462391e-10 8.526678e-10 5.312710e-10 5.827683e-10 9.174569e-11 9.417432e-10 1.245935e-09 1.225741e-09 1.481473e-09
7.648368e-10 1.174771e-09 2.036552e-09 2.181030e-09 1.667797e-09 2.144384e-09 2.608018e-09 2.376122e-09 2.187627e-09 2.047805e-09
2.884933e-09 2.606549e-09 3.524637e-09 2.082949e-09 2.618329e-09 3.778269e-09 2.546916e-09 3.388123e-09 3.519952e-09 4.592139e-09
3.266191e-09 4.221469e-09 4.220394e-09 4.298377e-09 3.506504e-09 4.194635e-09 4.993530e-09 4.450178e-09 4.918261e-09 4.871035e-09
4.763534e-09 4.909078e-09 5.361165e-09 5.249310e-09 4.948740e-09 5.743154e-09 6.086057e-09 5.696303e-09 6.016732e-09 5.937229e-09
6.248435e-09 6.577773e-09 6.005357e-09 5.950223e-09 6.307539e-09 6.776501e-09 6.507326e-09 6.847834e-09 6.510449e-09 6.649389e-09
6.533141e-09 6.894902e-09 7.078171e-09 7.566674e-09 6.761935e-09 6.969417e-09 7.781331e-09 6.771424e-09 7.534283e-09 7.311368e-09
6.969310e-09 6.970977e-09 7.731319e-09 6.866518e-09 7.421030e-09 7.536550e-09 7.320947e-09 7.621114e-09 7.326389e-09 7.668248e-09
7.482556e-09 7.535983e-09 7.461642e-09 7.570056e-09 7.864002e-09 7.559897e-09 7.783706e-09 8.342792e-09 8.138172e-09 7.346197e-09
7.654443e-09 8.041126e-09 8.007583e-09 7.389621e-09 7.805113e-09 7.652983e-09 7.629978e-09 7.380020e-09 7.164668e-09 7.727785e-09
7.243054e-09 7.704489e-09 7.693364e-09 7.677404e-09 6.955192e-09 7.228870e-09 7.312705e-09 7.402202e-09 7.160747e-09 7.488077e-09
6.872157e-09 7.829770e-09 7.066780e-09 6.922179e-09 7.473282e-09 7.178210e-09 7.139251e-09 6.963433e-09 6.450575e-09 6.539697e-09
6.838769e-09 7.602905e-09 6.690724e-09 6.710686e-09 6.779768e-09 6.214925e-09 5.989367e-09 5.757411e-09 7.070286e-09 5.670294e-09
5.897213e-09 5.503671e-09 6.661328e-09 5.315197e-09 5.171977e-09 5.561080e-09 5.103820e-09 4.614996e-09 4.903950e-09 4.794696e-09
4.606187e-09 5.056382e-09 4.069727e-09 4.605096e-09 3.894671e-09 3.719602e-09 4.148255e-09 4.457631e-09 4.246245e-09 3.584639e-09
4.646643e-09 3.814629e-09 3.653074e-09 3.773915e-09 3.350388e-09 3.844078e-09 3.201316e-09 2.300789e-09 3.092298e-09 1.979171e-09
3.312952e-09 2.267160e-09 2.270439e-09 2.866985e-09 1.398431e-09 1.382693e-09 2.076915e-09 1.804505e-09 1.279327e-09 1.852452e-09
1.282015e-09 1.525958e-09 1.152475e-09 1.197257e-09 8.304026e-10 5.415800e-10 3.939552e-10 -9.510950e-11 9.790552e-10 2.498708e-10
-5.428019e-10 -3.326654e-12 -1.054944e-10 -1.180041e-11 -7.973953e-10 -8.990449e-10 -1.743269e-09 -1.216981e-09 -1.467624e-09 -1.403452e-09
-8.811447e-10 -1.338209e-09 -1.156254e-09 -9.119776e-10 -2.235490e-09 -1.012783e-09 -1.672868e-09 -1.810705e-09 -2.325291e-09 -2.202193e-09
-2.124494e-09 -3.301962e-09 -2.907853e-09 -3.929598e-09 -3.488292e-09 -2.963618e-09 -3.589788e-09 -3.560234e-09 -3.698555e-09 -3.499574e-09
-3.960783e-09 -4.828161e-09 -3.970806e-09 -4.174755e-09 -3.201258e-09 -4.618598e-09 -4.692357e-09 -4.511127e-09 -4.483940e-09 -5.141736e-09
-4.935971e-09 -4.778125e-09 -5.202752e-09 -5.905778e-09 -5.503105e-09 -5.513752e-09 -5.957850e-09 -5.047442e-09 -5.146575e-09 -5.838865e-09
-6.448244e-09 -5.806203e-09 -6.561328e-09 -6.113972e-09 -6.532927e-09 -5.611570e-09 -5.934690e-09 -6.625959e-09 -6.792141e-09 -6.569247e-09
-6.573508e-09 -7.140359e-09 -6.603428e-09 -6.621871e-09 -7.076101e-09 -7.158425e-09 -6.912836e-09 -7.391611e-09 -6.901622e-09 -7.027954e-09
-7.310131e-09 -7.207985e-09 -8.015530e-09 -7.354753e-09 -7.465757e-09 -7.365836e-09 -7.568516e-09 -7.576003e-09 -8.122740e-09 -7.431280e-09
-7.459404e-09 -7.733393e-09 -7.890005e-09 -7.928310e-09 -7.212417e-09 -7.954569e-09 -7.589380e-09 -7.565466e-09 -8.430768e-09 -7.585297e-09
-8.141794e-09 -7.735889e-09 -7.418728e-09 -7.883223e-09 -8.034642e-09 -8.337672e-09 -7.870362e-09 -7.515404e-09 -7.543556e-09 -7.675223e-09
-7.589795e-09 -7.913523e-09 -7.026995e-09 -8.013758e-09 -7.071714e-09 -7.943345e-09 -7.749938e-09 -7.479037e-09 -7.611876e-09 -7.262655e-09
-7.240077e-09 -7.548361e-09 -7.716544e-09 -6.953384e-09 -6.618087e-09 -7.377824e-09 -7.618435e-09 -7.481556e-09 -6.582866e-09 -7.420319e-09
-7.196235e-09 -6.407318e-09 -6.093936e-09 -6.399973e-09 -6.759490e-09 -6.249075e-09 -5.923331e-09 -6.628877e-09 -6.451675e-09 -6.272606e-09
-7.022547e-09 -6.329400e-09 -5.971433e-09 -5.886145e-09 -5.722704e-09 -5.081984e-09 -5.762536e-09 -5.191868e-09 -4.481083e-09 -5.442414e-09
-4.657245e-09 -5.292712e-09 -5.224943e-09 -4.120222e-09 -6.024951e-09 -4.049967e-09 -4.693733e-09 -3.925436e-09 -3.579005e-09 -4.356932e-09
-3.384140e-09 -4.454329e-09 -3.156603e-09 -3.551489e-09 -3.949805e-09 -3.073149e-09 -2.773658e-09 -3.335890e-09 -2.824878e-09 -2.560088e-09
-2.999380e-09 -2.425980e-09 -2.567665e-09 -3.138495e-09 -2.066498e-09 -2.411597e-09 -2.199008e-09 -8.624833e-10 -1.000645e-09 -1.405364e-09
-1.525152e-09 -9.728027e-10 -1.122242e-09 -1.876688e-10 -1.247769e-09 -4.300336e-11 -1.129164e-10 -2.496563e-10 3.523899e-10 4.611137e-10
2.207180e-10
-4.451240e-10 3.940894e-11 -2.971165e-10 4.254566e-10 1.020824e-09 2.894453e-10 2.275694e-10 9.100954e-10 1.229963e-09 8.897088e-10
1.275344e-09 2.990279e-09 1.679066e-09 2.572585e-09 2.417454e-09 2.331415e-09 1.886712e-09 2.412423e-09 2.667228e-09 2.552427e-09
2.251100e-09 2.414096e-09 2.751767e-09 2.904033e-09 3.574213e-09 4.091880e-09 3.787325e-09 3.991307e-09 4.198780e-09 4.586462e-09
3.470295e-09 3.615853e-09 4.882357e-09 4.747421e-09 4.706082e-09 4.708571e-09 5.818548e-09 4.813151e-09 5.594142e-09 4.686203e-09
5.430740e-09 4.546130e-09 5.499379e-09 5.049985e-09 6.521819e-09 6.020322e-09 6.220144e-09 6.314312e-09 5.455272e-09 6.376580e-09
6.114816e-09 5.945937e-09 6.406531e-09 6.645445e-09 6.411113e-09 6.228667e-09 6.676895e-09 6.677260e-09 6.780896e-09 7.095886e-09
6.966841e-09 6.521432e-09 7.094226e-09 7.197750e-09 6.771014e-09 6.977258e-09 7.211657e-09 7.160240e-09 7.786555e-09 7.709898e-09
7.236785e-09 8.064291e-09 7.070295e-09 7.779950e-09 7.869008e-09 7.395805e-09 7.745903e-09 8.080498e-09 7.782364e-09 7.539538e-09
7.978811e-09 7.469143e-09 7.977799e-09 7.809569e-09 8.203965e-09 7.715109e-09 7.758641e-09 8.370264e-09 8.444544e-09 8.918150e-09
7.752567e-09 8.220698e-09 7.724991e-09 8.031835e-09 8.669899e-09 8.114488e-09 7.593417e-09 7.781572e-09 7.580105e-09 7.757865e-09
8.302083e-09 7.493937e-09 8.691474e-09 7.153533e-09 7.588731e-09 7.641094e-09 7.499390e-09 7.397452e-09 7.701466e-09 7.859934e-09
7.429186e-09 7.437518e-09 7.352388e-09 7.314215e-09 7.767992e-09 6.870814e-09 6.921260e-09 6.936338e-09 7.137937e-09 7.321292e-09
6.758694e-09 6.920132e-09 6.833468e-09 6.003714e-09 6.645851e-09 6.150472e-09 6.878749e-09 6.932657e-09 6.180346e-09 6.123907e-09
5.977677e-09 6.962042e-09 6.395691e-09 6.106182e-09 5.859373e-09 5.722889e-09 5.529591e-09 5.614837e-09 5.263898e-09 5.138977e-09
4.420901e-09 5.435351e-09 6.255463e-09 5.016440e-09 4.427017e-09 4.721761e-09 3.890329e-09 3.698312e-09 3.360395e-09 4.157751e-09
3.199961e-09 3.899969e-09 4.184646e-09 3.215503e-09 3.453987e-09 3.501259e-09 2.716264e-09 3.245672e-09 3.073847e-09 2.616720e-09
2.905214e-09 2.088657e-09 2.117708e-09 2.704877e-09 1.413208e-09 2.271446e-09 2.524738e-09 1.587075e-09 8.262548e-10 1.821776e-09
9.801194e-10 1.090006e-09 9.753349e-10 4.399730e-10 4.736824e-10 -1.875679e-10 7.993303e-11 2.264338e-10 3.197932e-10 7.331905e-10
-3.331092e-10 -1.262042e-09 1.422359e-10 -5.676655e-10 -6.429839e-10 -6.283574e-10 -8.518659e-10 -4.446668e-10 -4.848061e-10 -1.966712e-09
-1.313234e-09 -1.653208e-09 -1.351453e-09 -1.611597e-09 -1.587210e-09 -1.683177e-09 -2.046904e-09 -2.488779e-09 -1.991292e-09 -2.903991e-09
-2.378051e-09 -2.937377e-09 -2.752089e-09 -4.014427e-09 -2.978017e-09 -3.676271e-09 -3.427411e-09 -3.605659e-09 -3.411440e-09 -4.081286e-09
-4.127053e-09 -4.740200e-09 -4.201854e-09 -4.214398e-09 -4.183033e-09 -4.886754e-09 -5.129211e-09 -4.566146e-09 -4.779694e-09 -4.762595e-09
-5.807630e-09 -5.220427e-09 -5.356559e-09 -6.104354e-09 -4.971440e-09 -6.823925e-09 -5.952975e-09 -6.487676e-09 -6.480809e-09 -6.014494e-09
-6.570394e-09 -5.797955e-09 -6.183782e-09 -7.246671e-09 -7.064705e-09 -6.906254e-09 -7.031954e-09 -6.602816e-09 -6.588858e-09 -7.655888e-09
-6.907457e-09 -7.545782e-09 -6.941859e-09 -7.200477e-09 -7.050599e-09 -6.754493e-09 -7.446212e-09 -6.967428e-09 -7.004795e-09 -7.863871e-09
-7.567297e-09 -8.054047e-09 -7.873955e-09 -7.873552e-09 -8.247356e-09 -7.464348e-09 -8.423501e-09 -8.705200e-09 -8.222263e-09 -8.286925e-09
-7.494068e-09 -7.429701e-09 -7.880735e-09 -7.584243e-09 -7.918987e-09 -8.751825e-09 -7.802004e-09 -7.587103e-09 -8.123101e-09 -8.139920e-09
-8.213255e-09 -8.175719e-09 -7.710287e-09 -8.095341e-09 -8.346534e-09 -7.909983e-09 -8.521854e-09 -7.871322e-09 -8.059761e-09 -8.528096e-09
-7.849008e-09 -8.061847e-09 -8.024004e-09 -7.905672e-09 -8.326093e-09 -7.679545e-09 -7.890445e-09 -7.411014e-09 -7.287137e-09 -7.356707e-09
-6.801059e-09 -7.239096e-09 -7.712029e-09 -8.121478e-09 -7.520712e-09 -7.671620e-09 -6.984944e-09 -7.768076e-09 -7.294709e-09 -7.893523e-09
-7.635767e-09 -7.470626e-09 -6.652705e-09 -6.700404e-09 -6.895740e-09 -6.334481e-09 -6.968527e-09 -6.334209e-09 -6.121214e-09 -7.473036e-09
-6.888463e-09 -6.799560e-09 -6.136545e-09 -5.828815e-09 -5.815821e-09 -5.869442e-09 -5.527223e-09 -5.348279e-09 -5.830815e-09 -4.908673e-09
-5.486926e-09 -4.883121e-09 -5.205668e-09 -5.201385e-09 -5.239330e-09 -4.644894e-09 -4.101043e-09 -3.807498e-09 -5.051051e-09 -4.014874e-09
-4.359309e-09 -4.465467e-09 -3.299454e-09 -3.957016e-09 -3.132343e-09 -3.037345e-09 -3.027536e-09 -2.692332e-09 -3.046772e-09 -3.134980e-09
-2.818113e-09 -2.920674e-09 -2.629080e-09 -3.021891e-09 -1.594418e-09 -1.272180e-09 -1.351926e-09 -2.012659e-09 -2.069558e-09 -2.102853e-09
-1.316999e-09 -1.481848e-09 -1.277822e-09 -1.611897e-09 -4.666854e-10 -5.543098e-10 -8.996706e-10 -8.324034e-10 -5.020185e-10 -1.444249e-10
-4.451240e-10
6.046346e-10 7.445205e-10 2.024693e-10 -9.221677e-11 5.689144e-10 1.210343e-09 7.592578e-10 7.122574e-11 1.205538e-09 1.236951e-09
7.164431e-10 1.324137e-09 2.032656e-09 1.908419e-09 2.362920e-09 2.123343e-09 1.946171e-09 1.693855e-09 2.145307e-09 3.127710e-09
3.679747e-09 3.848451e-09 3.051781e-09 3.822396e-09 3.182870e-09 3.402622e-09 3.382731e-09 3.256879e-09 4.841306e-09 3.467622e-09
4.291754e-09 4.438689e-09 4.196047e-09 4.196962e-09 4.482978e-09 4.360729e-09 5.365305e-09 4.634784e-09 5.235652e-09 5.502248e-09
6.370049e-09 5.786307e-09 5.211667e-09 5.101847e-09 5.604190e-09 6.115792e-09 6.119967e-09 6.335463e-09 6.180313e-09 6.492504e-09
6.759308e-09 6.731438e-09 6.925029e-09 6.964678e-09 7.110580e-09 6.651832e-09 6.711304e-09 6.834602e-09 7.347270e-09 6.951042e-09
7.456316e-09 6.850374e-09 7.212736e-09 7.193628e-09 7.594589e-09 7.558254e-09 7.478725e-09 7.264262e-09 7.187525e-09 7.233811e-09
7.440376e-09 7.796777e-09 7.426957e-09 8.051270e-09 7.889423e-09 7.975174e-09 8.112507e-09 7.904833e-09 7.696247e-09 8.342866e-09
8.192830e-09 7.806560e-09 8.061201e-09 8.371916e-09 8.259270e-09 8.300396e-09 8.338384e-09 8.273908e-09 7.837156e-09 8.023330e-09
8.169764e-09 8.139414e-09 8.067961e-09 8.389569e-09 8.372131e-09 8.367071e-09 8.299716e-09 7.946458e-09 8.174425e-09 8.766219e-09
8.292464e-09 8.405649e-09 8.062159e-09 8.014150e-09 7.862924e-09 8.792802e-09 8.097012e-09 7.722025e-09 8.199553e-09 7.792787e-09
7.819029e-09 7.871383e-09 8.215758e-09 7.698482e-09 7.257222e-09 7.170843e-09 7.276342e-09 7.740826e-09 7.472311e-09 7.352093e-09
7.023678e-09 7.456665e-09 7.744912e-09 7.352368e-09 6.795544e-09 6.739032e-09 6.570988e-09 6.292634e-09 6.682441e-09 6.658739e-09
6.258267e-09 6.408371e-09 6.089302e-09 6.913801e-09 5.317787e-09 6.508088e-09 5.629383e-09 6.572920e-09 5.667303e-09 5.174696e-09
5.334249e-09 5.399659e-09 4.630120e-09 5.186740e-09 4.655826e-09 4.139185e-09 5.442392e-09 5.601507e-09 3.909236e-09 4.047455e-09
4.453473e-09 4.094402e-09 4.265547e-09 3.960155e-09 3.440218e-09 3.563916e-09 3.583102e-09 3.749797e-09 3.357636e-09 2.687966e-09
3.128070e-09 3.123386e-09 2.955212e-09 2.647014e-09 2.801048e-09 1.673202e-09 2.737935e-09 2.316004e-09 1.096671e-09 6.719362e-10
1.405985e-09 1.309446e-09 6.023728e-10 1.568776e-10 1.056646e-09 5.800436e-10 5.705974e-10 5.266257e-10 9.007096e-10 -7.027030e-10
-1.124417e-10 -2.699092e-10 -1.786465e-10 1.104980e-11 9.346270e-11 -1.148957e-09 -1.624138e-11 -1.066000e-09 -1.634842e-09 -1.089284e-09
-1.809664e-09 -1.262199e-09 -1.432224e-09 -1.677746e-09 -2.015833e-09 -1.596759e-09 -2.136873e-09 -1.791833e-09 -2.028745e-09 -3.009131e-09
-2.719543e-09 -2.584459e-09 -2.912462e-09 -3.327442e-09 -3.544938e-09 -3.742492e-09 -4.334881e-09 -3.631922e-09 -3.928043e-09 -4.074809e-09
-5.271688e-09 -4.604316e-09 -4.643972e-09 -5.008979e-09 -4.925365e-09 -4.169152e-09 -5.348065e-09 -5.503397e-09 -5.220662e-09 -5.725777e-09
-5.652579e-09 -5.476154e-09 -6.001831e-09 -6.005242e-09 -5.977945e-09 -5.630734e-09 -6.636749e-09 -6.547815e-09 -6.278082e-09 -7.108351e-09
-5.984536e-09 -6.681868e-09 -6.511957e-09 -7.037803e-09 -6.985453e-09 -6.481999e-09 -7.511123e-09 -7.109734e-09 -7.555557e-09 -7.241306e-09
-7.617772e-09 -7.163943e-09 -7.361029e-09 -8.127503e-09 -7.582327e-09 -7.393875e-09 -7.733644e-09 -7.630695e-09 -8.093345e-09 -7.942027e-09
-8.580177e-09 -8.370402e-09 -8.172687e-09 -8.318824e-09 -8.824094e-09 -7.968020e-09 -7.977213e-09 -7.956232e-09 -8.246897e-09 -8.535095e-09
-8.145885e-09 -7.909343e-09 -7.884992e-09 -7.994337e-09 -8.616484e-09 -7.854506e-09 -8.600663e-09 -8.369750e-09 -8.355298e-09 -8.820768e-09
-7.691358e-09 -8.541287e-09 -8.453871e-09 -7.998413e-09 -8.897231e-09 -8.376219e-09 -8.713505e-09 -8.178865e-09 -8.576739e-09 -8.233567e-09
-8.627048e-09 -7.979400e-09 -8.375515e-09 -8.138973e-09 -8.244686e-09 -8.224315e-09 -7.933084e-09 -7.895844e-09 -7.623481e-09 -7.647881e-09
-8.752317e-09 -8.138747e-09 -8.135189e-09 -7.983321e-09 -7.726142e-09 -7.844118e-09 -8.169927e-09 -7.839540e-09 -7.870249e-09 -7.905986e-09
-7.316492e-09 -7.741983e-09 -7.068145e-09 -7.293786e-09 -6.856476e-09 -6.976065e-09 -6.938193e-09 -6.487364e-09 -7.852077e-09 -7.551250e-09
-6.995490e-09 -6.807583e-09 -6.361364e-09 -6.943534e-09 -6.884800e-09 -6.756923e-09 -5.621292e-09 -6.242125e-09 -5.372177e-09 -5.838746e-09
-5.205530e-09 -5.651218e-09 -4.907333e-09 -5.104777e-09 -4.918079e-09 -5.182722e-09 -4.730883e-09 -4.773898e-09 -4.891706e-09 -4.850786e-09
-4.076211e-09 -4.485053e-09 -4.454261e-09 -3.687682e-09 -2.450440e-09 -3.399007e-09 -3.113480e-09 -3.097205e-09 -2.805929e-09 -2.774929e-09
-3.103379e-09 -2.420752e-09 -2.340259e-09 -2.659312e-09 -2.837635e-09 -1.993469e-09 -1.622890e-09 -1.383757e-09 -2.463632e-09 -2.015125e-09
-9.729161e-10 -1.250428e-09 -1.000926e-09 -1.497462e-09 -8.031506e-10 -6.332379e-10 -1.406968e-09 -2.366182e-10 -9.687531e-10 -6.492742e-11
6.046346e-10
-9.582037e-10 -1.707133e-11 9.025019e-10 6.191924e-10 -4.160301e-11 2.977665e-10 1.433534e-09 1.305398e-09 9.110523e-10 1.633860e-09
1.566919e-09 1.954506e-09 2.050188e-09 2.019329e-09 2.165453e-09 2.405267e-09 2.942591e-09 2.521198e-09 2.843561e-09 3.293611e-09
2.709131e-09 3.648162e-09 3.437426e-09 2.565307e-09 3.308222e-09 3.802107e-09 4.483380e-09 3.187660e-09 4.983989e-09 4.111500e-09
4.700059e-09 4.082231e-09 5.189526e-09 4.435197e-09 4.396169e-09 4.694410e-09 5.169175e-09 5.443822e-09 5.393734e-09 5.220324e-09
6.215382e-09 6.861806e-09 6.122480e-09 5.929675e-09 6.568966e-09 6.380250e-09 6.525761e-09 6.660133e-09 6.611914e-09 6.469227e-09
6.698650e-09 7.380391e-09 6.786774e-09 6.812384e-09 7.033178e-09 7.648821e-09 7.523173e-09 8.299351e-09 7.135676e-09 7.913585e-09
7.529784e-09 7.605310e-09 8.194228e-09 7.978929e-09 7.950696e-09 8.035228e-09 7.857985e-09 8.901273e-09 8.180024e-09 7.602599e-09
8.188027e-09 7.557994e-09 8.325853e-09 8.196568e-09 8.260589e-09 8.501032e-09 8.028153e-09 8.535680e-09 8.572548e-09 8.082278e-09
8.162418e-09 8.249498e-09 9.038637e-09 9.266273e-09 8.215273e-09 8.871997e-09 8.548535e-09 8.452719e-09 8.795565e-09 9.309011e-09
8.229271e-09 8.835097e-09 9.006452e-09 8.975728e-09 8.433759e-09 8.978854e-09 8.276246e-09 8.633180e-09 8.536372e-09 8.050808e-09
8.490169e-09 8.192639e-09 7.778735e-09 8.563529e-09 8.822799e-09 8.851551e-09 9.150811e-09 8.359351e-09 8.209576e-09 8.275496e-09
8.875102e-09 7.867111e-09 8.004166e-09 8.048499e-09 7.801821e-09 7.671326e-09 8.956485e-09 7.987407e-09 8.570932e-09 7.314909e-09
7.781617e-09 7.355317e-09 7.758310e-09 7.603357e-09 6.886021e-09 6.947646e-09 7.182124e-09 7.483743e-09 6.450257e-09 6.990698e-09
6.704842e-09 6.571055e-09 7.303497e-09 6.594819e-09 6.034041e-09 5.981579e-09 6.048258e-09 5.727537e-09 6.435427e-09 5.409435e-09
5.370927e-09 5.010314e-09 5.517077e-09 4.978327e-09 4.650352e-09 4.843007e-09 5.279607e-09 4.573911e-09 4.529994e-09 4.088474e-09
4.713019e-09 4.510332e-09 3.895231e-09 4.552990e-09 3.461414e-09 3.946442e-09 3.479683e-09 3.172435e-09 3.545683e-09 2.723490e-09
2.915238e-09 1.920979e-09 3.315574e-09 2.008304e-09 2.141211e-09 2.382842e-09 1.814988e-09 2.475445e-09 9.956075e-10 1.116309e-09
6.210678e-10 4.613132e-10 8.506093e-10 1.637702e-09 7.585512e-10 7.104528e-10 8.284400e-10 5.320540e-11 -7.046070e-10 2.359911e-10
7.781217e-10 -2.533083e-10 3.600541e-10 9.899958e-11 3.993505e-10 -4.722636e-10 -8.097530e-11 -3.866822e-10 -2.111774e-09 -1.872118e-09
-1.927267e-09 -1.131817e-09 -2.362867e-09 -2.093289e-09 -2.533268e-09 -2.093208e-09 -1.646069e-09 -2.030484e-09 -3.501266e-09 -2.467388e-09
-3.389286e-09 -2.761533e-09 -3.521572e-09 -4.260609e-09 -3.104304e-09 -3.209966e-09 -3.416235e-09 -4.149637e-09 -4.487652e-09 -5.129363e-09
-4.547765e-09 -4.834054e-09 -4.458852e-09 -4.100931e-09 -4.916684e-09 -4.954633e-09 -5.906765e-09 -4.948680e-09 -5.360208e-09 -6.081104e-09
-5.568881e-09 -5.671500e-09 -5.283258e-09 -6.656291e-09 -7.137525e-09 -6.541690e-09 -6.221579e-09 -6.470214e-09 -7.229004e-09 -6.553763e-09
-6.516668e-09 -7.976968e-09 -7.200617e-09 -7.150733e-09 -7.002232e-09 -7.106645e-09 -8.424859e-09 -7.787840e-09 -8.192157e-09 -7.097510e-09
-8.124847e-09 -7.589503e-09 -8.381302e-09 -7.736435e-09 -7.981627e-09 -8.231214e-09 -7.908191e-09 -8.618922e-09 -8.458762e-09 -8.430317e-09
-7.704354e-09 -8.484164e-09 -8.387353e-09 -8.726402e-09 -8.853831e-09 -8.466015e-09 -8.175604e-09 -8.481698e-09 -8.751321e-09 -9.163691e-09
-8.416690e-09 -8.155165e-09 -8.616817e-09 -9.135529e-09 -9.366232e-09 -8.419101e-09 -8.845654e-09 -9.166896e-09 -8.778348e-09 -8.390119e-09
-8.209065e-09 -8.680658e-09 -9.464080e-09 -8.303613e-09 -9.736629e-09 -8.214720e-09 -8.265199e-09 -8.719362e-09 -8.596500e-09 -7.930974e-09
-8.934027e-09 -8.906215e-09 -8.377810e-09 -8.235048e-09 -8.122442e-09 -8.106944e-09 -9.298522e-09 -8.610467e-09 -7.976148e-09 -8.879874e-09
-8.742844e-09 -8.324721e-09 -8.279728e-09 -8.706862e-09 -7.630052e-09 -8.222430e-09 -8.196943e-09 -7.926399e-09 -8.415420e-09 -8.239131e-09
-8.072058e-09 -8.727572e-09 -8.410698e-09 -7.707727e-09 -7.576507e-09 -7.546677e-09 -7.002998e-09 -7.144906e-09 -7.026950e-09 -7.256895e-09
-7.145479e-09 -6.357688e-09 -7.526073e-09 -7.219247e-09 -6.516787e-09 -6.526871e-09 -6.523186e-09 -6.582362e-09 -5.681700e-09 -5.885227e-09
-6.111933e-09 -6.905078e-09 -5.167645e-09 -5.525106e-09 -5.972326e-09 -6.046593e-09 -4.619043e-09 -4.198749e-09 -4.439444e-09 -4.143712e-09
-4.634700e-09 -4.418812e-09 -4.086034e-09 -4.873119e-09 -3.721166e-09 -4.674301e-09 -3.345475e-09 -3.734033e-09 -2.305258e-09 -2.932617e-09
-2.918308e-09 -3.047643e-09 -2.329179e-09 -1.765971e-09 -1.964999e-09 -2.590526e-09 -1.790449e-09 -2.206107e-09 -2.022247e-09 -1.694848e-09
-1.340541e-09 -9.286396e-10 -8.809881e-10 -2.191515e-09 -1.170790e-09 -1.017204e-10 -8.266148e-10 -4.755717e-10 -5.277250e-10 -5.225310e-10
-9.582037e-10
-6.729686e-10 9.962688e-10 -1.510356e-10 7.994951e-10 1.596426e-10 1.013159e-09 3.490327e-10 1.253490e-09 9.734308e-10 1.449627e-09
6.119116e-10 1.413145e-09 2.066311e-09 1.436202e-09 2.418666e-09 3.179453e-09 2.552309e-09 2.357337e-09 2.844846e-09 2.551418e-09
3.787856e-09 3.223027e-09 4.012688e-09 3.532567e-09 3.807683e-09 3.580301e-09 3.897886e-09 3.984495e-09 4.532099e-09 5.100053e-09
4.869587e-09 5.225880e-09 4.992232e-09 5.550276e-09 4.806655e-09 4.786822e-09 5.112485e-09 5.651513e-09 5.679144e-09 6.567538e-09
6.377867e-09 6.466041e-09 6.082860e-09 7.251126e-09 6.197162e-09 6.966687e-09 7.124569e-09 7.043646e-09 7.276968e-09 6.751847e-09
7.667704e-09 6.750549e-09 7.275838e-09 8.190905e-09 7.295307e-09 7.862725e-09 7.647325e-09 7.786697e-09 8.323571e-09 7.912993e-09
7.967384e-09 7.804831e-09 8.173225e-09 7.965382e-09 7.997158e-09 8.093649e-09 8.438255e-09 8.949607e-09 8.869883e-09 8.164615e-09
8.269232e-09 8.522338e-09 8.944514e-09 8.480947e-09 8.248460e-09 8.513568e-09 8.758494e-09 9.332566e-09 8.700082e-09 8.965993e-09
9.242798e-09 9.354321e-09 9.347729e-09 8.972705e-09 8.958533e-09 9.652198e-09 9.477144e-09 8.677806e-09 8.911996e-09 8.452422e-09
9.148924e-09 9.154771e-09 8.801305e-09 9.333436e-09 8.935721e-09 8.669224e-09 8.234732e-09 8.759205e-09 8.416749e-09 9.613842e-09
8.633617e-09 8.864457e-09 8.486256e-09 8.934408e-09 8.566144e-09 8.818188e-09 8.522033e-09 8.352199e-09 8.673073e-09 8.656458e-09
8.555889e-09 8.003021e-09 8.163535e-09 8.693511e-09 8.139281e-09 8.137388e-09 7.780830e-09 8.973824e-09 8.544879e-09 8.491982e-09
7.596576e-09 7.752177e-09 7.342317e-09 7.833136e-09 8.335367e-09 7.360365e-09 7.520081e-09 7.142322e-09 7.509488e-09 7.344452e-09
7.285710e-09 7.554213e-09 7.066964e-09 6.732325e-09 6.356025e-09 6.105685e-09 6.630741e-09 5.960713e-09 6.070426e-09 5.902073e-09
5.783740e-09 5.701881e-09 6.304318e-09 5.811869e-09 5.190085e-09 5.178824e-09 4.849552e-09 5.243334e-09 4.933002e-09 4.485401e-09
4.136689e-09 3.750999e-09 4.283970e-09 3.769448e-09 4.653511e-09 3.272227e-09 3.564488e-09 2.783639e-09 3.657194e-09 3.119405e-09
3.391653e-09 3.352400e-09 2.368223e-09 2.966552e-09 2.465739e-09 2.040127e-09 2.501794e-09 1.622777e-09 1.753780e-09 4.395653e-10
1.494054e-09 1.291929e-09 1.081592e-09 1.063717e-09 7.957088e-11 3.539181e-10 -3.604199e-10 7.324262e-10 -4.589153e-10 -6.385705e-10
-1.040775e-10 -1.317059e-09 -2.064577e-10 -5.199329e-10 -7.252163e-10 -8.743157e-10 -6.764811e-10 -9.678477e-10 -1.231441e-09 -2.136584e-09
-1.589685e-09 -1.903413e-09 -7.776880e-10 -2.686210e-09 -2.374506e-09 -2.384174e-09 -2.464111e-09 -3.122206e-09 -2.850079e-09 -3.424609e-09
-3.177405e-09 -2.309324e-09 -3.553226e-09 -3.248064e-09 -3.482562e-09 -4.303251e-09 -3.993503e-09 -4.092096e-09 -5.526086e-09 -4.141367e-09
-4.330813e-09 -4.180601e-09 -4.933865e-09 -5.438765e-09 -5.058990e-09 -6.277149e-09 -5.836893e-09 -6.471884e-09 -5.855585e-09 -5.988387e-09
-5.797200e-09 -6.111868e-09 -5.567349e-09 -6.231429e-09 -6.475776e-09 -7.097919e-09 -6.965557e-09 -7.208931e-09 -6.698262e-09 -6.748378e-09
-7.924920e-09 -7.758737e-09 -7.788460e-09 -7.991219e-09 -7.829097e-09 -7.934685e-09 -7.613378e-09 -8.195715e-09 -7.944020e-09 -8.823281e-09
-8.914253e-09 -8.154973e-09 -8.609993e-09 -9.032862e-09 -8.234079e-09 -8.653219e-09 -8.375753e-09 -8.738921e-09 -8.155719e-09 -9.012417e-09
-8.357929e-09 -9.285046e-09 -9.034114e-09 -8.848839e-09 -8.169066e-09 -9.547656e-09 -8.713243e-09 -8.864759e-09 -8.695168e-09 -9.097971e-09
-9.065360e-09 -9.442657e-09 -8.797309e-09 -9.341576e-09 -8.964942e-09 -8.835303e-09 -9.013445e-09 -9.272749e-09 -8.958589e-09 -9.398344e-09
-8.635133e-09 -8.594474e-09 -8.761630e-09 -8.607354e-09 -9.188544e-09 -8.857442e-09 -8.539346e-09 -9.684016e-09 -8.428057e-09 -8.697320e-09
-8.993612e-09 -8.356750e-09 -8.699314e-09 -8.842112e-09 -8.612036e-09 -8.699931e-09 -9.599209e-09 -8.637262e-09 -8.541227e-09 -8.327516e-09
-7.998994e-09 -9.264134e-09 -8.472463e-09 -8.375237e-09 -8.372692e-09 -9.000598e-09 -8.483763e-09 -8.825239e-09 -8.016233e-09 -7.768488e-09
-7.761305e-09 -8.524531e-09 -7.823696e-09 -8.733968e-09 -7.313042e-09 -8.183798e-09 -8.431500e-09 -7.714886e-09 -7.093745e-09 -7.266956e-09
-7.324822e-09 -7.517679e-09 -6.994581e-09 -6.638509e-09 -7.330053e-09 -6.756145e-09 -6.767189e-09 -6.227581e-09 -6.167449e-09 -5.824002e-09
-6.090657e-09 -6.375913e-09 -5.775083e-09 -4.996559e-09 -5.574931e-09 -5.376660e-09 -5.008065e-09 -4.922169e-09 -5.669625e-09 -5.079797e-09
-4.403717e-09 -4.040825e-09 -4.260554e-09 -3.956494e-09 -4.686811e-09 -2.928357e-09 -3.940265e-09 -3.343792e-09 -2.731644e-09 -3.488750e-09
-2.840132e-09 -2.258734e-09 -3.286341e-09 -3.058678e-09 -2.614535e-09 -2.715668e-09 -2.226727e-09 -2.878070e-09 -2.170709e-09 -2.096155e-09
-1.083688e-09 -4.942901e-10 -1.127240e-09 -2.008788e-09 -1.148121e-09 -2.120560e-10 -8.683816e-10 -1.796038e-10 -5.237481e-10 2.050486e-10
-6.729686e-10
6.338504e-10 1.668135e-10 8.186190e-10 9.167772e-10 -4.834033e-10 1.401053e-09 6.133227e-10 1.080660e-09 5.075793e-10 1.376738e-09
1.576436e-09 2.561423e-09 2.243301e-09 2.195871e-09 2.124999e-09 2.624376e-09 2.203763e-09 2.941917e-09 3.107972e-09 2.925651e-09
2.888663e-09 3.662737e-09 4.437851e-09 3.810195e-09 3.767418e-09 4.208859e-09 3.584141e-09 4.625169e-09 4.578283e-09 4.726567e-09
4.841839e-09 4.655418e-09 4.504625e-09 5.313753e-09 5.989747e-09 5.561880e-09 6.368122e-09 5.779525e-09 5.807243e-09 5.746468e-09
6.107792e-09 6.644890e-09 6.832888e-09 6.837731e-09 6.996315e-09 6.782480e-09 7.392713e-09 7.581174e-09 7.151583e-09 7.560534e-09
8.016134e-09 7.368480e-09 7.949784e-09 7.784585e-09 8.181332e-09 7.380625e-09 8.316452e-09 8.330623e-09 8.321429e-09 8.676398e-09
8.131871e-09 8.549912e-09 8.752405e-09 8.109276e-09 8.456326e-09 8.417913e-09 8.534892e-09 8.679976e-09 8.981332e-09 9.246086e-09
9.182719e-09 9.527828e-09 8.777408e-09 8.973276e-09 8.454405e-09 8.874737e-09 9.373128e-09 9.191157e-09 9.228250e-09 9.635301e-09
9.462163e-09 8.897963e-09 9.595269e-09 9.009960e-09 9.243408e-09 9.609888e-09 9.063636e-09 8.739197e-09 9.040193e-09 9.193873e-09
9.716371e-09 8.879831e-09 9.104568e-09 8.954514e-09 9.146079e-09 9.204496e-09 8.966441e-09 8.562485e-09 8.606365e-09 9.499189e-09
8.617543e-09 9.419977e-09 8.755879e-09 9.575325e-09 8.771715e-09 9.014133e-09 8.617371e-09 9.205746e-09 9.560488e-09 8.549805e-09
9.061108e-09 9.339183e-09 8.863666e-09 9.109629e-09 8.811910e-09 9.412472e-09 8.347914e-09 8.429737e-09 8.047707e-09 9.278376e-09
8.404954e-09 7.647868e-09 8.529129e-09 8.202506e-09 8.301839e-09 8.439521e-09 7.836413e-09 7.848733e-09 7.050739e-09 7.268129e-09
7.390176e-09 7.697463e-09 7.260331e-09 6.879537e-09 6.724688e-09 6.830675e-09 6.405930e-09 7.404596e-09 6.853254e-09 6.065397e-09
6.538809e-09 6.000514e-09 6.101946e-09 5.763056e-09 5.592986e-09 5.259749e-09 6.041103e-09 5.111116e-09 4.802238e-09 4.819034e-09
4.670246e-09 5.542402e-09 4.634837e-09 4.221258e-09 4.000078e-09 3.137073e-09 3.100956e-09 3.362865e-09 2.627459e-09 2.980501e-09
2.880640e-09 2.907566e-09 2.717021e-09 2.571134e-09 1.732657e-09 1.849910e-09 1.983383e-09 2.484934e-09 1.758074e-09 1.496784e-09
1.893812e-09 1.554139e-09 1.563841e-09 8.022413e-10 1.048074e-09 5.615015e-10 5.078007e-10 3.875139e-10 -8.399283e-10 -3.731380e-10
-5.902749e-10 -2.191657e-10 -3.679995e-10 -1.126115e-09 5.623501e-11 -9.910163e-10 -9.644644e-10 -1.045738e-09 -1.272146e-09 -1.483909e-09
-1.077946e-09 -1.451325e-09 -2.293672e-09 -2.019658e-09 -2.839741e-09 -2.296744e-09 -2.635472e-09 -2.152628e-09 -3.328333e-09 -2.407179e-09
-3.270815e-09 -3.162683e-09 -3.584141e-09 -4.623511e-09 -3.539784e-09 -2.979713e-09 -4.055090e-09 -4.010221e-09 -4.053013e-09 -4.877525e-09
-4.758450e-09 -6.135144e-09 -5.186474e-09 -5.368274e-09 -5.897964e-09 -5.194708e-09 -6.134490e-09 -5.678885e-09 -6.032790e-09 -6.099974e-09
-7.621716e-09 -6.679358e-09 -6.755840e-09 -6.530570e-09 -5.536126e-09 -7.007362e-09 -6.676938e-09 -7.739032e-09 -6.900799e-09 -7.085779e-09
-8.300524e-09 -6.967001e-09 -7.810861e-09 -7.678920e-09 -7.940727e-09 -7.635098e-09 -8.792187e-09 -8.074005e-09 -7.547644e-09 -8.575704e-09
-8.603704e-09 -8.145952e-09 -8.502737e-09 -8.432479e-09 -8.372495e-09 -8.673259e-09 -8.766379e-09 -8.816183e-09 -8.110615e-09 -9.024462e-09
-8.935266e-09 -8.445478e-09 -8.686519e-09 -8.661114e-09 -8.964562e-09 -9.082754e-09 -9.398894e-09 -9.006029e-09 -9.200917e-09 -9.076458e-09
-9.023459e-09 -9.064252e-09 -9.304086e-09 -8.616812e-09 -8.895824e-09 -9.369316e-09 -9.126198e-09 -9.347819e-09 -8.818489e-09 -9.229713e-09
-9.417426e-09 -8.998772e-09 -8.999539e-09 -9.246151e-09 -9.265583e-09 -9.360048e-09 -9.063077e-09 -9.091125e-09 -8.918563e-09 -9.129471e-09
-8.676831e-09 -9.215636e-09 -1.024119e-08 -9.002897e-09 -9.735977e-09 -8.902983e-09 -9.514081e-09 -9.295783e-09 -9.252929e-09 -8.613125e-09
-8.731413e-09 -8.566448e-09 -8.850627e-09 -9.671171e-09 -8.269436e-09 -8.794051e-09 -8.581345e-09 -8.440820e-09 -8.863501e-09 -9.384016e-09
-8.971603e-09 -8.373480e-09 -8.637420e-09 -8.180534e-09 -8.005466e-09 -8.370382e-09 -7.747291e-09 -8.088619e-09 -7.816691e-09 -7.260386e-09
-7.506537e-09 -6.771876e-09 -6.713905e-09 -7.679239e-09 -7.316986e-09 -7.108338e-09 -7.393117e-09 -6.769089e-09 -7.090138e-09 -6.339121e-09
-6.558100e-09 -5.950417e-09 -6.515146e-09 -6.078833e-09 -5.677732e-09 -5.398869e-09 -6.633312e-09 -5.165219e-09 -5.117332e-09 -4.276176e-09
-5.129111e-09 -4.531798e-09 -5.021472e-09 -4.345500e-09 -4.036808e-09 -3.961252e-09 -4.057922e-09 -3.523639e-09 -2.956422e-09 -3.331896e-09
-2.878472e-09 -2.574714e-09 -3.420402e-09 -2.047564e-09 -1.891793e-09 -2.708874e-09 -2.713100e-09 -1.732370e-09 -1.440421e-09 -2.060554e-09
-2.536996e-09 -1.161021e-09 -1.518556e-09 -4.916286e-10 -7.628283e-11 9.519302e-12 -1.113127e-09 2.282418e-10 -6.546647e-11 1.371374e-10
6.338504e-10
-1.327384e-09 -6.272547e-10 2.701960e-10 8.713044e-10 7.229558e-10 -3.327880e-10 1.241530e-09 7.935523e-10 9.054013e-10 1.720306e-09
1.134702e-09 1.312531e-09 1.969179e-09 2.946888e-09 2.410879e-09 2.476399e-09 3.446354e-09 3.898861e-09 2.656670e-09 2.422742e-09
4.236545e-09 3.326961e-09 3.376721e-09 3.300394e-09 4.262821e-09 3.978916e-09 4.076881e-09 4.010632e-09 4.420780e-09 4.864213e-09
5.422478e-09 5.577103e-09 5.209477e-09 6.350755e-09 5.494107e-09 5.661426e-09 4.791270e-09 6.273325e-09 7.107755e-09 6.292863e-09
6.882949e-09 7.068786e-09 6.898787e-09 7.081783e-09 6.727714e-09 7.442466e-09 7.488294e-09 7.490502e-09 7.713866e-09 8.233713e-09
7.368360e-09 7.667346e-09 8.157277e-09 7.520394e-09 7.859772e-09 8.569731e-09 8.710454e-09 8.003541e-09 8.905108e-09 8.191702e-09
8.614086e-09 9.182158e-09 9.209686e-09 8.418510e-09 8.652152e-09 8.759019e-09 9.314175e-09 8.969650e-09 8.758636e-09 9.016532e-09
8.750211e-09 9.200826e-09 9.282281e-09 9.371534e-09 9.091459e-09 9.400201e-09 9.838594e-09 9.421629e-09 9.160938e-09 8.963839e-09
9.046389e-09 9.053797e-09 1.014351e-08 9.255913e-09 9.793708e-09 9.653189e-09 9.454763e-09 9.486442e-09 9.315051e-09 9.460471e-09
1.025764e-08 9.552647e-09 9.163330e-09 9.758740e-09 9.424851e-09 1.020657e-08 9.451800e-09 9.511088e-09 9.408787e-09 9.652523e-09
9.100586e-09 9.415534e-09 8.702103e-09 9.600966e-09 8.898497e-09 9.459802e-09 9.726006e-09 9.408574e-09 9.542285e-09 9.742535e-09
9.502661e-09 9.608060e-09 9.250964e-09 8.980268e-09 9.070182e-09 8.839393e-09 9.017168e-09 8.801901e-09 8.445489e-09 8.925265e-09
8.013239e-09 8.369960e-09 8.356493e-09 8.414170e-09 7.960920e-09 8.373284e-09 7.825048e-09 7.943972e-09 7.166582e-09 7.859909e-09
8.276642e-09 8.125930e-09 7.182699e-09 6.626819e-09 6.480562e-09 7.092083e-09 6.221569e-09 7.829970e-09 6.817069e-09 6.662747e-09
6.399965e-09 6.272507e-09 5.806983e-09 6.012582e-09 5.487947e-09 5.503274e-09 5.513186e-09 5.590228e-09 5.159511e-09 4.541537e-09
4.925735e-09 4.971014e-09 4.302803e-09 4.509965e-09 4.168499e-09 4.027357e-09 3.670556e-09 3.257033e-09 3.532106e-09 2.899816e-09
3.316167e-09 2.212628e-09 3.474447e-09 3.033422e-09 2.368011e-09 1.861865e-09 1.718083e-09 1.145849e-09 1.342457e-09 1.654092e-09
2.104008e-09 1.392152e-09 1.653943e-09 8.426931e-10 1.183745e-09 1.106290e-09 5.885594e-10 2.271490e-10 -4.007138e-10 -8.693041e-10
-2.733316e-10 5.001302e-10 6.294361e-10 -2.427486e-10 -1.012055e-09 -8.725973e-10 -7.494543e-10 -1.714683e-09 -1.731622e-09 -1.609160e-09
-1.773826e-09 -2.068769e-09 -2.254593e-09 -1.576402e-09 -2.534724e-09 -1.933582e-09 -2.586433e-09 -2.370744e-09 -3.277062e-09 -3.114810e-09
-3.178742e-09 -2.679557e-09 -3.032217e-09 -4.466313e-09 -4.031370e-09 -3.993986e-09 -4.785042e-09 -4.666330e-09 -4.511493e-09 -4.184980e-09
-4.708669e-09 -5.175398e-09 -5.286159e-09 -5.367111e-09 -6.541052e-09 -5.924559e-09 -5.352093e-09 -5.509329e-09 -5.954161e-09 -6.070180e-09
-6.861030e-09 -8.288019e-09 -7.099509e-09 -7.328978e-09 -7.267716e-09 -7.389566e-09 -7.056459e-09 -7.634605e-09 -7.239368e-09 -6.824544e-09
-7.315475e-09 -7.706498e-09 -7.682602e-09 -8.929053e-09 -8.037175e-09 -7.786979e-09 -8.756843e-09 -8.187153e-09 -8.672804e-09 -8.003206e-09
-8.829551e-09 -9.148196e-09 -8.311052e-09 -8.930995e-09 -8.621844e-09 -8.889690e-09 -9.733062e-09 -9.564899e-09 -8.956938e-09 -9.112187e-09
-9.217242e-09 -8.869404e-09 -9.094038e-09 -9.104004e-09 -1.000255e-08 -9.670186e-09 -9.259881e-09 -9.385716e-09 -9.500154e-09 -9.003810e-09
-9.295601e-09 -1.024771e-08 -9.940422e-09 -9.693669e-09 -1.051693e-08 -1.004819e-08 -1.022493e-08 -9.459922e-09 -9.208640e-09 -9.965927e-09
-9.598068e-09 -1.027300e-08 -9.534189e-09 -9.594053e-09 -9.847696e-09 -9.755641e-09 -1.041708e-08 -9.707063e-09 -9.304887e-09 -9.612666e-09
-9.598346e-09 -9.937761e-09 -9.725208e-09 -9.677422e-09 -9.431059e-09 -9.246210e-09 -9.096347e-09 -9.292314e-09 -9.119589e-09 -9.040760e-09
-9.522843e-09 -9.037215e-09 -8.903488e-09 -9.069066e-09 -8.751107e-09 -9.036675e-09 -9.252311e-09 -8.661132e-09 -9.172753e-09 -8.005149e-09
-8.523745e-09 -8.427880e-09 -8.276267e-09 -8.477110e-09 -7.795904e-09 -8.298501e-09 -8.811821e-09 -8.813985e-09 -8.697615e-09 -7.797126e-09
-7.466796e-09 -7.945545e-09 -7.160189e-09 -7.094312e-09 -6.697503e-09 -6.778617e-09 -6.650467e-09 -7.241933e-09 -7.500157e-09 -6.666764e-09
-6.419725e-09 -6.444674e-09 -6.564418e-09 -5.853703e-09 -5.907137e-09 -5.652443e-09 -5.635096e-09 -5.688953e-09 -5.747514e-09 -5.718209e-09
-4.770603e-09 -4.410348e-09 -4.990553e-09 -4.953454e-09 -5.061996e-09 -3.735309e-09 -3.747441e-09 -4.422954e-09 -2.903913e-09 -2.875603e-09
-3.265869e-09 -3.160043e-09 -3.291754e-09 -3.715815e-09 -3.048114e-09 -2.658043e-09 -2.010585e-09 -2.659829e-09 -2.179314e-09 -2.275107e-09
-1.141559e-09 -8.195287e-10 -5.711938e-10 -1.669980e-09 -6.190644e-10 -8.661150e-10 -1.474755e-09 -3.230849e-10 4.527994e-12 -3.515790e-10
-1.327384e-09
1.032355e-09 2.636850e-11 1.110361e-09 3.255559e-11 2.029175e-10 8.444725e-10 1.434183e-09 1.255426e-09 1.146760e-09 2.585811e-09
1.036393e-09 2.126276e-09 1.571148e-09 2.941688e-09 2.094555e-09 2.689117e-09 2.049291e-09 3.369237e-09 3.222735e-09 2.478176e-09
2.745626e-09 4.027785e-09 4.002427e-09 3.535907e-09 5.131734e-09 3.949549e-09 4.604956e-09 4.690502e-09 4.121419e-09 5.165089e-09
5.216398e-09 6.058563e-09 5.845653e-09 6.183049e-09 5.483619e-09 5.504762e-09 5.538459e-09 6.788208e-09 6.501101e-09 6.509062e-09
7.282953e-09 6.974660e-09 8.037319e-09 6.955228e-09 7.314336e-09 7.625181e-09 7.331506e-09 7.296496e-09 8.002163e-09 7.896738e-09
7.899293e-09 8.068492e-09 7.979072e-09 7.918025e-09 8.211273e-09 8.108728e-09 8.537460e-09 8.724119e-09 8.981687e-09 8.788862e-09
8.880414e-09 9.063503e-09 9.016983e-09 9.394109e-09 9.428280e-09 9.738393e-09 9.449314e-09 9.762995e-09 9.594124e-09 9.467847e-09
9.560762e-09 9.369530e-09 9.769763e-09 9.304961e-09 9.475161e-09 9.869665e-09 9.246907e-09 9.816595e-09 9.884899e-09 9.363432e-09
1.009716e-08 1.052790e-08 9.853559e-09 9.748336e-09 1.069795e-08 9.109258e-09 1.008187e-08 1.018270e-08 9.566009e-09 1.014017e-08
9.979925e-09 9.902837e-09 9.994250e-09 9.725781e-09 9.695809e-09 1.044394e-08 9.590567e-09 1.017404e-08 9.869333e-09 9.941612e-09
9.668688e-09 9.869331e-09 9.773012e-09 1.016828e-08 9.552312e-09 9.858947e-09 9.841147e-09 9.033218e-09 9.611210e-09 1.033710e-08
9.216731e-09 9.708471e-09 9.342816e-09 9.520746e-09 9.254330e-09 9.230297e-09 9.400389e-09 8.992518e-09 8.774411e-09 8.396062e-09
8.211657e-09 8.906722e-09 9.511422e-09 8.142805e-09 8.314853e-09 8.990774e-09 8.701300e-09 8.550884e-09 8.252539e-09 8.403146e-09
7.723254e-09 7.693898e-09 7.795390e-09 7.709304e-09 7.432690e-09 7.956231e-09 7.274222e-09 7.848236e-09 6.060211e-09 6.799880e-09
6.990659e-09 7.316623e-09 5.787683e-09 6.945860e-09 5.433753e-09 5.178777e-09 6.340904e-09 5.944648e-09 5.415961e-09 4.336741e-09
5.822194e-09 4.351545e-09 4.100411e-09 4.434115e-09 3.638951e-09 4.400514e-09 3.119294e-09 4.230885e-09 3.193741e-09 2.890675e-09
2.631136e-09 3.454519e-09 3.347361e-09 3.081639e-09 2.466638e-09 2.540103e-09 2.314036e-09 1.674146e-09 2.347424e-09 1.308222e-09
1.279846e-09 1.326587e-09 9.924505e-10 1.212555e-09 7.992180e-10 7.912355e-10 7.904448e-10 8.612474e-12 5.432748e-10 9.586091e-10
-7.358469e-10 1.117391e-09 -1.054927e-09 -1.225519e-09 -1.078679e-09 -1.068607e-09 -5.753202e-10 -1.824367e-09 -5.473553e-10 -2.229753e-09
-2.786165e-09 -1.611845e-09 -1.472591e-09 -3.322736e-09 -1.978803e-09 -2.845410e-09 -2.093363e-09 -3.956320e-09 -2.772959e-09 -2.648400e-09
-3.758587e-09 -3.412393e-09 -3.590007e-09 -3.548694e-09 -3.662608e-09 -4.378860e-09 -4.897949e-09 -4.249239e-09 -5.088436e-09 -5.296679e-09
-4.354600e-09 -5.490305e-09 -6.536702e-09 -5.369130e-09 -5.213142e-09 -6.506921e-09 -6.149166e-09 -6.507900e-09 -7.034591e-09 -6.458611e-09
-6.740178e-09 -6.576747e-09 -7.283765e-09 -6.942240e-09 -7.200116e-09 -7.345980e-09 -7.346616e-09 -7.363983e-09 -8.277091e-09 -7.822273e-09
-7.510912e-09 -7.758548e-09 -8.333764e-09 -8.442219e-09 -8.531981e-09 -8.433925e-09 -9.226889e-09 -8.187437e-09 -8.519073e-09 -8.500733e-09
-9.103085e-09 -9.430699e-09 -8.810266e-09 -9.068240e-09 -9.475648e-09 -9.915528e-09 -1.001500e-08 -9.294172e-09 -9.482144e-09 -9.781314e-09
-1.076600e-08 -9.737404e-09 -9.811618e-09 -9.290510e-09 -8.964461e-09 -9.416675e-09 -9.541536e-09 -9.181629e-09 -9.764999e-09 -9.449105e-09
-9.839225e-09 -1.041466e-08 -1.007081e-08 -1.003664e-08 -9.658564e-09 -9.734137e-09 -1.022368e-08 -9.335646e-09 -1.043155e-08 -1.099093e-08
-1.007361e-08 -1.015402e-08 -9.988619e-09 -1.048695e-08 -9.649884e-09 -1.016871e-08 -9.420490e-09 -9.970905e-09 -1.023256e-08 -9.743344e-09
-9.980589e-09 -1.001286e-08 -1.005797e-08 -9.508280e-09 -9.762144e-09 -1.069909e-08 -9.117237e-09 -9.501648e-09 -9.324524e-09 -9.891100e-09
-9.877090e-09 -8.950781e-09 -9.569560e-09 -9.277785e-09 -9.559758e-09 -1.005147e-08 -9.114767e-09 -9.085696e-09 -8.844367e-09 -9.018970e-09
-8.857747e-09 -9.130975e-09 -8.657421e-09 -8.882981e-09 -8.660872e-09 -8.154561e-09 -8.504032e-09 -8.237201e-09 -7.996319e-09 -7.858692e-09
-7.794157e-09 -7.321534e-09 -8.225896e-09 -7.991090e-09 -7.553472e-09 -7.134720e-09 -7.615024e-09 -7.073185e-09 -6.959856e-09 -6.934723e-09
-6.752542e-09 -6.788737e-09 -6.519182e-09 -6.196363e-09 -5.549746e-09 -6.220677e-09 -5.873090e-09 -6.095552e-09 -5.610572e-09 -5.477057e-09
-4.671513e-09 -4.501460e-09 -4.651187e-09 -4.970728e-09 -4.702767e-09 -4.331206e-09 -3.984070e-09 -3.879601e-09 -3.445191e-09 -3.423906e-09
-3.661488e-09 -2.546869e-09 -3.169065e-09 -2.865544e-09 -3.045063e-09 -2.050285e-09 -1.987757e-09 -2.566699e-09 -2.664736e-09 -2.667131e-09
-1.314490e-09 -1.744134e-10 -1.435358e-09 -1.581326e-09 -8.780653e-10 -9.324195e-10 -4.737830e-10 -1.129553e-09 -1.310124e-09 1.104002e-10
1.032355e-09
6.874976e-10 5.829663e-10 -2.526232e-11 8.063110e-10 1.338330e-09 8.623046e-10 1.041821e-09 1.234259e-09 1.604247e-09 2.526425e-09
1.794501e-09 1.769415e-09 1.766222e-09 1.974530e-09 1.778168e-09 3.484248e-09 2.208073e-09 3.154447e-09 3.526656e-09 3.245561e-09
4.117976e-09 3.900845e-09 4.454423e-09 4.232741e-09 3.600025e-09 4.091966e-09 4.838175e-09 5.228034e-09 4.767191e-09 5.224615e-09
4.281123e-09 5.646093e-09 5.855632e-09 6.500256e-09 5.782919e-09 7.015259e-09 5.990124e-09 6.458347e-09 6.701924e-09 7.230013e-09
7.231474e-09 6.385472e-09 7.893238e-09 7.235978e-09 7.513473e-09 7.302900e-09 7.581690e-09 7.893380e-09 8.243568e-09 8.560530e-09
8.983407e-09 8.697814e-09 8.683010e-09 9.344688e-09 9.162286e-09 8.744343e-09 9.214024e-09 8.849832e-09 8.818190e-09 9.518085e-09
9.330701e-09 8.859618e-09 9.531334e-09 9.683506e-09 9.256823e-09 1.036035e-08 9.688851e-09 1.008957e-08 9.657719e-09 9.754761e-09
1.074646e-08 9.623175e-09 1.045414e-08 9.686976e-09 1.043877e-08 9.619723e-09 9.159235e-09 9.722712e-09 9.547821e-09 1.020607e-08
1.085126e-08 9.850324e-09 1.054851e-08 1.060388e-08 1.007863e-08 1.009032e-08 1.007788e-08 9.718497e-09 1.007574e-08 9.940176e-09
1.019123e-08 1.014850e-08 1.052755e-08 1.023826e-08 1.054264e-08 1.015996e-08 1.001841e-08 1.070309e-08 1.016904e-08 1.006120e-08
9.875295e-09 9.970655e-09 9.722828e-09 1.142629e-08 1.045872e-08 1.039847e-08 1.035313e-08 9.474815e-09 1.052486e-08 1.015763e-08
9.882025e-09 1.044646e-08 9.577750e-09 9.153879e-09 9.505920e-09 9.154548e-09 9.883176e-09 9.763212e-09 9.728584e-09 9.572463e-09
9.246806e-09 9.338521e-09 9.390313e-09 8.507540e-09 9.045675e-09 9.132339e-09 8.402243e-09 8.395741e-09 8.827530e-09 7.727035e-09
7.824554e-09 8.325273e-09 7.754797e-09 7.366866e-09 7.924807e-09 7.581471e-09 7.503374e-09 7.201556e-09 6.723305e-09 6.652103e-09
6.280935e-09 7.171609e-09 7.036900e-09 6.236171e-09 5.831637e-09 5.778361e-09 5.978092e-09 5.771710e-09 4.778672e-09 5.166393e-09
4.668889e-09 5.651586e-09 5.034348e-09 5.125156e-09 4.597545e-09 4.329024e-09 3.054346e-09 4.242990e-09 4.874974e-09 3.648581e-09
3.514440e-09 2.510262e-09 3.424456e-09 2.137063e-09 2.719700e-09 2.229836e-09 2.925177e-09 2.045388e-09 3.133105e-09 1.578252e-09
1.690744e-09 1.425991e-09 1.072124e-09 7.654589e-10 9.299734e-10 -1.458821e-10 5.228531e-10 7.713932e-10 5.077854e-10 -3.250402e-10
-2.742147e-10 7.625008e-11 -5.755824e-10 -4.364513e-10 -1.863015e-09 -3.811501e-10 -7.840497e-10 -1.236390e-09 -2.064646e-09 -1.215445e-09
-1.011830e-09 -1.156215e-09 -2.087176e-09 -2.529949e-09 -3.343517e-09 -2.055042e-09 -2.623350e-09 -3.022913e-09 -4.235996e-09 -2.258912e-09
-3.196054e-09 -4.056404e-09 -3.779931e-09 -4.627660e-09 -2.827869e-09 -4.207418e-09 -4.077722e-09 -5.661585e-09 -5.673550e-09 -5.307470e-09
-5.915664e-09 -5.836134e-09 -6.317716e-09 -6.046121e-09 -5.974295e-09 -6.547609e-09 -7.257294e-09 -5.517430e-09 -6.443523e-09 -8.001508e-09
-7.198944e-09 -7.981233e-09 -7.513723e-09 -7.362794e-09 -7.819597e-09 -6.725543e-09 -8.319410e-09 -8.083641e-09 -8.195564e-09 -8.852929e-09
-7.832054e-09 -9.105967e-09 -8.437559e-09 -8.324854e-09 -8.570532e-09 -9.449784e-09 -9.016079e-09 -1.018469e-08 -8.692510e-09 -1.023557e-08
-9.043027e-09 -9.749319e-09 -1.010890e-08 -9.582840e-09 -9.727955e-09 -9.639300e-09 -1.014720e-08 -9.401087e-09 -9.287148e-09 -9.871624e-09
-9.464427e-09 -9.866913e-09 -1.014299e-08 -1.050606e-08 -1.031146e-08 -9.949834e-09 -9.654813e-09 -9.539213e-09 -1.013631e-08 -1.057073e-08
-1.064888e-08 -9.688827e-09 -1.036602e-08 -1.036136e-08 -1.008055e-08 -1.044066e-08 -1.067683e-08 -1.027610e-08 -1.033313e-08 -9.618432e-09
-9.740948e-09 -1.001412e-08 -1.044723e-08 -1.045037e-08 -1.035740e-08 -1.041205e-08 -1.030193e-08 -1.037608e-08 -1.008626e-08 -1.030493e-08
-1.077250e-08 -9.993962e-09 -1.003972e-08 -1.001956e-08 -1.009743e-08 -9.893859e-09 -9.926968e-09 -9.581683e-09 -1.025087e-08 -9.823502e-09
-1.026423e-08 -9.516293e-09 -1.018662e-08 -9.864301e-09 -9.963654e-09 -9.793312e-09 -9.515989e-09 -9.663260e-09 -9.541619e-09 -9.516760e-09
-9.535686e-09 -1.008484e-08 -9.258327e-09 -8.971781e-09 -9.322741e-09 -8.993517e-09 -8.739967e-09 -9.206111e-09 -9.345901e-09 -8.626646e-09
-7.871393e-09 -8.443301e-09 -8.559156e-09 -8.103092e-09 -8.405940e-09 -8.312405e-09 -7.598802e-09 -7.345135e-09 -7.179590e-09 -6.604916e-09
-7.207373e-09 -7.278107e-09 -6.696574e-09 -6.673529e-09 -5.969817e-09 -6.759846e-09 -6.040778e-09 -5.636753e-09 -5.822745e-09 -6.001173e-09
-5.782647e-09 -4.244896e-09 -4.743243e-09 -5.515050e-09 -4.515899e-09 -4.111178e-09 -4.457187e-09 -4.298428e-09 -3.792545e-09 -2.939724e-09
-3.207174e-09 -3.552507e-09 -3.200985e-09 -3.172525e-09 -2.274792e-09 -1.493448e-09 -2.409311e-09 -2.693656e-09 -2.747901e-09 -1.792508e-09
-1.693593e-09 -1.696506e-09 -4.711280e-10 -9.307032e-10 7.035886e-11 -1.119570e-09 -5.770355e-10 -1.303116e-09 -2.467724e-10 -1.307386e-10
6.874976e-10
7.240116e-11 -1.296113e-09 9.664763e-11 7.449074e-10 3.186938e-10 1.150411e-10 1.393114e-09 1.370900e-09 2.139479e-09 2.995000e-09
7.854075e-10 2.080785e-09 2.591444e-09 2.694240e-09 2.928990e-09 3.027415e-09 3.085644e-09 3.700295e-09 3.534820e-09 3.173837e-09
4.008609e-09 3.980094e-09 3.268984e-09 4.423338e-09 5.081675e-09 5.892930e-09 4.830881e-09 5.544409e-09 5.450433e-09 5.597695e-09
5.269388e-09 6.076863e-09 5.928330e-09 5.706121e-09 6.118962e-09 5.836520e-09 6.294866e-09 6.836846e-09 6.985369e-09 6.722207e-09
7.045246e-09 7.496082e-09 7.184656e-09 7.117205e-09 7.358080e-09 8.272738e-09 7.783710e-09 8.857430e-09 8.534278e-09 9.084627e-09
8.578946e-09 8.411939e-09 9.360138e-09 9.211928e-09 8.613202e-09 9.172233e-09 8.840811e-09 9.529277e-09 9.063037e-09 1.051786e-08
9.578586e-09 1.016295e-08 1.000814e-08 1.028189e-08 9.393745e-09 9.905317e-09 1.025608e-08 1.002018e-08 1.019048e-08 1.034478e-08
1.056343e-08 1.018843e-08 1.007811e-08 9.744744e-09 1.074184e-08 1.006036e-08 1.103489e-08 9.995406e-09 1.077968e-08 1.071030e-08
1.066868e-08 1.060448e-08 1.062936e-08 1.078281e-08 1.104125e-08 1.037218e-08 1.046482e-08 1.049709e-08 1.116453e-08 1.047932e-08
1.089016e-08 1.130413e-08 1.088396e-08 1.103058e-08 1.099645e-08 1.091726e-08 1.066620e-08 1.021718e-08 1.073420e-08 1.103182e-08
1.032006e-08 9.977877e-09 1.058250e-08 1.023942e-08 1.040444e-08 1.053033e-08 9.947493e-09 1.023678e-08 1.062950e-08 1.068323e-08
1.069839e-08 1.019349e-08 1.028901e-08 9.931036e-09 9.849796e-09 1.000286e-08 9.330602e-09 1.026230e-08 9.838689e-09 1.029638e-08
9.583005e-09 1.042379e-08 9.424532e-09 8.883956e-09 8.661163e-09 9.241181e-09 8.521766e-09 8.619529e-09 8.827207e-09 8.634147e-09
8.911040e-09 8.818977e-09 8.725768e-09 7.903565e-09 8.456361e-09 6.970431e-09 7.542472e-09 8.000598e-09 7.324330e-09 6.796526e-09
7.094898e-09 6.960439e-09 6.352939e-09 6.300790e-09 6.201239e-09 7.252849e-09 6.200076e-09 6.180676e-09 6.246961e-09 5.948972e-09
5.870002e-09 4.308901e-09 5.218454e-09 5.115261e-09 3.566331e-09 5.428417e-09 4.444455e-09 3.342725e-09 3.022083e-09 3.096701e-09
3.423269e-09 2.704877e-09 3.337709e-09 3.347050e-09 2.668452e-09 2.417883e-09 1.892880e-09 2.184819e-09 1.936896e-09 1.223120e-09
1.914520e-09 2.219095e-09 1.023063e-09 1.991889e-09 1.279179e-09 7.397290e-10 5.363554e-10 -1.300437e-10 4.625050e-10 -5.083415e-10
-8.095817e-10 -1.415042e-09 -3.383436e-10 -7.010985e-10 -7.589137e-10 -9.793419e-10 -1.107030e-09 -1.682754e-09 -2.196055e-09 -1.372905e-09
-2.258796e-09 -2.290012e-09 -1.917557e-09 -2.368603e-09 -2.696719e-09 -3.182619e-09 -3.647607e-09 -2.209848e-09 -3.132760e-09 -3.498267e-09
-4.720679e-09 -3.407787e-09 -3.816323e-09 -4.199764e-09 -3.643510e-09 -4.523264e-09 -4.380896e-09 -4.125749e-09 -5.457155e-09 -5.742686e-09
-5.814382e-09 -5.656296e-09 -6.110145e-09 -6.542932e-09 -6.213920e-09 -6.262935e-09 -6.612789e-09 -6.057411e-09 -7.193099e-09 -6.768972e-09
-7.550560e-09 -7.419713e-09 -7.768367e-09 -8.082135e-09 -7.791447e-09 -7.687336e-09 -8.132010e-09 -8.639755e-09 -8.303652e-09 -8.301066e-09
-8.695667e-09 -1.005817e-08 -8.440281e-09 -8.659917e-09 -9.787279e-09 -9.027133e-09 -9.867087e-09 -9.387272e-09 -8.889216e-09 -9.675252e-09
-9.386351e-09 -9.653191e-09 -1.002444e-08 -9.470202e-09 -1.018160e-08 -9.516924e-09 -1.069862e-08 -9.778032e-09 -1.010015e-08 -9.746234e-09
-9.796667e-09 -1.123903e-08 -1.037100e-08 -1.024940e-08 -1.118167e-08 -1.022748e-08 -1.033202e-08 -1.037517e-08 -1.120216e-08 -1.103728e-08
-1.130914e-08 -1.058491e-08 -1.045427e-08 -1.007821e-08 -1.066571e-08 -1.039722e-08 -1.079633e-08 -1.099013e-08 -1.093586e-08 -1.095796e-08
-1.037082e-08 -1.054697e-08 -1.063479e-08 -1.072498e-08 -1.028522e-08 -1.024943e-08 -1.060419e-08 -1.066078e-08 -1.033303e-08 -9.491245e-09
-9.969990e-09 -1.082559e-08 -1.005348e-08 -1.048203e-08 -1.001278e-08 -1.057648e-08 -1.089749e-08 -1.100108e-08 -1.035604e-08 -1.003543e-08
-1.021080e-08 -1.033360e-08 -1.096015e-08 -9.895055e-09 -1.047049e-08 -1.040526e-08 -1.061999e-08 -1.028211e-08 -1.056696e-08 -1.045438e-08
-9.876733e-09 -1.003737e-08 -9.204397e-09 -9.600405e-09 -9.246362e-09 -8.996845e-09 -9.003177e-09 -9.928495e-09 -9.379773e-09 -8.777058e-09
-8.273243e-09 -8.148424e-09 -9.119948e-09 -8.133361e-09 -8.370343e-09 -7.875921e-09 -7.058353e-09 -8.299549e-09 -7.629548e-09 -7.614323e-09
-7.053087e-09 -6.778235e-09 -6.460029e-09 -6.461777e-09 -6.399578e-09 -5.907122e-09 -5.710735e-09 -6.132601e-09 -6.067655e-09 -5.690998e-09
-5.100805e-09 -4.996279e-09 -4.713787e-09 -5.238309e-09 -5.213123e-09 -4.590210e-09 -4.035304e-09 -3.189131e-09 -4.032529e-09 -4.513645e-09
-3.875494e-09 -4.019789e-09 -3.207602e-09 -3.568571e-09 -3.688579e-09 -2.545978e-09 -2.416897e-09 -3.087934e-09 -2.357870e-09 -2.425469e-09
-1.743198e-09 -7.495577e-10 -8.782485e-10 -1.790399e-09 -1.702274e-09 -9.940844e-10 -7.482613e-10 1.986734e-10 -2.434552e-10 2.531886e-10
7.240116e-11
6.445649e-10 7.233321e-10 -8.359750e-11 8.124048e-10 1.364104e-09 2.034158e-09 1.491448e-09 1.404327e-09 2.080527e-09 1.740454e-09
3.186156e-09 2.118788e-09 1.382036e-09 2.174698e-09 2.686113e-09 1.860771e-09 3.079701e-09 2.800927e-09 3.766785e-09 3.640675e-09
3.548546e-09 2.537234e-09 4.195924e-09 4.652787e-09 4.575451e-09 5.456842e-09 5.233774e-09 5.558533e-09 4.979668e-09 5.055804e-09
5.552141e-09 5.530425e-09 6.907393e-09 6.036197e-09 7.700197e-09 6.334011e-09 6.822388e-09 7.411959e-09 8.190629e-09 8.280020e-09
6.992133e-09 7.673092e-09 7.554383e-09 7.770961e-09 7.766267e-09 7.611292e-09 8.709538e-09 8.568648e-09 8.239244e-09 8.693736e-09
8.960490e-09 8.795474e-09 9.461917e-09 9.211152e-09 9.334301e-09 9.847171e-09 9.231139e-09 9.432914e-09 9.873592e-09 9.977470e-09
9.247256e-09 1.066084e-08 9.821600e-09 1.004365e-08 1.078587e-08 1.066127e-08 1.022496e-08 1.048395e-08 1.091663e-08 1.018683e-08
1.038908e-08 1.042556e-08 1.062270e-08 1.125045e-08 1.071532e-08 1.075250e-08 1.002560e-08 1.112919e-08 1.051610e-08 1.064277e-08
1.077444e-08 1.052659e-08 1.171887e-08 1.049237e-08 1.103808e-08 1.024076e-08 1.090263e-08 1.140623e-08 1.095263e-08 1.099590e-08
1.092431e-08 1.048783e-08 1.094347e-08 1.082035e-08 1.192724e-08 1.042676e-08 1.067061e-08 1.040295e-08 1.100044e-08 1.089597e-08
1.063382e-08 1.109633e-08 1.134181e-08 1.045776e-08 1.064448e-08 1.050817e-08 1.117892e-08 1.076056e-08 1.068638e-08 1.060350e-08
1.013203e-08 1.047367e-08 1.067872e-08 1.013609e-08 1.052072e-08 1.118970e-08 9.822284e-09 9.526233e-09 1.140875e-08 9.828196e-09
9.936135e-09 9.803535e-09 9.609535e-09 1.018454e-08 9.281029e-09 9.984515e-09 8.647215e-09 8.780709e-09 9.684384e-09 9.445299e-09
8.055854e-09 8.774008e-09 8.800964e-09 8.025814e-09 8.476462e-09 7.668249e-09 8.624539e-09 7.965435e-09 7.484541e-09 7.431643e-09
7.844442e-09 7.557696e-09 6.145211e-09 6.508758e-09 7.178418e-09 6.413001e-09 5.933845e-09 6.053091e-09 5.824317e-09 5.929486e-09
5.997261e-09 5.667933e-09 5.277098e-09 4.107591e-09 4.638065e-09 3.722323e-09 5.215310e-09 4.403404e-09 4.342043e-09 3.447981e-09
3.453107e-09 3.100871e-09 2.614588e-09 3.607691e-09 3.093106e-09 2.137230e-09 2.716584e-09 1.739401e-09 2.752586e-09 1.774012e-09
1.106541e-09 -7.847070e-12 1.233784e-09 1.922189e-09 2.683785e-10 8.534910e-11 -1.974716e-10 -1.337231e-10 -1.833511e-09 3.338302e-10
-4.686658e-10 -1.372196e-09 -7.563941e-10 -9.842346e-10 4.250608e-10 -1.105070e-09 -6.806445e-10 -2.001742e-09 -1.933353e-09 -1.854495e-09
-2.336715e-09 -2.267300e-09 -1.939984e-09 -3.270086e-09 -3.711193e-09 -3.473931e-09 -2.404990e-09 -3.471722e-09 -3.497705e-09 -3.102733e-09
-5.233060e-09 -3.676134e-09 -3.855810e-09 -3.269115e-09 -4.234252e-09 -4.908944e-09 -5.070579e-09 -4.540194e-09 -5.332127e-09 -4.729838e-09
-6.307771e-09 -5.891016e-09 -7.021713e-09 -6.254826e-09 -6.738281e-09 -6.615966e-09 -6.674307e-09 -6.909731e-09 -7.000742e-09 -7.612613e-09
-6.957497e-09 -7.227276e-09 -7.732228e-09 -7.718675e-09 -8.193855e-09 -8.003615e-09 -9.404878e-09 -8.065097e-09 -9.015186e-09 -9.476044e-09
-9.022965e-09 -8.782561e-09 -9.539852e-09 -8.867735e-09 -1.032988e-08 -9.769898e-09 -9.138481e-09 -9.521131e-09 -9.712565e-09 -1.017917e-08
-9.521646e-09 -1.011973e-08 -1.057856e-08 -1.111335e-08 -1.077387e-08 -1.045677e-08 -1.064424e-08 -1.068593e-08 -1.063409e-08 -1.029807e-08
-1.042805e-08 -1.024138e-08 -1.035311e-08 -1.068412e-08 -9.984869e-09 -1.088887e-08 -1.080641e-08 -1.066379e-08 -1.062049e-08 -1.058468e-08
-1.061011e-08 -1.036597e-08 -1.072162e-08 -1.095097e-08 -1.049775e-08 -1.108128e-08 -1.088933e-08 -1.087905e-08 -1.081180e-08 -1.085316e-08
-1.066352e-08 -1.099521e-08 -1.053630e-08 -1.040992e-08 -1.183714e-08 -1.057894e-08 -1.089306e-08 -1.067495e-08 -1.240738e-08 -1.123470e-08
-1.066233e-08 -1.097712e-08 -1.059799e-08 -1.134457e-08 -1.065608e-08 -1.040361e-08 -1.144368e-08 -1.031670e-08 -1.095201e-08 -1.102173e-08
-1.123270e-08 -1.049996e-08 -1.138507e-08 -9.744258e-09 -1.015200e-08 -1.023066e-08 -9.838894e-09 -1.061232e-08 -9.884242e-09 -9.936787e-09
-9.786304e-09 -9.352267e-09 -9.349955e-09 -9.794249e-09 -9.906471e-09 -9.988308e-09 -9.217946e-09 -9.203778e-09 -9.274618e-09 -8.669230e-09
-9.121684e-09 -8.678537e-09 -9.439327e-09 -9.090061e-09 -8.483519e-09 -8.752448e-09 -8.112501e-09 -8.787504e-09 -7.815628e-09 -7.732933e-09
-7.538175e-09 -8.200001e-09 -7.641382e-09 -7.898460e-09 -7.293619e-09 -7.183785e-09 -6.080690e-09 -6.196617e-09 -6.475113e-09 -6.504973e-09
-5.482291e-09 -5.327183e-09 -5.127109e-09 -4.468487e-09 -5.027700e-09 -4.022022e-09 -5.302114e-09 -5.028156e-09 -3.230811e-09 -3.714923e-09
-3.136562e-09 -3.371769e-09 -2.430111e-09 -4.133786e-09 -2.951785e-09 -3.246469e-09 -2.335549e-09 -1.510623e-09 -1.429704e-09 -1.053042e-09
-1.752133e-09 -1.506725e-09 -1.453879e-09 -9.517082e-10 -1.071430e-09 -6.055250e-10 -5.236008e-10 -1.003043e-09 6.371850e-10 4.741318e-10
6.445649e-10
1.306637e-10 1.808822e-10 4.696959e-10 9.799227e-10 5.407695e-10 1.747414e-09 2.488068e-10 1.393719e-09 1.828911e-09 1.262932e-09
2.563376e-09 1.694276e-09 1.426546e-09 2.681736e-09 2.835331e-09 2.386291e-09 3.313382e-09 2.418375e-09 4.856047e-09 3.333815e-09
3.143513e-09 5.018859e-09 4.709019e-09 4.069321e-09 4.958888e-09 4.577086e-09 4.965365e-09 5.802976e-09 5.433995e-09 6.258145e-09
5.759434e-09 5.521871e-09 6.407183e-09 7.409497e-09 6.454954e-09 5.944211e-09 6.461164e-09 7.174781e-09 7.132833e-09 7.574452e-09
7.722744e-09 7.740419e-09 8.677023e-09 8.348338e-09 8.147306e-09 8.153659e-09 8.742589e-09 8.924977e-09 9.977188e-09 9.481525e-09
9.252639e-09 9.124069e-09 9.806921e-09 8.589244e-09 9.956334e-09 9.714551e-09 1.005328e-08 1.020294e-08 9.771793e-09 1.045181e-08
9.869084e-09 1.089962e-08 1.001856e-08 1.004992e-08 1.094829e-08 1.111264e-08 1.051417e-08 1.071672e-08 1.002353e-08 1.087084e-08
1.224561e-08 1.136006e-08 1.105521e-08 1.137463e-08 1.160242e-08 1.112591e-08 1.140208e-08 1.077017e-08 1.071956e-08 1.111995e-08
1.160343e-08 1.072047e-08 1.093310e-08 1.118548e-08 1.146851e-08 1.092802e-08 1.163375e-08 1.131037e-08 1.124009e-08 1.123301e-08
1.117459e-08 1.173106e-08 1.079529e-08 1.154395e-08 1.113105e-08 1.112707e-08 1.109087e-08 1.065227e-08 1.068447e-08 1.086106e-08
1.069869e-08 1.062928e-08 1.133796e-08 1.196238e-08 1.098495e-08 1.054293e-08 1.065816e-08 1.161538e-08 1.099488e-08 1.093945e-08
1.098073e-08 1.103093e-08 1.028754e-08 1.043365e-08 1.028558e-08 1.126010e-08 1.066805e-08 1.099495e-08 1.024238e-08 1.052033e-08
9.862816e-09 1.039919e-08 1.019144e-08 9.531065e-09 9.247066e-09 9.096037e-09 9.601306e-09 9.537500e-09 8.748740e-09 9.135067e-09
8.530004e-09 8.983068e-09 8.820330e-09 9.393911e-09 9.293570e-09 8.370802e-09 7.921617e-09 7.730947e-09 8.348700e-09 7.847644e-09
8.077109e-09 7.461971e-09 6.202956e-09 6.917514e-09 6.352709e-09 6.712319e-09 5.814407e-09 6.449849e-09 7.303225e-09 5.562022e-09
6.376260e-09 4.899941e-09 6.337098e-09 5.428362e-09 5.709001e-09 4.499518e-09 4.255339e-09 3.448217e-09 3.487616e-09 3.936126e-09
3.113865e-09 2.460272e-09 2.208703e-09 3.077708e-09 2.149640e-09 2.178713e-09 2.618863e-09 2.510364e-09 1.539763e-09 2.381796e-09
2.086743e-09 2.530286e-09 1.562391e-09 6.177900e-10 2.115189e-09 1.877281e-10 2.810359e-10 -9.895312e-11 -2.299506e-10 -5.168520e-10
-4.963910e-10 -2.621414e-10 -5.420552e-10 -6.356307e-10 -5.902556e-10 -5.890806e-10 -1.526660e-09 -7.278418e-10 -2.082714e-09 -1.403849e-09
-1.801033e-09 -2.433377e-09 -2.316547e-09 -2.303851e-09 -3.393253e-09 -2.796365e-09 -3.442561e-09 -3.305989e-09 -3.432343e-09 -3.873608e-09
-4.513133e-09 -4.093645e-09 -5.505904e-09 -4.401026e-09 -3.772765e-09 -4.575242e-09 -4.740654e-09 -4.988916e-09 -4.535269e-09 -5.764138e-09
-5.921726e-09 -5.706454e-09 -6.044700e-09 -6.241043e-09 -6.321791e-09 -6.816543e-09 -6.580726e-09 -7.247535e-09 -6.801304e-09 -7.357604e-09
-8.437881e-09 -8.246033e-09 -7.493178e-09 -7.986652e-09 -8.554196e-09 -8.678420e-09 -8.202218e-09 -8.740442e-09 -9.047534e-09 -9.092521e-09
-8.632825e-09 -9.397819e-09 -9.355140e-09 -9.204416e-09 -9.371855e-09 -1.030996e-08 -1.023610e-08 -1.046553e-08 -1.100416e-08 -1.075662e-08
-1.136757e-08 -1.100480e-08 -1.075058e-08 -1.045307e-08 -1.041861e-08 -1.070189e-08 -1.015885e-08 -1.049626e-08 -1.123999e-08 -1.049241e-08
-1.132243e-08 -1.091243e-08 -1.031042e-08 -1.078570e-08 -1.047190e-08 -1.089610e-08 -1.053372e-08 -1.174727e-08 -1.104403e-08 -1.121135e-08
-1.248756e-08 -1.062826e-08 -1.084881e-08 -1.138448e-08 -1.224127e-08 -1.119755e-08 -1.113845e-08 -1.093332e-08 -1.160500e-08 -1.110519e-08
-1.130645e-08 -1.084731e-08 -1.066828e-08 -1.117233e-08 -1.152940e-08 -1.106565e-08 -1.098200e-08 -1.173458e-08 -1.093213e-08 -1.129043e-08
-1.078038e-08 -1.144312e-08 -1.090663e-08 -1.117053e-08 -1.144059e-08 -1.080632e-08 -1.162154e-08 -1.102423e-08 -1.072878e-08 -1.121658e-08
-1.069742e-08 -1.071105e-08 -1.107933e-08 -1.099017e-08 -1.072423e-08 -1.158044e-08 -1.081087e-08 -1.108925e-08 -1.045124e-08 -1.041893e-08
-1.060938e-08 -9.886658e-09 -9.795419e-09 -1.040917e-08 -1.033753e-08 -9.734841e-09 -9.788503e-09 -9.183041e-09 -9.485700e-09 -9.326757e-09
-9.141652e-09 -8.950986e-09 -8.826841e-09 -8.517919e-09 -8.296250e-09 -9.435716e-09 -8.870090e-09 -7.759311e-09 -7.856236e-09 -8.224787e-09
-7.905940e-09 -8.258166e-09 -6.941570e-09 -6.750041e-09 -7.001676e-09 -6.599819e-09 -6.626390e-09 -7.201269e-09 -6.100569e-09 -5.050663e-09
-7.368685e-09 -5.796666e-09 -5.159861e-09 -5.423618e-09 -4.786834e-09 -4.499999e-09 -4.554269e-09 -4.500488e-09 -4.559104e-09 -3.782437e-09
-3.305809e-09 -3.826309e-09 -3.785383e-09 -2.587601e-09 -3.487399e-09 -3.271116e-09 -4.085294e-09 -3.057913e-09 -2.824482e-09 -2.225241e-09
-2.533213e-09 -3.903222e-10 -7.656328e-10 -1.020156e-09 -1.084445e-09 -1.618236e-10 -8.959484e-10 4.176332e-10 -6.809593e-10 7.037718e-10
1.306637e-10
-6.747262e-10 -1.198709e-09 7.285528e-10 8.358922e-10 9.247817e-11 1.008162e-09 6.415635e-10 8.462445e-10 2.403226e-09 1.805804e-09
1.980146e-09 2.927373e-09 2.132163e-09 2.665354e-09 2.722925e-09 3.060008e-09 3.715359e-09 4.404097e-09 4.218877e-09 3.678091e-09
4.414836e-09 4.437048e-09 4.834873e-09 5.402054e-09 4.839491e-09 5.117460e-09 4.928647e-09 6.164134e-09 5.934973e-09 5.524396e-09
6.310219e-09 6.704076e-09 6.086388e-09 6.092300e-09 6.196230e-09 7.024411e-09 7.149767e-09 7.228932e-09 7.268677e-09 8.074454e-09
7.218857e-09 8.034410e-09 7.968903e-09 8.771575e-09 8.275464e-09 9.519754e-09 8.955198e-09 9.950878e-09 9.056669e-09 9.093929e-09
9.233936e-09 9.859457e-09 9.402921e-09 1.041583e-08 9.922956e-09 1.040911e-08 1.039079e-08 9.900927e-09 9.774467e-09 1.014013e-08
1.083407e-08 1.126179e-08 1.044632e-08 1.066327e-08 1.004666e-08 1.059609e-08 1.141047e-08 1.077010e-08 1.119303e-08 1.039928e-08
1.178247e-08 1.159298e-08 1.127662e-08 1.076561e-08 1.174937e-08 1.099174e-08 1.131088e-08 1.152582e-08 1.094032e-08 1.201280e-08
1.111887e-08 1.080467e-08 1.141777e-08 1.180202e-08 1.110619e-08 1.193624e-08 1.181711e-08 1.098085e-08 1.138870e-08 1.185216e-08
1.091208e-08 1.163574e-08 1.131083e-08 1.221259e-08 1.138194e-08 1.174766e-08 1.161386e-08 1.115756e-08 1.101834e-08 1.219018e-08
1.177516e-08 1.145127e-08 1.179155e-08 1.063968e-08 1.112593e-08 1.134957e-08 1.169609e-08 1.112423e-08 1.187907e-08 1.135472e-08
1.162355e-08 1.115951e-08 1.179034e-08 1.125815e-08 1.134987e-08 1.169569e-08 1.067793e-08 1.068017e-08 1.119370e-08 1.052915e-08
1.064725e-08 9.797296e-09 1.125095e-08 1.023961e-08 1.023976e-08 1.011324e-08 9.318303e-09 9.515564e-09 1.036599e-08 9.989076e-09
9.331264e-09 9.643861e-09 8.691141e-09 9.294669e-09 9.023157e-09 8.611174e-09 8.371205e-09 8.758412e-09 8.000577e-09 8.172981e-09
7.791905e-09 7.098130e-09 6.893135e-09 7.743641e-09 7.102656e-09 6.934753e-09 7.060127e-09 5.980672e-09 5.691687e-09 6.044779e-09
5.844154e-09 5.484745e-09 4.738351e-09 5.811332e-09 5.343564e-09 5.278455e-09 3.857155e-09 4.685888e-09 4.591473e-09 3.152945e-09
3.934828e-09 3.257184e-09 3.404351e-09 2.464563e-09 3.340678e-09 2.996419e-09 2.093455e-09 2.248089e-09 1.827065e-09 1.474243e-09
1.906004e-09 1.748354e-09 5.416347e-10 3.550699e-10 5.146866e-10 1.118741e-09 7.768519e-11 7.705060e-10 7.583323e-12 -1.500653e-10
-3.522259e-10 1.335521e-09 -9.833112e-10 -1.231586e-10 -5.848281e-10 -5.462346e-10 -2.364740e-09 -1.804069e-09 -9.430814e-10 -1.441476e-09
-2.496846e-09 -2.502577e-09 -2.126554e-09 -3.887510e-09 -3.385879e-09 -3.788989e-09 -2.876571e-09 -2.257023e-09 -3.669422e-09 -4.828897e-09
-4.327803e-09 -3.361052e-09 -3.323132e-09 -4.580477e-09 -4.325423e-09 -4.019497e-09 -5.237247e-09 -5.641937e-09 -5.022065e-09 -5.772344e-09
-5.872277e-09 -7.103271e-09 -6.612115e-09 -6.396580e-09 -7.500614e-09 -6.802713e-09 -6.920478e-09 -8.622139e-09 -6.974446e-09 -7.833187e-09
-8.138906e-09 -7.659938e-09 -7.912420e-09 -8.255434e-09 -8.714324e-09 -8.184962e-09 -9.072234e-09 -8.973707e-09 -9.396770e-09 -9.449586e-09
-9.575704e-09 -1.028931e-08 -9.425946e-09 -9.265642e-09 -1.021357e-08 -9.521649e-09 -1.007105e-08 -1.164492e-08 -1.099847e-08 -1.063210e-08
-1.069539e-08 -1.033745e-08 -1.080323e-08 -1.029173e-08 -1.133782e-08 -1.115362e-08 -1.107408e-08 -1.127657e-08 -1.060807e-08 -1.129590e-08
-1.090030e-08 -1.155390e-08 -1.127248e-08 -1.111852e-08 -1.149164e-08 -1.106373e-08 -1.083592e-08 -1.096245e-08 -1.174783e-08 -1.126887e-08
-1.125443e-08 -1.111864e-08 -1.107777e-08 -1.108650e-08 -1.202736e-08 -1.180899e-08 -1.121413e-08 -1.211863e-08 -1.118844e-08 -1.149897e-08
-1.151825e-08 -1.179984e-08 -1.111844e-08 -1.114765e-08 -1.145865e-08 -1.112659e-08 -1.126237e-08 -1.190460e-08 -1.138149e-08 -1.117486e-08
-1.144869e-08 -1.194228e-08 -1.227822e-08 -1.107316e-08 -1.135871e-08 -1.088637e-08 -1.155478e-08 -1.089231e-08 -1.148439e-08 -1.199074e-08
-1.075789e-08 -1.101530e-08 -1.290102e-08 -1.165769e-08 -1.117066e-08 -1.074341e-08 -1.120452e-08 -1.177984e-08 -1.102409e-08 -1.155065e-08
-1.112662e-08 -1.140304e-08 -1.010723e-08 -1.021545e-08 -1.042351e-08 -1.051784e-08 -1.048680e-08 -9.812001e-09 -9.110276e-09 -8.905762e-09
-1.061278e-08 -9.151989e-09 -1.031299e-08 -8.862787e-09 -8.783388e-09 -8.914077e-09 -7.854762e-09 -8.758357e-09 -8.196338e-09 -8.213894e-09
-7.845149e-09 -8.050565e-09 -8.476746e-09 -6.538660e-09 -8.622840e-09 -6.251151e-09 -7.159700e-09 -7.217770e-09 -5.750955e-09 -5.714062e-09
-6.219191e-09 -5.380288e-09 -5.594833e-09 -5.288644e-09 -5.537353e-09 -4.630011e-09 -4.579905e-09 -3.921085e-09 -4.427261e-09 -4.186222e-09
-3.791262e-09 -3.599033e-09 -3.570938e-09 -2.680738e-09 -2.980130e-09 -3.399941e-09 -3.176839e-09 -2.957460e-09 -2.930737e-09 -2.496956e-09
-3.009025e-09 -2.075144e-09 -1.947061e-09 -2.601034e-09 2.675924e-10 -1.320521e-09 -7.441208e-10 7.156578e-10 -1.432111e-10 -1.385579e-09
-6.747262e-10
1.960424e-09 3.203611e-10 8.775401e-10 2.839301e-11 8.392836e-10 8.580343e-10 2.527075e-09 2.358734e-09 1.435107e-09 1.703015e-09
1.401855e-09 2.701067e-09 2.302750e-09 1.706210e-09 2.950204e-09 2.629263e-09 3.647571e-09 3.403825e-09 4.143014e-09 4.545324e-09
3.949197e-09 4.070977e-09 4.048731e-09 4.692561e-09 4.879051e-09 5.079575e-09 5.126026e-09 5.703674e-09 6.155761e-09 5.716137e-09
6.644210e-09 6.561277e-09 6.410795e-09 7.445477e-09 7.314025e-09 7.879231e-09 7.421356e-09 7.945233e-09 7.615892e-09 8.101939e-09
8.246916e-09 8.174736e-09 7.927994e-09 9.651044e-09 8.821562e-09 9.374220e-09 9.442602e-09 9.229193e-09 9.568879e-09 9.263931e-09
1.000761e-08 9.794489e-09 9.351211e-09 1.002088e-08 1.006001e-08 1.094941e-08 1.079783e-08 1.014273e-08 1.105614e-08 1.164863e-08
1.110633e-08 1.137745e-08 1.152550e-08 1.080461e-08 1.073987e-08 1.194631e-08 1.064538e-08 1.196670e-08 1.193325e-08 1.093440e-08
1.118021e-08 1.189354e-08 1.148006e-08 1.143964e-08 1.148263e-08 1.164607e-08 1.171486e-08 1.108411e-08 1.152782e-08 1.154799e-08
1.158960e-08 1.148872e-08 1.131418e-08 1.125894e-08 1.178993e-08 1.213764e-08 1.191551e-08 1.201261e-08 1.164139e-08 1.140346e-08
1.144144e-08 1.161335e-08 1.211292e-08 1.203243e-08 1.232320e-08 1.179483e-08 1.161156e-08 1.209716e-08 1.105434e-08 1.199779e-08
1.161229e-08 1.149799e-08 1.138637e-08 1.133636e-08 1.215687e-08 1.182133e-08 1.099951e-08 1.158008e-08 1.145385e-08 1.190336e-08
1.186530e-08 1.206508e-08 1.185543e-08 1.137836e-08 1.103456e-08 1.104017e-08 1.149458e-08 1.172742e-08 1.158475e-08 1.131950e-08
1.099867e-08 1.080682e-08 1.068410e-08 1.040328e-08 1.091642e-08 1.100718e-08 1.017327e-08 1.029156e-08 9.763507e-09 1.057074e-08
9.180167e-09 8.757322e-09 9.466122e-09 9.689305e-09 9.226846e-09 9.134648e-09 9.156687e-09 7.595521e-09 7.919500e-09 7.581973e-09
7.957991e-09 7.503083e-09 7.290119e-09 7.154277e-09 6.889395e-09 6.892909e-09 6.024900e-09 7.470224e-09 6.512886e-09 6.588134e-09
6.162514e-09 6.232918e-09 5.416695e-09 5.207610e-09 4.673328e-09 4.553554e-09 4.531131e-09 4.912680e-09 4.037737e-09 3.898533e-09
3.460999e-09 3.556881e-09 2.836871e-09 2.726872e-09 2.210168e-09 3.446981e-09 2.065931e-09 3.712464e-09 2.364924e-09 1.771961e-09
1.705877e-09 1.585524e-09 1.133525e-09 2.065265e-09 1.182972e-09 1.227694e-09 1.033513e-09 -7.119836e-11 -4.526715e-10 6.626752e-10
3.186323e-10 -2.822394e-10 1.023174e-09 -8.309103e-10 5.111815e-10 -5.749350e-10 -8.745225e-10 -1.573507e-09 -2.402103e-09 -1.326729e-09
-1.848420e-09 -2.171905e-09 -1.866630e-09 -3.390436e-09 -3.236513e-09 -2.777257e-09 -3.146636e-09 -3.513781e-09 -2.948860e-09 -3.954042e-09
-4.158678e-09 -5.532046e-09 -4.463063e-09 -4.388685e-09 -4.097493e-09 -4.890214e-09 -5.794730e-09 -5.846346e-09 -6.118855e-09 -6.083354e-09
-6.892000e-09 -6.682716e-09 -6.457095e-09 -7.096467e-09 -7.417996e-09 -7.616110e-09 -7.072769e-09 -7.718156e-09 -7.182135e-09 -8.238659e-09
-7.939986e-09 -8.278907e-09 -8.481075e-09 -8.817264e-09 -8.507878e-09 -8.538740e-09 -9.903240e-09 -9.119471e-09 -9.310099e-09 -9.561450e-09
-9.340503e-09 -1.001680e-08 -1.013895e-08 -9.988949e-09 -1.058587e-08 -1.029747e-08 -1.082394e-08 -1.041832e-08 -1.160058e-08 -1.091835e-08
-1.079931e-08 -1.104230e-08 -1.126647e-08 -1.146584e-08 -1.159830e-08 -1.159151e-08 -1.155287e-08 -1.186850e-08 -1.128143e-08 -1.147037e-08
-1.196578e-08 -1.131377e-08 -1.175682e-08 -1.105229e-08 -1.205717e-08 -1.225232e-08 -1.194181e-08 -1.191166e-08 -1.157463e-08 -1.157384e-08
-1.149411e-08 -1.164912e-08 -1.249907e-08 -1.188707e-08 -1.169449e-08 -1.158893e-08 -1.202203e-08 -1.178804e-08 -1.171683e-08 -1.223327e-08
-1.121577e-08 -1.207876e-08 -1.177086e-08 -1.141256e-08 -1.219262e-08 -1.189737e-08 -1.235785e-08 -1.168299e-08 -1.126529e-08 -1.134092e-08
-1.229814e-08 -1.139947e-08 -1.202379e-08 -1.137965e-08 -1.167236e-08 -1.158668e-08 -1.207643e-08 -1.217302e-08 -1.121347e-08 -1.163690e-08
-1.091145e-08 -1.203091e-08 -1.229402e-08 -1.183227e-08 -1.175121e-08 -1.081429e-08 -1.144935e-08 -1.109149e-08 -1.049150e-08 -1.127427e-08
-1.126974e-08 -1.056847e-08 -1.097360e-08 -1.122481e-08 -1.058553e-08 -1.013868e-08 -1.124581e-08 -1.001500e-08 -1.036342e-08 -9.989995e-09
-9.921280e-09 -9.575155e-09 -1.067320e-08 -1.009654e-08 -8.716883e-09 -8.492841e-09 -8.471052e-09 -8.850788e-09 -9.036198e-09 -9.248223e-09
-8.499989e-09 -7.843936e-09 -7.669212e-09 -7.469044e-09 -8.062846e-09 -6.803022e-09 -7.029141e-09 -7.366314e-09 -6.038500e-09 -5.525759e-09
-6.367659e-09 -5.648849e-09 -5.843289e-09 -6.049370e-09 -4.742720e-09 -5.021669e-09 -6.053078e-09 -4.945484e-09 -4.391005e-09 -4.061588e-09
-3.129121e-09 -3.336702e-09 -3.177966e-09 -3.866629e-09 -3.828983e-09 -3.330326e-09 -1.516814e-09 -2.423992e-09 -1.887631e-09 -1.604967e-09
-1.922702e-09 -1.066322e-09 -1.735459e-09 -1.112714e-09 -1.021920e-09 8.373326e-10 -5.024661e-10 -2.966426e-10 -5.909011e-10 1.224481e-10
1.960424e-09
1.979005e-10 4.711886e-10 4.553935e-10 4.179056e-10 1.136766e-10 -2.306050e-11 1.833055e-09 1.401357e-09 1.121263e-09 5.039087e-10
2.460067e-09 2.438862e-09 1.543833e-09 2.529675e-09 2.691394e-09 4.003845e-09 3.319112e-09 3.263242e-09 3.698564e-09 4.608117e-09
3.803507e-09 5.087783e-09 4.689131e-09 4.823963e-09 5.130083e-09 4.686331e-09 5.827673e-09 5.783848e-09 6.582051e-09 5.916361e-09
6.835954e-09 6.432581e-09 6.885580e-09 7.253086e-09 7.493147e-09 7.669203e-09 7.367198e-09 8.248763e-09 7.538499e-09 8.270057e-09
8.063904e-09 9.386366e-09 8.342323e-09 8.607270e-09 9.135429e-09 9.537517e-09 1.034896e-08 9.374339e-09 9.494125e-09 9.565085e-09
9.539223e-09 9.922788e-09 1.002962e-08 1.019264e-08 1.092006e-08 1.098759e-08 1.097265e-08 1.023278e-08 1.136226e-08 1.142730e-08
1.139920e-08 1.080423e-08 1.128599e-08 1.164225e-08 1.125791e-08 1.127392e-08 1.248836e-08 1.191575e-08 1.145881e-08 1.211885e-08
1.193180e-08 1.195991e-08 1.165372e-08 1.262020e-08 1.247976e-08 1.155120e-08 1.154772e-08 1.175126e-08 1.122953e-08 1.172835e-08
1.247248e-08 1.193569e-08 1.271555e-08 1.148635e-08 1.206037e-08 1.131397e-08 1.225312e-08 1.207340e-08 1.171102e-08 1.240799e-08
1.181385e-08 1.180688e-08 1.239059e-08 1.207710e-08 1.271428e-08 1.171422e-08 1.253398e-08 1.178679e-08 1.214752e-08 1.195514e-08
1.270245e-08 1.210512e-08 1.134610e-08 1.190387e-08 1.205607e-08 1.163303e-08 1.137008e-08 1.233529e-08 1.184150e-08 1.120104e-08
1.260479e-08 1.180437e-08 1.148148e-08 1.119965e-08 1.246399e-08 1.175048e-08 1.150203e-08 1.122768e-08 1.176277e-08 1.119765e-08
1.088455e-08 1.063739e-08 1.120555e-08 1.122524e-08 1.193000e-08 1.031568e-08 1.060290e-08 9.927246e-09 1.080735e-08 1.006852e-08
9.444924e-09 9.913627e-09 9.711196e-09 8.823137e-09 9.095412e-09 1.025127e-08 9.058563e-09 8.516703e-09 8.961460e-09 7.731219e-09
8.792750e-09 7.279507e-09 8.232981e-09 7.947127e-09 7.324519e-09 7.119432e-09 6.918849e-09 6.741369e-09 6.815216e-09 5.858292e-09
5.361413e-09 5.997308e-09 5.805405e-09 5.625528e-09 5.445354e-09 4.778880e-09 6.009059e-09 4.470654e-09 4.347667e-09 4.547709e-09
4.515101e-09 4.444210e-09 3.767807e-09 2.835799e-09 3.223695e-09 2.601815e-09 3.235669e-09 2.925864e-09 2.626397e-09 1.222129e-09
2.118172e-09 1.436393e-09 2.547585e-09 2.030369e-09 6.911625e-10 8.468772e-10 1.028218e-10 -3.473216e-10 1.401296e-09 1.146707e-09
1.216573e-09 -7.850447e-12 -4.089499e-10 -4.896483e-10 -6.090998e-10 -1.712180e-09 -3.081763e-10 -9.793455e-10 -2.785234e-09 -1.837342e-09
-2.883183e-09 -2.581872e-09 -2.328773e-09 -1.702082e-09 -3.273757e-09 -2.830443e-09 -3.725072e-09 -3.653685e-09 -3.428570e-09 -4.416879e-09
-3.606176e-09 -4.158386e-09 -4.172080e-09 -4.708841e-09 -4.549027e-09 -5.077457e-09 -5.519191e-09 -6.258214e-09 -6.215091e-09 -5.976043e-09
-6.345470e-09 -6.774890e-09 -6.345033e-09 -6.567225e-09 -6.819031e-09 -7.892253e-09 -8.107212e-09 -7.985782e-09 -9.007068e-09 -7.845643e-09
-8.238777e-09 -8.248805e-09 -8.740151e-09 -8.535967e-09 -9.043628e-09 -9.463065e-09 -9.696113e-09 -9.706425e-09 -9.926809e-09 -9.907698e-09
-9.665816e-09 -9.932886e-09 -9.956313e-09 -9.652371e-09 -1.067417e-08 -1.053856e-08 -1.006382e-08 -1.062489e-08 -1.077343e-08 -1.127113e-08
-1.126045e-08 -1.127902e-08 -1.180139e-08 -1.214733e-08 -1.099743e-08 -1.170967e-08 -1.228434e-08 -1.201230e-08 -1.209370e-08 -1.218234e-08
-1.125255e-08 -1.203741e-08 -1.153475e-08 -1.185559e-08 -1.218563e-08 -1.140883e-08 -1.152451e-08 -1.165319e-08 -1.215504e-08 -1.309865e-08
-1.162852e-08 -1.171594e-08 -1.196410e-08 -1.204476e-08 -1.202125e-08 -1.176201e-08 -1.308877e-08 -1.267925e-08 -1.224536e-08 -1.162876e-08
-1.174780e-08 -1.220369e-08 -1.219826e-08 -1.258977e-08 -1.180989e-08 -1.181274e-08 -1.203013e-08 -1.207369e-08 -1.212674e-08 -1.164661e-08
-1.250184e-08 -1.185786e-08 -1.169288e-08 -1.200836e-08 -1.155865e-08 -1.219618e-08 -1.310048e-08 -1.211462e-08 -1.156271e-08 -1.247415e-08
-1.141202e-08 -1.201521e-08 -1.184515e-08 -1.258346e-08 -1.171788e-08 -1.189979e-08 -1.189833e-08 -1.124436e-08 -1.161834e-08 -1.158471e-08
-1.163427e-08 -1.118844e-08 -1.090278e-08 -1.117590e-08 -1.068031e-08 -1.058203e-08 -1.070018e-08 -1.128590e-08 -1.007051e-08 -9.529706e-09
-1.025410e-08 -9.881201e-09 -9.356576e-09 -1.042811e-08 -9.596225e-09 -9.161464e-09 -9.722798e-09 -8.213828e-09 -9.035850e-09 -8.866803e-09
-8.724513e-09 -8.653021e-09 -7.537992e-09 -7.713705e-09 -7.395925e-09 -7.576353e-09 -6.855659e-09 -6.467074e-09 -6.238274e-09 -6.373876e-09
-5.737070e-09 -5.266708e-09 -5.807893e-09 -5.872536e-09 -5.926579e-09 -5.801837e-09 -4.482327e-09 -5.649792e-09 -4.139807e-09 -4.569236e-09
-4.222934e-09 -4.302645e-09 -3.770656e-09 -4.772493e-09 -3.264579e-09 -3.013682e-09 -3.810861e-09 -3.353327e-09 -2.873257e-09 -1.361789e-09
-1.975945e-09 -1.155501e-09 -1.581497e-09 -1.357271e-09 -9.117040e-10 -1.012444e-09 -1.414028e-09 4.223601e-10 3.895291e-11 2.001862e-11
1.979005e-10
1.676541e-10 -1.467143e-11 5.956944e-10 8.444659e-10 1.127792e-09 8.019829e-11 1.561302e-09 1.828758e-09 2.435485e-09 1.520808e-09
1.421718e-09 2.868160e-09 3.226962e-09 1.902254e-09 2.523426e-09 2.978484e-09 3.512881e-09 4.412455e-09 3.979009e-09 4.100861e-09
3.981354e-09 4.630898e-09 4.915741e-09 5.022709e-09 5.585743e-09 5.047525e-09 6.412533e-09 5.156140e-09 5.608054e-09 7.161632e-09
6.541503e-09 6.576561e-09 6.701354e-09 8.555626e-09 7.495383e-09 8.018035e-09 8.214536e-09 7.746939e-09 8.485562e-09 8.414918e-09
7.729480e-09 8.433586e-09 8.708180e-09 8.679024e-09 9.868033e-09 9.775608e-09 9.125797e-09 9.389942e-09 9.220593e-09 1.074953e-08
1.056001e-08 9.874865e-09 1.033807e-08 1.082413e-08 1.081776e-08 1.138382e-08 1.066985e-08 1.142966e-08 1.107391e-08 1.078215e-08
1.146447e-08 1.137517e-08 1.116833e-08 1.157835e-08 1.250857e-08 1.213300e-08 1.233489e-08 1.226813e-08 1.209906e-08 1.294080e-08
1.144106e-08 1.217813e-08 1.184687e-08 1.268219e-08 1.266100e-08 1.256728e-08 1.252026e-08 1.282177e-08 1.183897e-08 1.280109e-08
1.211081e-08 1.232206e-08 1.231219e-08 1.182442e-08 1.270167e-08 1.237129e-08 1.274954e-08 1.197990e-08 1.254862e-08 1.222112e-08
1.277691e-08 1.209015e-08 1.311618e-08 1.239258e-08 1.251036e-08 1.165219e-08 1.164834e-08 1.215770e-08 1.222902e-08 1.241035e-08
1.296285e-08 1.318734e-08 1.319891e-08 1.277649e-08 1.223602e-08 1.347543e-08 1.208345e-08 1.219597e-08 1.254217e-08 1.155679e-08
1.202146e-08 1.199579e-08 1.236053e-08 1.262137e-08 1.192921e-08 1.248783e-08 1.167002e-08 1.175013e-08 1.154622e-08 1.125901e-08
1.188986e-08 1.118194e-08 1.134287e-08 1.211644e-08 1.092668e-08 1.100050e-08 1.043676e-08 1.087237e-08 1.050561e-08 1.095501e-08
1.083214e-08 1.020491e-08 1.006799e-08 9.496588e-09 9.356963e-09 9.201393e-09 8.957065e-09 8.882663e-09 8.011486e-09 9.106458e-09
8.569094e-09 8.378826e-09 7.685739e-09 7.325789e-09 7.055670e-09 8.209521e-09 6.979762e-09 7.348137e-09 6.237838e-09 6.143188e-09
6.954469e-09 4.860456e-09 5.128762e-09 5.788443e-09 5.109209e-09 4.025978e-09 4.971785e-09 4.338316e-09 4.397164e-09 3.955885e-09
5.957729e-09 4.019518e-09 4.574136e-09 4.196293e-09 3.258738e-09 2.916360e-09 2.914537e-09 2.526795e-09 2.789377e-09 1.295619e-09
2.098850e-09 1.423238e-09 1.402536e-09 4.777493e-10 -4.470211e-10 9.640113e-10 -3.690686e-10 5.635093e-10 5.269843e-10 1.051000e-10
6.949627e-10 -1.950708e-10 -8.263484e-10 3.359912e-10 -1.106642e-09 -1.618910e-09 -1.032522e-09 -8.929362e-10 -1.243955e-09 -1.353003e-09
-3.268359e-09 -1.404739e-09 -2.394283e-09 -2.321850e-09 -3.059678e-09 -3.125563e-09 -2.835471e-09 -3.702979e-09 -3.153292e-09 -3.288626e-09
-5.078141e-09 -4.431555e-09 -4.243933e-09 -5.081851e-09 -6.024287e-09 -6.004484e-09 -7.214005e-09 -6.397461e-09 -5.792753e-09 -5.279598e-09
-6.648267e-09 -6.979037e-09 -6.884260e-09 -7.436677e-09 -6.904788e-09 -8.498262e-09 -8.077643e-09 -8.516039e-09 -7.776077e-09 -8.120546e-09
-8.056896e-09 -8.211962e-09 -8.523920e-09 -8.674117e-09 -9.766111e-09 -9.796663e-09 -9.610297e-09 -1.011456e-08 -1.025205e-08 -1.006660e-08
-1.020733e-08 -9.631930e-09 -1.018367e-08 -1.109245e-08 -1.177474e-08 -1.075322e-08 -1.189023e-08 -1.117254e-08 -1.107318e-08 -1.094653e-08
-1.162583e-08 -1.176242e-08 -1.190105e-08 -1.171496e-08 -1.198292e-08 -1.255537e-08 -1.231995e-08 -1.259181e-08 -1.172278e-08 -1.246916e-08
-1.270626e-08 -1.247524e-08 -1.258518e-08 -1.245944e-08 -1.254343e-08 -1.184835e-08 -1.251912e-08 -1.150864e-08 -1.277664e-08 -1.240749e-08
-1.287425e-08 -1.279878e-08 -1.214994e-08 -1.243839e-08 -1.266219e-08 -1.290940e-08 -1.257748e-08 -1.203134e-08 -1.241864e-08 -1.223541e-08
-1.276080e-08 -1.291140e-08 -1.233941e-08 -1.159195e-08 -1.222174e-08 -1.251265e-08 -1.173670e-08 -1.293528e-08 -1.182018e-08 -1.255621e-08
-1.219687e-08 -1.271068e-08 -1.268811e-08 -1.230321e-08 -1.172057e-08 -1.276626e-08 -1.270365e-08 -1.267012e-08 -1.185572e-08 -1.206453e-08
-1.173617e-08 -1.260385e-08 -1.222914e-08 -1.231911e-08 -1.205870e-08 -1.242602e-08 -1.189491e-08 -1.174332e-08 -1.120026e-08 -1.209408e-08
-1.168403e-08 -1.136038e-08 -1.100153e-08 -1.223680e-08 -1.123579e-08 -1.176233e-08 -1.115765e-08 -1.050776e-08 -1.058491e-08 -1.006168e-08
-1.021782e-08 -9.839762e-09 -1.053126e-08 -9.746365e-09 -9.172823e-09 -8.890082e-09 -9.321222e-09 -9.306928e-09 -8.724596e-09 -9.143270e-09
-8.266713e-09 -8.778879e-09 -8.632767e-09 -7.728775e-09 -7.965890e-09 -7.329024e-09 -7.910869e-09 -6.662760e-09 -7.323471e-09 -6.453545e-09
-6.191819e-09 -6.168129e-09 -5.536547e-09 -7.170952e-09 -4.968399e-09 -5.743841e-09 -5.274487e-09 -5.763730e-09 -4.505508e-09 -4.809052e-09
-4.425722e-09 -2.724894e-09 -2.820683e-09 -3.737175e-09 -3.369177e-09 -3.445244e-09 -2.772987e-09 -2.253723e-09 -3.278489e-09 -1.818225e-09
-2.130492e-09 -6.631384e-10 -1.159347e-09 -8.458787e-10 -5.447400e-10 -1.351980e-09 -1.542541e-09 -1.968851e-10 -1.054298e-10 -1.044235e-10
1.676541e-10
-7.925116e-11 -3.110894e-10 6.682254e-10 1.798269e-09 1.023036e-09 6.205790e-10 1.519709e-09 3.326101e-10 -1.275657e-10 2.447073e-09
2.153866e-09 2.728416e-09 3.082971e-09 4.066625e-09 3.757030e-09 3.793361e-09 3.246938e-09 2.914585e-09 3.596692e-09 5.391495e-09
4.795318e-09 4.286304e-09 5.570910e-09 6.036020e-09 5.102688e-09 5.819766e-09 5.535078e-09 7.149447e-09 6.451280e-09 6.845351e-09
6.985639e-09 6.747770e-09 8.100852e-09 7.198839e-09 6.970798e-09 7.676398e-09 8.476733e-09 7.889944e-09 8.794895e-09 8.324785e-09
9.111575e-09 9.139731e-09 9.184144e-09 8.999191e-09 9.082355e-09 1.010288e-08 9.688519e-09 1.009319e-08 1.011312e-08 1.034847e-08
1.003146e-08 1.120204e-08 1.132825e-08 1.165413e-08 1.065619e-08 1.107128e-08 1.196923e-08 1.150282e-08 1.306477e-08 1.181764e-08
1.218357e-08 1.158594e-08 1.146085e-08 1.214944e-08 1.169115e-08 1.238439e-08 1.226026e-08 1.259303e-08 1.250515e-08 1.226942e-08
1.212414e-08 1.205840e-08 1.212437e-08 1.227680e-08 1.252105e-08 1.255098e-08 1.243052e-08 1.212905e-08 1.251312e-08 1.214503e-08
1.302617e-08 1.276866e-08 1.232007e-08 1.184750e-08 1.303671e-08 1.231601e-08 1.229471e-08 1.233933e-08 1.243656e-08 1.298313e-08
1.220240e-08 1.180454e-08 1.284062e-08 1.301962e-08 1.282570e-08 1.367893e-08 1.292020e-08 1.303408e-08 1.324008e-08 1.219100e-08
1.223536e-08 1.245589e-08 1.208929e-08 1.232418e-08 1.341306e-08 1.235974e-08 1.226786e-08 1.308204e-08 1.277815e-08 1.273711e-08
1.161526e-08 1.238759e-08 1.228041e-08 1.261656e-08 1.228424e-08 1.228238e-08 1.200658e-08 1.229080e-08 1.301405e-08 1.330995e-08
1.241550e-08 1.165800e-08 1.234174e-08 1.136744e-08 1.092829e-08 1.231223e-08 1.066006e-08 1.023848e-08 1.087573e-08 1.021591e-08
9.923485e-09 1.038041e-08 1.039245e-08 9.829606e-09 9.280991e-09 1.051096e-08 8.843376e-09 9.431015e-09 9.663946e-09 1.005379e-08
8.503210e-09 8.126841e-09 8.060057e-09 7.526477e-09 8.229373e-09 7.180475e-09 7.557236e-09 7.231029e-09 7.111549e-09 6.776371e-09
6.093693e-09 5.434657e-09 6.750559e-09 5.132526e-09 5.761797e-09 5.930673e-09 5.663536e-09 4.350840e-09 5.083415e-09 3.564396e-09
3.421901e-09 3.594988e-09 3.571036e-09 4.096967e-09 3.962116e-09 3.496698e-09 3.079397e-09 3.101703e-09 2.619299e-09 3.089451e-09
1.617482e-09 1.976142e-09 1.724894e-09 1.512121e-09 8.290253e-10 5.804355e-10 8.262409e-10 2.930958e-10 1.108771e-09 -2.429971e-11
-5.843790e-10 1.041745e-09 -9.733481e-10 -5.275208e-10 8.547599e-10 -1.436014e-09 -2.412228e-09 -8.897835e-10 -8.164381e-10 -1.812978e-09
-1.230069e-09 -2.606672e-09 -2.924988e-09 -2.462854e-09 -3.377746e-09 -4.008835e-09 -3.236379e-09 -3.229433e-09 -4.616226e-09 -3.150423e-09
-4.147758e-09 -4.101040e-09 -5.391760e-09 -6.283030e-09 -5.753554e-09 -5.783100e-09 -5.630609e-09 -6.958446e-09 -6.211461e-09 -6.699765e-09
-6.336633e-09 -6.788148e-09 -6.739961e-09 -6.925507e-09 -6.850824e-09 -7.594355e-09 -8.991278e-09 -8.157897e-09 -8.063341e-09 -8.992016e-09
-9.067979e-09 -8.233029e-09 -1.001633e-08 -9.133931e-09 -1.029148e-08 -1.037165e-08 -1.002440e-08 -9.665896e-09 -9.622943e-09 -1.059238e-08
-1.000064e-08 -1.097662e-08 -1.082120e-08 -1.074153e-08 -1.149845e-08 -1.140969e-08 -1.086598e-08 -1.153405e-08 -1.085724e-08 -1.202504e-08
-1.164381e-08 -1.307838e-08 -1.167977e-08 -1.219429e-08 -1.217409e-08 -1.248314e-08 -1.212435e-08 -1.203115e-08 -1.270860e-08 -1.191915e-08
-1.208628e-08 -1.237717e-08 -1.275585e-08 -1.265841e-08 -1.235591e-08 -1.335596e-08 -1.245150e-08 -1.314463e-08 -1.335219e-08 -1.279094e-08
-1.261461e-08 -1.242364e-08 -1.271359e-08 -1.338477e-08 -1.352314e-08 -1.381558e-08 -1.313363e-08 -1.239365e-08 -1.272494e-08 -1.241616e-08
-1.246476e-08 -1.206938e-08 -1.241951e-08 -1.289618e-08 -1.216382e-08 -1.311717e-08 -1.256526e-08 -1.260506e-08 -1.245976e-08 -1.217457e-08
-1.231999e-08 -1.266837e-08 -1.254832e-08 -1.281559e-08 -1.293540e-08 -1.298999e-08 -1.221231e-08 -1.187159e-08 -1.212683e-08 -1.241584e-08
-1.245803e-08 -1.258238e-08 -1.243140e-08 -1.249139e-08 -1.188317e-08 -1.158691e-08 -1.237765e-08 -1.203389e-08 -1.208334e-08 -1.176202e-08
-1.179377e-08 -1.224253e-08 -1.224187e-08 -1.191581e-08 -1.142957e-08 -1.129552e-08 -1.108292e-08 -1.174738e-08 -1.189438e-08 -1.028163e-08
-1.138416e-08 -1.078923e-08 -1.044179e-08 -1.027993e-08 -9.215185e-09 -9.836917e-09 -9.851848e-09 -9.237249e-09 -1.005425e-08 -9.032868e-09
-8.914969e-09 -7.993412e-09 -7.448348e-09 -9.253264e-09 -8.441141e-09 -7.765423e-09 -7.098672e-09 -7.553186e-09 -6.511273e-09 -7.207668e-09
-7.054439e-09 -5.744190e-09 -6.492636e-09 -6.128170e-09 -6.808293e-09 -5.213575e-09 -4.501060e-09 -4.585901e-09 -4.541477e-09 -4.790718e-09
-4.352220e-09 -3.620935e-09 -4.554302e-09 -3.818077e-09 -3.919152e-09 -3.603519e-09 -2.903264e-09 -3.241795e-09 -2.794714e-09 -1.451058e-09
-2.161192e-09 -8.560531e-10 -2.219739e-09 -1.991497e-09 -1.799399e-09 -1.192433e-09 -1.338461e-09 -1.776722e-09 -7.295227e-10 4.740711e-10
-7.925116e-11
-2.116265e-10 -2.824216e-10 8.433823e-10 1.297077e-09 9.013550e-10 1.234671e-09 1.512163e-09 1.538507e-09 1.312284e-09 2.976357e-09
1.700595e-09 2.583902e-09 2.968116e-09 2.653442e-09 3.028822e-09 4.201152e-09 3.678814e-09 4.858175e-09 4.145517e-09 4.717423e-09
5.101324e-09 5.930711e-09 5.893275e-09 5.358463e-09 5.214794e-09 5.889492e-09 6.481110e-09 6.046996e-09 6.699544e-09 6.996175e-09
6.577791e-09 6.749211e-09 7.215705e-09 9.096730e-09 8.401662e-09 8.418403e-09 7.597150e-09 9.728804e-09 8.917693e-09 9.273413e-09
9.219573e-09 9.436347e-09 9.167850e-09 9.973625e-09 1.018257e-08 9.476355e-09 1.080752e-08 1.015648e-08 1.058939e-08 1.042319e-08
1.023398e-08 1.175031e-08 1.185686e-08 1.114525e-08 1.144105e-08 1.146776e-08 1.204966e-08 1.178278e-08 1.140586e-08 1.159819e-08
1.191197e-08 1.214267e-08 1.234812e-08 1.263616e-08 1.244559e-08 1.238551e-08 1.281112e-08 1.273915e-08 1.229962e-08 1.326049e-08
1.310589e-08 1.246570e-08 1.305076e-08 1.352311e-08 1.236340e-08 1.280314e-08 1.317473e-08 1.281207e-08 1.290553e-08 1.334314e-08
1.314023e-08 1.328692e-08 1.316700e-08 1.293702e-08 1.343048e-08 1.300820e-08 1.240679e-08 1.312273e-08 1.228033e-08 1.268228e-08
1.235470e-08 1.273050e-08 1.258908e-08 1.312186e-08 1.240125e-08 1.293204e-08 1.323921e-08 1.294035e-08 1.389533e-08 1.300985e-08
1.275983e-08 1.326520e-08 1.277793e-08 1.363890e-08 1.297294e-08 1.310412e-08 1.273668e-08 1.296956e-08 1.235376e-08 1.244436e-08
1.279492e-08 1.226016e-08 1.236625e-08 1.248462e-08 1.226206e-08 1.287827e-08 1.272680e-08 1.222850e-08 1.229426e-08 1.224945e-08
1.203159e-08 1.228770e-08 1.218088e-08 1.212770e-08 1.193337e-08 1.108373e-08 1.072629e-08 1.105773e-08 1.159137e-08 1.086173e-08
1.030558e-08 1.080317e-08 1.116171e-08 1.073595e-08 1.034645e-08 9.853114e-09 1.000484e-08 1.024205e-08 9.137618e-09 9.247308e-09
8.501157e-09 9.114186e-09 7.878202e-09 8.332260e-09 7.462305e-09 7.946872e-09 7.195383e-09 7.721117e-09 7.243017e-09 6.350104e-09
6.287917e-09 6.002328e-09 5.215773e-09 6.125418e-09 5.590286e-09 5.809302e-09 4.743585e-09 3.990909e-09 3.960471e-09 4.056391e-09
3.687335e-09 4.107588e-09 4.169685e-09 3.506498e-09 4.309074e-09 3.199941e-09 3.599365e-09 2.659742e-09 2.218452e-09 1.335923e-09
2.422795e-09 2.075446e-09 1.856774e-09 1.706757e-09 2.321873e-09 1.212040e-09 1.830301e-09 1.040900e-09 -1.405850e-10 -1.057055e-09
-4.487906e-11 -8.879457e-10 2.445461e-10 -6.179852e-10 -2.166192e-10 -4.445101e-10 -1.650959e-09 -1.637325e-10 -3.462431e-09 -2.695949e-09
-1.737738e-09 -1.838117e-09 -2.430557e-09 -2.659218e-09 -4.159447e-09 -3.283638e-09 -4.402049e-09 -4.764388e-09 -3.976581e-09 -4.038275e-09
-4.546578e-09 -5.057621e-09 -4.896087e-09 -4.495843e-09 -4.909089e-09 -4.982086e-09 -5.495491e-09 -5.850740e-09 -6.796247e-09 -6.537251e-09
-6.567851e-09 -6.843221e-09 -6.319350e-09 -7.639875e-09 -7.792426e-09 -7.408214e-09 -7.458298e-09 -8.069990e-09 -8.672486e-09 -7.987347e-09
-9.099936e-09 -9.023560e-09 -9.505515e-09 -9.765132e-09 -1.054591e-08 -9.712989e-09 -1.022219e-08 -1.010952e-08 -1.048062e-08 -1.126048e-08
-1.052070e-08 -1.115563e-08 -1.075381e-08 -1.086331e-08 -1.153824e-08 -1.187183e-08 -1.153767e-08 -1.232150e-08 -1.227329e-08 -1.207095e-08
-1.156300e-08 -1.224783e-08 -1.284998e-08 -1.184828e-08 -1.276847e-08 -1.224429e-08 -1.243794e-08 -1.271207e-08 -1.289116e-08 -1.275493e-08
-1.248219e-08 -1.351494e-08 -1.278737e-08 -1.266944e-08 -1.269345e-08 -1.255381e-08 -1.271283e-08 -1.303835e-08 -1.313237e-08 -1.271430e-08
-1.311409e-08 -1.300057e-08 -1.364479e-08 -1.365940e-08 -1.404781e-08 -1.259549e-08 -1.374830e-08 -1.242396e-08 -1.343062e-08 -1.340485e-08
-1.299076e-08 -1.393145e-08 -1.276208e-08 -1.269630e-08 -1.349948e-08 -1.342103e-08 -1.418291e-08 -1.246315e-08 -1.266842e-08 -1.352378e-08
-1.257677e-08 -1.293334e-08 -1.382465e-08 -1.280111e-08 -1.330790e-08 -1.356730e-08 -1.281120e-08 -1.294496e-08 -1.280710e-08 -1.295268e-08
-1.360496e-08 -1.261548e-08 -1.257378e-08 -1.318223e-08 -1.287421e-08 -1.196490e-08 -1.231339e-08 -1.275701e-08 -1.246457e-08 -1.233635e-08
-1.291806e-08 -1.240473e-08 -1.174822e-08 -1.170845e-08 -1.206738e-08 -1.145455e-08 -1.208540e-08 -1.189665e-08 -1.121648e-08 -1.155247e-08
-1.063488e-08 -1.028982e-08 -1.009481e-08 -1.032523e-08 -1.101252e-08 -9.646020e-09 -9.778689e-09 -1.015022e-08 -9.505876e-09 -9.140011e-09
-8.499128e-09 -9.197671e-09 -8.080435e-09 -9.025687e-09 -7.547253e-09 -7.927546e-09 -8.943680e-09 -6.950915e-09 -7.246074e-09 -6.498164e-09
-7.831699e-09 -5.695174e-09 -7.172389e-09 -5.718405e-09 -5.799878e-09 -6.017892e-09 -4.807985e-09 -4.796702e-09 -4.031509e-09 -4.416556e-09
-3.734057e-09 -5.117318e-09 -4.362138e-09 -4.592423e-09 -2.838890e-09 -3.688671e-09 -3.063160e-09 -3.507249e-09 -2.246908e-09 -2.957340e-09
-1.129364e-09 -1.984884e-09 -2.108981e-09 -2.377420e-09 -1.280428e-09 -1.219709e-09 -1.994257e-09 -1.225843e-09 -7.877992e-10 -1.157842e-09
-2.116265e-10
1.381052e-10 3.071447e-10 4.039627e-10 1.071926e-09 1.082771e-09 1.481009e-09 1.089400e-09 5.396665e-10 2.302514e-09 1.165027e-09
1.912296e-09 2.886227e-09 2.904127e-09 3.423761e-09 4.033982e-09 3.928131e-09 3.794909e-09 3.262323e-09 4.509249e-09 4.597803e-09
4.132838e-09 5.715629e-09 5.023905e-09 5.766571e-09 4.786931e-09 6.247296e-09 5.511771e-09 6.667082e-09 7.043586e-09 6.949651e-09
7.999244e-09 6.757098e-09 7.543076e-09 8.129216e-09 9.092578e-09 9.022951e-09 9.043453e-09 8.699579e-09 8.338522e-09 8.781413e-09
9.273369e-09 9.516895e-09 9.842235e-09 9.817154e-09 9.797255e-09 1.018678e-08 1.074220e-08 1.032922e-08 1.075269e-08 1.092049e-08
1.078698e-08 1.084382e-08 1.203925e-08 1.201713e-08 1.146746e-08 1.162639e-08 1.222545e-08 1.224257e-08 1.278873e-08 1.281105e-08
1.226421e-08 1.217305e-08 1.273388e-08 1.303314e-08 1.278947e-08 1.268841e-08 1.272010e-08 1.414031e-08 1.237693e-08 1.291455e-08
1.341818e-08 1.375662e-08 1.307359e-08 1.389596e-08 1.331018e-08 1.262065e-08 1.326284e-08 1.356347e-08 1.356976e-08 1.353783e-08
1.314847e-08 1.357884e-08 1.346929e-08 1.295764e-08 1.393850e-08 1.378968e-08 1.327740e-08 1.345233e-08 1.267140e-08 1.310746e-08
1.294857e-08 1.290737e-08 1.336684e-08 1.388234e-08 1.258930e-08 1.284176e-08 1.306299e-08 1.301391e-08 1.429657e-08 1.347101e-08
1.302986e-08 1.258750e-08 1.423061e-08 1.349628e-08 1.316064e-08 1.232101e-08 1.392882e-08 1.347909e-08 1.341297e-08 1.417001e-08
1.315148e-08 1.360054e-08 1.308738e-08 1.312524e-08 1.313493e-08 1.280030e-08 1.295925e-08 1.187754e-08 1.407882e-08 1.214669e-08
1.277625e-08 1.208826e-08 1.260976e-08 1.302769e-08 1.204410e-08 1.151072e-08 1.170626e-08 1.168721e-08 1.119904e-08 1.108776e-08
1.072271e-08 1.126632e-08 1.086181e-08 1.046054e-08 1.005744e-08 9.922689e-09 9.983860e-09 9.792926e-09 9.234239e-09 9.747347e-09
9.820452e-09 8.897985e-09 9.351359e-09 8.121494e-09 7.598937e-09 8.122170e-09 8.332385e-09 6.337169e-09 6.299734e-09 6.154281e-09
7.749209e-09 6.334326e-09 6.914012e-09 6.140482e-09 5.595547e-09 5.918662e-09 6.040222e-09 5.478794e-09 4.640800e-09 5.189833e-09
4.397467e-09 4.253105e-09 4.462667e-09 2.575094e-09 3.622325e-09 3.479627e-09 2.283203e-09 2.372498e-09 2.665002e-09 1.744115e-09
2.572901e-09 2.688954e-09 2.722077e-09 6.178633e-10 1.731213e-09 1.544462e-09 8.425260e-10 5.726895e-10 7.800435e-10 7.901810e-10
-1.214142e-11 -3.345461e-11 2.713355e-10 -6.605222e-10 -1.887342e-09 -5.808791e-10 -6.645566e-10 -1.397715e-09 -5.943734e-10 -2.517652e-09
-3.883785e-09 -1.544663e-09 -3.375076e-09 -2.707897e-09 -3.929545e-09 -3.480257e-09 -4.125044e-09 -3.648386e-09 -3.358678e-09 -3.648261e-09
-5.085177e-09 -5.148937e-09 -4.809127e-09 -6.425166e-09 -6.189733e-09 -6.788214e-09 -5.691016e-09 -7.159262e-09 -6.927142e-09 -6.035471e-09
-7.763636e-09 -8.112985e-09 -7.136947e-09 -8.048541e-09 -8.652420e-09 -7.909715e-09 -7.624162e-09 -8.784607e-09 -9.147246e-09 -8.513875e-09
-8.929451e-09 -1.029026e-08 -9.848889e-09 -9.367504e-09 -9.593448e-09 -1.067381e-08 -9.965984e-09 -1.092919e-08 -1.042819e-08 -1.057197e-08
-1.083244e-08 -1.120943e-08 -1.100592e-08 -1.083843e-08 -1.133024e-08 -1.187409e-08 -1.148276e-08 -1.154761e-08 -1.209865e-08 -1.204873e-08
-1.205906e-08 -1.300844e-08 -1.373341e-08 -1.279297e-08 -1.268227e-08 -1.312288e-08 -1.326622e-08 -1.308765e-08 -1.290214e-08 -1.311662e-08
-1.305977e-08 -1.349614e-08 -1.404729e-08 -1.357923e-08 -1.298966e-08 -1.321600e-08 -1.289933e-08 -1.260180e-08 -1.335266e-08 -1.320913e-08
-1.268227e-08 -1.319410e-08 -1.369882e-08 -1.329910e-08 -1.439836e-08 -1.335542e-08 -1.248460e-08 -1.377160e-08 -1.348926e-08 -1.297406e-08
-1.314143e-08 -1.466332e-08 -1.341149e-08 -1.417361e-08 -1.398821e-08 -1.294152e-08 -1.416770e-08 -1.375704e-08 -1.277784e-08 -1.324346e-08
-1.328747e-08 -1.287119e-08 -1.352099e-08 -1.387264e-08 -1.331037e-08 -1.316060e-08 -1.412455e-08 -1.377380e-08 -1.354342e-08 -1.297253e-08
-1.385262e-08 -1.305796e-08 -1.321595e-08 -1.327623e-08 -1.237412e-08 -1.264220e-08 -1.348297e-08 -1.272450e-08 -1.327348e-08 -1.331962e-08
-1.210199e-08 -1.239505e-08 -1.252978e-08 -1.172117e-08 -1.205826e-08 -1.233817e-08 -1.244849e-08 -1.192154e-08 -1.185312e-08 -1.212530e-08
-1.049258e-08 -1.058649e-08 -1.096900e-08 -1.131716e-08 -1.016409e-08 -1.076735e-08 -9.401529e-09 -9.522263e-09 -9.511688e-09 -1.038266e-08
-9.309951e-09 -8.764350e-09 -8.248596e-09 -8.404753e-09 -8.146698e-09 -9.395306e-09 -7.513766e-09 -7.526512e-09 -7.673745e-09 -6.594910e-09
-7.036776e-09 -6.932002e-09 -6.372449e-09 -6.397582e-09 -4.754232e-09 -5.794666e-09 -5.251641e-09 -4.371867e-09 -6.382268e-09 -4.833718e-09
-3.141092e-09 -4.153194e-09 -3.458152e-09 -3.678039e-09 -2.492109e-09 -4.342557e-09 -2.529590e-09 -3.153471e-09 -2.297361e-09 -3.160028e-09
-2.515790e-09 -2.542215e-09 -1.808501e-10 -4.326734e-10 2.413919e-10 -1.168141e-09 -7.509385e-10 1.386163e-10 -1.741403e-09 -1.114908e-09
1.381052e-10
-4.185400e-10 -9.855181e-10 -3.000797e-10 2.113732e-10 1.821058e-11 1.477782e-09 1.151867e-09 1.603282e-09 1.897924e-09 1.173808e-09
2.793884e-09 3.479531e-09 2.895748e-09 4.689255e-09 2.870641e-09 2.834739e-09 4.058288e-09 4.485189e-09 4.150529e-09 4.192680e-09
5.851810e-09 4.723670e-09 6.237376e-09 6.048516e-09 5.810143e-09 6.604568e-09 6.025165e-09 6.418130e-09 6.649943e-09 6.768901e-09
8.020877e-09 7.931340e-09 7.292069e-09 8.349716e-09 7.956603e-09 9.130678e-09 8.665908e-09 8.750535e-09 9.974794e-09 9.962598e-09
9.966429e-09 9.720833e-09 9.405468e-09 9.505510e-09 1.056843e-08 1.017430e-08 9.895441e-09 1.069983e-08 1.070583e-08 1.121094e-08
1.129508e-08 1.138867e-08 1.145908e-08 1.243477e-08 1.229855e-08 1.262367e-08 1.254983e-08 1.371392e-08 1.156662e-08 1.220605e-08
1.181281e-08 1.324841e-08 1.289416e-08 1.288092e-08 1.321873e-08 1.305640e-08 1.368532e-08 1.321620e-08 1.325481e-08 1.323466e-08
1.415588e-08 1.356086e-08 1.293817e-08 1.329560e-08 1.317630e-08 1.359192e-08 1.318380e-08 1.431208e-08 1.312378e-08 1.317619e-08
1.383418e-08 1.350593e-08 1.378838e-08 1.360696e-08 1.319559e-08 1.382075e-08 1.250249e-08 1.406904e-08 1.304181e-08 1.280708e-08
1.377849e-08 1.366881e-08 1.370003e-08 1.312201e-08 1.411062e-08 1.360501e-08 1.323864e-08 1.423182e-08 1.314640e-08 1.401209e-08
1.344043e-08 1.304122e-08 1.338779e-08 1.332849e-08 1.405769e-08 1.358333e-08 1.292633e-08 1.368997e-08 1.334938e-08 1.421854e-08
1.302568e-08 1.437516e-08 1.378228e-08 1.335290e-08 1.349507e-08 1.373185e-08 1.325812e-08 1.291888e-08 1.294088e-08 1.307056e-08
1.265283e-08 1.303959e-08 1.283173e-08 1.262252e-08 1.231607e-08 1.172133e-08 1.213267e-08 1.142025e-08 1.168302e-08 1.165895e-08
1.165049e-08 1.095428e-08 1.063220e-08 1.167620e-08 1.080908e-08 1.119811e-08 1.036276e-08 9.998011e-09 1.021840e-08 9.864613e-09
8.849493e-09 8.453219e-09 8.870945e-09 8.278189e-09 8.071557e-09 8.501240e-09 8.407178e-09 7.383902e-09 7.364799e-09 7.323438e-09
7.119575e-09 6.679109e-09 6.342869e-09 7.094382e-09 6.671728e-09 5.893872e-09 6.137926e-09 5.326534e-09 5.200926e-09 5.446548e-09
5.214387e-09 4.240071e-09 3.736467e-09 4.400908e-09 3.725617e-09 4.024800e-09 3.696583e-09 2.247696e-09 1.936170e-09 1.568730e-09
2.404303e-09 1.730600e-09 2.204277e-09 1.753918e-09 2.524029e-09 1.311269e-09 4.405844e-10 6.972397e-11 4.770838e-10 -3.438358e-10
2.772867e-11 6.534834e-10 -5.124652e-10 -9.982845e-10 -1.434024e-09 -1.406672e-09 -3.609197e-10 -2.467346e-09 -2.200074e-09 -1.421570e-09
-2.765375e-09 -1.882452e-09 -2.719907e-09 -2.134840e-09 -3.013634e-09 -4.592866e-09 -3.641822e-09 -3.298557e-09 -4.174397e-09 -5.244670e-09
-4.267127e-09 -5.423704e-09 -4.409667e-09 -5.039900e-09 -5.880975e-09 -6.880783e-09 -4.954952e-09 -5.817772e-09 -7.678501e-09 -6.984200e-09
-7.160392e-09 -6.980578e-09 -7.840078e-09 -7.098968e-09 -8.545417e-09 -8.802858e-09 -8.639124e-09 -8.134512e-09 -8.311209e-09 -8.986157e-09
-9.560258e-09 -9.926540e-09 -9.744519e-09 -9.677234e-09 -9.305261e-09 -1.007183e-08 -1.077310e-08 -1.186114e-08 -1.071727e-08 -1.128209e-08
-1.149862e-08 -1.185691e-08 -1.123076e-08 -1.208826e-08 -1.164355e-08 -1.149899e-08 -1.248447e-08 -1.228849e-08 -1.269647e-08 -1.276506e-08
-1.393756e-08 -1.234590e-08 -1.214257e-08 -1.271530e-08 -1.246423e-08 -1.358186e-08 -1.347592e-08 -1.338058e-08 -1.411819e-08 -1.366324e-08
-1.321710e-08 -1.320226e-08 -1.350002e-08 -1.351004e-08 -1.409711e-08 -1.404875e-08 -1.297009e-08 -1.379831e-08 -1.320212e-08 -1.355170e-08
-1.317903e-08 -1.349462e-08 -1.323841e-08 -1.391106e-08 -1.315261e-08 -1.294032e-08 -1.424545e-08 -1.403353e-08 -1.327069e-08 -1.332545e-08
-1.345063e-08 -1.335678e-08 -1.373927e-08 -1.431289e-08 -1.327924e-08 -1.312260e-08 -1.371745e-08 -1.440047e-08 -1.446408e-08 -1.296753e-08
-1.336849e-08 -1.335615e-08 -1.355072e-08 -1.406138e-08 -1.373024e-08 -1.309684e-08 -1.327093e-08 -1.358796e-08 -1.352659e-08 -1.355042e-08
-1.286470e-08 -1.370276e-08 -1.346189e-08 -1.285386e-08 -1.314034e-08 -1.304483e-08 -1.380939e-08 -1.413578e-08 -1.322801e-08 -1.270032e-08
-1.261745e-08 -1.256484e-08 -1.205415e-08 -1.188307e-08 -1.208847e-08 -1.317475e-08 -1.208629e-08 -1.252637e-08 -1.190864e-08 -1.129790e-08
-1.158115e-08 -1.145347e-08 -1.099867e-08 -1.137593e-08 -1.111391e-08 -1.006932e-08 -1.087704e-08 -9.816863e-09 -9.326792e-09 -8.954744e-09
-8.739981e-09 -9.200736e-09 -7.736531e-09 -9.261047e-09 -8.272494e-09 -7.681616e-09 -8.201791e-09 -7.531188e-09 -7.435165e-09 -6.763313e-09
-7.255919e-09 -5.823727e-09 -7.682867e-09 -6.001173e-09 -5.410364e-09 -6.337309e-09 -6.325958e-09 -6.330489e-09 -5.048860e-09 -5.111270e-09
-4.564487e-09 -4.485361e-09 -3.562421e-09 -4.168964e-09 -3.684167e-09 -4.620501e-09 -2.264774e-09 -3.353998e-09 -2.352741e-09 -2.126731e-09
-1.855680e-09 -1.654081e-09 -9.904578e-10 -1.363242e-09 -8.335794e-10 -7.948316e-10 -9.981501e-10 -5.120285e-10 -7.522894e-11 -1.723345e-09
-4.185400e-10
4.210313e-10 1.725210e-09 5.453537e-11 7.268481e-10 9.899023e-10 9.775553e-10 1.067627e-09 1.466126e-09 2.594136e-09 2.368646e-09
2.627487e-09 2.335928e-09 3.449182e-09 4.336095e-09 4.901875e-09 3.362773e-09 2.694086e-09 3.586330e-09 4.882620e-09 4.799466e-09
3.526125e-09 5.031913e-09 5.264072e-09 5.554606e-09 4.940446e-09 6.174974e-09 6.053449e-09 6.939330e-09 7.070868e-09 6.538445e-09
7.724595e-09 7.646133e-09 7.915276e-09 7.591114e-09 8.087551e-09 8.713100e-09 7.991075e-09 9.842528e-09 9.370008e-09 8.953418e-09
9.525848e-09 1.034655e-08 9.860191e-09 1.026947e-08 1.064266e-08 1.033566e-08 1.136376e-08 1.116274e-08 1.092148e-08 1.135253e-08
1.102799e-08 1.234898e-08 1.126336e-08 1.289427e-08 1.336429e-08 1.287374e-08 1.231635e-08 1.304784e-08 1.293671e-08 1.277581e-08
1.292787e-08 1.283872e-08 1.344686e-08 1.386371e-08 1.315188e-08 1.348841e-08 1.324451e-08 1.338625e-08 1.361758e-08 1.398326e-08
1.410877e-08 1.424107e-08 1.350685e-08 1.353341e-08 1.402055e-08 1.330498e-08 1.403093e-08 1.415113e-08 1.449077e-08 1.390377e-08
1.378435e-08 1.489146e-08 1.356305e-08 1.405526e-08 1.375958e-08 1.341828e-08 1.404495e-08 1.327852e-08 1.432615e-08 1.339345e-08
1.426528e-08 1.394618e-08 1.361189e-08 1.389145e-08 1.378181e-08 1.406273e-08 1.385539e-08 1.298136e-08 1.410704e-08 1.407358e-08
1.381897e-08 1.394213e-08 1.420911e-08 1.409340e-08 1.412740e-08 1.353286e-08 1.410798e-08 1.393266e-08 1.441464e-08 1.375815e-08
1.436866e-08 1.419866e-08 1.354569e-08 1.350498e-08 1.311264e-08 1.334995e-08 1.316453e-08 1.337389e-08 1.337706e-08 1.436317e-08
1.235195e-08 1.225373e-08 1.320307e-08 1.230195e-08 1.216170e-08 1.196801e-08 1.172025e-08 1.238927e-08 1.151295e-08 1.164602e-08
1.188994e-08 1.169269e-08 1.044138e-08 1.070384e-08 1.024694e-08 1.132915e-08 1.101732e-08 1.029175e-08 1.048031e-08 1.067383e-08
9.430819e-09 8.964700e-09 8.970803e-09 8.905794e-09 8.641840e-09 7.736386e-09 7.427963e-09 7.276716e-09 9.234866e-09 7.184411e-09
7.202223e-09 6.587274e-09 7.126040e-09 7.298498e-09 6.222031e-09 6.714124e-09 5.543895e-09 4.565933e-09 5.128090e-09 3.996693e-09
4.055180e-09 4.638565e-09 4.508339e-09 4.973339e-09 3.869557e-09 3.632432e-09 2.550250e-09 3.126470e-09 2.552362e-09 1.589295e-09
2.727627e-09 1.429902e-09 1.284483e-09 1.717862e-09 8.895191e-10 9.042289e-10 -1.732441e-10 3.687915e-10 -2.183944e-11 2.647152e-10
4.991279e-10 -1.135673e-09 -2.094646e-10 -1.346548e-09 -1.068648e-09 -1.093281e-09 -4.823564e-10 -1.511351e-09 -2.425287e-09 -1.646047e-09
-2.356048e-09 -2.175136e-09 -3.039430e-09 -4.194492e-09 -3.680784e-09 -3.469476e-09 -3.690506e-09 -3.239844e-09 -5.256517e-09 -3.167749e-09
-5.740068e-09 -4.412328e-09 -5.303731e-09 -5.400192e-09 -5.630029e-09 -6.572980e-09 -7.129370e-09 -6.288319e-09 -7.910757e-09 -7.028357e-09
-7.651161e-09 -7.497213e-09 -7.796420e-09 -7.746479e-09 -8.174410e-09 -8.151956e-09 -8.608821e-09 -9.249340e-09 -9.211869e-09 -8.808999e-09
-9.540440e-09 -1.006796e-08 -1.040509e-08 -1.049984e-08 -9.615987e-09 -1.119329e-08 -1.072151e-08 -1.025161e-08 -1.086719e-08 -1.173279e-08
-1.164734e-08 -1.092532e-08 -1.136533e-08 -1.186956e-08 -1.173088e-08 -1.254149e-08 -1.274670e-08 -1.231002e-08 -1.244614e-08 -1.255531e-08
-1.304011e-08 -1.260192e-08 -1.453880e-08 -1.264683e-08 -1.269930e-08 -1.409549e-08 -1.302726e-08 -1.365863e-08 -1.366554e-08 -1.349688e-08
-1.443740e-08 -1.334217e-08 -1.389639e-08 -1.347126e-08 -1.355042e-08 -1.290823e-08 -1.385296e-08 -1.402018e-08 -1.385858e-08 -1.424778e-08
-1.368474e-08 -1.353334e-08 -1.395400e-08 -1.359891e-08 -1.383756e-08 -1.341771e-08 -1.395674e-08 -1.414232e-08 -1.479471e-08 -1.344832e-08
-1.428140e-08 -1.439855e-08 -1.359564e-08 -1.452789e-08 -1.359431e-08 -1.457800e-08 -1.349588e-08 -1.316574e-08 -1.409502e-08 -1.371030e-08
-1.434080e-08 -1.408276e-08 -1.413181e-08 -1.312079e-08 -1.456046e-08 -1.425911e-08 -1.428003e-08 -1.386504e-08 -1.295056e-08 -1.378847e-08
-1.401907e-08 -1.377441e-08 -1.425262e-08 -1.336227e-08 -1.413198e-08 -1.328633e-08 -1.367721e-08 -1.313061e-08 -1.316344e-08 -1.431047e-08
-1.280947e-08 -1.314286e-08 -1.236424e-08 -1.259805e-08 -1.198141e-08 -1.271855e-08 -1.300506e-08 -1.232340e-08 -1.246869e-08 -1.146591e-08
-1.145695e-08 -1.237147e-08 -1.068407e-08 -1.034942e-08 -1.006435e-08 -1.015953e-08 -1.057205e-08 -1.113383e-08 -1.030449e-08 -1.017474e-08
-9.348060e-09 -9.001406e-09 -9.402381e-09 -8.635632e-09 -8.412594e-09 -9.100336e-09 -7.953202e-09 -8.461928e-09 -7.098201e-09 -7.481269e-09
-8.052730e-09 -6.656955e-09 -6.252760e-09 -6.762399e-09 -5.650365e-09 -5.597756e-09 -5.221258e-09 -5.086893e-09 -5.000417e-09 -5.175556e-09
-4.019455e-09 -4.892585e-09 -3.437095e-09 -4.157268e-09 -3.884306e-09 -2.929650e-09 -1.842159e-09 -2.791378e-09 -3.686358e-09 -2.719850e-09
-2.990285e-09 -3.343611e-09 -2.331098e-09 -1.444080e-09 -2.681791e-10 -1.378531e-09 -1.089091e-09 -1.721987e-10 -1.442282e-09 -1.787731e-10
4.210313e-10
-1.404283e-10 -6.070972e-11 1.136585e-09 2.697709e-10 4.528206e-10 1.679262e-09 9.160459e-10 2.076939e-09 1.628921e-09 3.805463e-09
2.397320e-09 2.473355e-09 2.537495e-09 4.540013e-09 4.354441e-09 3.608171e-09 2.788268e-09 4.728389e-09 4.127469e-09 4.711882e-09
4.224601e-09 5.052932e-09 5.675258e-09 6.505064e-09 6.794676e-09 6.834318e-09 7.210090e-09 7.790918e-09 6.383922e-09 7.098480e-09
6.938056e-09 7.010573e-09 7.875879e-09 8.291564e-09 7.941558e-09 8.531285e-09 8.561750e-09 8.822784e-09 9.538248e-09 8.752134e-09
9.858599e-09 1.115441e-08 1.064098e-08 1.026118e-08 1.092862e-08 1.153790e-08 1.096851e-08 1.094417e-08 1.157719e-08 1.204031e-08
1.141352e-08 1.179690e-08 1.317294e-08 1.240250e-08 1.218959e-08 1.313931e-08 1.280672e-08 1.294366e-08 1.308882e-08 1.303534e-08
1.427013e-08 1.409169e-08 1.271210e-08 1.307847e-08 1.290088e-08 1.395711e-08 1.356250e-08 1.420336e-08 1.383087e-08 1.322875e-08
1.470778e-08 1.455061e-08 1.395902e-08 1.351745e-08 1.439476e-08 1.440430e-08 1.409658e-08 1.476337e-08 1.416185e-08 1.443540e-08
1.456938e-08 1.428278e-08 1.434866e-08 1.435198e-08 1.468942e-08 1.354165e-08 1.383836e-08 1.422364e-08 1.366091e-08 1.346270e-08
1.425769e-08 1.432701e-08 1.361461e-08 1.503780e-08 1.437857e-08 1.441595e-08 1.333699e-08 1.460792e-08 1.442911e-08 1.398340e-08
1.385559e-08 1.400923e-08 1.383132e-08 1.411327e-08 1.402047e-08 1.389104e-08 1.336005e-08 1.412945e-08 1.348391e-08 1.433950e-08
1.475515e-08 1.426330e-08 1.416528e-08 1.407746e-08 1.413186e-08 1.356597e-08 1.358676e-08 1.336332e-08 1.297881e-08 1.302467e-08
1.290269e-08 1.382725e-08 1.301378e-08 1.275003e-08 1.262173e-08 1.280214e-08 1.201567e-08 1.213836e-08 1.321431e-08 1.264397e-08
1.281028e-08 1.149348e-08 1.135508e-08 1.106781e-08 1.115349e-08 1.039136e-08 9.865809e-09 1.101911e-08 9.867555e-09 1.073632e-08
9.921933e-09 1.071296e-08 9.715922e-09 9.298936e-09 8.601712e-09 9.542165e-09 9.750033e-09 7.672863e-09 7.063910e-09 6.576399e-09
7.178909e-09 7.201844e-09 6.980104e-09 6.128647e-09 6.678680e-09 6.722244e-09 5.278254e-09 4.950103e-09 4.596131e-09 6.183921e-09
4.761908e-09 4.471237e-09 3.818021e-09 4.624058e-09 4.369626e-09 2.564043e-09 3.240427e-09 3.307752e-09 2.611989e-09 1.741015e-09
1.835877e-09 5.322398e-10 1.343442e-09 9.141887e-10 1.369445e-09 1.890797e-09 1.192399e-09 -2.654854e-11 -1.132143e-09 -3.951115e-10
1.306685e-10 -1.116002e-09 -2.366526e-11 -8.306502e-10 -2.305128e-09 -5.785770e-12 -9.787712e-10 -2.367486e-09 -1.148591e-09 -2.121055e-09
-2.508766e-09 -3.532683e-09 -3.653999e-09 -2.912653e-09 -3.379492e-09 -3.247652e-09 -3.596155e-09 -5.327001e-09 -4.850562e-09 -4.717099e-09
-4.535927e-09 -4.572581e-09 -5.001189e-09 -4.563200e-09 -5.230735e-09 -6.328765e-09 -6.809842e-09 -6.835267e-09 -5.956021e-09 -6.781637e-09
-7.318856e-09 -8.016877e-09 -7.676255e-09 -7.290897e-09 -9.255992e-09 -8.869393e-09 -8.163932e-09 -8.848088e-09 -9.078556e-09 -1.013904e-08
-1.015327e-08 -9.169507e-09 -9.954420e-09 -9.970416e-09 -1.078800e-08 -1.036959e-08 -1.024716e-08 -1.119039e-08 -1.119108e-08 -1.148259e-08
-1.147053e-08 -1.138473e-08 -1.116032e-08 -1.209824e-08 -1.231177e-08 -1.242139e-08 -1.260811e-08 -1.315543e-08 -1.266444e-08 -1.294568e-08
-1.352547e-08 -1.312614e-08 -1.339463e-08 -1.384297e-08 -1.337573e-08 -1.405650e-08 -1.342876e-08 -1.337982e-08 -1.424581e-08 -1.416813e-08
-1.451013e-08 -1.410780e-08 -1.399793e-08 -1.510668e-08 -1.498480e-08 -1.360883e-08 -1.374259e-08 -1.370313e-08 -1.433225e-08 -1.445501e-08
-1.380403e-08 -1.400951e-08 -1.368825e-08 -1.433692e-08 -1.417824e-08 -1.388143e-08 -1.336431e-08 -1.430346e-08 -1.450025e-08 -1.396144e-08
-1.434967e-08 -1.491592e-08 -1.351326e-08 -1.397801e-08 -1.452246e-08 -1.404712e-08 -1.312258e-08 -1.475139e-08 -1.353709e-08 -1.350123e-08
-1.387426e-08 -1.398709e-08 -1.403720e-08 -1.533928e-08 -1.399327e-08 -1.475289e-08 -1.402261e-08 -1.471705e-08 -1.381728e-08 -1.380499e-08
-1.375803e-08 -1.487464e-08 -1.383993e-08 -1.465909e-08 -1.460872e-08 -1.421501e-08 -1.298954e-08 -1.409470e-08 -1.352026e-08 -1.350899e-08
-1.303033e-08 -1.277689e-08 -1.334713e-08 -1.337705e-08 -1.322595e-08 -1.353881e-08 -1.283420e-08 -1.314386e-08 -1.168573e-08 -1.144599e-08
-1.126101e-08 -1.114816e-08 -1.061428e-08 -1.196862e-08 -1.100024e-08 -9.849302e-09 -1.005237e-08 -1.055219e-08 -9.877078e-09 -9.222369e-09
-9.395631e-09 -9.075204e-09 -9.572347e-09 -9.257439e-09 -8.503812e-09 -8.663612e-09 -7.568436e-09 -7.961982e-09 -7.866273e-09 -7.745093e-09
-7.014000e-09 -7.998843e-09 -7.135273e-09 -7.093392e-09 -6.260709e-09 -5.139920e-09 -5.508614e-09 -4.811947e-09 -5.432906e-09 -4.211787e-09
-5.221243e-09 -4.179556e-09 -3.888205e-09 -5.084015e-09 -5.003560e-09 -2.504451e-09 -4.085447e-09 -2.655072e-09 -2.095823e-09 -1.235465e-09
-1.914130e-09 -1.253401e-09 -2.728552e-09 -1.279716e-09 -1.008514e-09 -7.382847e-10 -1.140910e-09 5.977873e-10 7.193553e-10 5.888128e-10
-1.404283e-10
1.344384e-09 7.474415e-10 8.241923e-10 1.166387e-09 4.969757e-10 1.648446e-09 1.522783e-09 1.365449e-09 1.021826e-09 2.541952e-09
2.750095e-09 1.857917e-09 3.694397e-09 4.534957e-09 2.053105e-09 5.058487e-09 5.107224e-09 4.747340e-09 4.829205e-09 4.675301e-09
5.197660e-09 6.081466e-09 6.064946e-09 6.572970e-09 6.415593e-09 6.897634e-09 7.357907e-09 8.020874e-09 6.732185e-09 7.657674e-09
7.765375e-09 8.484547e-09 8.166228e-09 8.793133e-09 7.931784e-09 8.423033e-09 9.788018e-09 1.013880e-08 9.751171e-09 9.694658e-09
1.052684e-08 1.150166e-08 1.025308e-08 1.126974e-08 1.079903e-08 1.063715e-08 1.179107e-08 1.125664e-08 1.238401e-08 1.190973e-08
1.212358e-08 1.233874e-08 1.261140e-08 1.210738e-08 1.224833e-08 1.250985e-08 1.319402e-08 1.302745e-08 1.397875e-08 1.383735e-08
1.368362e-08 1.366604e-08 1.382802e-08 1.396876e-08 1.456195e-08 1.456811e-08 1.423331e-08 1.400433e-08 1.441651e-08 1.417252e-08
1.446433e-08 1.428678e-08 1.436595e-08 1.385505e-08 1.402311e-08 1.394292e-08 1.476787e-08 1.348988e-08 1.448487e-08 1.437220e-08
1.397935e-08 1.339271e-08 1.431206e-08 1.424838e-08 1.369001e-08 1.479554e-08 1.498354e-08 1.345299e-08 1.448470e-08 1.444231e-08
1.378980e-08 1.396416e-08 1.452268e-08 1.412118e-08 1.528746e-08 1.442223e-08 1.551149e-08 1.470201e-08 1.451164e-08 1.371177e-08
1.395405e-08 1.510964e-08 1.426069e-08 1.457681e-08 1.455305e-08 1.589878e-08 1.437704e-08 1.448153e-08 1.450714e-08 1.359278e-08
1.413487e-08 1.482558e-08 1.461537e-08 1.386062e-08 1.478068e-08 1.389929e-08 1.380572e-08 1.433428e-08 1.419793e-08 1.327663e-08
1.287149e-08 1.297821e-08 1.312006e-08 1.300762e-08 1.270681e-08 1.346880e-08 1.305721e-08 1.273996e-08 1.187931e-08 1.231479e-08
1.231145e-08 1.180205e-08 1.220609e-08 1.189167e-08 1.077421e-08 1.112690e-08 1.187674e-08 9.919167e-09 1.011715e-08 1.085799e-08
1.010462e-08 1.027640e-08 9.176656e-09 9.694486e-09 9.544693e-09 8.139391e-09 7.809065e-09 7.594731e-09 7.506402e-09 7.331646e-09
7.263223e-09 7.043081e-09 7.332039e-09 6.096503e-09 6.665603e-09 6.710498e-09 4.572100e-09 5.001854e-09 5.722547e-09 4.172227e-09
3.384578e-09 4.459428e-09 3.042316e-09 4.052722e-09 3.332489e-09 3.897553e-09 3.168396e-09 4.382885e-09 1.930277e-09 2.982209e-09
3.042869e-09 3.225412e-09 1.881875e-09 2.046961e-09 9.517315e-10 2.076218e-09 -7.449970e-10 -1.085472e-10 1.397619e-09 8.024592e-10
-9.782399e-10 -8.092759e-10 -1.836037e-09 -2.089318e-11 -2.035127e-09 -4.661257e-10 -1.828758e-09 -1.668250e-09 -2.308203e-10 -7.461802e-10
-1.450968e-09 -3.565818e-09 -2.577092e-09 -2.917658e-09 -3.426397e-09 -4.106328e-09 -3.163415e-09 -4.366772e-09 -3.755495e-09 -4.258634e-09
-4.389999e-09 -4.409697e-09 -7.043319e-09 -5.778485e-09 -4.916396e-09 -6.129193e-09 -7.367655e-09 -7.115212e-09 -6.893830e-09 -6.325362e-09
-7.150652e-09 -7.866995e-09 -8.073417e-09 -7.599585e-09 -7.432203e-09 -8.561321e-09 -8.967013e-09 -9.817604e-09 -9.447160e-09 -1.021481e-08
-9.947486e-09 -9.012176e-09 -1.033334e-08 -1.111388e-08 -9.841814e-09 -1.100455e-08 -1.124607e-08 -1.191576e-08 -1.216297e-08 -1.185106e-08
-1.146543e-08 -1.165845e-08 -1.213091e-08 -1.284591e-08 -1.225592e-08 -1.279971e-08 -1.286932e-08 -1.319964e-08 -1.376248e-08 -1.303246e-08
-1.386781e-08 -1.429328e-08 -1.357510e-08 -1.426705e-08 -1.375882e-08 -1.391603e-08 -1.381361e-08 -1.401540e-08 -1.478362e-08 -1.351227e-08
-1.451996e-08 -1.489070e-08 -1.379722e-08 -1.343189e-08 -1.455558e-08 -1.394682e-08 -1.451097e-08 -1.397152e-08 -1.463021e-08 -1.403439e-08
-1.448047e-08 -1.424607e-08 -1.396580e-08 -1.385334e-08 -1.414110e-08 -1.436115e-08 -1.468653e-08 -1.374826e-08 -1.501577e-08 -1.406236e-08
-1.357790e-08 -1.410153e-08 -1.423458e-08 -1.505607e-08 -1.452207e-08 -1.347142e-08 -1.400103e-08 -1.444182e-08 -1.469616e-08 -1.410027e-08
-1.506151e-08 -1.405657e-08 -1.494139e-08 -1.425579e-08 -1.442719e-08 -1.444184e-08 -1.442747e-08 -1.432186e-08 -1.401601e-08 -1.494986e-08
-1.467738e-08 -1.407446e-08 -1.322668e-08 -1.418427e-08 -1.410227e-08 -1.375244e-08 -1.452136e-08 -1.439088e-08 -1.381400e-08 -1.495625e-08
-1.402402e-08 -1.338995e-08 -1.304343e-08 -1.322986e-08 -1.315489e-08 -1.326990e-08 -1.322088e-08 -1.205417e-08 -1.238172e-08 -1.181364e-08
-1.173585e-08 -1.122990e-08 -1.176601e-08 -1.087403e-08 -1.178683e-08 -1.107095e-08 -9.933519e-09 -1.046808e-08 -1.100512e-08 -1.103570e-08
-1.028209e-08 -8.728687e-09 -9.583886e-09 -9.182270e-09 -8.988428e-09 -9.508600e-09 -9.058656e-09 -8.163098e-09 -8.006603e-09 -7.081855e-09
-8.303457e-09 -7.207771e-09 -7.606324e-09 -7.161124e-09 -5.682135e-09 -6.036637e-09 -4.298511e-09 -4.604102e-09 -5.453572e-09 -5.125530e-09
-5.616375e-09 -3.965371e-09 -3.253771e-09 -4.346752e-09 -4.286968e-09 -4.427363e-09 -3.243041e-09 -2.531421e-09 -1.593430e-09 -2.581841e-09
-1.985471e-09 -1.703211e-09 -1.225441e-09 -1.322144e-09 -8.117390e-10 -1.236672e-09 -1.079007e-09 -6.446473e-12 -4.994438e-10 -1.253519e-09
1.344384e-09
3.737136e-10 -9.054069e-10 2.080789e-09 1.033705e-09 1.583687e-09 2.316442e-09 2.191506e-09 2.042906e-09 1.632607e-09 1.549738e-09
2.148335e-09 2.976545e-09 4.318172e-09 3.071606e-09 3.909990e-09 3.437067e-09 3.807849e-09 3.392143e-09 4.548111e-09 4.984955e-09
4.624669e-09 5.827014e-09 6.369001e-09 6.762343e-09 6.196161e-09 5.645359e-09 6.277432e-09 7.921687e-09 7.788560e-09 7.501960e-09
8.136680e-09 7.744604e-09 9.167543e-09 9.112912e-09 8.860935e-09 8.786892e-09 9.982244e-09 9.475024e-09 1.026444e-08 9.378691e-09
9.711794e-09 1.153413e-08 1.222119e-08 1.056239e-08 1.083277e-08 1.128328e-08 1.227369e-08 1.193965e-08 1.187819e-08 1.269056e-08
1.269575e-08 1.185171e-08 1.277412e-08 1.297572e-08 1.356868e-08 1.244074e-08 1.312046e-08 1.296102e-08 1.436126e-08 1.383965e-08
1.365195e-08 1.452151e-08 1.411621e-08 1.411643e-08 1.454920e-08 1.513834e-08 1.499364e-08 1.407003e-08 1.426659e-08 1.471133e-08
1.541132e-08 1.422160e-08 1.520354e-08 1.367650e-08 1.527763e-08 1.431986e-08 1.456848e-08 1.499408e-08 1.410728e-08 1.480209e-08
1.474565e-08 1.466724e-08 1.492729e-08 1.401735e-08 1.455170e-08 1.446586e-08 1.451912e-08 1.561293e-08 1.425405e-08 1.572321e-08
1.463795e-08 1.430787e-08 1.451171e-08 1.576345e-08 1.370643e-08 1.543801e-08 1.463029e-08 1.518487e-08 1.475626e-08 1.442822e-08
1.480241e-08 1.505926e-08 1.476174e-08 1.524699e-08 1.399440e-08 1.446120e-08 1.463964e-08 1.497756e-08 1.400170e-08 1.466369e-08
1.413755e-08 1.443264e-08 1.562711e-08 1.475099e-08 1.461316e-08 1.493023e-08 1.398380e-08 1.386421e-08 1.416890e-08 1.358832e-08
1.408395e-08 1.352854e-08 1.364495e-08 1.339759e-08 1.360912e-08 1.328535e-08 1.333150e-08 1.311844e-08 1.241644e-08 1.254152e-08
1.222924e-08 1.172787e-08 1.121856e-08 1.088091e-08 1.097619e-08 1.187993e-08 1.170382e-08 1.102025e-08 1.079371e-08 9.469140e-09
1.009174e-08 1.000246e-08 9.896744e-09 9.310963e-09 8.764691e-09 9.441568e-09 7.560458e-09 9.158602e-09 8.184338e-09 8.850510e-09
7.375023e-09 7.725881e-09 7.610406e-09 6.592341e-09 5.901642e-09 5.381140e-09 5.826049e-09 5.240508e-09 5.497967e-09 4.537025e-09
4.400221e-09 4.507170e-09 3.755351e-09 3.591849e-09 5.044885e-09 3.177354e-09 4.071318e-09 2.768714e-09 2.319293e-09 2.048562e-09
3.403192e-09 1.301756e-09 1.848706e-09 2.018257e-09 1.679620e-09 1.849540e-09 1.663643e-09 8.358937e-10 1.267488e-09 4.446689e-10
-9.114016e-10 3.037384e-10 2.669474e-10 -1.120740e-09 -1.420078e-09 -2.546249e-09 -1.440018e-09 -1.230470e-09 -2.179286e-09 -2.746762e-09
-2.546870e-09 -2.309311e-09 -2.175990e-09 -3.417023e-09 -3.262161e-09 -3.579612e-09 -4.516682e-09 -4.246248e-09 -4.991897e-09 -5.244939e-09
-6.106979e-09 -4.691991e-09 -6.245953e-09 -6.136797e-09 -5.809571e-09 -6.872056e-09 -6.428648e-09 -6.956734e-09 -6.325942e-09 -6.558912e-09
-7.801429e-09 -6.971495e-09 -8.506451e-09 -8.336237e-09 -9.293597e-09 -9.075371e-09 -1.044577e-08 -9.768336e-09 -9.861397e-09 -1.059580e-08
-9.343708e-09 -1.014072e-08 -1.084935e-08 -1.145186e-08 -1.174161e-08 -1.133298e-08 -1.182021e-08 -1.069920e-08 -1.175447e-08 -1.143079e-08
-1.268345e-08 -1.224636e-08 -1.249955e-08 -1.280043e-08 -1.307777e-08 -1.416341e-08 -1.323373e-08 -1.337449e-08 -1.307697e-08 -1.368774e-08
-1.520340e-08 -1.394561e-08 -1.403388e-08 -1.413868e-08 -1.370927e-08 -1.389771e-08 -1.333406e-08 -1.436643e-08 -1.390378e-08 -1.526258e-08
-1.505902e-08 -1.426011e-08 -1.421758e-08 -1.391436e-08 -1.502340e-08 -1.444952e-08 -1.409999e-08 -1.443963e-08 -1.514623e-08 -1.486217e-08
-1.441763e-08 -1.534880e-08 -1.476769e-08 -1.511600e-08 -1.433708e-08 -1.398632e-08 -1.485952e-08 -1.570630e-08 -1.442689e-08 -1.442890e-08
-1.417990e-08 -1.495172e-08 -1.486430e-08 -1.340014e-08 -1.448541e-08 -1.496088e-08 -1.526811e-08 -1.529283e-08 -1.443448e-08 -1.427650e-08
-1.500086e-08 -1.413356e-08 -1.378115e-08 -1.471459e-08 -1.460983e-08 -1.425863e-08 -1.426271e-08 -1.475776e-08 -1.410325e-08 -1.465286e-08
-1.508233e-08 -1.523033e-08 -1.400939e-08 -1.421744e-08 -1.402548e-08 -1.428550e-08 -1.436982e-08 -1.355708e-08 -1.385715e-08 -1.428233e-08
-1.469630e-08 -1.322607e-08 -1.366956e-08 -1.332913e-08 -1.341207e-08 -1.273715e-08 -1.319307e-08 -1.210897e-08 -1.280447e-08 -1.353016e-08
-1.226899e-08 -1.285008e-08 -1.178344e-08 -1.224959e-08 -1.132024e-08 -1.134982e-08 -1.063696e-08 -1.134368e-08 -1.131755e-08 -1.012744e-08
-9.954337e-09 -1.000764e-08 -9.614301e-09 -9.677221e-09 -9.802910e-09 -9.688386e-09 -8.380734e-09 -8.282701e-09 -8.045636e-09 -7.068960e-09
-7.954754e-09 -8.089249e-09 -6.198327e-09 -7.090025e-09 -6.910167e-09 -7.184949e-09 -6.746699e-09 -5.228660e-09 -4.397843e-09 -6.375128e-09
-4.634965e-09 -5.668753e-09 -5.305319e-09 -3.435596e-09 -4.446723e-09 -2.844765e-09 -3.518998e-09 -3.797253e-09 -3.177589e-09 -1.945252e-09
-1.492249e-09 -2.347222e-09 -1.075208e-09 -1.668831e-09 -2.255343e-09 -9.423907e-10 -4.235829e-10 -8.528092e-10 -3.698880e-10 -1.810513e-09
3.737136e-10
-6.771834e-10 7.646342e-10 1.070866e-09 -1.565143e-10 -6.112541e-12 1.060260e-10 3.022755e-10 3.007958e-09 1.843311e-09 1.491483e-09
3.353585e-09 3.613271e-09 2.402094e-09 3.902741e-09 2.582694e-09 3.640810e-09 3.334381e-09 5.366960e-09 4.368081e-09 4.848408e-09
4.502111e-09 5.759022e-09 5.651001e-09 4.741938e-09 6.098968e-09 6.005205e-09 7.267518e-09 7.886486e-09 7.420867e-09 7.471050e-09
7.924062e-09 7.465055e-09 8.102484e-09 9.172802e-09 1.077328e-08 8.776519e-09 1.065510e-08 9.241528e-09 9.680306e-09 1.097294e-08
1.061362e-08 1.062195e-08 1.046676e-08 1.186912e-08 1.208752e-08 1.270013e-08 1.241870e-08 1.180362e-08 1.289204e-08 1.278850e-08
1.269935e-08 1.295748e-08 1.227093e-08 1.343316e-08 1.290538e-08 1.327088e-08 1.360860e-08 1.341040e-08 1.411661e-08 1.473939e-08
1.383773e-08 1.423854e-08 1.470539e-08 1.426907e-08 1.501972e-08 1.464465e-08 1.457292e-08 1.550188e-08 1.491276e-08 1.543367e-08
1.486172e-08 1.443582e-08 1.466315e-08 1.547352e-08 1.470623e-08 1.524269e-08 1.525818e-08 1.494382e-08 1.590540e-08 1.475490e-08
1.478799e-08 1.471408e-08 1.451753e-08 1.499715e-08 1.448189e-08 1.464263e-08 1.604064e-08 1.483368e-08 1.557191e-08 1.404891e-08
1.503593e-08 1.391783e-08 1.421786e-08 1.469977e-08 1.464667e-08 1.525162e-08 1.445896e-08 1.429456e-08 1.490620e-08 1.477136e-08
1.538035e-08 1.528476e-08 1.418122e-08 1.521971e-08 1.578601e-08 1.517039e-08 1.554958e-08 1.457529e-08 1.502238e-08 1.566016e-08
1.555097e-08 1.528556e-08 1.506441e-08 1.550416e-08 1.445425e-08 1.425757e-08 1.471585e-08 1.427832e-08 1.427473e-08 1.399592e-08
1.382092e-08 1.375109e-08 1.442755e-08 1.309025e-08 1.408803e-08 1.268698e-08 1.372288e-08 1.267823e-08 1.208691e-08 1.248007e-08
1.358216e-08 1.203072e-08 1.226867e-08 1.186646e-08 1.109921e-08 1.123358e-08 1.158881e-08 1.029030e-08 1.110786e-08 1.037088e-08
1.061264e-08 9.679386e-09 9.554113e-09 9.500869e-09 8.707236e-09 9.213163e-09 8.773855e-09 9.539971e-09 8.716806e-09 7.250865e-09
7.535832e-09 7.064564e-09 6.882775e-09 6.972749e-09 7.783680e-09 6.494474e-09 6.045124e-09 4.345130e-09 6.001898e-09 5.430686e-09
5.730275e-09 5.981667e-09 4.949180e-09 4.866032e-09 3.132747e-09 4.137435e-09 3.128362e-09 3.125444e-09 3.123541e-09 2.678806e-09
2.121807e-09 2.770769e-09 1.343650e-09 1.953453e-09 1.895154e-09 1.019123e-09 -6.204958e-10 1.125143e-09 2.759771e-10 3.329577e-10
-9.145576e-10 3.896680e-10 -6.843899e-10 -2.199656e-09 7.253258e-11 3.603720e-10 -8.247539e-10 -1.554021e-09 -2.666824e-09 -2.612533e-09
-1.805097e-09 -2.898265e-09 -3.515680e-09 -3.431866e-09 -1.702778e-09 -3.962482e-09 -3.813377e-09 -5.567934e-09 -5.176644e-09 -4.909624e-09
-3.642037e-09 -5.393011e-09 -4.997633e-09 -5.397357e-09 -6.443566e-09 -6.771282e-09 -6.144633e-09 -7.725117e-09 -7.004653e-09 -7.563473e-09
-7.702384e-09 -8.768374e-09 -9.111619e-09 -8.867310e-09 -8.722513e-09 -9.006422e-09 -9.534030e-09 -1.006985e-08 -9.440446e-09 -1.055169e-08
-1.007028e-08 -1.193395e-08 -1.062423e-08 -1.207560e-08 -1.088279e-08 -1.105210e-08 -1.122078e-08 -1.206549e-08 -1.189068e-08 -1.209355e-08
-1.244104e-08 -1.290933e-08 -1.289822e-08 -1.240503e-08 -1.376773e-08 -1.356704e-08 -1.402743e-08 -1.335626e-08 -1.401260e-08 -1.347548e-08
-1.368571e-08 -1.364293e-08 -1.421412e-08 -1.401102e-08 -1.457985e-08 -1.525580e-08 -1.391782e-08 -1.407663e-08 -1.447171e-08 -1.472357e-08
-1.455727e-08 -1.408693e-08 -1.528751e-08 -1.498348e-08 -1.468138e-08 -1.469544e-08 -1.469345e-08 -1.527689e-08 -1.500651e-08 -1.397793e-08
-1.395670e-08 -1.430166e-08 -1.369475e-08 -1.481073e-08 -1.399899e-08 -1.420607e-08 -1.521241e-08 -1.490671e-08 -1.485654e-08 -1.461356e-08
-1.505312e-08 -1.479960e-08 -1.461026e-08 -1.501871e-08 -1.395938e-08 -1.515722e-08 -1.430089e-08 -1.438799e-08 -1.454661e-08 -1.464140e-08
-1.494118e-08 -1.471457e-08 -1.505255e-08 -1.573112e-08 -1.603028e-08 -1.521397e-08 -1.632250e-08 -1.462710e-08 -1.575012e-08 -1.504064e-08
-1.511981e-08 -1.525706e-08 -1.582536e-08 -1.476630e-08 -1.446165e-08 -1.425882e-08 -1.464292e-08 -1.527907e-08 -1.388107e-08 -1.434847e-08
-1.391720e-08 -1.422724e-08 -1.371803e-08 -1.438716e-08 -1.309757e-08 -1.423080e-08 -1.436228e-08 -1.356010e-08 -1.247756e-08 -1.225340e-08
-1.223015e-08 -1.285727e-08 -1.099489e-08 -1.228540e-08 -1.209605e-08 -1.090184e-08 -1.087290e-08 -1.031205e-08 -1.000858e-08 -1.025191e-08
-9.456642e-09 -9.754422e-09 -8.905613e-09 -9.704635e-09 -9.707230e-09 -9.114872e-09 -9.376492e-09 -7.931325e-09 -9.385794e-09 -9.279450e-09
-9.421861e-09 -6.725732e-09 -7.025327e-09 -7.549101e-09 -6.774297e-09 -5.553260e-09 -5.739008e-09 -5.597435e-09 -5.815435e-09 -4.233575e-09
-5.433746e-09 -3.939752e-09 -5.090383e-09 -4.649555e-09 -3.950181e-09 -3.398195e-09 -2.649788e-09 -4.166978e-09 -4.117762e-09 -3.113868e-09
-2.005935e-09 -3.639502e-09 -2.372003e-09 -2.277933e-09 -1.035762e-09 -1.870890e-09 -9.926800e-10 -5.908722e-10 4.557457e-10 -8.975894e-11
-6.771834e-10
2.535812e-10 -4.949513e-13 3.874535e-10 3.354228e-10 1.059739e-09 1.786957e-09 2.013347e-09 1.622179e-09 2.487704e-09 2.608908e-09
1.133515e-09 2.207156e-09 3.122459e-09 2.853318e-09 4.489451e-09 4.181169e-09 4.562166e-09 4.997744e-09 4.113729e-09 4.525416e-09
4.851019e-09 5.465520e-09 6.306124e-09 5.688655e-09 7.031189e-09 6.698786e-09 6.768243e-09 7.757905e-09 8.345655e-09 7.908446e-09
8.795328e-09 7.403091e-09 8.755141e-09 8.918961e-09 9.137526e-09 9.700229e-09 9.032058e-09 1.067971e-08 1.008455e-08 1.040439e-08
1.050674e-08 1.065354e-08 1.129282e-08 1.209148e-08 1.119522e-08 1.207112e-08 1.182300e-08 1.224568e-08 1.267343e-08 1.202726e-08
1.226603e-08 1.328348e-08 1.363310e-08 1.304644e-08 1.344894e-08 1.360733e-08 1.399949e-08 1.469486e-08 1.366267e-08 1.495027e-08
1.439944e-08 1.475499e-08 1.449994e-08 1.435295e-08 1.526622e-08 1.429445e-08 1.512691e-08 1.502007e-08 1.464005e-08 1.484378e-08
1.532630e-08 1.463693e-08 1.563330e-08 1.499502e-08 1.473785e-08 1.543765e-08 1.552862e-08 1.544965e-08 1.475278e-08 1.546948e-08
1.529136e-08 1.492126e-08 1.555736e-08 1.543816e-08 1.536159e-08 1.454316e-08 1.516036e-08 1.590992e-08 1.556843e-08 1.537455e-08
1.553934e-08 1.519204e-08 1.545651e-08 1.539685e-08 1.436460e-08 1.522803e-08 1.421855e-08 1.602737e-08 1.422072e-08 1.582903e-08
1.446031e-08 1.527423e-08 1.535984e-08 1.516526e-08 1.526095e-08 1.530644e-08 1.475909e-08 1.648476e-08 1.548141e-08 1.568140e-08
1.512809e-08 1.541123e-08 1.599085e-08 1.551720e-08 1.475720e-08 1.544667e-08 1.454866e-08 1.352476e-08 1.428166e-08 1.557847e-08
1.456011e-08 1.423887e-08 1.391015e-08 1.318179e-08 1.352510e-08 1.490815e-08 1.315242e-08 1.313335e-08 1.322932e-08 1.461970e-08
1.294593e-08 1.229493e-08 1.238514e-08 1.163444e-08 1.169097e-08 1.265985e-08 1.231350e-08 1.082884e-08 1.148122e-08 1.135448e-08
1.008471e-08 9.730811e-09 9.989250e-09 9.299364e-09 9.538116e-09 8.648407e-09 7.973513e-09 7.907494e-09 9.372314e-09 9.133699e-09
9.001113e-09 7.279988e-09 7.233195e-09 6.467152e-09 6.625815e-09 7.027719e-09 6.225228e-09 6.872586e-09 4.592284e-09 5.229084e-09
4.718709e-09 4.978988e-09 4.959071e-09 5.092369e-09 3.027995e-09 3.502612e-09 3.031931e-09 2.187384e-09 2.588858e-09 2.691535e-09
1.784252e-09 2.653507e-09 3.049863e-09 1.634671e-09 -1.526940e-10 8.290609e-10 -8.006112e-11 -7.300103e-10 -1.183002e-10 6.577980e-10
1.278484e-09 -3.492024e-10 9.418298e-10 -2.894839e-10 4.243596e-10 -1.335415e-09 -2.080516e-09 -1.534310e-09 -6.844516e-10 -1.833740e-09
-4.365134e-09 -4.257599e-09 -2.808166e-09 -3.789980e-09 -3.177849e-09 -3.612028e-09 -4.669808e-09 -4.941583e-09 -6.045024e-09 -4.361775e-09
-4.932991e-09 -5.654266e-09 -6.563985e-09 -7.125516e-09 -6.798879e-09 -6.424479e-09 -6.938831e-09 -7.534869e-09 -8.032592e-09 -6.803711e-09
-8.496329e-09 -8.077428e-09 -9.022925e-09 -9.240949e-09 -9.508567e-09 -9.441190e-09 -9.971000e-09 -1.077394e-08 -1.022992e-08 -9.957169e-09
-1.091985e-08 -1.070120e-08 -1.171885e-08 -1.063879e-08 -1.147453e-08 -1.137783e-08 -1.206686e-08 -1.161409e-08 -1.214399e-08 -1.242771e-08
-1.301466e-08 -1.392842e-08 -1.356915e-08 -1.333375e-08 -1.336577e-08 -1.316861e-08 -1.374978e-08 -1.355007e-08 -1.384580e-08 -1.376410e-08
-1.367799e-08 -1.462116e-08 -1.493541e-08 -1.500670e-08 -1.435492e-08 -1.477381e-08 -1.419025e-08 -1.430272e-08 -1.533071e-08 -1.469554e-08
-1.524571e-08 -1.509551e-08 -1.494485e-08 -1.514989e-08 -1.525426e-08 -1.497222e-08 -1.506749e-08 -1.491056e-08 -1.426173e-08 -1.504987e-08
-1.484312e-08 -1.589747e-08 -1.448470e-08 -1.485411e-08 -1.505171e-08 -1.549293e-08 -1.455013e-08 -1.488224e-08 -1.563090e-08 -1.527779e-08
-1.588992e-08 -1.504914e-08 -1.445245e-08 -1.476488e-08 -1.501988e-08 -1.361095e-08 -1.489133e-08 -1.639574e-08 -1.451550e-08 -1.433849e-08
-1.504867e-08 -1.528340e-08 -1.574281e-08 -1.527551e-08 -1.567913e-08 -1.508612e-08 -1.482660e-08 -1.512167e-08 -1.581759e-08 -1.540969e-08
-1.480822e-08 -1.516816e-08 -1.587783e-08 -1.484391e-08 -1.490812e-08 -1.496121e-08 -1.528425e-08 -1.541887e-08 -1.520054e-08 -1.456026e-08
-1.466134e-08 -1.379965e-08 -1.456542e-08 -1.491995e-08 -1.358717e-08 -1.362892e-08 -1.345249e-08 -1.349939e-08 -1.338762e-08 -1.212278e-08
-1.292108e-08 -1.187616e-08 -1.218338e-08 -1.149690e-08 -1.145083e-08 -1.191875e-08 -1.187440e-08 -1.039473e-08 -1.097518e-08 -1.106282e-08
-9.660766e-09 -1.000434e-08 -9.919255e-09 -1.003549e-08 -1.087289e-08 -8.561700e-09 -8.725920e-09 -8.576905e-09 -8.203142e-09 -7.866068e-09
-7.879117e-09 -7.614770e-09 -7.937745e-09 -6.568124e-09 -6.562833e-09 -6.206617e-09 -6.682912e-09 -5.669231e-09 -4.069103e-09 -5.362395e-09
-4.762704e-09 -3.726465e-09 -3.929351e-09 -4.858208e-09 -3.456660e-09 -3.918537e-09 -4.093909e-09 -2.364909e-09 -3.101940e-09 -3.137805e-09
-2.424330e-09 -2.871518e-09 -1.261881e-09 -1.165826e-09 -1.448316e-09 -4.238339e-10 -5.713244e-10 -1.724027e-09 -4.055060e-10 -2.244911e-10
2.535812e-10
-6.914807e-10 1.186932e-09 -5.234746e-10 2.543867e-09 2.552513e-09 1.261176e-09 2.113407e-09 1.541911e-09 8.218036e-10 2.494000e-09
2.557443e-09 2.475290e-09 3.219733e-09 3.144957e-09 2.979969e-09 4.956446e-09 3.910061e-09 4.719039e-09 4.317438e-09 5.501082e-09
5.734083e-09 6.640910e-09 6.612316e-09 6.008038e-09 6.530314e-09 6.687939e-09 7.171812e-09 8.612028e-09 7.378210e-09 7.649831e-09
8.027595e-09 9.546395e-09 9.623140e-09 9.429060e-09 9.091487e-09 9.876732e-09 1.067796e-08 9.686196e-09 1.052647e-08 1.075638e-08
1.109044e-08 1.183188e-08 1.059198e-08 1.125595e-08 1.161866e-08 1.135646e-08 1.173036e-08 1.209494e-08 1.247133e-08 1.246503e-08
1.352364e-08 1.313502e-08 1.393350e-08 1.441276e-08 1.292852e-08 1.372303e-08 1.360015e-08 1.368505e-08 1.494940e-08 1.470009e-08
1.492814e-08 1.447810e-08 1.478309e-08 1.467571e-08 1.564734e-08 1.510059e-08 1.572391e-08 1.527283e-08 1.573823e-08 1.483356e-08
1.564124e-08 1.531532e-08 1.510588e-08 1.505887e-08 1.557387e-08 1.677605e-08 1.563865e-08 1.494250e-08 1.552992e-08 1.626270e-08
1.592502e-08 1.534164e-08 1.636754e-08 1.541733e-08 1.485378e-08 1.517657e-08 1.537679e-08 1.440162e-08 1.518246e-08 1.633832e-08
1.482403e-08 1.522751e-08 1.504289e-08 1.476131e-08 1.515471e-08 1.542040e-08 1.574656e-08 1.476834e-08 1.621637e-08 1.459861e-08
1.504658e-08 1.635824e-08 1.510121e-08 1.570282e-08 1.606458e-08 1.586958e-08 1.558611e-08 1.640678e-08 1.602284e-08 1.577666e-08
1.481374e-08 1.511837e-08 1.499754e-08 1.611773e-08 1.624534e-08 1.488884e-08 1.437641e-08 1.466965e-08 1.409791e-08 1.505772e-08
1.441453e-08 1.395050e-08 1.396406e-08 1.383653e-08 1.487286e-08 1.407475e-08 1.404628e-08 1.462167e-08 1.340029e-08 1.256135e-08
1.263871e-08 1.303651e-08 1.280177e-08 1.340906e-08 1.256533e-08 1.174165e-08 1.129851e-08 1.088845e-08 1.060511e-08 1.096033e-08
1.080798e-08 1.035949e-08 1.093083e-08 1.059276e-08 1.005472e-08 8.950031e-09 9.597669e-09 8.918952e-09 8.268663e-09 7.143831e-09
8.282885e-09 7.360204e-09 7.585225e-09 7.817958e-09 8.042869e-09 7.337353e-09 5.740338e-09 6.769153e-09 6.376215e-09 4.947624e-09
3.973262e-09 6.168712e-09 3.882425e-09 4.951302e-09 4.088780e-09 3.971539e-09 2.738651e-09 3.249475e-09 2.191684e-09 3.718944e-09
8.257970e-10 3.380188e-09 7.319090e-11 1.559100e-09 1.001488e-09 1.285674e-09 3.593436e-10 4.939102e-10 8.387941e-10 -8.255933e-12
6.625793e-10 -3.367492e-10 -7.831882e-10 -5.074759e-10 -1.393497e-09 -7.905809e-10 -9.541544e-10 -5.499892e-10 -3.425079e-09 -2.587577e-09
-2.365055e-09 -1.898999e-09 -2.926893e-09 -2.146518e-09 -2.332568e-09 -4.035476e-09 -2.962889e-09 -5.384812e-09 -3.806219e-09 -3.557581e-09
-4.949776e-09 -6.984331e-09 -6.121684e-09 -5.320047e-09 -5.668527e-09 -7.680424e-09 -5.853563e-09 -7.241090e-09 -8.371365e-09 -7.924905e-09
-7.903751e-09 -7.874516e-09 -8.404455e-09 -9.258465e-09 -1.011419e-08 -8.851196e-09 -1.139404e-08 -1.040871e-08 -1.010585e-08 -1.010863e-08
-1.100325e-08 -1.074341e-08 -1.140320e-08 -1.090159e-08 -1.255958e-08 -1.169048e-08 -1.164681e-08 -1.246009e-08 -1.213978e-08 -1.233676e-08
-1.315128e-08 -1.296988e-08 -1.393836e-08 -1.347771e-08 -1.346067e-08 -1.347322e-08 -1.439447e-08 -1.398474e-08 -1.449851e-08 -1.528294e-08
-1.475242e-08 -1.499549e-08 -1.445456e-08 -1.477490e-08 -1.455830e-08 -1.510569e-08 -1.546483e-08 -1.557065e-08 -1.480586e-08 -1.494650e-08
-1.545108e-08 -1.568255e-08 -1.466915e-08 -1.524422e-08 -1.499351e-08 -1.509368e-08 -1.565752e-08 -1.501713e-08 -1.544363e-08 -1.506374e-08
-1.523394e-08 -1.435850e-08 -1.481879e-08 -1.525761e-08 -1.561084e-08 -1.507555e-08 -1.559778e-08 -1.501132e-08 -1.452333e-08 -1.528683e-08
-1.607131e-08 -1.551765e-08 -1.418649e-08 -1.498258e-08 -1.589671e-08 -1.590302e-08 -1.584931e-08 -1.543260e-08 -1.561208e-08 -1.528284e-08
-1.555886e-08 -1.569846e-08 -1.437302e-08 -1.555448e-08 -1.562576e-08 -1.550796e-08 -1.513675e-08 -1.481568e-08 -1.516513e-08 -1.636958e-08
-1.592315e-08 -1.668137e-08 -1.579472e-08 -1.601804e-08 -1.449853e-08 -1.470058e-08 -1.442264e-08 -1.468128e-08 -1.498183e-08 -1.452787e-08
-1.477816e-08 -1.408421e-08 -1.384493e-08 -1.476992e-08 -1.392489e-08 -1.351054e-08 -1.402447e-08 -1.384044e-08 -1.342761e-08 -1.274425e-08
-1.231259e-08 -1.217167e-08 -1.209789e-08 -1.220361e-08 -1.160091e-08 -1.218794e-08 -1.156499e-08 -1.108932e-08 -1.082189e-08 -1.011253e-08
-1.061455e-08 -1.119680e-08 -1.045971e-08 -9.560204e-09 -8.996366e-09 -1.054933e-08 -9.139154e-09 -8.802963e-09 -7.850448e-09 -7.461922e-09
-8.683581e-09 -7.383845e-09 -7.167523e-09 -6.118863e-09 -7.852552e-09 -5.306608e-09 -6.649929e-09 -5.691825e-09 -6.285739e-09 -4.743265e-09
-4.903558e-09 -4.591630e-09 -5.604601e-09 -3.496859e-09 -3.690963e-09 -2.992999e-09 -4.622299e-09 -3.133405e-09 -3.608755e-09 -2.447591e-09
-1.135433e-09 -1.968283e-09 -2.323435e-09 -1.955825e-09 -2.565235e-09 -2.444116e-09 -1.265349e-09 -1.386810e-09 -9.695485e-11 1.028666e-09
-6.914807e-10
1.516085e-10 1.102326e-09 2.017804e-10 4.565481e-10 1.297504e-09 1.040693e-09 5.445581e-10 2.045019e-09 2.316273e-09 1.868531e-09
2.435171e-09 3.385597e-09 1.853179e-09 3.744220e-09 2.841827e-09 3.268225e-09 5.050381e-09 5.139395e-09 4.605594e-09 5.045470e-09
6.953587e-09 4.683431e-09 5.962969e-09 6.375612e-09 7.981243e-09 7.491697e-09 7.940787e-09 7.789706e-09 7.531011e-09 8.068464e-09
8.879328e-09 7.760256e-09 8.777733e-09 8.869320e-09 9.429143e-09 9.273874e-09 9.589243e-09 1.017895e-08 1.081426e-08 1.067776e-08
1.108116e-08 1.172019e-08 1.159355e-08 1.263962e-08 1.135772e-08 1.203071e-08 1.267919e-08 1.380010e-08 1.298640e-08 1.280421e-08
1.351156e-08 1.390860e-08 1.354652e-08 1.373968e-08 1.407207e-08 1.409372e-08 1.396943e-08 1.399802e-08 1.554044e-08 1.499724e-08
1.523036e-08 1.535275e-08 1.472766e-08 1.593150e-08 1.582475e-08 1.618924e-08 1.663085e-08 1.708231e-08 1.605928e-08 1.568463e-08
1.567021e-08 1.575549e-08 1.533971e-08 1.581164e-08 1.531574e-08 1.534717e-08 1.544542e-08 1.575771e-08 1.578168e-08 1.588969e-08
1.674095e-08 1.503989e-08 1.635325e-08 1.553632e-08 1.642459e-08 1.467567e-08 1.599672e-08 1.458332e-08 1.522959e-08 1.493337e-08
1.544092e-08 1.554183e-08 1.473878e-08 1.564429e-08 1.550587e-08 1.498434e-08 1.576826e-08 1.557601e-08 1.519628e-08 1.600429e-08
1.605988e-08 1.584131e-08 1.559012e-08 1.508093e-08 1.621973e-08 1.555826e-08 1.639693e-08 1.568049e-08 1.696949e-08 1.547270e-08
1.550489e-08 1.530831e-08 1.569334e-08 1.602119e-08 1.528995e-08 1.591136e-08 1.526833e-08 1.539215e-08 1.524476e-08 1.611468e-08
1.502318e-08 1.457510e-08 1.440404e-08 1.431023e-08 1.455782e-08 1.380286e-08 1.480452e-08 1.361496e-08 1.320406e-08 1.377595e-08
1.336952e-08 1.252668e-08 1.230181e-08 1.204976e-08 1.270019e-08 1.215586e-08 1.159417e-08 1.165580e-08 1.074785e-08 1.113457e-08
1.100236e-08 9.878594e-09 1.040596e-08 1.021400e-08 9.657567e-09 9.925056e-09 8.663991e-09 8.542674e-09 7.987288e-09 9.618353e-09
8.591240e-09 7.869509e-09 7.038437e-09 8.623124e-09 7.319811e-09 6.720214e-09 5.429939e-09 6.628416e-09 5.176240e-09 5.545524e-09
6.041493e-09 5.362465e-09 3.941324e-09 2.715141e-09 3.728557e-09 3.247299e-09 2.990650e-09 2.982218e-09 2.536052e-09 3.200132e-09
2.100814e-09 2.090689e-09 1.140458e-09 1.703612e-09 1.670923e-09 7.456360e-10 1.032081e-09 1.327643e-10 5.294654e-10 -3.049321e-10
-4.339190e-10 -4.458907e-10 -4.931427e-10 -2.731770e-10 3.766686e-10 -1.844244e-09 -1.345104e-09 -2.223300e-09 -3.091781e-09 -1.003988e-09
-2.147795e-09 -2.539061e-09 -3.605590e-09 -3.879639e-09 -4.887738e-09 -4.388741e-09 -4.270818e-09 -4.995025e-09 -3.299276e-09 -5.155010e-09
-4.858068e-09 -4.638867e-09 -5.889989e-09 -7.633626e-09 -6.708874e-09 -6.713078e-09 -6.703517e-09 -6.400860e-09 -7.634383e-09 -7.484716e-09
-9.726100e-09 -8.486342e-09 -7.749822e-09 -8.425489e-09 -8.548610e-09 -9.055252e-09 -9.661520e-09 -1.001627e-08 -1.033321e-08 -1.115334e-08
-1.020526e-08 -1.116818e-08 -1.053201e-08 -1.127398e-08 -1.150728e-08 -1.183965e-08 -1.291799e-08 -1.208266e-08 -1.232581e-08 -1.307001e-08
-1.390066e-08 -1.357785e-08 -1.345078e-08 -1.391859e-08 -1.314638e-08 -1.330564e-08 -1.360855e-08 -1.384102e-08 -1.355850e-08 -1.452763e-08
-1.503416e-08 -1.463070e-08 -1.561431e-08 -1.531108e-08 -1.527814e-08 -1.598727e-08 -1.683586e-08 -1.445612e-08 -1.542308e-08 -1.567643e-08
-1.614058e-08 -1.584671e-08 -1.488007e-08 -1.596612e-08 -1.528474e-08 -1.556398e-08 -1.638049e-08 -1.605349e-08 -1.500676e-08 -1.585442e-08
-1.553897e-08 -1.510445e-08 -1.586977e-08 -1.621731e-08 -1.579765e-08 -1.595247e-08 -1.453121e-08 -1.596994e-08 -1.535089e-08 -1.590854e-08
-1.592899e-08 -1.532037e-08 -1.609601e-08 -1.502282e-08 -1.613909e-08 -1.530258e-08 -1.657573e-08 -1.493685e-08 -1.620820e-08 -1.557087e-08
-1.496647e-08 -1.536191e-08 -1.547587e-08 -1.548771e-08 -1.605545e-08 -1.590309e-08 -1.597035e-08 -1.541362e-08 -1.471967e-08 -1.516534e-08
-1.591233e-08 -1.536827e-08 -1.574475e-08 -1.484198e-08 -1.582469e-08 -1.523495e-08 -1.571571e-08 -1.555325e-08 -1.476034e-08 -1.453122e-08
-1.402947e-08 -1.438730e-08 -1.539308e-08 -1.507949e-08 -1.405056e-08 -1.332674e-08 -1.350675e-08 -1.364993e-08 -1.329582e-08 -1.335375e-08
-1.277956e-08 -1.229747e-08 -1.217213e-08 -1.219928e-08 -1.287587e-08 -1.252380e-08 -1.135019e-08 -1.113751e-08 -1.163119e-08 -1.098213e-08
-1.030129e-08 -1.094846e-08 -1.007550e-08 -1.005058e-08 -9.918455e-09 -9.369690e-09 -8.648786e-09 -9.750030e-09 -8.510430e-09 -9.889965e-09
-8.870044e-09 -7.371117e-09 -6.991532e-09 -6.699656e-09 -6.383118e-09 -6.278070e-09 -5.532470e-09 -5.258768e-09 -5.059338e-09 -5.689745e-09
-4.811776e-09 -4.332355e-09 -4.783230e-09 -4.379481e-09 -4.298292e-09 -5.037291e-09 -3.136673e-09 -3.051735e-09 -1.946612e-09 -3.218341e-09
-1.442111e-09 -3.595159e-09 -2.487268e-09 -1.639130e-09 -1.717077e-09 -5.676570e-10 -1.121202e-09 -6.688288e-10 -3.136652e-10 -1.281251e-09
1.516085e-10
-2.692287e-10 1.604876e-09 2.432614e-10 1.608174e-09 6.415413e-10 2.590774e-09 1.950332e-09 3.088598e-09 2.055913e-09 3.452068e-09
3.093986e-09 2.829250e-09 3.140140e-09 3.232966e-09 3.835961e-09 4.874797e-09 5.287196e-09 4.461005e-09 5.068570e-09 4.792704e-09
6.595182e-09 5.995125e-09 4.906723e-09 6.273806e-09 7.409871e-09 7.020163e-09 6.298844e-09 7.647516e-09 7.574326e-09 8.811297e-09
7.962999e-09 9.932369e-09 8.548700e-09 9.777916e-09 9.944789e-09 1.031326e-08 9.528011e-09 1.005407e-08 1.095820e-08 1.088030e-08
1.081218e-08 1.140531e-08 1.104335e-08 1.148168e-08 1.122401e-08 1.368911e-08 1.241805e-08 1.216453e-08 1.381558e-08 1.310192e-08
1.255118e-08 1.445627e-08 1.406270e-08 1.479578e-08 1.423378e-08 1.536502e-08 1.399226e-08 1.437346e-08 1.530773e-08 1.489063e-08
1.530559e-08 1.481216e-08 1.570742e-08 1.617275e-08 1.749025e-08 1.571639e-08 1.618962e-08 1.496227e-08 1.566188e-08 1.671639e-08
1.637002e-08 1.631676e-08 1.526783e-08 1.656922e-08 1.679157e-08 1.647445e-08 1.474791e-08 1.662568e-08 1.570417e-08 1.692311e-08
1.535951e-08 1.750575e-08 1.605456e-08 1.601605e-08 1.540632e-08 1.632759e-08 1.543579e-08 1.577069e-08 1.603580e-08 1.498805e-08
1.546970e-08 1.565523e-08 1.686008e-08 1.445902e-08 1.652484e-08 1.504784e-08 1.587323e-08 1.548944e-08 1.631535e-08 1.567624e-08
1.655338e-08 1.616398e-08 1.662491e-08 1.547254e-08 1.690217e-08 1.561816e-08 1.609352e-08 1.609377e-08 1.670756e-08 1.548397e-08
1.708961e-08 1.516989e-08 1.663083e-08 1.655939e-08 1.542878e-08 1.592964e-08 1.544868e-08 1.603078e-08 1.605235e-08 1.531542e-08
1.468775e-08 1.531269e-08 1.479689e-08 1.418608e-08 1.446260e-08 1.451709e-08 1.407120e-08 1.337254e-08 1.382378e-08 1.428247e-08
1.413035e-08 1.250771e-08 1.300630e-08 1.257025e-08 1.264795e-08 1.217056e-08 1.321897e-08 1.257698e-08 1.218637e-08 1.168421e-08
1.014014e-08 1.168373e-08 1.075700e-08 1.046476e-08 1.054210e-08 8.864184e-09 9.920299e-09 8.409175e-09 9.081721e-09 8.232078e-09
9.269100e-09 8.834557e-09 8.049390e-09 6.924290e-09 7.036882e-09 6.033402e-09 6.853122e-09 6.981184e-09 6.298668e-09 4.796362e-09
6.551428e-09 5.978359e-09 4.585430e-09 3.496889e-09 4.601505e-09 3.474862e-09 3.881899e-09 3.142201e-09 3.878160e-09 1.897271e-09
2.441394e-09 1.810799e-09 3.129643e-09 1.252460e-09 1.899561e-09 1.616840e-09 4.679184e-10 5.469343e-10 -1.081076e-09 -9.082565e-11
-1.203270e-09 -5.813952e-10 -1.798743e-09 -1.170376e-09 1.213254e-09 -4.350334e-10 -2.671815e-09 -1.967757e-09 -1.926632e-09 -1.577759e-09
-2.310663e-09 -2.771053e-09 -3.039734e-09 -3.699737e-09 -3.341374e-09 -3.616009e-09 -2.845320e-09 -4.002139e-09 -4.179464e-09 -4.970245e-09
-4.743622e-09 -5.202526e-09 -6.539215e-09 -6.927879e-09 -6.218185e-09 -7.355620e-09 -7.984788e-09 -8.319449e-09 -8.726206e-09 -7.648461e-09
-9.272998e-09 -9.169227e-09 -1.019531e-08 -8.846498e-09 -8.791078e-09 -8.926701e-09 -9.757696e-09 -9.465400e-09 -1.161510e-08 -1.034272e-08
-1.057281e-08 -1.161966e-08 -1.214306e-08 -1.155220e-08 -1.231530e-08 -1.254484e-08 -1.224642e-08 -1.227513e-08 -1.287094e-08 -1.264655e-08
-1.334532e-08 -1.362417e-08 -1.421284e-08 -1.397413e-08 -1.394440e-08 -1.376680e-08 -1.403974e-08 -1.570016e-08 -1.594493e-08 -1.577967e-08
-1.529936e-08 -1.589880e-08 -1.499190e-08 -1.483635e-08 -1.616034e-08 -1.547527e-08 -1.581633e-08 -1.511147e-08 -1.515651e-08 -1.548719e-08
-1.620041e-08 -1.540486e-08 -1.564299e-08 -1.520633e-08 -1.536431e-08 -1.690116e-08 -1.550625e-08 -1.593561e-08 -1.611387e-08 -1.503087e-08
-1.648361e-08 -1.487921e-08 -1.573960e-08 -1.642830e-08 -1.629391e-08 -1.474098e-08 -1.554947e-08 -1.554461e-08 -1.516331e-08 -1.489632e-08
-1.580236e-08 -1.536985e-08 -1.588896e-08 -1.585303e-08 -1.522165e-08 -1.575711e-08 -1.501656e-08 -1.673340e-08 -1.638371e-08 -1.571273e-08
-1.620901e-08 -1.675521e-08 -1.570722e-08 -1.496277e-08 -1.591992e-08 -1.707155e-08 -1.592223e-08 -1.559086e-08 -1.556169e-08 -1.648076e-08
-1.661567e-08 -1.625975e-08 -1.541415e-08 -1.585578e-08 -1.497760e-08 -1.478332e-08 -1.561085e-08 -1.546769e-08 -1.541020e-08 -1.513457e-08
-1.544233e-08 -1.547508e-08 -1.508645e-08 -1.510069e-08 -1.426925e-08 -1.341426e-08 -1.322447e-08 -1.353546e-08 -1.311144e-08 -1.307099e-08
-1.380640e-08 -1.284036e-08 -1.212926e-08 -1.281470e-08 -1.229690e-08 -1.140895e-08 -1.120642e-08 -1.168220e-08 -1.133886e-08 -1.081634e-08
-1.027848e-08 -1.088197e-08 -1.030676e-08 -9.859220e-09 -9.945967e-09 -9.492234e-09 -8.296975e-09 -8.800725e-09 -9.108480e-09 -8.103339e-09
-9.255683e-09 -7.775414e-09 -8.082977e-09 -8.453077e-09 -6.526639e-09 -7.656300e-09 -8.570717e-09 -6.327718e-09 -5.108958e-09 -5.315885e-09
-5.860163e-09 -5.488989e-09 -5.657196e-09 -3.440253e-09 -5.153630e-09 -3.739999e-09 -3.716001e-09 -2.567821e-09 -3.477335e-09 -2.938221e-09
-2.532529e-09 -1.246191e-09 -6.134209e-10 -6.073654e-10 -1.538596e-09 -2.153907e-09 -9.836902e-10 -1.067870e-09 -1.331115e-09 -5.416719e-11
-2.692287e-10
-6.331527e-10 1.474133e-09 1.743315e-09 2.074542e-09 8.715196e-10 2.557449e-09 2.687964e-09 3.798918e-10 2.943050e-09 1.947075e-09
2.451095e-09 2.986467e-09 2.501465e-09 4.272535e-09 3.769907e-09 3.289355e-09 5.500359e-09 4.116951e-09 4.906449e-09 5.304067e-09
5.867859e-09 5.677174e-09 6.920138e-09 5.923386e-09 6.194129e-09 8.349197e-09 7.836971e-09 7.614894e-09 8.004904e-09 8.955172e-09
9.209820e-09 9.657321e-09 9.755809e-09 9.438297e-09 8.714205e-09 9.500482e-09 1.043740e-08 1.071633e-08 1.017233e-08 1.103902e-08
1.248240e-08 1.122787e-08 1.171491e-08 1.184866e-08 1.257731e-08 1.235209e-08 1.285038e-08 1.344189e-08 1.274768e-08 1.305390e-08
1.381378e-08 1.387909e-08 1.481107e-08 1.422522e-08 1.435486e-08 1.479739e-08 1.565922e-08 1.508896e-08 1.531589e-08 1.553103e-08
1.476272e-08 1.551724e-08 1.520767e-08 1.573889e-08 1.465056e-08 1.588227e-08 1.677124e-08 1.478818e-08 1.567863e-08 1.634744e-08
1.633035e-08 1.626127e-08 1.624903e-08 1.671098e-08 1.609824e-08 1.704047e-08 1.725954e-08 1.582878e-08 1.636212e-08 1.616142e-08
1.608602e-08 1.570428e-08 1.670592e-08 1.513578e-08 1.642193e-08 1.639295e-08 1.663849e-08 1.595002e-08 1.644328e-08 1.651572e-08
1.583692e-08 1.519726e-08 1.639593e-08 1.644978e-08 1.624004e-08 1.685616e-08 1.595896e-08 1.619841e-08 1.653927e-08 1.748192e-08
1.697378e-08 1.724314e-08 1.626070e-08 1.690111e-08 1.658719e-08 1.647496e-08 1.594664e-08 1.653005e-08 1.703184e-08 1.577759e-08
1.740446e-08 1.548050e-08 1.587357e-08 1.588380e-08 1.620958e-08 1.577124e-08 1.562240e-08 1.599283e-08 1.527490e-08 1.562518e-08
1.548461e-08 1.546233e-08 1.486785e-08 1.513067e-08 1.416690e-08 1.454866e-08 1.409989e-08 1.377224e-08 1.523840e-08 1.444887e-08
1.386591e-08 1.366000e-08 1.335671e-08 1.372023e-08 1.357768e-08 1.204493e-08 1.247824e-08 1.160636e-08 1.207210e-08 1.124779e-08
1.170636e-08 1.057075e-08 1.062824e-08 1.025471e-08 9.188805e-09 9.287529e-09 9.283038e-09 9.497547e-09 7.904546e-09 9.399963e-09
7.819506e-09 8.230332e-09 7.477010e-09 7.197158e-09 6.125564e-09 6.372744e-09 6.291225e-09 5.989682e-09 6.065884e-09 6.555626e-09
6.275188e-09 4.625069e-09 5.313316e-09 5.481141e-09 4.626599e-09 3.823647e-09 3.384638e-09 3.137829e-09 3.505818e-09 2.495326e-09
2.146920e-09 7.757761e-10 2.654402e-09 1.109857e-09 9.588215e-10 1.419661e-09 1.322278e-09 7.014098e-11 -7.049252e-10 -4.927741e-10
-1.032554e-10 -6.078247e-10 -1.194307e-09 -3.309788e-10 -1.064468e-09 -3.644402e-10 -1.118159e-09 -1.847082e-09 -2.083462e-09 -3.083577e-09
-9.783392e-10 -3.814234e-09 -2.905678e-09 -3.745290e-09 -2.904212e-09 -3.932330e-09 -4.262460e-09 -3.093032e-09 -4.390432e-09 -5.064710e-09
-4.891101e-09 -5.641409e-09 -6.765581e-09 -6.226231e-09 -6.880937e-09 -7.419219e-09 -7.295255e-09 -8.113426e-09 -7.158055e-09 -7.216174e-09
-9.668597e-09 -8.709985e-09 -9.617561e-09 -8.981392e-09 -1.090191e-08 -1.001344e-08 -1.104167e-08 -1.068294e-08 -9.694683e-09 -1.126945e-08
-1.044350e-08 -1.092565e-08 -1.128626e-08 -1.256951e-08 -1.260523e-08 -1.146699e-08 -1.227373e-08 -1.282065e-08 -1.387545e-08 -1.287318e-08
-1.358184e-08 -1.435976e-08 -1.361471e-08 -1.428365e-08 -1.408800e-08 -1.494637e-08 -1.422400e-08 -1.545087e-08 -1.450669e-08 -1.529625e-08
-1.518502e-08 -1.574496e-08 -1.550092e-08 -1.508101e-08 -1.621145e-08 -1.529040e-08 -1.572293e-08 -1.613126e-08 -1.593457e-08 -1.509454e-08
-1.565882e-08 -1.632459e-08 -1.623223e-08 -1.664651e-08 -1.648801e-08 -1.600774e-08 -1.669143e-08 -1.629607e-08 -1.516651e-08 -1.551022e-08
-1.519293e-08 -1.573977e-08 -1.651721e-08 -1.618826e-08 -1.634560e-08 -1.559255e-08 -1.606131e-08 -1.542073e-08 -1.527189e-08 -1.641966e-08
-1.590562e-08 -1.524223e-08 -1.520168e-08 -1.509228e-08 -1.611558e-08 -1.656996e-08 -1.545290e-08 -1.566799e-08 -1.517615e-08 -1.567062e-08
-1.595872e-08 -1.624808e-08 -1.666910e-08 -1.695090e-08 -1.616600e-08 -1.654162e-08 -1.648282e-08 -1.663513e-08 -1.517654e-08 -1.652130e-08
-1.504276e-08 -1.608864e-08 -1.591001e-08 -1.538898e-08 -1.530944e-08 -1.542199e-08 -1.544544e-08 -1.634601e-08 -1.605955e-08 -1.586305e-08
-1.585653e-08 -1.482271e-08 -1.504074e-08 -1.414831e-08 -1.458021e-08 -1.393303e-08 -1.401489e-08 -1.399436e-08 -1.502242e-08 -1.450330e-08
-1.375089e-08 -1.337304e-08 -1.336467e-08 -1.290550e-08 -1.268272e-08 -1.289486e-08 -1.191265e-08 -1.234564e-08 -1.140853e-08 -1.142409e-08
-1.093190e-08 -1.018997e-08 -9.917212e-09 -1.017474e-08 -9.603776e-09 -9.320295e-09 -8.836746e-09 -9.104802e-09 -8.461772e-09 -8.242204e-09
-7.967347e-09 -7.597744e-09 -7.251648e-09 -8.108866e-09 -7.041409e-09 -7.477651e-09 -6.662179e-09 -7.106714e-09 -6.521181e-09 -4.819500e-09
-5.549099e-09 -4.820189e-09 -5.235997e-09 -4.775698e-09 -5.618772e-09 -3.276011e-09 -3.665052e-09 -3.551801e-09 -1.968929e-09 -2.637602e-09
-1.964484e-09 -2.414602e-09 -2.343255e-09 -5.018986e-10 -2.163884e-09 -1.855625e-09 -1.597364e-09 3.551528e-10 -1.514762e-11 -5.877406e-10
-6.331527e-10
7.621320e-10 1.529232e-09 -3.358130e-10 1.095880e-09 1.757163e-09 1.350032e-09 1.089557e-09 2.201762e-09 1.580095e-09 2.349891e-09
4.207502e-09 2.588550e-09 3.860005e-09 3.602786e-09 4.028427e-09 4.201808e-09 5.180020e-09 5.051092e-09 5.544809e-09 4.654570e-09
5.497116e-09 6.390688e-09 6.346846e-09 5.890021e-09 6.337810e-09 6.955666e-09 8.363178e-09 8.083920e-09 7.943604e-09 7.551541e-09
9.194782e-09 8.638944e-09 9.235195e-09 9.318710e-09 8.966787e-09 1.034036e-08 9.429823e-09 9.862434e-09 1.138238e-08 1.200024e-08
1.104184e-08 1.184527e-08 1.199922e-08 1.307509e-08 1.206888e-08 1.266238e-08 1.367760e-08 1.345786e-08 1.324336e-08 1.356034e-08
1.401577e-08 1.502337e-08 1.473464e-08 1.360688e-08 1.446665e-08 1.433478e-08 1.469629e-08 1.532946e-08 1.568184e-08 1.496060e-08
1.603180e-08 1.584124e-08 1.615487e-08 1.680031e-08 1.613681e-08 1.612092e-08 1.690360e-08 1.517198e-08 1.642518e-08 1.643848e-08
1.644483e-08 1.589804e-08 1.776355e-08 1.579527e-08 1.580823e-08 1.743405e-08 1.643506e-08 1.635496e-08 1.571818e-08 1.680607e-08
1.580950e-08 1.620005e-08 1.786395e-08 1.542019e-08 1.585840e-08 1.549084e-08 1.628575e-08 1.648261e-08 1.553123e-08 1.591630e-08
1.611631e-08 1.642438e-08 1.599444e-08 1.507372e-08 1.627651e-08 1.665138e-08 1.500898e-08 1.541908e-08 1.664547e-08 1.642721e-08
1.608623e-08 1.652480e-08 1.644571e-08 1.630483e-08 1.729487e-08 1.728642e-08 1.771195e-08 1.709048e-08 1.619167e-08 1.614765e-08
1.665278e-08 1.693594e-08 1.572596e-08 1.615014e-08 1.561187e-08 1.679579e-08 1.562357e-08 1.543003e-08 1.606828e-08 1.556248e-08
1.575817e-08 1.574934e-08 1.504723e-08 1.553193e-08 1.464035e-08 1.597875e-08 1.553162e-08 1.419350e-08 1.494306e-08 1.386454e-08
1.471964e-08 1.356790e-08 1.331105e-08 1.316396e-08 1.320122e-08 1.299332e-08 1.286338e-08 1.304763e-08 1.111015e-08 1.142282e-08
1.116326e-08 1.049154e-08 1.177399e-08 1.080976e-08 9.635658e-09 1.026571e-08 1.005707e-08 9.117897e-09 9.103762e-09 9.603675e-09
9.436778e-09 7.455299e-09 7.944293e-09 7.213269e-09 7.689779e-09 7.088115e-09 6.788158e-09 4.958924e-09 5.086370e-09 5.068953e-09
4.725906e-09 3.527117e-09 5.418627e-09 4.995075e-09 3.773802e-09 3.461647e-09 2.170904e-09 3.492582e-09 3.071516e-09 2.238729e-09
1.030733e-09 4.940027e-10 2.453252e-09 1.484043e-09 1.837360e-09 1.021622e-09 1.032648e-09 -2.565898e-10 -2.780147e-10 1.450204e-09
-6.339276e-11 -9.737998e-10 7.885854e-12 3.204863e-10 -4.537800e-11 -1.050099e-09 -1.313023e-09 -1.504279e-09 -2.362126e-09 -2.052844e-09
-1.886612e-09 -3.411976e-09 -2.050546e-09 -3.065650e-09 -3.968973e-09 -4.921156e-09 -4.758307e-09 -3.421669e-09 -4.433109e-09 -5.581841e-09
-5.373852e-09 -6.549299e-09 -6.674764e-09 -6.065974e-09 -6.990022e-09 -7.520877e-09 -7.531481e-09 -6.836488e-09 -7.797205e-09 -6.623922e-09
-6.986158e-09 -8.746414e-09 -9.348287e-09 -9.731880e-09 -9.091613e-09 -9.675335e-09 -1.060763e-08 -1.114662e-08 -1.018808e-08 -1.109980e-08
-1.062837e-08 -1.092067e-08 -1.227611e-08 -1.231907e-08 -1.178704e-08 -1.232516e-08 -1.230808e-08 -1.246754e-08 -1.432042e-08 -1.347955e-08
-1.403235e-08 -1.450601e-08 -1.364928e-08 -1.541805e-08 -1.383114e-08 -1.471636e-08 -1.510998e-08 -1.492318e-08 -1.524534e-08 -1.533390e-08
-1.490194e-08 -1.513282e-08 -1.582664e-08 -1.551398e-08 -1.574619e-08 -1.563090e-08 -1.614635e-08 -1.558468e-08 -1.568914e-08 -1.609333e-08
-1.558086e-08 -1.616772e-08 -1.701998e-08 -1.645572e-08 -1.597276e-08 -1.632649e-08 -1.590059e-08 -1.700598e-08 -1.583722e-08 -1.731556e-08
-1.639710e-08 -1.688845e-08 -1.529745e-08 -1.555089e-08 -1.580487e-08 -1.571943e-08 -1.567205e-08 -1.602271e-08 -1.582198e-08 -1.588444e-08
-1.541689e-08 -1.472667e-08 -1.632879e-08 -1.603657e-08 -1.583311e-08 -1.666838e-08 -1.615635e-08 -1.665609e-08 -1.716693e-08 -1.561475e-08
-1.616200e-08 -1.593024e-08 -1.608245e-08 -1.629435e-08 -1.641222e-08 -1.758247e-08 -1.723232e-08 -1.767634e-08 -1.637900e-08 -1.728644e-08
-1.569663e-08 -1.656583e-08 -1.651873e-08 -1.574064e-08 -1.657447e-08 -1.589866e-08 -1.659797e-08 -1.667009e-08 -1.508573e-08 -1.514819e-08
-1.495105e-08 -1.586204e-08 -1.467426e-08 -1.493934e-08 -1.476174e-08 -1.421060e-08 -1.521499e-08 -1.359066e-08 -1.410647e-08 -1.277089e-08
-1.286107e-08 -1.317371e-08 -1.319336e-08 -1.275884e-08 -1.284569e-08 -1.301457e-08 -1.175059e-08 -1.184145e-08 -1.140553e-08 -1.237598e-08
-1.063809e-08 -1.090705e-08 -1.102887e-08 -1.090086e-08 -1.099734e-08 -1.026118e-08 -8.854933e-09 -9.262624e-09 -9.951201e-09 -7.894964e-09
-7.765841e-09 -7.828618e-09 -8.031710e-09 -7.462856e-09 -6.939343e-09 -6.662736e-09 -6.770490e-09 -5.688096e-09 -5.906024e-09 -5.916335e-09
-4.770427e-09 -5.425354e-09 -6.359459e-09 -4.074469e-09 -3.654613e-09 -4.145328e-09 -4.291469e-09 -3.351062e-09 -3.118576e-09 -2.695925e-09
-3.067245e-09 -1.114588e-09 -1.846799e-09 -2.114083e-09 -2.037776e-09 -2.383894e-09 -1.291998e-09 -8.711857e-11 -1.035861e-09 -6.967358e-10
7.621320e-10
1.631429e-10 8.819445e-10 -7.885970e-11 2.178414e-09 7.770863e-10 -2.351832e-10 1.056750e-09 2.256887e-09 2.497152e-09 2.427170e-09
3.682213e-09 2.868773e-09 4.742124e-09 3.392383e-09 4.228552e-09 4.502683e-09 3.030690e-09 7.599350e-09 6.335013e-09 5.302667e-09
6.649735e-09 6.682960e-09 6.424468e-09 7.207743e-09 7.198835e-09 7.054433e-09 6.968127e-09 8.021364e-09 7.765634e-09 8.091062e-09
9.980256e-09 9.526789e-09 9.015838e-09 9.080089e-09 9.735698e-09 1.041271e-08 1.037393e-08 1.123814e-08 1.154091e-08 1.111772e-08
1.206878e-08 1.154090e-08 1.244618e-08 1.313916e-08 1.237088e-08 1.219405e-08 1.268298e-08 1.337983e-08 1.375188e-08 1.323496e-08
1.407456e-08 1.432393e-08 1.415995e-08 1.464442e-08 1.439858e-08 1.561946e-08 1.490264e-08 1.541078e-08 1.639920e-08 1.535482e-08
1.612153e-08 1.538253e-08 1.604232e-08 1.620162e-08 1.573835e-08 1.610133e-08 1.550066e-08 1.655042e-08 1.574876e-08 1.635650e-08
1.615703e-08 1.699956e-08 1.677043e-08 1.712099e-08 1.711695e-08 1.767614e-08 1.622147e-08 1.600810e-08 1.585275e-08 1.699969e-08
1.630594e-08 1.721410e-08 1.704187e-08 1.581205e-08 1.747197e-08 1.575633e-08 1.606772e-08 1.654261e-08 1.574358e-08 1.646410e-08
1.588149e-08 1.624402e-08 1.725806e-08 1.693382e-08 1.701486e-08 1.658822e-08 1.661264e-08 1.687158e-08 1.721254e-08 1.674909e-08
1.767647e-08 1.607715e-08 1.743269e-08 1.598847e-08 1.644465e-08 1.680905e-08 1.720972e-08 1.670431e-08 1.678354e-08 1.711810e-08
1.679703e-08 1.560011e-08 1.719619e-08 1.609492e-08 1.725367e-08 1.693503e-08 1.691151e-08 1.628069e-08 1.585848e-08 1.578994e-08
1.713438e-08 1.546878e-08 1.478993e-08 1.463975e-08 1.505482e-08 1.647568e-08 1.430253e-08 1.427053e-08 1.404144e-08 1.495014e-08
1.455776e-08 1.479490e-08 1.357571e-08 1.373620e-08 1.351589e-08 1.308566e-08 1.263549e-08 1.273744e-08 1.309202e-08 1.168412e-08
1.108124e-08 1.259814e-08 1.191161e-08 1.048518e-08 1.077513e-08 1.015137e-08 9.618076e-09 9.510746e-09 9.044743e-09 8.506698e-09
7.661813e-09 8.221785e-09 8.254683e-09 7.672851e-09 6.919424e-09 6.358514e-09 6.514841e-09 6.062004e-09 6.723217e-09 6.201366e-09
5.387493e-09 6.086591e-09 5.491828e-09 4.440734e-09 4.814413e-09 4.263696e-09 4.751193e-09 3.022874e-09 1.705292e-09 2.188938e-09
3.132286e-09 2.915454e-09 2.118495e-09 1.054475e-09 6.968215e-10 1.625725e-09 9.015618e-10 1.037910e-09 1.301272e-10 2.813479e-10
-8.436117e-10 -4.315745e-10 -7.136161e-10 -1.206571e-09 -8.175765e-10 -2.662018e-09 -2.556876e-09 -3.263994e-09 -2.181310e-09 -2.410143e-09
-4.180686e-09 -4.262552e-09 -4.240718e-09 -4.417203e-09 -4.228616e-09 -4.941048e-09 -4.579349e-09 -5.117540e-09 -5.574210e-09 -5.268489e-09
-4.547842e-09 -6.597011e-09 -8.390315e-09 -5.609439e-09 -8.483377e-09 -6.281006e-09 -8.368736e-09 -6.645541e-09 -7.353551e-09 -8.119901e-09
-9.237008e-09 -9.180295e-09 -8.447678e-09 -9.436800e-09 -9.432733e-09 -1.052701e-08 -1.049792e-08 -1.052861e-08 -1.122598e-08 -1.155001e-08
-1.206958e-08 -1.159701e-08 -1.179443e-08 -1.298266e-08 -1.280162e-08 -1.317819e-08 -1.240319e-08 -1.318684e-08 -1.318636e-08 -1.365929e-08
-1.432525e-08 -1.375152e-08 -1.372631e-08 -1.441933e-08 -1.557744e-08 -1.518440e-08 -1.454768e-08 -1.487070e-08 -1.474872e-08 -1.478485e-08
-1.543902e-08 -1.570596e-08 -1.690359e-08 -1.538918e-08 -1.640614e-08 -1.575350e-08 -1.634429e-08 -1.664259e-08 -1.649465e-08 -1.690580e-08
-1.564326e-08 -1.576362e-08 -1.630452e-08 -1.669104e-08 -1.643278e-08 -1.638091e-08 -1.682668e-08 -1.697092e-08 -1.609219e-08 -1.644847e-08
-1.730989e-08 -1.589220e-08 -1.609513e-08 -1.662162e-08 -1.747189e-08 -1.759900e-08 -1.660506e-08 -1.680373e-08 -1.650357e-08 -1.641760e-08
-1.643400e-08 -1.680668e-08 -1.626930e-08 -1.613781e-08 -1.610275e-08 -1.558718e-08 -1.589280e-08 -1.610817e-08 -1.646608e-08 -1.663906e-08
-1.674228e-08 -1.571130e-08 -1.599244e-08 -1.693841e-08 -1.728738e-08 -1.701300e-08 -1.680068e-08 -1.627358e-08 -1.646281e-08 -1.654849e-08
-1.670121e-08 -1.702517e-08 -1.675666e-08 -1.649006e-08 -1.690939e-08 -1.678785e-08 -1.628628e-08 -1.534286e-08 -1.626196e-08 -1.557997e-08
-1.539133e-08 -1.573365e-08 -1.536877e-08 -1.507033e-08 -1.502771e-08 -1.443038e-08 -1.415909e-08 -1.524520e-08 -1.459657e-08 -1.403785e-08
-1.409666e-08 -1.384243e-08 -1.265936e-08 -1.371882e-08 -1.361747e-08 -1.326755e-08 -1.259045e-08 -1.225597e-08 -1.268221e-08 -1.142285e-08
-1.203893e-08 -1.103103e-08 -1.122523e-08 -1.055707e-08 -9.560171e-09 -8.922439e-09 -9.816875e-09 -9.180679e-09 -9.104657e-09 -9.748097e-09
-8.855173e-09 -8.181041e-09 -7.332692e-09 -6.744111e-09 -6.265640e-09 -6.338311e-09 -7.226304e-09 -6.427287e-09 -5.678512e-09 -4.059694e-09
-4.980189e-09 -5.820974e-09 -5.927176e-09 -5.384200e-09 -3.936124e-09 -4.168990e-09 -4.101007e-09 -3.883114e-09 -1.926527e-09 -4.670056e-09
-2.673712e-09 -3.011961e-09 -1.513091e-09 -1.157796e-09 -1.503606e-09 -6.841986e-10 -1.562343e-09 -1.167533e-09 7.378971e-10 5.213990e-10
1.631429e-10
-5.940046e-10 -1.085086e-10 1.607825e-10 1.227689e-09 2.271910e-09 7.823776e-10 3.283484e-09 3.033027e-09 2.885737e-09 2.935910e-09
2.503198e-09 2.784085e-09 2.653181e-09 2.984707e-09 4.453915e-09 4.501307e-09 4.837906e-09 4.623562e-09 4.601821e-09 5.815296e-09
5.063530e-09 4.941278e-09 7.062293e-09 6.922830e-09 6.758607e-09 9.151750e-09 7.460776e-09 7.876590e-09 7.732743e-09 9.235440e-09
9.131803e-09 8.127407e-09 1.039760e-08 1.058577e-08 1.025555e-08 1.106766e-08 1.087420e-08 1.049362e-08 1.178539e-08 1.190971e-08
1.322283e-08 1.185628e-08 1.170753e-08 1.271517e-08 1.276786e-08 1.373544e-08 1.258944e-08 1.294107e-08 1.416874e-08 1.405992e-08
1.494567e-08 1.389137e-08 1.559878e-08 1.454360e-08 1.553286e-08 1.558627e-08 1.509357e-08 1.521340e-08 1.577489e-08 1.612456e-08
1.485342e-08 1.619953e-08 1.691184e-08 1.614685e-08 1.659681e-08 1.651211e-08 1.582694e-08 1.674255e-08 1.661933e-08 1.670096e-08
1.790818e-08 1.666581e-08 1.758558e-08 1.744017e-08 1.720895e-08 1.660951e-08 1.560861e-08 1.777246e-08 1.627182e-08 1.622868e-08
1.715121e-08 1.591868e-08 1.619476e-08 1.596500e-08 1.579504e-08 1.657151e-08 1.754508e-08 1.618515e-08 1.613066e-08 1.712626e-08
1.611594e-08 1.720281e-08 1.531082e-08 1.640679e-08 1.612122e-08 1.554174e-08 1.691948e-08 1.715098e-08 1.581058e-08 1.614458e-08
1.547806e-08 1.702286e-08 1.659451e-08 1.668158e-08 1.713160e-08 1.683616e-08 1.710360e-08 1.760612e-08 1.754078e-08 1.640658e-08
1.599363e-08 1.628684e-08 1.595470e-08 1.620545e-08 1.684085e-08 1.681578e-08 1.615423e-08 1.592985e-08 1.614253e-08 1.547760e-08
1.592093e-08 1.689229e-08 1.616625e-08 1.563364e-08 1.542170e-08 1.512286e-08 1.497363e-08 1.481072e-08 1.434154e-08 1.372500e-08
1.399309e-08 1.369935e-08 1.410297e-08 1.384617e-08 1.328496e-08 1.341648e-08 1.352372e-08 1.249191e-08 1.223358e-08 1.197712e-08
1.235449e-08 1.125487e-08 1.140020e-08 1.050205e-08 1.065158e-08 1.133374e-08 9.569651e-09 1.079587e-08 9.682922e-09 8.921165e-09
9.871647e-09 8.611585e-09 8.103360e-09 7.563172e-09 8.881153e-09 7.273871e-09 7.266639e-09 5.954726e-09 5.971034e-09 6.356963e-09
5.223091e-09 4.563916e-09 4.277331e-09 5.044978e-09 3.485923e-09 4.428478e-09 4.519623e-09 3.228542e-09 3.782395e-09 1.666352e-09
3.307155e-09 3.989064e-09 1.570669e-09 3.310299e-10 9.030782e-10 1.153528e-09 1.101329e-09 1.426314e-10 1.349791e-10 9.188435e-10
-8.944072e-10 -1.501154e-09 -7.530016e-11 -2.292537e-09 -9.210379e-10 -1.016410e-09 -2.243873e-09 -1.844509e-09 -3.310316e-09 -2.239536e-09
-3.620704e-09 -4.040659e-09 -1.860459e-09 -3.609562e-09 -2.886162e-09 -3.933822e-09 -5.341069e-09 -4.450383e-09 -4.285449e-09 -5.363670e-09
-5.855419e-09 -5.452753e-09 -6.461078e-09 -7.488195e-09 -7.139554e-09 -6.303485e-09 -8.234870e-09 -8.626134e-09 -7.136415e-09 -7.871133e-09
-8.918492e-09 -9.011950e-09 -1.019077e-08 -9.516163e-09 -1.097658e-08 -1.021652e-08 -1.111871e-08 -1.142501e-08 -1.052291e-08 -1.192186e-08
-1.172701e-08 -1.169925e-08 -1.269326e-08 -1.156313e-08 -1.179853e-08 -1.251837e-08 -1.262539e-08 -1.272668e-08 -1.322067e-08 -1.372434e-08
-1.439138e-08 -1.363113e-08 -1.414555e-08 -1.504973e-08 -1.531716e-08 -1.590503e-08 -1.548402e-08 -1.559765e-08 -1.517017e-08 -1.613915e-08
-1.540827e-08 -1.605930e-08 -1.642209e-08 -1.695573e-08 -1.650907e-08 -1.607693e-08 -1.654732e-08 -1.622495e-08 -1.607387e-08 -1.705223e-08
-1.618336e-08 -1.743766e-08 -1.749518e-08 -1.726364e-08 -1.622679e-08 -1.756143e-08 -1.633165e-08 -1.767432e-08 -1.704178e-08 -1.715225e-08
-1.657365e-08 -1.686968e-08 -1.675988e-08 -1.686463e-08 -1.554983e-08 -1.599111e-08 -1.575238e-08 -1.563735e-08 -1.636024e-08 -1.625205e-08
-1.671541e-08 -1.655738e-08 -1.600559e-08 -1.719696e-08 -1.600470e-08 -1.580746e-08 -1.719584e-08 -1.609261e-08 -1.663361e-08 -1.768699e-08
-1.621031e-08 -1.689571e-08 -1.751813e-08 -1.608688e-08 -1.572283e-08 -1.719632e-08 -1.746973e-08 -1.651410e-08 -1.720009e-08 -1.737665e-08
-1.636658e-08 -1.704916e-08 -1.606834e-08 -1.652861e-08 -1.618859e-08 -1.717514e-08 -1.558770e-08 -1.603480e-08 -1.605855e-08 -1.522994e-08
-1.559324e-08 -1.576666e-08 -1.528284e-08 -1.500215e-08 -1.466145e-08 -1.438773e-08 -1.532591e-08 -1.445356e-08 -1.427226e-08 -1.396606e-08
-1.384341e-08 -1.325574e-08 -1.322750e-08 -1.407210e-08 -1.347928e-08 -1.216180e-08 -1.343385e-08 -1.221274e-08 -1.153929e-08 -1.208223e-08
-1.114247e-08 -1.137126e-08 -1.072897e-08 -1.060870e-08 -1.007482e-08 -1.055595e-08 -1.025289e-08 -9.208844e-09 -9.239628e-09 -9.072952e-09
-8.334410e-09 -8.641279e-09 -7.765724e-09 -7.493867e-09 -6.912197e-09 -6.711944e-09 -7.417514e-09 -7.102285e-09 -6.331569e-09 -6.154343e-09
-6.567295e-09 -4.583562e-09 -4.497528e-09 -3.389435e-09 -5.323620e-09 -3.772746e-09 -4.389462e-09 -2.785181e-09 -2.092955e-09 -2.952234e-09
-1.907424e-09 -1.985047e-09 -1.670385e-09 -1.880967e-09 -5.265862e-10 -1.332480e-09 -1.847543e-09 4.161916e-10 -2.257399e-10 -6.051094e-10
-5.940046e-10
7.310140e-10 5.473082e-10 1.209847e-09 6.565764e-10 1.094607e-09 6.920941e-10 2.949483e-09 2.493937e-09 2.024312e-09 2.068836e-09
2.474429e-09 2.897149e-09 4.080253e-09 3.154518e-09 3.593340e-09 4.817454e-09 3.848495e-09 5.897231e-09 4.996057e-09 4.648092e-09
5.416573e-09 5.671104e-09 8.213881e-09 6.247098e-09 7.918266e-09 7.584493e-09 7.873894e-09 8.170690e-09 8.919202e-09 8.666622e-09
9.698240e-09 8.832624e-09 8.990459e-09 1.031961e-08 1.026396e-08 1.054357e-08 1.072343e-08 1.061107e-08 1.157267e-08 1.129156e-08
1.173321e-08 1.213159e-08 1.174590e-08 1.283082e-08 1.386343e-08 1.329360e-08 1.312983e-08 1.310217e-08 1.464172e-08 1.431240e-08
1.396376e-08 1.489040e-08 1.539603e-08 1.502835e-08 1.508686e-08 1.564693e-08 1.614106e-08 1.497784e-08 1.565809e-08 1.690125e-08
1.577934e-08 1.640760e-08 1.688415e-08 1.501047e-08 1.802833e-08 1.686922e-08 1.667780e-08 1.779845e-08 1.614566e-08 1.730912e-08
1.690804e-08 1.784142e-08 1.689072e-08 1.735151e-08 1.750359e-08 1.799617e-08 1.852551e-08 1.769035e-08 1.621475e-08 1.700545e-08
1.713117e-08 1.731708e-08 1.639613e-08 1.596148e-08 1.730247e-08 1.614241e-08 1.529361e-08 1.602674e-08 1.647350e-08 1.656941e-08
1.635722e-08 1.670871e-08 1.668662e-08 1.674447e-08 1.642620e-08 1.654134e-08 1.634828e-08 1.589377e-08 1.693178e-08 1.771416e-08
1.616586e-08 1.722484e-08 1.695545e-08 1.701853e-08 1.729381e-08 1.694647e-08 1.791754e-08 1.688346e-08 1.778733e-08 1.690707e-08
1.614774e-08 1.744684e-08 1.707561e-08 1.726467e-08 1.578750e-08 1.749010e-08 1.708092e-08 1.632168e-08 1.631234e-08 1.656255e-08
1.634902e-08 1.507551e-08 1.631217e-08 1.563004e-08 1.544631e-08 1.571582e-08 1.564251e-08 1.479313e-08 1.538067e-08 1.462360e-08
1.460309e-08 1.451416e-08 1.382223e-08 1.361204e-08 1.365251e-08 1.291814e-08 1.311955e-08 1.325605e-08 1.277177e-08 1.192148e-08
1.180685e-08 1.062392e-08 1.024791e-08 1.045079e-08 1.095680e-08 1.199111e-08 9.564006e-09 1.126462e-08 9.655356e-09 8.787132e-09
1.010584e-08 7.385994e-09 8.621918e-09 8.665784e-09 6.968158e-09 8.488359e-09 7.671296e-09 6.758347e-09 6.289289e-09 6.010241e-09
4.910682e-09 4.985276e-09 5.691941e-09 4.288676e-09 4.671056e-09 4.981718e-09 3.196983e-09 1.853951e-09 3.168722e-09 3.626477e-09
2.521076e-09 3.208868e-09 1.879476e-09 2.673212e-09 1.654177e-09 -3.227051e-10 1.611290e-09 -8.252880e-11 7.316155e-10 2.484478e-10
-1.393457e-09 1.102296e-09 -1.165386e-09 -9.135677e-10 -1.219594e-09 -8.421348e-10 -2.121282e-09 -2.718244e-09 -3.018267e-09 -1.761670e-09
-3.046250e-09 -4.498413e-09 -3.851687e-09 -2.922685e-09 -3.689875e-09 -3.411992e-09 -4.371158e-09 -4.929591e-09 -5.127679e-09 -5.354241e-09
-4.848223e-09 -6.764770e-09 -6.630221e-09 -7.233355e-09 -7.979875e-09 -7.504084e-09 -7.941323e-09 -6.634989e-09 -7.707544e-09 -9.319939e-09
-1.032801e-08 -8.690047e-09 -9.304049e-09 -1.046435e-08 -8.794732e-09 -9.975217e-09 -1.106439e-08 -1.047112e-08 -1.078563e-08 -1.144085e-08
-1.236694e-08 -1.196784e-08 -1.201535e-08 -1.280245e-08 -1.363405e-08 -1.221847e-08 -1.334009e-08 -1.383182e-08 -1.295338e-08 -1.325283e-08
-1.379612e-08 -1.475962e-08 -1.445609e-08 -1.450426e-08 -1.454112e-08 -1.446565e-08 -1.587688e-08 -1.465172e-08 -1.577349e-08 -1.603929e-08
-1.668085e-08 -1.594616e-08 -1.586051e-08 -1.657319e-08 -1.674797e-08 -1.589173e-08 -1.703277e-08 -1.642495e-08 -1.727933e-08 -1.720336e-08
-1.778907e-08 -1.729139e-08 -1.612440e-08 -1.752857e-08 -1.698629e-08 -1.731274e-08 -1.706074e-08 -1.664285e-08 -1.739918e-08 -1.663487e-08
-1.678130e-08 -1.729420e-08 -1.660971e-08 -1.701460e-08 -1.608414e-08 -1.567184e-08 -1.603564e-08 -1.523031e-08 -1.627264e-08 -1.687962e-08
-1.570594e-08 -1.769675e-08 -1.712839e-08 -1.672747e-08 -1.706885e-08 -1.646366e-08 -1.643233e-08 -1.670315e-08 -1.658308e-08 -1.760530e-08
-1.738684e-08 -1.763040e-08 -1.698527e-08 -1.694848e-08 -1.748901e-08 -1.624419e-08 -1.765923e-08 -1.736243e-08 -1.725441e-08 -1.749459e-08
-1.645196e-08 -1.709467e-08 -1.630423e-08 -1.742350e-08 -1.724525e-08 -1.698642e-08 -1.635897e-08 -1.597400e-08 -1.611575e-08 -1.619321e-08
-1.619645e-08 -1.606678e-08 -1.560669e-08 -1.561704e-08 -1.525431e-08 -1.440332e-08 -1.487634e-08 -1.466461e-08 -1.402731e-08 -1.453013e-08
-1.382263e-08 -1.412008e-08 -1.398847e-08 -1.345990e-08 -1.334039e-08 -1.334301e-08 -1.298468e-08 -1.278087e-08 -1.289294e-08 -1.173639e-08
-1.205596e-08 -1.109813e-08 -1.006204e-08 -1.051945e-08 -1.127511e-08 -9.579776e-09 -9.416797e-09 -8.881663e-09 -8.699107e-09 -8.454729e-09
-7.580359e-09 -9.551612e-09 -9.217303e-09 -7.563545e-09 -7.763085e-09 -7.126485e-09 -7.352135e-09 -6.135751e-09 -5.499085e-09 -5.220637e-09
-5.664543e-09 -5.674167e-09 -5.512340e-09 -4.985385e-09 -5.145067e-09 -4.137319e-09 -2.694777e-09 -3.618735e-09 -3.202435e-09 -3.109328e-09
-3.772999e-09 -2.533251e-09 -2.543350e-09 -2.250251e-09 -5.729213e-10 -1.349867e-09 4.337664e-10 -8.850190e-10 1.963901e-10 -1.268755e-09
7.310140e-10
-1.866659e-10 3.691737e-10 8.528142e-10 1.125766e-09 1.005350e-09 8.210366e-10 2.409901e-09 1.933278e-09 1.283888e-09 2.386504e-09
2.708861e-09 3.164904e-09 2.870080e-09 4.216221e-09 5.328495e-09 4.075258e-09 4.591635e-09 5.170621e-09 6.518743e-09 4.723611e-09
5.113321e-09 7.208036e-09 7.094750e-09 7.672869e-09 6.752134e-09 8.461645e-09 8.130015e-09 8.640575e-09 9.802681e-09 8.230560e-09
8.757936e-09 8.597605e-09 8.893934e-09 9.557355e-09 1.115772e-08 1.015317e-08 1.065342e-08 1.167627e-08 1.159951e-08 1.203830e-08
1.144271e-08 1.203676e-08 1.236291e-08 1.233944e-08 1.325435e-08 1.364250e-08 1.389209e-08 1.364586e-08 1.397650e-08 1.466845e-08
1.522726e-08 1.486807e-08 1.490745e-08 1.476950e-08 1.543054e-08 1.616074e-08 1.594904e-08 1.609986e-08 1.643498e-08 1.597322e-08
1.608228e-08 1.592858e-08 1.685795e-08 1.699134e-08 1.718351e-08 1.665307e-08 1.783634e-08 1.744161e-08 1.727845e-08 1.700222e-08
1.697996e-08 1.790746e-08 1.708920e-08 1.753500e-08 1.680048e-08 1.819347e-08 1.763414e-08 1.757164e-08 1.653977e-08 1.671808e-08
1.784761e-08 1.715231e-08 1.677575e-08 1.789246e-08 1.791395e-08 1.634196e-08 1.706878e-08 1.713820e-08 1.640672e-08 1.771310e-08
1.799640e-08 1.657841e-08 1.792306e-08 1.636148e-08 1.634075e-08 1.661983e-08 1.718979e-08 1.708273e-08 1.662958e-08 1.745344e-08
1.674055e-08 1.776372e-08 1.722882e-08 1.705347e-08 1.738606e-08 1.744792e-08 1.826997e-08 1.816274e-08 1.701229e-08 1.665876e-08
1.743657e-08 1.773168e-08 1.714367e-08 1.697046e-08 1.671201e-08 1.803915e-08 1.582437e-08 1.753751e-08 1.835738e-08 1.662937e-08
1.663636e-08 1.647285e-08 1.518075e-08 1.656867e-08 1.519423e-08 1.679160e-08 1.566373e-08 1.568239e-08 1.460988e-08 1.522587e-08
1.502588e-08 1.402688e-08 1.406377e-08 1.407706e-08 1.370985e-08 1.435089e-08 1.243855e-08 1.394512e-08 1.242127e-08 1.233287e-08
1.154827e-08 1.248347e-08 1.193886e-08 1.091111e-08 1.049775e-08 1.091196e-08 1.035719e-08 1.065687e-08 8.783597e-09 9.687173e-09
9.847569e-09 7.973144e-09 8.161114e-09 7.103937e-09 8.164801e-09 8.633340e-09 7.554800e-09 8.047244e-09 6.659853e-09 5.529042e-09
5.389938e-09 5.337901e-09 4.677867e-09 4.766722e-09 5.167423e-09 3.374329e-09 3.636837e-09 3.818246e-09 2.078846e-09 3.302853e-09
2.317682e-09 1.407716e-09 2.118207e-09 2.694936e-09 5.754781e-10 5.632512e-10 9.263164e-10 1.003790e-09 2.593250e-10 -4.121997e-10
1.192564e-09 6.257632e-10 -1.734480e-09 -6.352945e-10 -3.697373e-10 -9.807327e-10 -1.380092e-09 -1.719431e-09 -1.741745e-09 -2.432761e-09
-2.381410e-09 -4.133125e-09 -2.519615e-09 -3.082606e-09 -3.526432e-09 -3.836805e-09 -3.759450e-09 -5.860881e-09 -5.314641e-09 -6.432716e-09
-6.172647e-09 -5.932510e-09 -8.157421e-09 -7.616872e-09 -7.706146e-09 -8.818675e-09 -6.941514e-09 -8.310676e-09 -7.660566e-09 -7.689715e-09
-8.197762e-09 -9.703090e-09 -1.062290e-08 -1.027705e-08 -1.055818e-08 -1.116442e-08 -1.056558e-08 -1.120698e-08 -1.243577e-08 -1.157916e-08
-1.152481e-08 -1.247812e-08 -1.354302e-08 -1.284706e-08 -1.253136e-08 -1.329933e-08 -1.299725e-08 -1.476864e-08 -1.481315e-08 -1.533252e-08
-1.419167e-08 -1.490284e-08 -1.496197e-08 -1.446337e-08 -1.527490e-08 -1.566098e-08 -1.531638e-08 -1.604513e-08 -1.660977e-08 -1.562645e-08
-1.677574e-08 -1.656627e-08 -1.649891e-08 -1.660583e-08 -1.615933e-08 -1.608499e-08 -1.696840e-08 -1.716372e-08 -1.726106e-08 -1.649650e-08
-1.688763e-08 -1.725504e-08 -1.716328e-08 -1.678476e-08 -1.792438e-08 -1.678153e-08 -1.716330e-08 -1.745137e-08 -1.734183e-08 -1.655641e-08
-1.586753e-08 -1.748154e-08 -1.785621e-08 -1.704995e-08 -1.772358e-08 -1.669761e-08 -1.597784e-08 -1.681864e-08 -1.643339e-08 -1.641005e-08
-1.728503e-08 -1.580302e-08 -1.731760e-08 -1.593873e-08 -1.642904e-08 -1.653878e-08 -1.636818e-08 -1.541529e-08 -1.720480e-08 -1.651898e-08
-1.612266e-08 -1.699324e-08 -1.736713e-08 -1.636925e-08 -1.776696e-08 -1.718943e-08 -1.709238e-08 -1.760587e-08 -1.739521e-08 -1.707195e-08
-1.767229e-08 -1.784933e-08 -1.740847e-08 -1.682176e-08 -1.713339e-08 -1.703082e-08 -1.717665e-08 -1.697766e-08 -1.617540e-08 -1.645202e-08
-1.713297e-08 -1.564650e-08 -1.533257e-08 -1.585636e-08 -1.502522e-08 -1.518187e-08 -1.467626e-08 -1.541675e-08 -1.448915e-08 -1.488133e-08
-1.385107e-08 -1.341433e-08 -1.477232e-08 -1.362656e-08 -1.392092e-08 -1.296554e-08 -1.195681e-08 -1.243789e-08 -1.297040e-08 -1.187795e-08
-1.137004e-08 -1.253952e-08 -1.143155e-08 -1.158179e-08 -1.165058e-08 -1.095548e-08 -9.883284e-09 -9.184506e-09 -9.167733e-09 -8.756611e-09
-7.709033e-09 -8.131601e-09 -7.491319e-09 -7.031794e-09 -8.388639e-09 -7.643796e-09 -6.756673e-09 -6.794834e-09 -6.607478e-09 -6.495112e-09
-5.352923e-09 -5.717198e-09 -4.624825e-09 -6.414162e-09 -4.534218e-09 -3.774775e-09 -3.222935e-09 -2.626535e-09 -3.171363e-09 -2.247322e-09
-3.727668e-09 -7.547575e-10 -2.423326e-09 -3.059738e-09 -1.534784e-09 -3.324233e-09 -1.765734e-09 2.956185e-11 -3.912127e-10 -2.217914e-09
-1.866659e-10
4.000609e-10 -3.989230e-11 -3.159168e-10 5.446799e-10 1.149154e-10 7.457400e-10 4.248170e-11 2.549784e-09 2.426246e-09 2.692806e-09
3.779737e-09 3.906850e-09 3.664856e-09 3.895856e-09 3.395391e-09 5.216542e-09 3.865347e-09 3.678802e-09 5.274031e-09 5.890641e-09
5.183216e-09 6.150734e-09 5.948012e-09 7.289879e-09 7.227366e-09 8.012361e-09 8.457389e-09 8.610432e-09 9.610932e-09 7.810247e-09
9.348930e-09 9.460281e-09 9.898021e-09 1.048361e-08 1.067247e-08 1.071816e-08 1.094150e-08 1.151208e-08 1.107453e-08 1.195607e-08
1.233765e-08 1.249225e-08 1.289737e-08 1.307597e-08 1.342547e-08 1.426442e-08 1.333342e-08 1.427799e-08 1.343122e-08 1.386125e-08
1.430889e-08 1.498176e-08 1.533848e-08 1.573198e-08 1.523677e-08 1.582932e-08 1.605014e-08 1.580704e-08 1.671823e-08 1.616985e-08
1.740690e-08 1.660633e-08 1.592794e-08 1.687804e-08 1.812728e-08 1.763082e-08 1.727538e-08 1.719064e-08 1.758118e-08 1.707364e-08
1.708324e-08 1.775914e-08 1.693240e-08 1.711872e-08 1.797729e-08 1.748212e-08 1.679707e-08 1.777382e-08 1.690076e-08 1.829044e-08
1.803186e-08 1.710289e-08 1.805629e-08 1.621544e-08 1.771245e-08 1.647648e-08 1.644792e-08 1.659112e-08 1.688388e-08 1.755041e-08
1.687523e-08 1.745897e-08 1.757580e-08 1.725569e-08 1.663928e-08 1.715041e-08 1.652523e-08 1.668414e-08 1.822137e-08 1.808079e-08
1.763723e-08 1.785349e-08 1.642715e-08 1.715184e-08 1.832178e-08 1.761403e-08 1.677918e-08 1.870349e-08 1.853946e-08 1.823405e-08
1.778043e-08 1.732911e-08 1.766774e-08 1.647753e-08 1.765193e-08 1.763219e-08 1.618734e-08 1.709624e-08 1.648852e-08 1.668931e-08
1.703346e-08 1.557262e-08 1.652970e-08 1.610864e-08 1.660782e-08 1.570117e-08 1.535747e-08 1.580211e-08 1.547117e-08 1.438407e-08
1.506990e-08 1.486205e-08 1.375171e-08 1.441087e-08 1.328392e-08 1.444631e-08 1.294979e-08 1.388583e-08 1.248615e-08 1.237443e-08
1.287402e-08 1.220808e-08 1.244589e-08 1.189239e-08 1.157063e-08 1.075003e-08 9.990409e-09 1.161672e-08 9.721632e-09 8.689359e-09
8.989680e-09 8.039406e-09 7.933430e-09 8.972397e-09 8.590439e-09 6.712859e-09 7.445796e-09 5.498698e-09 6.435287e-09 5.670837e-09
4.467970e-09 6.805583e-09 4.740254e-09 5.080643e-09 3.734869e-09 3.935715e-09 3.957081e-09 2.638433e-09 3.014212e-09 3.668392e-09
2.245630e-09 3.973345e-10 2.862287e-09 1.201610e-09 2.488550e-09 6.673727e-10 1.865105e-09 1.103709e-09 -2.312931e-10 2.327523e-10
8.626105e-10 2.055866e-09 -1.443673e-09 -1.440787e-09 -1.743330e-09 -1.264513e-09 -2.575580e-09 -2.300120e-09 -2.565876e-09 -2.119136e-09
-1.345357e-09 -2.690483e-09 -4.426832e-09 -3.320497e-09 -4.978526e-09 -4.078414e-09 -5.052067e-09 -4.731994e-09 -5.143971e-09 -4.751018e-09
-5.339694e-09 -7.637103e-09 -5.188166e-09 -5.406161e-09 -9.007572e-09 -7.132764e-09 -7.677788e-09 -8.099945e-09 -7.755297e-09 -9.379382e-09
-7.929106e-09 -9.598764e-09 -1.031871e-08 -9.733417e-09 -1.044217e-08 -1.070387e-08 -1.092161e-08 -1.024467e-08 -1.065825e-08 -1.246342e-08
-1.260309e-08 -1.136785e-08 -1.156705e-08 -1.209792e-08 -1.253353e-08 -1.282452e-08 -1.332686e-08 -1.431667e-08 -1.457942e-08 -1.441330e-08
-1.431233e-08 -1.571595e-08 -1.536944e-08 -1.475990e-08 -1.606955e-08 -1.537699e-08 -1.490870e-08 -1.586830e-08 -1.630416e-08 -1.590439e-08
-1.611790e-08 -1.653569e-08 -1.697630e-08 -1.792134e-08 -1.780847e-08 -1.646487e-08 -1.612917e-08 -1.773515e-08 -1.635389e-08 -1.753192e-08
-1.686715e-08 -1.719348e-08 -1.759372e-08 -1.653895e-08 -1.685108e-08 -1.779526e-08 -1.715444e-08 -1.732251e-08 -1.735629e-08 -1.697506e-08
-1.743341e-08 -1.616254e-08 -1.736892e-08 -1.647222e-08 -1.682480e-08 -1.604804e-08 -1.571589e-08 -1.609897e-08 -1.752247e-08 -1.676735e-08
-1.649353e-08 -1.749689e-08 -1.731757e-08 -1.610362e-08 -1.638918e-08 -1.759352e-08 -1.616339e-08 -1.788830e-08 -1.637964e-08 -1.700311e-08
-1.724240e-08 -1.721690e-08 -1.736146e-08 -1.856291e-08 -1.759807e-08 -1.730214e-08 -1.796862e-08 -1.859386e-08 -1.736117e-08 -1.632920e-08
-1.748251e-08 -1.725328e-08 -1.742290e-08 -1.766588e-08 -1.785795e-08 -1.819563e-08 -1.757459e-08 -1.713421e-08 -1.723069e-08 -1.632174e-08
-1.563051e-08 -1.632117e-08 -1.539394e-08 -1.652963e-08 -1.592662e-08 -1.643320e-08 -1.458360e-08 -1.569755e-08 -1.543891e-08 -1.568489e-08
-1.348064e-08 -1.496904e-08 -1.327622e-08 -1.301479e-08 -1.269609e-08 -1.374839e-08 -1.350528e-08 -1.229991e-08 -1.229559e-08 -1.201618e-08
-1.117043e-08 -1.175361e-08 -1.284570e-08 -9.750697e-09 -1.071336e-08 -1.032035e-08 -1.032583e-08 -9.559135e-09 -9.114506e-09 -9.494745e-09
-7.932091e-09 -8.914842e-09 -8.735211e-09 -7.927297e-09 -7.895914e-09 -8.519417e-09 -7.905558e-09 -6.547444e-09 -6.922217e-09 -6.258901e-09
-6.573910e-09 -5.550070e-09 -4.843885e-09 -2.522638e-09 -4.913204e-09 -4.394787e-09 -3.001430e-09 -2.511611e-09 -3.752363e-09 -3.452810e-09
-1.997798e-09 -1.414747e-09 -2.403018e-09 -5.140084e-10 -1.454897e-09 -2.527947e-09 -9.604132e-10 -1.935515e-09 5.918404e-10 2.088437e-10
4.000609e-10
3.967138e-10 2.031901e-09 6.863077e-10 -7.713469e-11 1.686324e-09 2.308337e-09 1.134752e-09 1.436586e-09 3.036996e-09 3.325696e-09
2.930077e-09 3.118362e-09 4.581467e-09 4.908590e-09 3.606983e-09 5.794542e-09 4.480777e-09 5.139682e-09 6.239055e-09 5.463823e-09
5.560336e-09 5.879758e-09 6.483810e-09 6.256650e-09 6.851320e-09 8.654325e-09 8.527937e-09 8.759856e-09 8.984648e-09 9.999823e-09
1.005718e-08 1.007056e-08 9.443176e-09 9.620179e-09 1.050241e-08 1.150717e-08 1.145680e-08 1.108206e-08 1.169640e-08 1.163598e-08
1.149032e-08 1.260375e-08 1.297067e-08 1.269889e-08 1.395044e-08 1.345768e-08 1.430516e-08 1.372890e-08 1.403523e-08 1.379872e-08
1.444190e-08 1.547015e-08 1.449227e-08 1.586284e-08 1.588846e-08 1.542851e-08 1.602641e-08 1.605204e-08 1.653778e-08 1.666319e-08
1.815873e-08 1.678767e-08 1.746781e-08 1.793966e-08 1.682548e-08 1.826935e-08 1.696815e-08 1.764654e-08 1.790392e-08 1.752661e-08
1.703663e-08 1.854047e-08 1.778739e-08 1.828425e-08 1.707056e-08 1.767594e-08 1.819007e-08 1.712702e-08 1.745202e-08 1.725586e-08
1.835969e-08 1.729878e-08 1.592592e-08 1.774415e-08 1.673825e-08 1.765516e-08 1.740912e-08 1.847740e-08 1.710628e-08 1.662170e-08
1.661037e-08 1.780925e-08 1.688484e-08 1.677059e-08 1.664318e-08 1.799116e-08 1.721418e-08 1.729032e-08 1.783118e-08 1.697460e-08
1.710329e-08 1.754314e-08 1.699261e-08 1.687966e-08 1.769853e-08 1.765571e-08 1.664417e-08 1.945190e-08 1.831411e-08 1.748834e-08
1.717970e-08 1.738572e-08 1.751695e-08 1.771836e-08 1.711000e-08 1.813499e-08 1.811906e-08 1.707802e-08 1.644780e-08 1.642696e-08
1.724317e-08 1.629115e-08 1.594849e-08 1.688266e-08 1.606093e-08 1.580952e-08 1.549356e-08 1.637818e-08 1.512111e-08 1.502415e-08
1.457656e-08 1.383285e-08 1.443989e-08 1.386970e-08 1.325100e-08 1.513166e-08 1.324638e-08 1.341902e-08 1.276933e-08 1.181935e-08
1.174420e-08 1.248300e-08 1.186809e-08 1.157103e-08 1.116215e-08 1.076610e-08 9.654221e-09 9.989248e-09 1.066824e-08 9.533030e-09
8.743875e-09 8.666654e-09 8.835923e-09 8.627024e-09 7.826120e-09 7.789237e-09 6.431161e-09 7.963425e-09 3.789979e-09 6.638822e-09
5.443987e-09 5.330087e-09 5.313506e-09 4.609563e-09 3.691584e-09 4.631939e-09 3.563703e-09 3.192232e-09 2.513521e-09 3.160154e-09
2.065021e-09 3.197943e-09 1.965871e-09 2.264350e-09 6.684562e-10 -7.561109e-10 3.874475e-10 5.363542e-10 -1.063040e-09 -1.350086e-09
9.332172e-10 -1.463219e-09 -1.799381e-09 -1.584616e-09 -1.123940e-09 -1.117090e-09 -1.348644e-09 -2.565982e-09 -7.324981e-10 -1.607521e-09
-2.843065e-09 -3.735462e-09 -5.165486e-09 -3.683604e-09 -4.876646e-09 -4.987688e-09 -4.546583e-09 -3.367032e-09 -3.687413e-09 -4.212325e-09
-5.913215e-09 -6.028046e-09 -5.915708e-09 -7.403079e-09 -7.899930e-09 -7.210068e-09 -9.022781e-09 -8.155027e-09 -8.044537e-09 -9.131889e-09
-8.944445e-09 -1.103259e-08 -1.008013e-08 -9.530257e-09 -1.128275e-08 -1.114041e-08 -1.028725e-08 -1.129928e-08 -1.174924e-08 -1.153976e-08
-1.146752e-08 -1.190584e-08 -1.250534e-08 -1.243802e-08 -1.229393e-08 -1.358736e-08 -1.507034e-08 -1.385995e-08 -1.366817e-08 -1.408942e-08
-1.517818e-08 -1.417623e-08 -1.547029e-08 -1.505652e-08 -1.545923e-08 -1.562557e-08 -1.524379e-08 -1.531945e-08 -1.757101e-08 -1.672820e-08
-1.591197e-08 -1.675779e-08 -1.640550e-08 -1.703723e-08 -1.635457e-08 -1.735392e-08 -1.655884e-08 -1.670970e-08 -1.719805e-08 -1.791164e-08
-1.706287e-08 -1.745271e-08 -1.743767e-08 -1.715614e-08 -1.655407e-08 -1.683788e-08 -1.734730e-08 -1.783820e-08 -1.834168e-08 -1.659691e-08
-1.599625e-08 -1.730847e-08 -1.731918e-08 -1.785133e-08 -1.649345e-08 -1.647502e-08 -1.698733e-08 -1.807899e-08 -1.788260e-08 -1.638716e-08
-1.668920e-08 -1.803868e-08 -1.599736e-08 -1.632977e-08 -1.725557e-08 -1.649829e-08 -1.781322e-08 -1.724925e-08 -1.809496e-08 -1.800313e-08
-1.724293e-08 -1.730475e-08 -1.764022e-08 -1.700002e-08 -1.762125e-08 -1.753162e-08 -1.811374e-08 -1.693022e-08 -1.836589e-08 -1.715985e-08
-1.717970e-08 -1.696171e-08 -1.688984e-08 -1.699319e-08 -1.734134e-08 -1.608731e-08 -1.685900e-08 -1.689255e-08 -1.588277e-08 -1.784086e-08
-1.630819e-08 -1.643762e-08 -1.540348e-08 -1.538428e-08 -1.516984e-08 -1.563155e-08 -1.500902e-08 -1.514179e-08 -1.421287e-08 -1.511225e-08
-1.426699e-08 -1.410350e-08 -1.437517e-08 -1.393532e-08 -1.396372e-08 -1.320149e-08 -1.267000e-08 -1.355949e-08 -1.227250e-08 -1.263125e-08
-1.197074e-08 -1.222401e-08 -1.058580e-08 -1.137554e-08 -1.055890e-08 -1.118119e-08 -1.026503e-08 -9.867454e-09 -9.395542e-09 -9.706692e-09
-9.064296e-09 -8.730120e-09 -8.190409e-09 -8.205084e-09 -8.658084e-09 -7.489205e-09 -5.506477e-09 -6.321935e-09 -6.425064e-09 -6.273906e-09
-5.542152e-09 -6.605140e-09 -5.207593e-09 -4.832133e-09 -4.698262e-09 -4.881741e-09 -3.572991e-09 -1.930692e-09 -3.033563e-09 -3.628180e-09
-2.063373e-09 -1.676680e-09 -1.436454e-10 -2.605867e-09 -1.429252e-09 -1.956628e-09 5.758219e-11 2.696717e-11 -1.467151e-09 -9.886337e-10
3.967138e-10
3.901672e-10 2.523202e-10 4.481191e-10 7.879812e-10 2.844761e-10 1.775139e-09 7.479774e-10 4.311506e-09 2.075839e-09 2.053889e-09
3.176293e-09 4.037696e-09 3.776210e-09 3.731042e-09 3.475093e-09 3.566942e-09 4.964083e-09 4.932188e-09 4.572964e-09 5.906250e-09
6.179487e-09 5.744039e-09 6.954598e-09 7.446381e-09 7.980420e-09 8.162517e-09 7.457628e-09 7.479287e-09 9.264379e-09 9.396111e-09
9.660336e-09 1.013740e-08 1.104581e-08 1.005842e-08 1.093166e-08 1.031331e-08 1.209126e-08 1.169675e-08 1.128423e-08 1.167128e-08
1.164394e-08 1.252901e-08 1.229465e-08 1.308849e-08 1.355925e-08 1.315057e-08 1.357733e-08 1.541730e-08 1.546798e-08 1.523911e-08
1.592713e-08 1.647881e-08 1.591158e-08 1.610323e-08 1.691365e-08 1.730300e-08 1.553241e-08 1.630451e-08 1.666131e-08 1.717801e-08
1.669325e-08 1.747914e-08 1.708574e-08 1.729610e-08 1.850161e-08 1.670690e-08 1.678917e-08 1.810529e-08 1.746710e-08 1.747739e-08
1.876251e-08 1.805876e-08 1.726053e-08 1.807476e-08 1.835003e-08 1.741852e-08 1.708393e-08 1.802344e-08 1.782357e-08 1.813246e-08
1.891250e-08 1.812434e-08 1.764757e-08 1.646716e-08 1.637852e-08 1.881848e-08 1.790536e-08 1.593659e-08 1.742741e-08 1.726999e-08
1.659407e-08 1.819563e-08 1.801744e-08 1.875870e-08 1.775957e-08 1.682726e-08 1.756684e-08 1.763502e-08 1.721565e-08 1.787940e-08
1.834476e-08 1.848453e-08 1.742118e-08 1.852194e-08 1.907781e-08 1.775407e-08 1.712150e-08 1.797442e-08 1.868017e-08 1.814741e-08
1.760556e-08 1.754223e-08 1.820459e-08 1.739423e-08 1.682993e-08 1.695807e-08 1.730024e-08 1.726356e-08 1.753828e-08 1.725269e-08
1.852583e-08 1.666236e-08 1.709249e-08 1.659939e-08 1.620246e-08 1.707527e-08 1.598702e-08 1.515953e-08 1.770200e-08 1.459323e-08
1.466320e-08 1.538493e-08 1.374530e-08 1.462015e-08 1.407380e-08 1.515550e-08 1.373763e-08 1.332135e-08 1.389127e-08 1.223459e-08
1.247581e-08 1.271307e-08 1.223016e-08 1.155079e-08 1.032008e-08 1.087341e-08 1.082650e-08 1.088591e-08 9.939531e-09 8.824505e-09
8.155709e-09 8.350582e-09 8.919547e-09 7.968879e-09 8.111163e-09 7.872488e-09 7.296092e-09 7.546213e-09 6.650346e-09 6.434006e-09
3.763720e-09 5.929403e-09 5.088740e-09 5.018000e-09 4.753638e-09 4.204666e-09 4.073161e-09 3.637733e-09 3.377307e-09 4.341750e-09
3.041079e-09 3.082673e-09 2.444647e-09 7.231646e-10 2.827711e-09 -1.023815e-10 -2.809178e-10 -2.493039e-10 3.524049e-10 -4.788845e-11
-9.426367e-10 -3.166064e-10 -7.219181e-10 -9.573567e-10 -1.178582e-09 -3.106896e-09 -8.975380e-10 -3.035097e-09 -3.091311e-09 -4.110510e-10
-3.073237e-09 -2.674625e-09 -2.225103e-09 -5.821876e-09 -4.713633e-09 -4.210125e-09 -4.051832e-09 -5.018773e-09 -5.070870e-09 -3.485560e-09
-6.499324e-09 -5.368089e-09 -6.438222e-09 -6.262363e-09 -7.923702e-09 -8.013660e-09 -7.064075e-09 -9.330985e-09 -9.917593e-09 -9.641167e-09
-1.059721e-08 -7.887274e-09 -9.428160e-09 -1.015903e-08 -9.356106e-09 -1.058862e-08 -1.194352e-08 -1.097724e-08 -1.160122e-08 -1.228679e-08
-1.223100e-08 -1.161909e-08 -1.341306e-08 -1.256767e-08 -1.272741e-08 -1.337583e-08 -1.394013e-08 -1.449093e-08 -1.475586e-08 -1.573552e-08
-1.642015e-08 -1.477151e-08 -1.583413e-08 -1.519727e-08 -1.659094e-08 -1.643243e-08 -1.566445e-08 -1.542981e-08 -1.675267e-08 -1.640857e-08
-1.601892e-08 -1.687785e-08 -1.744567e-08 -1.809449e-08 -1.612672e-08 -1.648717e-08 -1.749353e-08 -1.731467e-08 -1.724569e-08 -1.801344e-08
-1.699174e-08 -1.740446e-08 -1.661557e-08 -1.739781e-08 -1.678185e-08 -1.906767e-08 -1.809426e-08 -1.768020e-08 -1.854640e-08 -1.745649e-08
-1.791277e-08 -1.802230e-08 -1.682578e-08 -1.613937e-08 -1.733778e-08 -1.609226e-08 -1.698857e-08 -1.740045e-08 -1.666024e-08 -1.768416e-08
-1.760309e-08 -1.807916e-08 -1.707234e-08 -1.675849e-08 -1.819140e-08 -1.785259e-08 -1.685279e-08 -1.732085e-08 -1.737967e-08 -1.767199e-08
-1.721923e-08 -1.671522e-08 -1.708225e-08 -1.830596e-08 -1.766177e-08 -1.750251e-08 -1.773417e-08 -1.830128e-08 -1.776380e-08 -1.736112e-08
-1.771488e-08 -1.703526e-08 -1.641705e-08 -1.750101e-08 -1.782894e-08 -1.753651e-08 -1.808968e-08 -1.671163e-08 -1.719684e-08 -1.689601e-08
-1.634167e-08 -1.712828e-08 -1.597909e-08 -1.637993e-08 -1.616492e-08 -1.589146e-08 -1.543495e-08 -1.503411e-08 -1.505686e-08 -1.520826e-08
-1.481125e-08 -1.410249e-08 -1.448349e-08 -1.355767e-08 -1.373569e-08 -1.401580e-08 -1.392742e-08 -1.269852e-08 -1.335794e-08 -1.244763e-08
-1.240827e-08 -1.318881e-08 -1.078262e-08 -1.153718e-08 -1.093967e-08 -1.032937e-08 -9.935860e-09 -1.038762e-08 -1.070026e-08 -9.625359e-09
-9.115962e-09 -8.750421e-09 -8.672095e-09 -8.256475e-09 -6.545553e-09 -7.793566e-09 -8.082211e-09 -8.146960e-09 -7.452871e-09 -7.200394e-09
-7.264333e-09 -4.952120e-09 -5.561272e-09 -4.694300e-09 -4.858982e-09 -5.030898e-09 -4.001004e-09 -3.442482e-09 -3.219163e-09 -2.309456e-09
-4.267013e-09 -3.043463e-09 -2.251660e-09 -1.578585e-09 -1.941213e-09 -8.409113e-10 8.730052e-11 -7.184565e-10 -1.935793e-09 5.344029e-10
3.901672e-10
4.539777e-10 2.206620e-11 1.488239e-09 1.195162e-09 8.096844e-10 -5.949753e-10 1.949967e-09 2.402232e-09 1.881083e-09 3.946968e-09
4.116007e-09 2.795537e-09 2.442074e-09 4.748211e-09 2.793436e-09 3.876027e-09 5.274366e-09 5.603543e-09 4.155757e-09 5.914630e-09
7.410728e-09 7.340168e-09 5.996021e-09 6.575609e-09 6.669248e-09 8.913640e-09 7.032806e-09 7.076965e-09 8.959208e-09 8.647445e-09
9.400846e-09 9.579506e-09 9.954039e-09 9.905370e-09 1.021498e-08 1.192655e-08 1.035217e-08 1.196242e-08 1.167718e-08 1.223673e-08
1.127846e-08 1.247930e-08 1.301144e-08 1.343192e-08 1.339649e-08 1.455018e-08 1.424313e-08 1.415346e-08 1.537591e-08 1.480066e-08
1.597257e-08 1.503315e-08 1.478361e-08 1.699590e-08 1.572922e-08 1.733142e-08 1.670674e-08 1.616870e-08 1.702178e-08 1.711196e-08
1.763407e-08 1.835042e-08 1.783186e-08 1.767815e-08 1.718981e-08 1.700579e-08 1.797934e-08 1.735742e-08 1.826751e-08 1.808325e-08
1.763569e-08 1.904361e-08 1.800066e-08 1.826151e-08 1.835143e-08 1.809904e-08 1.858843e-08 1.856131e-08 1.763723e-08 1.873525e-08
1.712307e-08 1.703725e-08 1.793885e-08 1.746737e-08 1.808170e-08 1.844413e-08 1.732875e-08 1.768403e-08 1.655158e-08 1.744141e-08
1.628385e-08 1.810718e-08 1.675051e-08 1.745473e-08 1.766150e-08 1.819074e-08 1.805931e-08 1.584563e-08 1.847193e-08 1.804119e-08
1.696120e-08 1.754644e-08 1.860859e-08 1.669964e-08 1.869432e-08 1.713214e-08 1.762321e-08 1.790677e-08 1.880492e-08 1.829932e-08
1.894190e-08 1.724356e-08 1.922341e-08 1.705684e-08 1.694049e-08 1.717674e-08 1.787551e-08 1.780297e-08 1.758393e-08 1.648733e-08
1.794325e-08 1.815263e-08 1.671434e-08 1.597901e-08 1.618403e-08 1.567950e-08 1.681297e-08 1.541453e-08 1.730783e-08 1.568259e-08
1.503031e-08 1.525665e-08 1.398046e-08 1.349477e-08 1.422708e-08 1.371542e-08 1.321479e-08 1.276485e-08 1.227906e-08 1.209097e-08
1.181569e-08 1.234262e-08 1.182700e-08 1.128087e-08 1.211139e-08 1.092545e-08 1.096608e-08 1.119403e-08 9.559050e-09 8.899725e-09
9.047064e-09 9.682193e-09 9.826517e-09 8.754386e-09 7.165960e-09 7.708750e-09 7.898460e-09 6.422297e-09 7.427074e-09 4.713881e-09
5.564285e-09 4.517528e-09 4.927400e-09 3.819718e-09 3.948116e-09 4.473092e-09 4.110671e-09 4.346846e-09 2.466263e-09 2.044395e-09
3.198112e-09 1.042885e-09 3.491923e-09 1.926226e-09 -1.353837e-10 2.047987e-09 1.979854e-09 2.996033e-11 -8.622090e-10 -1.784758e-09
-3.546093e-10 1.558920e-09 -6.724621e-13 -8.498550e-10 4.654414e-10 -7.431263e-10 -1.758670e-09 -3.506528e-10 -9.862563e-10 -3.242481e-09
-2.000954e-09 -2.895294e-09 -3.309513e-09 -5.679498e-09 -4.215050e-09 -3.919105e-09 -3.031204e-09 -5.647154e-09 -5.446771e-09 -6.018464e-09
-7.755482e-09 -6.290143e-09 -7.030430e-09 -7.624524e-09 -7.953280e-09 -5.840340e-09 -6.664823e-09 -7.812451e-09 -8.721791e-09 -8.575091e-09
-9.415790e-09 -9.100249e-09 -9.395809e-09 -1.022445e-08 -1.068907e-08 -1.033528e-08 -1.053855e-08 -1.267575e-08 -1.233956e-08 -1.198715e-08
-1.179631e-08 -1.319428e-08 -1.243207e-08 -1.290920e-08 -1.354276e-08 -1.356675e-08 -1.455475e-08 -1.462762e-08 -1.419449e-08 -1.427935e-08
-1.460736e-08 -1.517085e-08 -1.580423e-08 -1.498884e-08 -1.603897e-08 -1.632859e-08 -1.559719e-08 -1.648548e-08 -1.633302e-08 -1.609496e-08
-1.599931e-08 -1.713915e-08 -1.686570e-08 -1.767008e-08 -1.733779e-08 -1.744470e-08 -1.758548e-08 -1.765771e-08 -1.721345e-08 -1.769014e-08
-1.873413e-08 -1.778728e-08 -1.793727e-08 -1.703389e-08 -1.849335e-08 -1.781023e-08 -1.731733e-08 -1.806219e-08 -1.695956e-08 -1.840163e-08
-1.681712e-08 -1.690049e-08 -1.842603e-08 -1.804800e-08 -1.614850e-08 -1.754883e-08 -1.775128e-08 -1.868527e-08 -1.737195e-08 -1.742096e-08
-1.797441e-08 -1.680650e-08 -1.612863e-08 -1.767188e-08 -1.680866e-08 -1.774190e-08 -1.708156e-08 -1.736239e-08 -1.692165e-08 -1.684685e-08
-1.916705e-08 -1.737778e-08 -1.800980e-08 -1.836282e-08 -1.870130e-08 -1.888417e-08 -1.797335e-08 -1.740755e-08 -1.746206e-08 -1.779551e-08
-1.863754e-08 -1.738403e-08 -1.814284e-08 -1.726600e-08 -1.793265e-08 -1.763000e-08 -1.804397e-08 -1.750783e-08 -1.657323e-08 -1.665701e-08
-1.704731e-08 -1.636252e-08 -1.668993e-08 -1.654093e-08 -1.584364e-08 -1.609198e-08 -1.556976e-08 -1.624709e-08 -1.487709e-08 -1.521598e-08
-1.443714e-08 -1.515788e-08 -1.358332e-08 -1.415879e-08 -1.444950e-08 -1.357540e-08 -1.281105e-08 -1.385244e-08 -1.283080e-08 -1.402291e-08
-1.275055e-08 -1.176130e-08 -1.170935e-08 -1.107006e-08 -1.152403e-08 -1.053680e-08 -1.053722e-08 -1.009697e-08 -8.827842e-09 -9.532314e-09
-9.141778e-09 -9.031183e-09 -9.665865e-09 -7.742838e-09 -6.503619e-09 -6.866519e-09 -6.744541e-09 -6.005339e-09 -5.460910e-09 -6.138068e-09
-7.467977e-09 -5.645800e-09 -6.374740e-09 -6.107334e-09 -4.957199e-09 -2.951715e-09 -4.548798e-09 -3.775277e-09 -3.281749e-09 -3.218217e-09
-3.136654e-09 -2.852408e-09 -4.974613e-10 -2.090124e-09 -1.130965e-09 -1.714220e-09 -7.645158e-10 -1.541919e-09 8.780932e-11 8.958574e-10
4.539777e-10
-1.616331e-09 -2.212244e-10 9.285195e-10 2.227430e-09 4.015798e-10 1.281769e-09 2.005334e-09 1.907872e-09 1.479118e-09 4.351782e-09
2.062369e-09 4.106604e-09 4.132370e-09 3.091878e-09 3.984427e-09 5.205726e-09 5.012050e-09 6.420414e-09 5.055659e-09 5.060835e-09
7.411130e-09 6.795924e-09 6.976440e-09 5.826605e-09 8.330300e-09 8.945245e-09 8.303837e-09 8.633482e-09 1.038618e-08 8.452216e-09
9.487992e-09 1.009353e-08 1.084092e-08 1.209706e-08 1.134200e-08 1.070390e-08 1.223745e-08 1.189798e-08 1.214432e-08 1.191824e-08
1.233594e-08 1.350780e-08 1.264065e-08 1.363615e-08 1.324947e-08 1.388657e-08 1.458359e-08 1.511306e-08 1.606323e-08 1.429053e-08
1.494845e-08 1.498386e-08 1.533437e-08 1.513027e-08 1.569562e-08 1.649929e-08 1.651757e-08 1.711904e-08 1.646901e-08 1.680517e-08
1.687518e-08 1.690748e-08 1.711266e-08 1.768960e-08 1.759544e-08 1.956618e-08 1.689265e-08 1.834296e-08 1.838496e-08 1.853464e-08
1.810786e-08 1.845518e-08 1.661862e-08 1.888797e-08 1.782025e-08 1.763732e-08 1.883410e-08 1.800254e-08 1.764557e-08 1.811478e-08
1.752078e-08 1.754752e-08 1.727060e-08 1.796118e-08 1.779300e-08 1.717216e-08 1.779079e-08 1.740922e-08 1.720282e-08 1.667408e-08
1.787905e-08 1.719283e-08 1.689770e-08 1.705238e-08 1.793117e-08 1.805896e-08 1.808173e-08 1.805171e-08 1.800181e-08 1.954150e-08
1.871598e-08 1.804163e-08 1.805989e-08 1.826701e-08 1.863209e-08 1.913144e-08 1.864797e-08 1.854923e-08 1.835126e-08 1.776728e-08
1.827970e-08 1.769727e-08 1.792107e-08 1.832311e-08 1.779196e-08 1.862275e-08 1.837228e-08 1.785320e-08 1.829614e-08 1.716943e-08
1.795909e-08 1.730092e-08 1.626846e-08 1.609455e-08 1.667838e-08 1.581856e-08 1.607567e-08 1.659540e-08 1.548165e-08 1.632229e-08
1.524385e-08 1.438557e-08 1.515423e-08 1.457793e-08 1.484228e-08 1.360351e-08 1.474124e-08 1.282301e-08 1.284976e-08 1.341752e-08
1.179485e-08 1.184597e-08 1.195204e-08 1.273670e-08 1.226385e-08 1.058443e-08 1.196646e-08 1.012560e-08 1.000461e-08 8.549926e-09
8.911365e-09 9.345918e-09 8.817095e-09 9.708729e-09 8.376151e-09 6.475743e-09 6.451852e-09 6.588105e-09 6.545613e-09 6.514742e-09
5.961475e-09 7.241133e-09 5.592948e-09 4.922611e-09 5.451390e-09 3.689198e-09 2.502404e-09 3.598557e-09 2.452549e-09 3.405464e-09
1.880289e-09 3.682521e-09 5.392255e-10 2.434200e-09 7.089790e-10 1.684385e-09 -1.132364e-09 2.329995e-09 -4.175783e-10 3.100951e-10
2.165936e-10 -6.484170e-10 -6.972785e-10 1.866436e-09 -1.422728e-09 -1.123639e-09 -2.609478e-09 -2.270979e-09 -3.460910e-09 -3.035900e-09
-2.054453e-09 -2.591184e-09 -4.548728e-09 -2.975003e-09 -4.219067e-09 -6.093062e-09 -4.767691e-09 -4.805992e-09 -4.854706e-09 -5.136175e-09
-6.030961e-09 -7.045054e-09 -6.636178e-09 -7.278139e-09 -7.322126e-09 -7.356709e-09 -9.179920e-09 -8.753426e-09 -9.675264e-09 -9.799087e-09
-9.361921e-09 -1.005626e-08 -9.634090e-09 -1.008951e-08 -1.054674e-08 -1.076201e-08 -1.113333e-08 -1.023334e-08 -1.182483e-08 -1.122494e-08
-1.255328e-08 -1.171350e-08 -1.338670e-08 -1.330204e-08 -1.364883e-08 -1.381957e-08 -1.452990e-08 -1.545714e-08 -1.437968e-08 -1.474540e-08
-1.569866e-08 -1.520997e-08 -1.565155e-08 -1.527782e-08 -1.547520e-08 -1.561909e-08 -1.559285e-08 -1.574791e-08 -1.679825e-08 -1.621191e-08
-1.714669e-08 -1.721662e-08 -1.744038e-08 -1.715014e-08 -1.808369e-08 -1.853178e-08 -1.692602e-08 -1.949788e-08 -1.839962e-08 -1.778770e-08
-1.725815e-08 -1.801591e-08 -1.843330e-08 -1.769610e-08 -1.771305e-08 -1.754481e-08 -1.818290e-08 -1.805042e-08 -1.799298e-08 -1.728908e-08
-1.894734e-08 -1.904702e-08 -1.626280e-08 -1.654727e-08 -1.736337e-08 -1.675584e-08 -1.661228e-08 -1.787492e-08 -1.855542e-08 -1.749270e-08
-1.714919e-08 -1.696153e-08 -1.808389e-08 -1.705150e-08 -1.653864e-08 -1.689189e-08 -1.827545e-08 -1.722635e-08 -1.736475e-08 -1.873313e-08
-1.811286e-08 -1.751246e-08 -1.854555e-08 -1.907380e-08 -1.762904e-08 -1.768161e-08 -1.844890e-08 -1.836626e-08 -1.847581e-08 -1.761011e-08
-1.860807e-08 -1.838057e-08 -1.870099e-08 -1.844440e-08 -1.860185e-08 -1.844835e-08 -1.725920e-08 -1.684956e-08 -1.724939e-08 -1.646951e-08
-1.807861e-08 -1.694231e-08 -1.672276e-08 -1.633762e-08 -1.622347e-08 -1.624795e-08 -1.556244e-08 -1.559742e-08 -1.719134e-08 -1.490465e-08
-1.409849e-08 -1.469282e-08 -1.387914e-08 -1.547203e-08 -1.402020e-08 -1.383327e-08 -1.466689e-08 -1.272981e-08 -1.243883e-08 -1.198748e-08
-1.286662e-08 -1.243072e-08 -1.194760e-08 -1.157039e-08 -1.200121e-08 -1.058398e-08 -1.235943e-08 -1.010398e-08 -1.098009e-08 -9.210081e-09
-8.851753e-09 -8.357812e-09 -9.138359e-09 -7.031539e-09 -7.920715e-09 -7.282515e-09 -8.135449e-09 -8.550276e-09 -6.549127e-09 -5.128435e-09
-5.882493e-09 -6.499105e-09 -5.502422e-09 -4.283708e-09 -3.722489e-09 -4.369940e-09 -3.517611e-09 -4.896337e-09 -2.541372e-09 -2.629559e-09
-2.761049e-09 -1.649980e-09 -3.434984e-09 -1.757551e-09 -1.283636e-09 -2.051876e-09 -1.398174e-09 -5.459893e-10 -9.062662e-10 -2.662880e-11
-1.616331e-09
1.748092e-09 1.427837e-09 1.140016e-09 1.787897e-09 2.314748e-09 3.677181e-10 1.930890e-09 1.472962e-09 2.423185e-09 2.286894e-09
3.275092e-09 3.712203e-09 4.078502e-09 3.316883e-09 3.108145e-09 3.494169e-09 5.096128e-09 4.995384e-09 4.587378e-09 5.034354e-09
4.776006e-09 6.408193e-09 6.071248e-09 6.778707e-09 9.512392e-09 7.962730e-09 7.362196e-09 8.756355e-09 9.044240e-09 9.806282e-09
8.287276e-09 1.025583e-08 1.067657e-08 9.978337e-09 1.047751e-08 1.275411e-08 1.030253e-08 1.216836e-08 1.172004e-08 1.299436e-08
1.265195e-08 1.205662e-08 1.408672e-08 1.281642e-08 1.366834e-08 1.411802e-08 1.389739e-08 1.621589e-08 1.416987e-08 1.658159e-08
1.544142e-08 1.553187e-08 1.600037e-08 1.697695e-08 1.707907e-08 1.592754e-08 1.728501e-08 1.645832e-08 1.667449e-08 1.778781e-08
1.646283e-08 1.856743e-08 1.822983e-08 1.816216e-08 1.856330e-08 1.803206e-08 1.715839e-08 1.895988e-08 1.769044e-08 1.939900e-08
1.859415e-08 1.940083e-08 1.811013e-08 1.866900e-08 1.913619e-08 1.869198e-08 1.660253e-08 1.860199e-08 1.850074e-08 1.693368e-08
1.877107e-08 1.843136e-08 1.730264e-08 1.895946e-08 1.825842e-08 1.912684e-08 1.725301e-08 1.715889e-08 1.767082e-08 1.802822e-08
1.677605e-08 1.713617e-08 1.730972e-08 1.810725e-08 1.727169e-08 1.732198e-08 1.913122e-08 1.690217e-08 1.853428e-08 1.885482e-08
1.795543e-08 1.790676e-08 1.987515e-08 1.768274e-08 1.950733e-08 1.862991e-08 1.907680e-08 1.959439e-08 1.841276e-08 1.925755e-08
1.871356e-08 1.832156e-08 1.870450e-08 1.745925e-08 1.843782e-08 1.753313e-08 1.810398e-08 1.715639e-08 1.802618e-08 1.735051e-08
1.663848e-08 1.717743e-08 1.776487e-08 1.575933e-08 1.551381e-08 1.612749e-08 1.645975e-08 1.658916e-08 1.624914e-08 1.524734e-08
1.648690e-08 1.456049e-08 1.539217e-08 1.415373e-08 1.390094e-08 1.408813e-08 1.399768e-08 1.417917e-08 1.229228e-08 1.243913e-08
1.245132e-08 1.216896e-08 1.138411e-08 1.092066e-08 1.214181e-08 1.100728e-08 1.161118e-08 9.396430e-09 1.005114e-08 1.055894e-08
8.732537e-09 9.320772e-09 9.226939e-09 7.759568e-09 7.335262e-09 7.560106e-09 8.036820e-09 5.141683e-09 6.851784e-09 7.645168e-09
6.919475e-09 5.828532e-09 5.414053e-09 4.856266e-09 6.458324e-09 5.979147e-09 3.606320e-09 3.888147e-09 2.597154e-09 2.167245e-09
2.843834e-09 1.783234e-09 2.056123e-09 1.553520e-09 2.271788e-09 2.164801e-09 1.693542e-09 -7.280681e-10 1.432000e-09 -7.597412e-11
-2.246368e-10 -1.868428e-09 -7.921297e-10 -1.085258e-09 -1.935875e-09 -7.972913e-10 -2.225701e-09 -2.161140e-09 -2.287641e-09 -2.692840e-09
-3.126787e-09 -2.296588e-09 -3.957717e-09 -4.589299e-09 -4.246187e-09 -3.293424e-09 -3.117869e-09 -4.682822e-09 -4.438083e-09 -6.415303e-09
-7.204155e-09 -7.694795e-09 -8.548732e-09 -7.557412e-09 -6.911522e-09 -8.156856e-09 -7.986683e-09 -9.105979e-09 -8.433897e-09 -1.134988e-08
-9.457744e-09 -8.998886e-09 -9.242376e-09 -1.062854e-08 -1.091112e-08 -1.235067e-08 -9.928341e-09 -1.267987e-08 -1.234081e-08 -1.157827e-08
-1.181100e-08 -1.244509e-08 -1.270532e-08 -1.346082e-08 -1.324040e-08 -1.356923e-08 -1.382785e-08 -1.371326e-08 -1.455683e-08 -1.472070e-08
-1.469318e-08 -1.514241e-08 -1.506188e-08 -1.546380e-08 -1.587567e-08 -1.571367e-08 -1.632327e-08 -1.637766e-08 -1.682550e-08 -1.669478e-08
-1.792116e-08 -1.709047e-08 -1.701494e-08 -1.763103e-08 -1.839562e-08 -1.768834e-08 -1.785755e-08 -1.857891e-08 -1.881049e-08 -1.757357e-08
-1.885970e-08 -1.800540e-08 -1.882079e-08 -1.799026e-08 -1.782427e-08 -1.812675e-08 -1.805047e-08 -1.851583e-08 -1.770325e-08 -1.726182e-08
-1.872353e-08 -1.699996e-08 -1.784842e-08 -1.710473e-08 -1.755845e-08 -1.727856e-08 -1.648661e-08 -1.752343e-08 -1.685138e-08 -1.700942e-08
-1.860917e-08 -1.729965e-08 -1.678489e-08 -1.727073e-08 -1.670812e-08 -1.739230e-08 -1.834229e-08 -1.764786e-08 -1.642923e-08 -1.740891e-08
-1.817731e-08 -1.919839e-08 -1.865052e-08 -1.872152e-08 -1.828767e-08 -1.710974e-08 -1.780971e-08 -1.798624e-08 -1.769698e-08 -1.767357e-08
-1.876063e-08 -1.750055e-08 -1.787226e-08 -1.789285e-08 -1.850894e-08 -1.737016e-08 -1.715446e-08 -1.753919e-08 -1.690124e-08 -1.702749e-08
-1.779460e-08 -1.646145e-08 -1.652201e-08 -1.680063e-08 -1.559860e-08 -1.592190e-08 -1.572358e-08 -1.599533e-08 -1.655514e-08 -1.589548e-08
-1.564684e-08 -1.496640e-08 -1.395918e-08 -1.381651e-08 -1.365861e-08 -1.371231e-08 -1.307911e-08 -1.342566e-08 -1.440313e-08 -1.417327e-08
-1.351370e-08 -1.216142e-08 -1.166394e-08 -1.085942e-08 -1.082562e-08 -1.109945e-08 -1.113245e-08 -1.015288e-08 -9.812041e-09 -9.097884e-09
-8.635148e-09 -7.271743e-09 -7.951322e-09 -8.683845e-09 -6.558230e-09 -6.118922e-09 -6.717192e-09 -8.138819e-09 -7.491562e-09 -6.091986e-09
-4.858553e-09 -6.146821e-09 -5.570925e-09 -4.857499e-09 -4.979249e-09 -4.235713e-09 -4.596627e-09 -2.707066e-09 -2.476108e-09 -3.806777e-09
-2.669283e-09 -1.010944e-09 -1.465666e-09 -2.195649e-09 -9.560978e-10 -1.881648e-09 -1.918079e-09 -2.077615e-09 -1.689808e-10 -6.783648e-10
1.748092e-09
1.126993e-09 7.377015e-10 7.415408e-10 2.082369e-09 1.746677e-09 1.588483e-09 2.519471e-09 1.542741e-09 2.794871e-09 1.915957e-09
4.199890e-09 4.434594e-09 2.940817e-09 4.184401e-09 2.973508e-09 6.727547e-09 4.299599e-09 4.376631e-09 4.491031e-09 7.070077e-09
7.039874e-09 7.767272e-09 6.657560e-09 7.053845e-09 7.600321e-09 7.855226e-09 8.137005e-09 8.725033e-09 8.342831e-09 9.032035e-09
9.952974e-09 1.092660e-08 9.044057e-09 1.024454e-08 1.208776e-08 1.071983e-08 1.097536e-08 1.193142e-08 1.343527e-08 1.205704e-08
1.209634e-08 1.357867e-08 1.293125e-08 1.408582e-08 1.384900e-08 1.394908e-08 1.486752e-08 1.485808e-08 1.412803e-08 1.487360e-08
1.593579e-08 1.601686e-08 1.782736e-08 1.660040e-08 1.653968e-08 1.564562e-08 1.727674e-08 1.735344e-08 1.717195e-08 1.770092e-08
1.756385e-08 1.746823e-08 1.780064e-08 1.822348e-08 1.810396e-08 1.867674e-08 1.776487e-08 1.845769e-08 1.740935e-08 1.897654e-08
1.850790e-08 1.822217e-08 1.807681e-08 1.857233e-08 1.924815e-08 1.909170e-08 1.806407e-08 1.926545e-08 1.848965e-08 1.794397e-08
1.860209e-08 1.902755e-08 1.944284e-08 1.637851e-08 1.716549e-08 1.797691e-08 1.788120e-08 1.757197e-08 1.839331e-08 1.787720e-08
1.584396e-08 1.793157e-08 1.800156e-08 1.797776e-08 1.729514e-08 1.715270e-08 1.742175e-08 1.927674e-08 1.849647e-08 1.816455e-08
1.725939e-08 1.675841e-08 1.855081e-08 1.994360e-08 1.863317e-08 1.748381e-08 1.889299e-08 1.788991e-08 1.794188e-08 1.761746e-08
1.810054e-08 1.855986e-08 1.755424e-08 1.899608e-08 1.809765e-08 1.882615e-08 1.890142e-08 1.867707e-08 1.657232e-08 1.740020e-08
1.718177e-08 1.720346e-08 1.598727e-08 1.606786e-08 1.684388e-08 1.705011e-08 1.632313e-08 1.672395e-08 1.608839e-08 1.647880e-08
1.523208e-08 1.473213e-08 1.503030e-08 1.492469e-08 1.448158e-08 1.321726e-08 1.396860e-08 1.482374e-08 1.368889e-08 1.362875e-08
1.323323e-08 1.191373e-08 1.140975e-08 1.113267e-08 1.104431e-08 1.282754e-08 1.021631e-08 1.152938e-08 1.014235e-08 8.540206e-09
9.214496e-09 8.842361e-09 1.051308e-08 8.939353e-09 8.160744e-09 7.974030e-09 7.528896e-09 7.469012e-09 6.392643e-09 6.445218e-09
6.993625e-09 6.074440e-09 4.210303e-09 4.368247e-09 4.367427e-09 4.029887e-09 3.397672e-09 4.107097e-09 2.465755e-09 2.988964e-09
1.405560e-09 2.962794e-09 1.927950e-09 1.883430e-09 9.702287e-10 2.636600e-10 -1.244429e-10 1.239289e-10 1.566719e-09 5.171406e-10
7.260106e-10 -1.215643e-09 -1.296742e-09 3.343100e-11 -2.098426e-09 -1.599060e-09 -2.175098e-09 -1.993391e-10 -2.663091e-09 -2.431165e-09
-2.260036e-09 -4.364591e-09 -3.004894e-09 -3.249039e-09 -3.720750e-09 -4.140436e-09 -5.269432e-09 -4.540807e-09 -4.982924e-09 -6.943281e-09
-6.426605e-09 -7.096142e-09 -7.576967e-09 -5.979701e-09 -8.036043e-09 -8.146110e-09 -7.082296e-09 -8.803661e-09 -9.773838e-09 -7.047317e-09
-9.192442e-09 -9.592977e-09 -9.464321e-09 -9.426987e-09 -9.743895e-09 -1.100469e-08 -1.132812e-08 -1.082822e-08 -1.230347e-08 -1.167221e-08
-1.340776e-08 -1.317950e-08 -1.320036e-08 -1.411486e-08 -1.384850e-08 -1.454046e-08 -1.478452e-08 -1.457521e-08 -1.577368e-08 -1.502864e-08
-1.487080e-08 -1.533144e-08 -1.516207e-08 -1.691357e-08 -1.594756e-08 -1.642427e-08 -1.666818e-08 -1.689809e-08 -1.814323e-08 -1.699006e-08
-1.796770e-08 -1.683986e-08 -1.730508e-08 -1.848462e-08 -1.798551e-08 -1.740362e-08 -1.861158e-08 -1.798852e-08 -1.891893e-08 -1.776965e-08
-1.771288e-08 -1.934970e-08 -1.757325e-08 -1.776480e-08 -1.769007e-08 -1.873806e-08 -2.005141e-08 -1.816280e-08 -1.807263e-08 -1.818339e-08
-1.672316e-08 -1.893996e-08 -1.802893e-08 -1.797100e-08 -1.802529e-08 -1.712835e-08 -1.839293e-08 -1.842544e-08 -1.773751e-08 -1.757524e-08
-1.763586e-08 -1.745188e-08 -1.765584e-08 -1.649469e-08 -1.598094e-08 -1.892325e-08 -1.680409e-08 -1.827304e-08 -1.728709e-08 -1.766797e-08
-1.763876e-08 -1.743239e-08 -1.889909e-08 -1.737410e-08 -1.837616e-08 -1.905259e-08 -1.875933e-08 -1.809278e-08 -1.873544e-08 -1.762391e-08
-1.763144e-08 -1.849292e-08 -1.849860e-08 -1.818439e-08 -1.770626e-08 -1.849313e-08 -1.791651e-08 -1.792833e-08 -1.838397e-08 -1.690070e-08
-1.705840e-08 -1.699426e-08 -1.624688e-08 -1.641833e-08 -1.624629e-08 -1.594675e-08 -1.588849e-08 -1.621159e-08 -1.650941e-08 -1.503650e-08
-1.442130e-08 -1.487703e-08 -1.409836e-08 -1.388665e-08 -1.451600e-08 -1.463215e-08 -1.335551e-08 -1.366264e-08 -1.264178e-08 -1.288827e-08
-1.385615e-08 -1.240983e-08 -1.171509e-08 -1.160762e-08 -1.144049e-08 -1.080127e-08 -1.136297e-08 -1.057706e-08 -9.666561e-09 -9.980124e-09
-1.046529e-08 -8.688075e-09 -9.048504e-09 -8.114205e-09 -7.082856e-09 -9.059220e-09 -8.306187e-09 -6.795464e-09 -7.218728e-09 -6.972358e-09
-5.539376e-09 -4.668256e-09 -5.410662e-09 -4.155242e-09 -4.947150e-09 -3.622726e-09 -3.146046e-09 -3.740259e-09 -2.012276e-09 -2.867209e-09
-1.438930e-09 -2.089967e-09 -2.156943e-09 -2.931832e-09 -2.206397e-09 -6.369525e-10 -3.611941e-10 -1.670690e-09 5.466229e-10 -1.068720e-09
1.126993e-09
1.521474e-09 -2.086996e-10 -3.427281e-10 1.371954e-09 2.548996e-09 9.570831e-10 1.230406e-09 2.308321e-09 2.589940e-09 2.633417e-09
3.160369e-09 3.408070e-09 2.536974e-09 3.818307e-09 3.492142e-09 6.186099e-09 3.658595e-09 5.895401e-09 6.723171e-09 7.213776e-09
6.166523e-09 6.867515e-09 7.380158e-09 6.723136e-09 8.706191e-09 9.140058e-09 7.499376e-09 8.018930e-09 9.501183e-09 8.730610e-09
9.717764e-09 1.015485e-08 1.198681e-08 1.136701e-08 1.140830e-08 1.172317e-08 1.207980e-08 1.205352e-08 1.238970e-08 1.206279e-08
1.224857e-08 1.383262e-08 1.338566e-08 1.534624e-08 1.412443e-08 1.414848e-08 1.570888e-08 1.442318e-08 1.494805e-08 1.487506e-08
1.530486e-08 1.617564e-08 1.604330e-08 1.651889e-08 1.635978e-08 1.663048e-08 1.668135e-08 1.693298e-08 1.662321e-08 1.758013e-08
1.755222e-08 1.747100e-08 1.696598e-08 1.810201e-08 1.749277e-08 1.830621e-08 1.797796e-08 1.904870e-08 1.917709e-08 1.894365e-08
1.762874e-08 1.869188e-08 1.799292e-08 1.887090e-08 1.765059e-08 1.880426e-08 1.899057e-08 1.806366e-08 1.817824e-08 1.820481e-08
1.858137e-08 1.839550e-08 1.796565e-08 1.679138e-08 1.839939e-08 1.930930e-08 1.676784e-08 1.845508e-08 1.910105e-08 1.635154e-08
1.806556e-08 1.828746e-08 1.655383e-08 1.833589e-08 1.818374e-08 1.780451e-08 1.809777e-08 1.714523e-08 1.806264e-08 1.875676e-08
1.843306e-08 1.954230e-08 1.875126e-08 1.906598e-08 1.887230e-08 2.020698e-08 1.864964e-08 1.862429e-08 1.832676e-08 1.737390e-08
1.876458e-08 1.729398e-08 1.783059e-08 1.887684e-08 1.877048e-08 1.785041e-08 1.750140e-08 1.736176e-08 1.775719e-08 1.671224e-08
1.615338e-08 1.715247e-08 1.748943e-08 1.748569e-08 1.623854e-08 1.654808e-08 1.602041e-08 1.619591e-08 1.592974e-08 1.611993e-08
1.577943e-08 1.483729e-08 1.574515e-08 1.506359e-08 1.471706e-08 1.351491e-08 1.468139e-08 1.559567e-08 1.275422e-08 1.413902e-08
1.419900e-08 1.269369e-08 1.125935e-08 1.159643e-08 1.179680e-08 1.279404e-08 1.093094e-08 9.502146e-09 1.023565e-08 1.023079e-08
9.805132e-09 9.449557e-09 8.293228e-09 8.599543e-09 8.827517e-09 9.187700e-09 6.493033e-09 6.486943e-09 6.898441e-09 6.822057e-09
4.317424e-09 6.300304e-09 6.000406e-09 2.712852e-09 5.169209e-09 4.963222e-09 3.084611e-09 2.790727e-09 2.432671e-09 3.664214e-09
1.712441e-09 1.193220e-09 2.201175e-09 -1.164340e-09 2.057657e-09 1.051458e-09 2.085235e-09 1.648312e-09 8.486283e-10 -8.104721e-10
-9.478999e-10 -9.485547e-10 -1.374856e-09 7.680764e-11 -1.777315e-09 -1.417658e-09 -1.070144e-09 -1.554139e-09 -1.482905e-09 -9.582325e-10
-3.501966e-09 -2.869536e-09 -2.599860e-09 -2.958001e-09 -4.906274e-09 -5.321908e-09 -4.624461e-09 -4.764653e-09 -5.667004e-09 -6.026811e-09
-6.048899e-09 -5.794933e-09 -7.291765e-09 -7.711821e-09 -8.124863e-09 -7.599470e-09 -9.525535e-09 -7.824907e-09 -8.411948e-09 -8.878215e-09
-9.058110e-09 -9.676485e-09 -9.472132e-09 -1.084097e-08 -1.017100e-08 -1.080312e-08 -1.121926e-08 -1.211953e-08 -1.245995e-08 -1.436604e-08
-1.315874e-08 -1.363101e-08 -1.301268e-08 -1.383155e-08 -1.401067e-08 -1.334254e-08 -1.420444e-08 -1.481465e-08 -1.468238e-08 -1.497970e-08
-1.574176e-08 -1.462020e-08 -1.558455e-08 -1.605105e-08 -1.598792e-08 -1.587568e-08 -1.562322e-08 -1.645059e-08 -1.653482e-08 -1.746725e-08
-1.717294e-08 -1.794697e-08 -1.773963e-08 -1.865720e-08 -1.792716e-08 -1.807086e-08 -1.588143e-08 -1.891978e-08 -1.934354e-08 -1.934112e-08
-1.827798e-08 -1.811332e-08 -1.877107e-08 -1.920638e-08 -1.953230e-08 -1.843221e-08 -1.919759e-08 -1.859630e-08 -1.946143e-08 -1.759827e-08
-1.797801e-08 -1.924694e-08 -1.652677e-08 -1.822713e-08 -1.720252e-08 -1.778464e-08 -1.811969e-08 -1.714876e-08 -1.690900e-08 -1.792071e-08
-1.749545e-08 -1.781015e-08 -1.784088e-08 -1.757487e-08 -1.842565e-08 -1.868186e-08 -1.877956e-08 -1.700241e-08 -1.794915e-08 -1.810522e-08
-1.820464e-08 -1.810872e-08 -1.816531e-08 -1.925705e-08 -1.926280e-08 -1.834909e-08 -1.859482e-08 -1.912197e-08 -1.945812e-08 -2.014933e-08
-1.910811e-08 -1.841698e-08 -1.772967e-08 -1.771993e-08 -1.798130e-08 -1.872032e-08 -1.817142e-08 -1.708456e-08 -1.820503e-08 -1.826782e-08
-1.806374e-08 -1.738545e-08 -1.746398e-08 -1.763267e-08 -1.619406e-08 -1.625820e-08 -1.612763e-08 -1.502673e-08 -1.589831e-08 -1.513977e-08
-1.491800e-08 -1.530056e-08 -1.460759e-08 -1.514952e-08 -1.411371e-08 -1.321895e-08 -1.388797e-08 -1.269483e-08 -1.247963e-08 -1.254640e-08
-1.237450e-08 -1.250217e-08 -1.164114e-08 -1.139104e-08 -1.046242e-08 -1.071008e-08 -1.039740e-08 -1.044051e-08 -9.488601e-09 -9.643323e-09
-1.052152e-08 -9.566954e-09 -8.728045e-09 -8.935777e-09 -7.397569e-09 -7.616038e-09 -6.080727e-09 -6.722193e-09 -7.301189e-09 -7.166262e-09
-6.644942e-09 -5.817795e-09 -6.153969e-09 -4.206953e-09 -4.026472e-09 -5.364401e-09 -3.565307e-09 -4.930643e-09 -3.862150e-09 -1.650214e-09
-2.596900e-09 -3.220473e-09 -3.290404e-09 -3.212571e-09 -1.333431e-09 -1.522501e-09 -2.558564e-09 -6.961865e-10 -8.778262e-10 -5.140757e-10
1.521474e-09
-1.293000e-09 4.471712e-10 -6.931655e-11 1.045413e-09 3.209698e-09 1.078078e-09 6.106204e-10 1.177509e-09 2.595598e-09 2.726860e-09
1.682541e-09 2.738655e-09 4.699883e-09 5.287548e-09 4.236238e-09 3.908581e-09 6.604338e-09 4.898955e-09 5.713793e-09 6.724349e-09
7.230218e-09 6.108566e-09 7.056203e-09 7.426053e-09 5.592581e-09 7.368351e-09 7.824577e-09 8.545372e-09 9.113411e-09 1.009675e-08
9.872443e-09 9.902844e-09 1.097188e-08 1.175175e-08 1.094681e-08 1.069121e-08 1.184055e-08 1.199647e-08 1.151078e-08 1.357255e-08
1.274740e-08 1.405614e-08 1.419790e-08 1.401247e-08 1.365234e-08 1.558958e-08 1.423285e-08 1.525479e-08 1.528221e-08 1.555548e-08
1.560469e-08 1.737352e-08 1.633706e-08 1.725839e-08 1.692803e-08 1.677478e-08 1.597657e-08 1.687658e-08 1.641670e-08 1.768522e-08
1.706068e-08 1.752887e-08 1.740048e-08 1.800867e-08 1.751967e-08 1.855010e-08 1.865212e-08 1.799610e-08 1.895674e-08 1.884170e-08
1.848397e-08 1.769329e-08 1.816390e-08 1.901199e-08 1.902372e-08 1.894127e-08 1.921740e-08 1.810972e-08 1.898273e-08 1.848188e-08
1.950860e-08 1.826503e-08 1.749324e-08 1.776304e-08 1.874441e-08 1.817189e-08 1.877176e-08 1.851820e-08 1.875701e-08 1.688231e-08
1.832818e-08 1.882890e-08 1.808841e-08 1.834608e-08 1.708100e-08 1.849368e-08 1.822036e-08 1.831197e-08 1.811405e-08 1.761447e-08
1.810864e-08 1.886304e-08 1.926297e-08 1.823637e-08 1.898044e-08 1.910176e-08 2.014977e-08 1.842460e-08 1.914534e-08 1.839177e-08
1.816640e-08 1.890904e-08 1.871274e-08 1.963186e-08 1.902206e-08 1.840232e-08 1.872576e-08 1.898207e-08 1.886131e-08 1.775762e-08
1.729842e-08 1.746968e-08 1.730516e-08 1.730773e-08 1.741033e-08 1.720918e-08 1.668137e-08 1.612401e-08 1.623237e-08 1.581044e-08
1.590749e-08 1.577191e-08 1.530042e-08 1.511340e-08 1.441320e-08 1.544825e-08 1.345048e-08 1.558121e-08 1.218579e-08 1.264848e-08
1.292918e-08 1.184186e-08 1.142873e-08 1.242146e-08 1.075896e-08 1.121070e-08 1.177375e-08 9.970109e-09 9.637609e-09 9.552203e-09
9.532751e-09 9.492179e-09 1.022607e-08 8.276142e-09 7.361535e-09 7.108051e-09 8.459090e-09 6.663725e-09 6.045396e-09 6.572941e-09
5.069207e-09 5.643304e-09 4.007036e-09 5.436142e-09 5.419280e-09 2.335585e-09 3.478252e-09 4.601194e-09 3.309455e-09 3.146782e-09
7.704479e-10 2.544325e-09 1.423953e-09 1.095970e-09 2.502023e-09 1.259382e-09 1.424010e-09 1.779890e-09 2.465026e-10 -1.742662e-09
1.379040e-09 -4.812548e-10 -7.478980e-12 8.667462e-10 -7.292447e-11 -1.737439e-09 -1.690626e-09 -1.723046e-09 -2.945174e-09 -3.518182e-09
-3.299590e-09 -4.261085e-09 -3.662273e-09 -3.825284e-09 -5.086809e-09 -4.968329e-09 -5.319940e-09 -3.825241e-09 -4.989493e-09 -4.549498e-09
-6.239909e-09 -7.073410e-09 -6.399818e-09 -7.042737e-09 -7.425955e-09 -5.941754e-09 -8.383124e-09 -8.422128e-09 -9.742515e-09 -1.038546e-08
-9.382040e-09 -1.023115e-08 -1.035252e-08 -1.136893e-08 -1.140064e-08 -1.158859e-08 -1.067868e-08 -1.184722e-08 -1.274902e-08 -1.179140e-08
-1.284053e-08 -1.265863e-08 -1.452018e-08 -1.344990e-08 -1.429440e-08 -1.410527e-08 -1.359095e-08 -1.402373e-08 -1.557839e-08 -1.438313e-08
-1.669775e-08 -1.554170e-08 -1.548003e-08 -1.619892e-08 -1.622301e-08 -1.711944e-08 -1.627587e-08 -1.672600e-08 -1.640447e-08 -1.680974e-08
-1.663557e-08 -1.762919e-08 -1.752353e-08 -1.840992e-08 -1.768393e-08 -1.800870e-08 -1.691555e-08 -1.809060e-08 -1.778158e-08 -1.919144e-08
-1.811232e-08 -1.902549e-08 -1.738187e-08 -1.781957e-08 -1.741035e-08 -1.738349e-08 -1.856369e-08 -1.814447e-08 -1.879133e-08 -1.854949e-08
-1.849594e-08 -1.778386e-08 -1.912279e-08 -1.823503e-08 -1.810850e-08 -1.718320e-08 -1.776236e-08 -1.711798e-08 -1.815051e-08 -1.725025e-08
-1.728975e-08 -1.823405e-08 -1.736413e-08 -1.777527e-08 -1.851750e-08 -1.819723e-08 -1.737493e-08 -1.769989e-08 -1.720056e-08 -1.930897e-08
-1.756321e-08 -1.818254e-08 -1.797692e-08 -1.762194e-08 -1.977899e-08 -2.026405e-08 -1.883678e-08 -1.852868e-08 -1.807869e-08 -1.909747e-08
-1.854317e-08 -1.922594e-08 -1.842939e-08 -1.792456e-08 -1.801433e-08 -1.848236e-08 -1.788213e-08 -1.702808e-08 -1.782186e-08 -1.802250e-08
-1.709153e-08 -1.792022e-08 -1.743678e-08 -1.579633e-08 -1.612871e-08 -1.625615e-08 -1.608042e-08 -1.511046e-08 -1.531041e-08 -1.554443e-08
-1.552282e-08 -1.517517e-08 -1.449311e-08 -1.447023e-08 -1.454975e-08 -1.449161e-08 -1.484053e-08 -1.291614e-08 -1.310895e-08 -1.232517e-08
-1.212686e-08 -1.334329e-08 -1.271236e-08 -1.131346e-08 -1.110982e-08 -1.061224e-08 -1.185239e-08 -1.062900e-08 -9.713570e-09 -1.000780e-08
-8.928839e-09 -1.070861e-08 -1.015622e-08 -9.273502e-09 -8.447854e-09 -7.175252e-09 -7.684055e-09 -7.816248e-09 -6.009772e-09 -7.146448e-09
-6.331913e-09 -5.938393e-09 -5.655659e-09 -3.816231e-09 -6.229577e-09 -4.800606e-09 -2.179465e-09 -3.707090e-09 -3.484623e-09 -3.268118e-09
-1.069889e-09 -2.591178e-09 -1.845034e-09 -1.669001e-09 -1.369521e-09 -1.893022e-09 -9.650098e-10 -9.312362e-11 -1.418559e-09 2.353716e-10
-1.293000e-09
-9.207947e-10 -6.812408e-10 8.148397e-11 2.012432e-09 2.788282e-09 2.253715e-09 1.380769e-09 1.416412e-09 3.333571e-09 1.491145e-09
3.365044e-09 2.335772e-09 3.731428e-09 3.906921e-09 3.416716e-09 4.164915e-09 4.907354e-09 4.438441e-09 5.722324e-09 5.045067e-09
5.679405e-09 6.393283e-09 7.947203e-09 6.647593e-09 8.118152e-09 8.105156e-09 8.469610e-09 9.134943e-09 8.803370e-09 1.087881e-08
1.021442e-08 9.919085e-09 1.122494e-08 1.048841e-08 1.140780e-08 1.252880e-08 1.145419e-08 1.230424e-08 1.210074e-08 1.196986e-08
1.226224e-08 1.403480e-08 1.376971e-08 1.357235e-08 1.369548e-08 1.528829e-08 1.398412e-08 1.671349e-08 1.618930e-08 1.554490e-08
1.545906e-08 1.538777e-08 1.612819e-08 1.763342e-08 1.741651e-08 1.654923e-08 1.768517e-08 1.718000e-08 1.781928e-08 1.834435e-08
1.857735e-08 1.822091e-08 1.807311e-08 1.821151e-08 1.850954e-08 1.931186e-08 1.860098e-08 1.918637e-08 1.934472e-08 1.977243e-08
1.863721e-08 1.962450e-08 1.892466e-08 1.935262e-08 1.864526e-08 1.707583e-08 1.797337e-08 1.989609e-08 1.835478e-08 1.960284e-08
1.740830e-08 1.755318e-08 1.969494e-08 1.808598e-08 1.733864e-08 1.768519e-08 1.717147e-08 1.760542e-08 1.759837e-08 1.832380e-08
1.901480e-08 1.747844e-08 1.784670e-08 1.828461e-08 1.718696e-08 1.857920e-08 1.891104e-08 1.755563e-08 1.839174e-08 2.002239e-08
1.832396e-08 1.955955e-08 1.976588e-08 1.872131e-08 2.027581e-08 1.886712e-08 1.904428e-08 1.924683e-08 1.888720e-08 1.809354e-08
1.838155e-08 1.900107e-08 1.901989e-08 1.752391e-08 1.935295e-08 1.720898e-08 1.886262e-08 2.017180e-08 1.836903e-08 1.915442e-08
1.758976e-08 1.807943e-08 1.636555e-08 1.863830e-08 1.865054e-08 1.604704e-08 1.621309e-08 1.716983e-08 1.617468e-08 1.657769e-08
1.619151e-08 1.525875e-08 1.541366e-08 1.427502e-08 1.542457e-08 1.412041e-08 1.481382e-08 1.417039e-08 1.306576e-08 1.412941e-08
1.272983e-08 1.386717e-08 1.164590e-08 1.232310e-08 1.235015e-08 1.113566e-08 1.132146e-08 1.083998e-08 9.886679e-09 1.245295e-08
1.068088e-08 9.604406e-09 8.996656e-09 8.568983e-09 8.575971e-09 8.586519e-09 7.656480e-09 6.964873e-09 6.151327e-09 6.221841e-09
6.841676e-09 5.247770e-09 5.767858e-09 3.762653e-09 4.775103e-09 2.957394e-09 2.980934e-09 3.799590e-09 2.197023e-09 2.055282e-09
2.588082e-09 2.417726e-09 2.564200e-09 1.889912e-09 7.418238e-10 2.154117e-09 1.790326e-10 2.187558e-09 -8.218597e-10 1.438351e-09
-1.140845e-09 1.002754e-10 9.272929e-10 -2.928847e-10 -1.460643e-09 -2.537257e-09 -1.670158e-09 -1.944424e-09 -4.567225e-09 -2.903471e-09
-4.115291e-09 -4.411305e-09 -3.911687e-09 -4.647239e-09 -5.442546e-09 -4.271003e-09 -3.933138e-09 -5.693560e-09 -6.307862e-09 -7.671820e-09
-7.005618e-09 -7.772976e-09 -7.179510e-09 -6.740152e-09 -7.643039e-09 -8.470654e-09 -7.471487e-09 -1.037295e-08 -8.236078e-09 -8.996079e-09
-9.241602e-09 -1.016735e-08 -1.054454e-08 -1.083515e-08 -1.040192e-08 -1.182653e-08 -1.111232e-08 -1.132496e-08 -1.140064e-08 -1.242891e-08
-1.320770e-08 -1.292011e-08 -1.349191e-08 -1.343045e-08 -1.337281e-08 -1.483867e-08 -1.368037e-08 -1.370680e-08 -1.588738e-08 -1.585686e-08
-1.410329e-08 -1.518960e-08 -1.705862e-08 -1.575769e-08 -1.746793e-08 -1.587094e-08 -1.593750e-08 -1.703693e-08 -1.767208e-08 -1.761387e-08
-1.783591e-08 -1.735632e-08 -1.858916e-08 -1.858228e-08 -1.720469e-08 -1.880664e-08 -1.885297e-08 -1.875537e-08 -1.845587e-08 -1.860026e-08
-1.859804e-08 -1.915087e-08 -1.856619e-08 -1.846706e-08 -1.894949e-08 -1.891176e-08 -1.817461e-08 -1.835269e-08 -1.737925e-08 -1.801006e-08
-1.802199e-08 -1.893321e-08 -1.765847e-08 -1.717545e-08 -1.886142e-08 -1.771185e-08 -1.679646e-08 -1.850626e-08 -1.805670e-08 -1.876069e-08
-1.676078e-08 -1.811749e-08 -1.767653e-08 -1.651432e-08 -1.753085e-08 -1.691556e-08 -1.748989e-08 -1.899043e-08 -1.940586e-08 -1.824087e-08
-1.941265e-08 -1.701776e-08 -1.920942e-08 -1.773039e-08 -1.819752e-08 -1.815968e-08 -1.840620e-08 -1.791262e-08 -1.905400e-08 -1.823198e-08
-1.776655e-08 -1.906003e-08 -1.929239e-08 -1.782855e-08 -1.771786e-08 -1.808403e-08 -1.779097e-08 -1.848794e-08 -1.827094e-08 -1.793567e-08
-1.768043e-08 -1.761445e-08 -1.672445e-08 -1.774795e-08 -1.760714e-08 -1.664556e-08 -1.590426e-08 -1.588691e-08 -1.542455e-08 -1.475988e-08
-1.536682e-08 -1.466754e-08 -1.410345e-08 -1.371134e-08 -1.442249e-08 -1.444630e-08 -1.401588e-08 -1.460002e-08 -1.275487e-08 -1.240663e-08
-1.232357e-08 -1.198742e-08 -1.174931e-08 -1.089905e-08 -1.199919e-08 -1.149903e-08 -1.047782e-08 -1.018015e-08 -9.040559e-09 -8.593521e-09
-9.027647e-09 -8.655502e-09 -7.995118e-09 -8.893508e-09 -9.344060e-09 -7.012597e-09 -9.036867e-09 -7.569398e-09 -6.088117e-09 -6.214786e-09
-4.437851e-09 -5.180947e-09 -5.036135e-09 -5.080979e-09 -4.630957e-09 -3.037339e-09 -3.807068e-09 -1.836137e-09 -3.203283e-09 -3.978017e-09
-3.495298e-09 -2.903711e-09 -1.765826e-09 -1.794959e-09 -2.825463e-09 -1.979110e-09 -7.098034e-10 -1.271399e-09 -2.136434e-09 3.427338e-10
-9.207947e-10
-1.467494e-09 1.451624e-10 1.258165e-09 1.415081e-09 1.315237e-09 1.871202e-09 2.184107e-09 2.644072e-09 1.985556e-09 2.053139e-09
4.099395e-09 4.570200e-09 3.670034e-09 4.015862e-09 4.504928e-09 4.272589e-09 5.486415e-09 5.652673e-09 6.039391e-09 5.107807e-09
5.884012e-09 7.723639e-09 6.932956e-09 9.144785e-09 7.652617e-09 7.133211e-09 7.707006e-09 8.841661e-09 8.728481e-09 9.064521e-09
9.034417e-09 1.063531e-08 9.575444e-09 1.144896e-08 1.110887e-08 1.161316e-08 1.143457e-08 1.095321e-08 1.221464e-08 1.220782e-08
1.294774e-08 1.274810e-08 1.320870e-08 1.351964e-08 1.472216e-08 1.424544e-08 1.462653e-08 1.453370e-08 1.614957e-08 1.655910e-08
1.539049e-08 1.529333e-08 1.628762e-08 1.793905e-08 1.744616e-08 1.684935e-08 1.731079e-08 1.855231e-08 1.765059e-08 1.843041e-08
1.706439e-08 1.836933e-08 1.813309e-08 1.741778e-08 2.012330e-08 1.714996e-08 1.887048e-08 1.796557e-08 1.828863e-08 1.772060e-08
1.927602e-08 1.809179e-08 1.917536e-08 1.768675e-08 1.832085e-08 1.744513e-08 1.894744e-08 1.801897e-08 1.888207e-08 1.854376e-08
1.673459e-08 1.950484e-08 1.722912e-08 1.780155e-08 1.773598e-08 1.881192e-08 1.920891e-08 1.822444e-08 1.755585e-08 1.812747e-08
1.750649e-08 1.873853e-08 1.685617e-08 1.770351e-08 1.917587e-08 1.752774e-08 1.844766e-08 1.832574e-08 1.745222e-08 1.859619e-08
1.970110e-08 1.867883e-08 1.854457e-08 1.837507e-08 1.862928e-08 1.832328e-08 1.859669e-08 1.883014e-08 1.916505e-08 1.986764e-08
1.937185e-08 1.890646e-08 1.793172e-08 1.823736e-08 1.915148e-08 1.741620e-08 1.853317e-08 1.767092e-08 1.772431e-08 1.867992e-08
1.811837e-08 1.662700e-08 1.780343e-08 1.722048e-08 1.709057e-08 1.725643e-08 1.656454e-08 1.665387e-08 1.670645e-08 1.583137e-08
1.670012e-08 1.623887e-08 1.559580e-08 1.490459e-08 1.642239e-08 1.549501e-08 1.587246e-08 1.459075e-08 1.513895e-08 1.215050e-08
1.249435e-08 1.263134e-08 1.320290e-08 1.256638e-08 1.151912e-08 1.305899e-08 1.051153e-08 1.179548e-08 8.895504e-09 9.228185e-09
9.249328e-09 8.201620e-09 1.025000e-08 7.409012e-09 8.099492e-09 9.217847e-09 8.741098e-09 7.126610e-09 7.539110e-09 6.018384e-09
6.952095e-09 4.994522e-09 4.700901e-09 4.282057e-09 4.711759e-09 3.287609e-09 3.648678e-09 2.193590e-09 2.011302e-09 3.044970e-09
3.712936e-09 3.219479e-09 3.089554e-09 1.826745e-09 -1.126495e-09 1.262770e-09 1.751072e-09 -6.151567e-10 2.717357e-10 9.999706e-10
-1.032917e-09 7.101053e-10 -1.253690e-09 -3.195881e-09 -1.253870e-09 -2.508088e-09 -5.236457e-10 -1.776060e-09 -1.618352e-09 -4.146585e-09
-2.819412e-09 -3.465214e-09 -1.483438e-09 -3.616619e-09 -2.491047e-09 -4.508461e-09 -6.120920e-09 -4.585893e-09 -5.908222e-09 -4.385382e-09
-5.735191e-09 -7.481705e-09 -6.818789e-09 -8.318842e-09 -7.671245e-09 -8.359469e-09 -9.207329e-09 -9.095737e-09 -8.353276e-09 -9.791330e-09
-1.085546e-08 -9.030835e-09 -1.081751e-08 -9.939455e-09 -1.122402e-08 -1.064243e-08 -1.104806e-08 -1.133167e-08 -1.219385e-08 -1.235700e-08
-1.235623e-08 -1.251860e-08 -1.402174e-08 -1.274743e-08 -1.406150e-08 -1.423058e-08 -1.441082e-08 -1.496379e-08 -1.526429e-08 -1.424400e-08
-1.585281e-08 -1.643103e-08 -1.565788e-08 -1.608108e-08 -1.654250e-08 -1.635220e-08 -1.775286e-08 -1.645918e-08 -1.667413e-08 -1.806355e-08
-1.795118e-08 -1.837756e-08 -1.771741e-08 -1.777499e-08 -1.760734e-08 -1.821891e-08 -1.792969e-08 -1.824545e-08 -1.882967e-08 -1.958445e-08
-1.811223e-08 -1.793352e-08 -1.846607e-08 -1.845837e-08 -1.719896e-08 -1.794420e-08 -1.935249e-08 -1.798273e-08 -1.814857e-08 -1.889526e-08
-1.954788e-08 -1.861467e-08 -1.736803e-08 -1.893777e-08 -1.878066e-08 -1.787821e-08 -1.917917e-08 -1.707106e-08 -1.786860e-08 -1.827348e-08
-1.768858e-08 -1.818510e-08 -1.760301e-08 -1.878357e-08 -1.768231e-08 -1.686072e-08 -1.852850e-08 -1.803338e-08 -1.809480e-08 -1.910407e-08
-1.916023e-08 -1.902111e-08 -1.839274e-08 -1.813085e-08 -1.917171e-08 -1.813960e-08 -1.873350e-08 -1.994741e-08 -1.980752e-08 -1.914882e-08
-1.907980e-08 -1.893335e-08 -1.847158e-08 -1.993181e-08 -1.873669e-08 -1.788888e-08 -1.804838e-08 -1.812885e-08 -1.692929e-08 -1.775494e-08
-1.869046e-08 -1.684142e-08 -1.790666e-08 -1.653010e-08 -1.607629e-08 -1.677840e-08 -1.584723e-08 -1.783045e-08 -1.502455e-08 -1.589591e-08
-1.504367e-08 -1.556102e-08 -1.604931e-08 -1.445267e-08 -1.545317e-08 -1.466140e-08 -1.401452e-08 -1.319426e-08 -1.346355e-08 -1.271409e-08
-1.275711e-08 -1.204396e-08 -1.183445e-08 -1.168656e-08 -1.104752e-08 -1.081575e-08 -1.216011e-08 -9.912541e-09 -9.919933e-09 -1.018013e-08
-1.026417e-08 -9.459861e-09 -9.818240e-09 -1.005911e-08 -8.635282e-09 -7.842842e-09 -8.035711e-09 -7.865443e-09 -6.764647e-09 -6.034370e-09
-6.616073e-09 -3.966193e-09 -4.666537e-09 -4.545924e-09 -5.833958e-09 -3.943413e-09 -3.225997e-09 -4.780077e-09 -2.110206e-09 -2.828577e-09
-2.896986e-09 -1.041393e-09 -2.209410e-09 -3.022482e-09 -2.454691e-09 -2.102362e-09 -2.290322e-10 -1.799805e-10 -1.207656e-09 -4.512021e-10
-1.467494e-09
-3.719380e-10 1.940966e-10 1.540158e-09 1.850712e-11 1.461362e-09 1.350658e-09 8.632217e-10 1.238364e-09 2.169012e-09 2.357903e-09
5.253376e-09 2.487639e-09 5.464698e-09 4.506372e-09 3.297993e-09 3.790347e-09 5.418475e-09 5.452707e-09 5.374937e-09 6.135478e-09
6.783740e-09 7.638800e-09 5.946372e-09 8.030634e-09 8.009357e-09 7.558334e-09 7.414681e-09 8.205159e-09 9.896476e-09 8.981883e-09
9.852298e-09 1.045717e-08 1.092827e-08 1.082725e-08 1.210591e-08 1.148787e-08 1.126600e-08 1.215387e-08 1.283065e-08 1.266737e-08
1.336702e-08 1.292923e-08 1.436130e-08 1.383906e-08 1.436772e-08 1.488220e-08 1.459448e-08 1.616544e-08 1.745943e-08 1.690770e-08
1.526387e-08 1.519176e-08 1.683190e-08 1.702619e-08 1.656971e-08 1.654746e-08 1.774208e-08 1.755999e-08 1.785591e-08 1.745108e-08
1.839902e-08 1.752517e-08 1.742445e-08 1.847466e-08 1.858402e-08 1.932594e-08 1.879190e-08 1.829742e-08 1.886371e-08 1.973780e-08
1.965952e-08 1.907919e-08 1.913547e-08 1.781991e-08 1.879790e-08 2.051593e-08 1.921734e-08 1.790045e-08 1.836545e-08 1.811572e-08
1.843194e-08 1.933590e-08 1.707023e-08 1.849642e-08 1.850623e-08 1.764436e-08 1.766227e-08 1.838385e-08 1.869200e-08 1.857985e-08
1.688612e-08 1.869025e-08 1.717039e-08 1.764106e-08 1.771249e-08 1.859043e-08 1.814261e-08 1.790809e-08 1.847537e-08 1.803353e-08
1.892326e-08 2.007794e-08 1.897115e-08 1.831602e-08 1.963781e-08 1.988503e-08 1.789318e-08 1.842827e-08 1.851410e-08 1.962290e-08
1.859719e-08 1.924929e-08 1.845873e-08 1.992237e-08 1.898771e-08 1.863083e-08 1.820330e-08 1.750898e-08 1.808729e-08 1.791858e-08
1.695752e-08 1.924131e-08 1.742030e-08 1.818149e-08 1.767763e-08 1.824067e-08 1.711536e-08 1.735739e-08 1.630162e-08 1.611446e-08
1.614110e-08 1.597618e-08 1.599513e-08 1.624299e-08 1.488193e-08 1.374281e-08 1.429391e-08 1.375782e-08 1.322905e-08 1.447320e-08
1.231495e-08 1.232562e-08 1.255210e-08 1.217593e-08 1.130478e-08 1.040046e-08 1.159309e-08 1.062805e-08 1.037472e-08 1.034580e-08
1.016699e-08 9.384302e-09 1.010244e-08 9.440043e-09 9.912079e-09 8.342625e-09 6.850348e-09 6.028859e-09 7.225258e-09 5.108927e-09
4.747165e-09 5.881925e-09 3.933800e-09 3.936879e-09 4.565043e-09 5.180775e-09 4.196699e-09 2.809609e-09 2.579372e-09 3.496118e-09
3.592774e-09 2.434026e-09 1.626944e-09 2.140391e-09 4.446299e-10 5.151492e-10 1.532054e-09 9.192111e-10 -1.200509e-10 -3.419917e-09
-2.699034e-10 -9.643664e-11 -5.108679e-11 -1.318444e-09 -1.636037e-09 -1.474863e-09 -1.769175e-09 -5.603299e-10 -3.039429e-09 -3.129438e-09
-2.000249e-09 -3.733879e-09 -2.673825e-09 -3.679999e-09 -3.623686e-09 -5.358892e-09 -4.209588e-09 -3.818587e-09 -6.014558e-09 -6.208049e-09
-6.303286e-09 -5.452180e-09 -7.021268e-09 -7.653077e-09 -7.785616e-09 -5.744912e-09 -7.447702e-09 -9.717580e-09 -9.805382e-09 -9.872867e-09
-9.976143e-09 -1.088416e-08 -1.076030e-08 -1.046274e-08 -1.026425e-08 -1.189514e-08 -1.091324e-08 -1.155302e-08 -1.156036e-08 -1.240174e-08
-1.281232e-08 -1.257113e-08 -1.337486e-08 -1.356914e-08 -1.370491e-08 -1.536262e-08 -1.469396e-08 -1.626840e-08 -1.460983e-08 -1.602215e-08
-1.690532e-08 -1.544732e-08 -1.671484e-08 -1.665659e-08 -1.715560e-08 -1.724909e-08 -1.595746e-08 -1.673717e-08 -1.723578e-08 -1.706387e-08
-1.719907e-08 -1.791475e-08 -1.795682e-08 -1.865071e-08 -1.906894e-08 -1.804596e-08 -1.797150e-08 -1.846216e-08 -1.893513e-08 -1.967217e-08
-1.950774e-08 -1.845062e-08 -1.900263e-08 -1.941732e-08 -1.915507e-08 -1.932169e-08 -1.910424e-08 -1.842353e-08 -1.839549e-08 -1.978534e-08
-1.852353e-08 -1.860959e-08 -1.828893e-08 -1.800603e-08 -1.704926e-08 -1.715973e-08 -1.777202e-08 -1.847787e-08 -1.789824e-08 -1.775400e-08
-1.805823e-08 -1.778485e-08 -1.814109e-08 -1.740346e-08 -1.723139e-08 -1.716850e-08 -1.686038e-08 -1.874874e-08 -1.766268e-08 -1.937790e-08
-1.853058e-08 -1.864039e-08 -1.816049e-08 -1.799102e-08 -1.876877e-08 -1.926155e-08 -1.936169e-08 -1.940738e-08 -1.955719e-08 -1.957855e-08
-1.919587e-08 -1.849172e-08 -1.879683e-08 -1.832030e-08 -1.853803e-08 -1.902393e-08 -1.740773e-08 -1.809362e-08 -1.872534e-08 -1.830765e-08
-1.751716e-08 -1.645490e-08 -1.715839e-08 -1.647208e-08 -1.595218e-08 -1.655367e-08 -1.775881e-08 -1.621722e-08 -1.610223e-08 -1.621731e-08
-1.572272e-08 -1.437681e-08 -1.620148e-08 -1.532052e-08 -1.397643e-08 -1.361169e-08 -1.375126e-08 -1.392970e-08 -1.424904e-08 -1.290199e-08
-1.202991e-08 -1.310532e-08 -1.203526e-08 -1.208025e-08 -1.180063e-08 -1.076273e-08 -1.047289e-08 -1.150750e-08 -1.001570e-08 -1.016744e-08
-9.995297e-09 -1.043960e-08 -8.675471e-09 -8.654031e-09 -8.113520e-09 -7.671790e-09 -7.868464e-09 -5.204701e-09 -7.142944e-09 -7.920888e-09
-6.855648e-09 -5.706938e-09 -7.251840e-09 -4.784825e-09 -4.514046e-09 -3.425633e-09 -4.217295e-09 -3.222656e-09 -4.365556e-09 -5.478387e-09
-3.899463e-09 -2.875527e-09 -9.337510e-10 -2.105131e-09 -1.006837e-09 -1.627617e-09 -1.414265e-09 -9.441373e-10 -7.180989e-10 -2.701978e-10
-3.719380e-10
-6.710257e-11 6.815271e-10 3.968050e-10 1.344613e-11 2.408216e-09 2.639942e-09 8.356187e-11 1.681619e-09 2.853747e-09 2.695289e-09
2.439379e-09 3.443940e-09 4.615349e-09 6.124135e-09 4.037530e-09 6.104455e-09 5.339121e-09 4.702265e-09 5.350129e-09 6.962294e-09
5.873365e-09 6.481420e-09 6.575248e-09 8.002649e-09 7.683808e-09 7.865950e-09 7.747517e-09 9.166851e-09 7.948859e-09 9.806788e-09
1.011242e-08 9.298905e-09 1.031525e-08 1.119402e-08 1.201158e-08 1.080514e-08 1.137920e-08 1.282376e-08 1.225536e-08 1.277117e-08
1.314260e-08 1.377612e-08 1.344018e-08 1.470088e-08 1.522584e-08 1.455560e-08 1.426072e-08 1.548781e-08 1.535904e-08 1.592461e-08
1.612397e-08 1.660910e-08 1.565416e-08 1.677862e-08 1.748352e-08 1.818326e-08 1.748301e-08 1.820114e-08 1.733832e-08 1.726881e-08
1.869205e-08 1.844988e-08 1.735617e-08 1.921846e-08 1.808093e-08 1.792390e-08 1.822339e-08 1.838582e-08 1.811278e-08 1.965372e-08
1.902245e-08 1.942524e-08 1.882746e-08 1.928965e-08 1.982673e-08 1.869957e-08 1.801187e-08 1.913780e-08 1.927558e-08 1.864813e-08
1.845960e-08 1.909972e-08 1.847685e-08 1.754472e-08 1.774998e-08 1.726513e-08 1.944567e-08 1.904492e-08 1.828762e-08 1.658199e-08
1.842356e-08 1.781567e-08 1.806756e-08 1.910927e-08 1.958768e-08 1.809179e-08 1.847770e-08 1.841661e-08 1.814853e-08 1.902659e-08
1.986868e-08 1.868963e-08 1.795741e-08 1.989063e-08 1.848223e-08 1.873311e-08 1.923654e-08 1.882430e-08 1.845381e-08 1.918839e-08
1.817719e-08 1.849983e-08 1.817387e-08 1.917995e-08 1.911658e-08 1.941855e-08 1.901171e-08 1.881637e-08 1.788648e-08 1.871535e-08
1.701175e-08 1.736179e-08 1.871181e-08 1.813705e-08 1.692779e-08 1.670563e-08 1.641009e-08 1.682766e-08 1.789885e-08 1.582049e-08
1.587127e-08 1.630916e-08 1.585467e-08 1.485372e-08 1.674752e-08 1.359391e-08 1.333630e-08 1.348020e-08 1.514288e-08 1.262740e-08
1.284790e-08 1.188615e-08 1.241751e-08 1.112689e-08 1.387886e-08 1.103062e-08 1.118335e-08 1.139477e-08 9.955362e-09 9.745080e-09
9.543409e-09 9.894555e-09 8.899700e-09 8.528192e-09 8.059403e-09 6.978905e-09 8.192149e-09 7.381532e-09 5.991420e-09 5.548273e-09
4.989250e-09 7.885645e-09 5.016786e-09 3.970948e-09 4.957001e-09 4.453452e-09 5.116058e-09 2.205274e-09 3.533027e-09 3.538220e-09
1.942043e-09 3.479641e-09 3.279901e-09 2.127940e-09 2.404562e-09 1.879791e-09 -5.852794e-10 7.526289e-10 1.312533e-09 -1.833825e-10
1.954849e-10 -2.407626e-09 -8.279577e-10 -1.115550e-09 -1.181716e-10 -1.614645e-09 -1.756898e-09 -1.744282e-09 -2.421685e-09 -1.989687e-09
-3.184565e-09 -4.486176e-09 -4.885122e-09 -2.385671e-09 -4.468185e-09 -5.026888e-09 -4.151302e-09 -7.696912e-09 -6.353050e-09 -7.747640e-09
-5.709401e-09 -5.613173e-09 -6.679691e-09 -6.885408e-09 -7.237913e-09 -8.487543e-09 -8.613999e-09 -7.934300e-09 -8.478954e-09 -1.083083e-08
-9.976044e-09 -1.003680e-08 -9.407312e-09 -1.128190e-08 -1.078478e-08 -1.096559e-08 -1.187001e-08 -1.186397e-08 -1.235387e-08 -1.276640e-08
-1.263682e-08 -1.380126e-08 -1.394023e-08 -1.279469e-08 -1.406192e-08 -1.432403e-08 -1.400517e-08 -1.517171e-08 -1.636075e-08 -1.634782e-08
-1.560976e-08 -1.767290e-08 -1.551948e-08 -1.631709e-08 -1.611303e-08 -1.673648e-08 -1.758847e-08 -1.677508e-08 -1.634900e-08 -1.713128e-08
-1.849488e-08 -1.826348e-08 -1.864053e-08 -1.900001e-08 -1.808274e-08 -1.874136e-08 -1.881905e-08 -1.771251e-08 -1.969718e-08 -1.915834e-08
-1.789149e-08 -1.917277e-08 -1.843152e-08 -1.839264e-08 -1.976645e-08 -1.847463e-08 -1.827176e-08 -1.872392e-08 -1.785838e-08 -1.784559e-08
-1.788824e-08 -1.896597e-08 -1.909157e-08 -1.936076e-08 -1.860048e-08 -1.921167e-08 -1.868327e-08 -1.793609e-08 -1.871049e-08 -1.859294e-08
-1.812715e-08 -1.720594e-08 -1.896269e-08 -1.749940e-08 -1.774057e-08 -2.020896e-08 -1.797061e-08 -1.823261e-08 -1.806121e-08 -1.971089e-08
-1.949423e-08 -1.822040e-08 -1.919907e-08 -1.886097e-08 -1.858419e-08 -1.904668e-08 -1.943041e-08 -1.856745e-08 -1.809738e-08 -1.946963e-08
-1.842168e-08 -1.921175e-08 -1.887837e-08 -1.817423e-08 -1.946728e-08 -1.897735e-08 -1.872946e-08 -1.899211e-08 -1.759800e-08 -1.829704e-08
-1.767322e-08 -1.778937e-08 -1.698395e-08 -1.765909e-08 -1.673933e-08 -1.662517e-08 -1.618075e-08 -1.667764e-08 -1.599610e-08 -1.526337e-08
-1.501089e-08 -1.486851e-08 -1.553474e-08 -1.452088e-08 -1.487341e-08 -1.412304e-08 -1.430238e-08 -1.369456e-08 -1.364787e-08 -1.371376e-08
-1.241585e-08 -1.274474e-08 -1.222656e-08 -1.104700e-08 -1.074029e-08 -1.107837e-08 -1.087674e-08 -1.041295e-08 -9.123323e-09 -8.483721e-09
-8.857937e-09 -8.302364e-09 -8.980838e-09 -7.520057e-09 -9.114168e-09 -6.583406e-09 -7.348386e-09 -8.707228e-09 -6.533407e-09 -6.519196e-09
-5.026715e-09 -4.970952e-09 -6.961132e-09 -5.387529e-09 -4.227726e-09 -4.294022e-09 -3.658813e-09 -3.961131e-09 -4.667738e-09 -3.856778e-09
-1.337276e-09 -9.809593e-10 -9.620161e-10 -7.736258e-10 -2.455514e-09 -1.189213e-09 -1.417308e-09 -9.809668e-11 -4.265334e-10 -3.915147e-10
-6.710257e-11
1.103007e-10 1.009458e-09 9.396685e-10 1.692199e-09 9.456608e-10 2.491209e-09 1.209978e-09 1.132571e-09 3.907811e-09 1.162302e-09
3.113062e-09 4.426897e-09 2.407840e-09 4.503205e-09 5.408180e-09 5.804344e-09 3.252799e-09 6.497805e-09 7.327991e-09 5.072291e-09
6.742992e-09 5.741691e-09 8.004039e-09 7.939681e-09 8.222504e-09 7.453807e-09 8.004331e-09 8.133622e-09 9.212935e-09 8.890450e-09
9.532133e-09 9.908560e-09 9.630533e-09 1.119292e-08 1.148528e-08 1.122142e-08 1.224406e-08 1.311933e-08 1.305323e-08 1.222055e-08
1.310519e-08 1.430983e-08 1.392979e-08 1.395434e-08 1.423349e-08 1.505697e-08 1.454488e-08 1.488213e-08 1.547058e-08 1.555756e-08
1.556880e-08 1.582199e-08 1.655521e-08 1.680321e-08 1.549584e-08 1.706535e-08 1.794329e-08 1.750710e-08 1.912162e-08 1.879537e-08
1.808873e-08 1.753260e-08 1.741653e-08 1.778502e-08 1.856073e-08 1.832353e-08 1.872306e-08 1.953899e-08 1.921846e-08 1.987764e-08
1.811954e-08 1.969453e-08 1.864094e-08 1.826018e-08 1.990247e-08 1.924516e-08 1.850544e-08 1.915436e-08 1.899181e-08 1.907311e-08
1.813457e-08 1.803449e-08 1.804948e-08 1.846964e-08 1.954423e-08 1.717211e-08 1.715601e-08 1.709110e-08 1.818616e-08 1.729176e-08
1.960669e-08 1.691017e-08 1.815209e-08 1.688735e-08 1.680046e-08 1.779617e-08 1.801410e-08 1.784328e-08 1.943002e-08 1.827588e-08
1.981261e-08 1.745833e-08 1.781055e-08 1.858778e-08 1.928931e-08 1.920966e-08 1.760545e-08 1.984481e-08 1.770367e-08 1.890263e-08
1.848460e-08 1.911828e-08 1.792116e-08 1.857484e-08 1.927911e-08 1.753952e-08 1.809051e-08 1.857131e-08 1.843176e-08 1.774770e-08
1.779821e-08 1.850409e-08 1.714180e-08 1.703644e-08 1.645136e-08 1.707924e-08 1.702496e-08 1.650451e-08 1.736312e-08 1.689740e-08
1.530541e-08 1.596115e-08 1.574185e-08 1.540214e-08 1.493880e-08 1.561291e-08 1.401349e-08 1.388363e-08 1.485209e-08 1.447707e-08
1.271053e-08 1.222948e-08 1.286442e-08 1.302864e-08 1.205939e-08 1.154481e-08 1.104213e-08 1.038184e-08 9.662027e-09 9.681595e-09
1.009658e-08 8.811522e-09 9.157744e-09 8.074958e-09 7.378093e-09 7.983679e-09 7.340221e-09 7.728725e-09 7.325121e-09 6.642285e-09
5.382893e-09 4.665017e-09 5.639929e-09 5.906178e-09 3.992376e-09 6.446282e-09 3.905431e-09 1.799232e-09 3.892617e-09 3.012227e-09
3.092975e-09 2.401701e-09 2.731050e-09 1.684026e-09 7.351552e-10 2.147532e-09 8.393867e-10 3.144854e-10 2.586220e-09 5.552434e-10
-4.841446e-10 -9.882732e-10 8.603898e-10 -2.708877e-09 -2.024587e-09 -2.844936e-09 -1.950453e-09 -2.679690e-09 -2.585985e-09 -3.030663e-09
-2.879093e-09 -2.263111e-09 -2.168399e-09 -2.572869e-09 -4.393403e-09 -6.755458e-09 -6.131083e-09 -4.652238e-09 -6.239976e-09 -5.325365e-09
-5.432499e-09 -6.005125e-09 -7.514756e-09 -6.514128e-09 -7.639394e-09 -7.832269e-09 -7.120634e-09 -9.085654e-09 -9.439892e-09 -9.808745e-09
-9.342439e-09 -9.357092e-09 -9.803845e-09 -1.219260e-08 -1.119672e-08 -1.157418e-08 -1.156668e-08 -1.125191e-08 -1.080894e-08 -1.230074e-08
-1.405637e-08 -1.297505e-08 -1.341301e-08 -1.375968e-08 -1.445941e-08 -1.540322e-08 -1.481447e-08 -1.555600e-08 -1.459115e-08 -1.569842e-08
-1.477216e-08 -1.577493e-08 -1.718527e-08 -1.656089e-08 -1.683385e-08 -1.575269e-08 -1.643098e-08 -1.686210e-08 -1.687366e-08 -1.764441e-08
-1.695924e-08 -1.810815e-08 -1.741645e-08 -1.880199e-08 -1.885647e-08 -1.946190e-08 -1.847104e-08 -1.911608e-08 -1.916387e-08 -1.940708e-08
-1.815650e-08 -2.043282e-08 -1.938623e-08 -1.839703e-08 -1.941544e-08 -1.795293e-08 -1.817042e-08 -1.894974e-08 -1.912772e-08 -1.866317e-08
-1.956874e-08 -1.947894e-08 -1.820472e-08 -1.877160e-08 -1.862333e-08 -1.811714e-08 -1.835401e-08 -1.740940e-08 -1.693992e-08 -1.812585e-08
-1.796114e-08 -1.786577e-08 -1.734877e-08 -1.938396e-08 -1.861615e-08 -1.843627e-08 -1.779627e-08 -1.900400e-08 -1.938058e-08 -1.808779e-08
-1.981373e-08 -1.791448e-08 -1.867460e-08 -1.931921e-08 -1.908063e-08 -2.009413e-08 -1.843480e-08 -1.846683e-08 -1.923261e-08 -1.901210e-08
-1.990153e-08 -1.901272e-08 -1.814324e-08 -1.921627e-08 -1.811777e-08 -1.780360e-08 -1.830096e-08 -1.845481e-08 -1.848776e-08 -1.805964e-08
-1.688076e-08 -1.758873e-08 -1.692307e-08 -1.624006e-08 -1.719637e-08 -1.659298e-08 -1.572238e-08 -1.545832e-08 -1.669223e-08 -1.614898e-08
-1.490591e-08 -1.508332e-08 -1.552417e-08 -1.439669e-08 -1.428477e-08 -1.357560e-08 -1.384559e-08 -1.435597e-08 -1.372212e-08 -1.312061e-08
-1.281626e-08 -1.252345e-08 -1.286454e-08 -1.368636e-08 -1.224392e-08 -1.118883e-08 -1.062005e-08 -1.113841e-08 -1.104922e-08 -1.002570e-08
-9.884501e-09 -9.078668e-09 -8.045947e-09 -8.098662e-09 -7.524663e-09 -8.134681e-09 -8.222782e-09 -7.813370e-09 -7.760720e-09 -5.994311e-09
-5.270188e-09 -6.325454e-09 -4.929174e-09 -5.674571e-09 -3.767597e-09 -4.213675e-09 -4.636334e-09 -3.836280e-09 -4.967122e-09 -8.670359e-10
-4.124000e-09 -2.623451e-09 -2.117132e-09 -1.480614e-09 -2.321043e-09 -7.974788e-10 -1.650814e-10 8.248583e-10 -1.711159e-09 -8.191967e-10
1.103007e-10
-2.874296e-10 -4.400785e-11 -4.066340e-10 -1.045343e-11 2.374788e-10 -7.894714e-10 2.118043e-09 2.604541e-09 1.659539e-09 3.825339e-09
3.332927e-09 4.804452e-09 4.039276e-09 4.142176e-09 5.045812e-09 5.542810e-09 4.998147e-09 4.325316e-09 5.978077e-09 6.576967e-09
6.737116e-09 6.258703e-09 6.850028e-09 7.459387e-09 6.879755e-09 8.048882e-09 8.844956e-09 9.648748e-09 8.351344e-09 9.637135e-09
1.053314e-08 9.714497e-09 1.088546e-08 1.062330e-08 1.057164e-08 1.135261e-08 1.186295e-08 1.212639e-08 1.272125e-08 1.230424e-08
1.260962e-08 1.448342e-08 1.377911e-08 1.468918e-08 1.449274e-08 1.497854e-08 1.508409e-08 1.485319e-08 1.487090e-08 1.694182e-08
1.706475e-08 1.720894e-08 1.723070e-08 1.626822e-08 1.602925e-08 1.733261e-08 1.817335e-08 1.801646e-08 1.909277e-08 1.707259e-08
1.880282e-08 1.983764e-08 1.894243e-08 1.837319e-08 1.920380e-08 1.829988e-08 1.914400e-08 1.955507e-08 1.839828e-08 1.852572e-08
1.952619e-08 1.960513e-08 1.937669e-08 1.856273e-08 1.835701e-08 1.924529e-08 1.866018e-08 1.771551e-08 1.763405e-08 1.828439e-08
1.806987e-08 1.752428e-08 1.914182e-08 1.829505e-08 1.873530e-08 1.911837e-08 1.807948e-08 1.819834e-08 1.885328e-08 1.691507e-08
1.688303e-08 1.742417e-08 1.836057e-08 1.759074e-08 1.854549e-08 1.763497e-08 2.012363e-08 1.968970e-08 1.811949e-08 1.963517e-08
2.022321e-08 1.925013e-08 1.842890e-08 1.953173e-08 1.856023e-08 1.914010e-08 1.840255e-08 1.991736e-08 2.015039e-08 1.799373e-08
1.929512e-08 2.024019e-08 1.937356e-08 1.985430e-08 1.984530e-08 1.921646e-08 1.904952e-08 1.875946e-08 1.706864e-08 1.839635e-08
1.781074e-08 1.689875e-08 1.770291e-08 1.729371e-08 1.650524e-08 1.757194e-08 1.632114e-08 1.744934e-08 1.608264e-08 1.596760e-08
1.563697e-08 1.600898e-08 1.493401e-08 1.590733e-08 1.499717e-08 1.435545e-08 1.632659e-08 1.341441e-08 1.420509e-08 1.379972e-08
1.326297e-08 1.237197e-08 1.266679e-08 1.322462e-08 1.227964e-08 1.167107e-08 1.078857e-08 1.094169e-08 1.078987e-08 1.098836e-08
9.607198e-09 8.317310e-09 1.022185e-08 8.392147e-09 8.677545e-09 7.504130e-09 8.881937e-09 6.803504e-09 5.260131e-09 7.764225e-09
6.481280e-09 5.599084e-09 5.057746e-09 5.729461e-09 6.424152e-09 4.698538e-09 1.355832e-09 5.337121e-09 3.218860e-09 3.472131e-09
9.062777e-10 3.281482e-09 1.871970e-09 1.531550e-09 1.037390e-09 3.206245e-09 -7.968768e-10 -8.302254e-10 3.193729e-10 1.024920e-09
3.886839e-10 1.797061e-10 -2.983754e-11 5.735228e-10 -2.098429e-09 -2.323153e-09 -7.388497e-10 -2.865579e-09 -3.192306e-09 -1.907636e-09
-2.286686e-09 -3.448097e-09 -4.067019e-09 -4.386269e-09 -4.703845e-09 -4.090719e-09 -4.694655e-09 -6.501203e-09 -4.614921e-09 -4.765055e-09
-7.418103e-09 -7.357702e-09 -7.464231e-09 -7.389467e-09 -7.991964e-09 -7.503024e-09 -7.101986e-09 -8.563917e-09 -9.410565e-09 -1.063786e-08
-9.781242e-09 -1.069190e-08 -1.118646e-08 -9.501110e-09 -1.320905e-08 -1.120135e-08 -1.120239e-08 -1.182561e-08 -1.206168e-08 -1.385555e-08
-1.251723e-08 -1.425808e-08 -1.264640e-08 -1.325174e-08 -1.486140e-08 -1.437319e-08 -1.544440e-08 -1.596431e-08 -1.502217e-08 -1.507095e-08
-1.493821e-08 -1.673551e-08 -1.653708e-08 -1.647303e-08 -1.668342e-08 -1.722057e-08 -1.622210e-08 -1.645267e-08 -1.697053e-08 -1.787535e-08
-1.791158e-08 -1.796617e-08 -1.850091e-08 -1.899697e-08 -1.812171e-08 -1.797219e-08 -1.774705e-08 -1.853228e-08 -1.954982e-08 -1.842032e-08
-1.802952e-08 -1.853057e-08 -1.864374e-08 -1.844082e-08 -1.916600e-08 -1.720854e-08 -1.923519e-08 -1.774107e-08 -1.897688e-08 -1.847233e-08
-1.843489e-08 -1.934128e-08 -1.867299e-08 -1.919362e-08 -1.830481e-08 -1.733392e-08 -1.693463e-08 -2.002084e-08 -1.718139e-08 -1.828912e-08
-1.795771e-08 -1.775255e-08 -1.804599e-08 -1.667382e-08 -1.784890e-08 -1.995267e-08 -1.746681e-08 -1.922377e-08 -1.948687e-08 -1.788596e-08
-1.984002e-08 -1.867307e-08 -1.850443e-08 -1.789339e-08 -1.889015e-08 -1.971239e-08 -1.722796e-08 -1.913210e-08 -1.784685e-08 -1.793108e-08
-1.833139e-08 -1.865212e-08 -1.977121e-08 -1.797330e-08 -1.963618e-08 -1.893610e-08 -1.732964e-08 -1.806056e-08 -1.729757e-08 -1.864051e-08
-1.715039e-08 -1.780626e-08 -1.694232e-08 -1.721822e-08 -1.644613e-08 -1.613004e-08 -1.673465e-08 -1.692853e-08 -1.619334e-08 -1.586155e-08
-1.635386e-08 -1.454945e-08 -1.634410e-08 -1.488188e-08 -1.481612e-08 -1.392047e-08 -1.335683e-08 -1.322827e-08 -1.245725e-08 -1.369412e-08
-1.372379e-08 -1.342235e-08 -1.145032e-08 -1.262829e-08 -1.168054e-08 -1.197608e-08 -1.028060e-08 -1.079285e-08 -1.129377e-08 -1.016110e-08
-1.055480e-08 -8.113513e-09 -9.651501e-09 -8.500400e-09 -7.771701e-09 -9.229765e-09 -6.137121e-09 -6.627728e-09 -7.694639e-09 -6.125350e-09
-7.156884e-09 -6.150002e-09 -5.608824e-09 -5.437645e-09 -4.690667e-09 -5.949496e-09 -4.424265e-09 -3.423594e-09 -4.820467e-09 -4.430076e-09
-4.407935e-09 -3.950851e-09 -7.267946e-10 -3.408037e-09 -1.513138e-09 -1.374762e-09 -9.905357e-10 4.160493e-10 -1.941046e-09 -1.922364e-09
-2.874296e-10
-5.865021e-10 1.025927e-09 5.531026e-10 4.831881e-10 1.353849e-09 2.695465e-09 3.209984e-09 2.251910e-09 3.799793e-09 2.291415e-09
3.773945e-09 4.434376e-09 4.203747e-09 3.115928e-09 4.625667e-09 4.794712e-09 4.702668e-09 6.449068e-09 5.561968e-09 6.089508e-09
4.549060e-09 7.241708e-09 7.281142e-09 8.012010e-09 9.101540e-09 7.898425e-09 8.521592e-09 9.077668e-09 8.743854e-09 9.984230e-09
9.320282e-09 1.041767e-08 1.129024e-08 1.000832e-08 1.159899e-08 1.282381e-08 1.231024e-08 1.204814e-08 1.334179e-08 1.226312e-08
1.360540e-08 1.419651e-08 1.318587e-08 1.424528e-08 1.388995e-08 1.448573e-08 1.560061e-08 1.572023e-08 1.590205e-08 1.520526e-08
1.621329e-08 1.588037e-08 1.624593e-08 1.630763e-08 1.749221e-08 1.640944e-08 1.712891e-08 1.796938e-08 1.769964e-08 1.803902e-08
1.780198e-08 1.799311e-08 1.884032e-08 1.836406e-08 1.748305e-08 1.842892e-08 1.843890e-08 1.805402e-08 1.849533e-08 1.904669e-08
1.845635e-08 1.853802e-08 1.802851e-08 1.821209e-08 1.935459e-08 1.805930e-08 1.852874e-08 1.951289e-08 1.925472e-08 1.946629e-08
1.903462e-08 1.844507e-08 1.688743e-08 1.806212e-08 1.855987e-08 1.663505e-08 1.839269e-08 1.647291e-08 1.785694e-08 1.711922e-08
1.881611e-08 1.692164e-08 1.751283e-08 1.793698e-08 1.893036e-08 1.764418e-08 1.855701e-08 1.773216e-08 1.780090e-08 1.792296e-08
1.945983e-08 1.931618e-08 1.875246e-08 1.858909e-08 1.881207e-08 2.011993e-08 1.918115e-08 1.989213e-08 2.056799e-08 1.834408e-08
1.942733e-08 1.834854e-08 1.923759e-08 1.914993e-08 1.906960e-08 1.871597e-08 1.791507e-08 1.870425e-08 1.866415e-08 1.833611e-08
1.788751e-08 1.707526e-08 1.845788e-08 1.811019e-08 1.587679e-08 1.711829e-08 1.672001e-08 1.689460e-08 1.663448e-08 1.619772e-08
1.511688e-08 1.642766e-08 1.641625e-08 1.511009e-08 1.463190e-08 1.601902e-08 1.388509e-08 1.396317e-08 1.330354e-08 1.400875e-08
1.330737e-08 1.196208e-08 1.308857e-08 1.194226e-08 1.103431e-08 1.073270e-08 1.084681e-08 1.127045e-08 1.057224e-08 1.067356e-08
9.733314e-09 8.164140e-09 9.999416e-09 9.064666e-09 8.474018e-09 8.195231e-09 8.242162e-09 7.028257e-09 8.642997e-09 6.826643e-09
5.768360e-09 5.352539e-09 5.147343e-09 5.237732e-09 5.469927e-09 5.403367e-09 2.910434e-09 2.873386e-09 5.992065e-09 3.628806e-09
4.043349e-09 3.683155e-09 2.870857e-09 2.051024e-09 -5.852013e-10 2.356844e-09 1.799714e-09 1.181673e-09 2.711160e-10 2.779132e-10
-6.859800e-10 1.161814e-09 7.410680e-10 -6.845462e-10 -4.550727e-10 -1.952801e-09 -1.803894e-09 -2.708685e-11 -4.166518e-10 -3.515535e-09
-2.709055e-09 -2.923978e-09 -2.066126e-09 -3.838730e-09 -3.980251e-09 -4.295258e-09 -5.298082e-09 -5.548820e-09 -5.236372e-09 -5.571534e-09
-7.241917e-09 -6.521039e-09 -5.973568e-09 -7.113149e-09 -7.825617e-09 -6.677665e-09 -6.947365e-09 -8.359371e-09 -8.633422e-09 -9.244051e-09
-8.351201e-09 -1.005765e-08 -1.146006e-08 -1.218164e-08 -1.106024e-08 -1.099260e-08 -1.127949e-08 -1.264581e-08 -1.186998e-08 -1.301217e-08
-1.201010e-08 -1.263476e-08 -1.391464e-08 -1.469131e-08 -1.304804e-08 -1.445074e-08 -1.577013e-08 -1.552081e-08 -1.566301e-08 -1.474726e-08
-1.572707e-08 -1.603300e-08 -1.558440e-08 -1.708533e-08 -1.635050e-08 -1.694045e-08 -1.653772e-08 -1.792781e-08 -1.638762e-08 -1.765330e-08
-1.793073e-08 -1.824066e-08 -1.805654e-08 -1.897516e-08 -1.723585e-08 -1.881027e-08 -1.987048e-08 -1.889324e-08 -1.924168e-08 -1.794837e-08
-1.883655e-08 -1.806327e-08 -2.050461e-08 -1.819736e-08 -1.867370e-08 -1.888862e-08 -1.862065e-08 -1.980693e-08 -1.864982e-08 -1.874375e-08
-1.771051e-08 -1.870778e-08 -1.874657e-08 -2.032496e-08 -1.885972e-08 -1.834503e-08 -1.800880e-08 -1.887020e-08 -1.828658e-08 -1.773258e-08
-1.800330e-08 -1.946915e-08 -1.876126e-08 -1.921323e-08 -1.863634e-08 -1.875537e-08 -1.884723e-08 -1.946577e-08 -1.849639e-08 -2.054921e-08
-1.931332e-08 -1.726677e-08 -2.042379e-08 -2.024737e-08 -1.874656e-08 -1.816024e-08 -1.915765e-08 -1.944545e-08 -1.928389e-08 -1.997307e-08
-1.743886e-08 -1.908726e-08 -1.980707e-08 -1.882446e-08 -1.904937e-08 -1.901495e-08 -1.726206e-08 -1.862820e-08 -1.764678e-08 -1.836732e-08
-1.861645e-08 -1.876549e-08 -1.785437e-08 -1.760229e-08 -1.709575e-08 -1.583038e-08 -1.664675e-08 -1.663427e-08 -1.678867e-08 -1.567969e-08
-1.590365e-08 -1.487405e-08 -1.495278e-08 -1.471233e-08 -1.494976e-08 -1.364598e-08 -1.492213e-08 -1.495644e-08 -1.313333e-08 -1.241516e-08
-1.329197e-08 -1.172416e-08 -1.162416e-08 -1.146795e-08 -1.154033e-08 -1.219042e-08 -1.110479e-08 -1.028014e-08 -1.024999e-08 -9.811142e-09
-9.268843e-09 -1.064665e-08 -9.597414e-09 -7.354464e-09 -8.558613e-09 -7.711813e-09 -7.181078e-09 -7.181602e-09 -6.531758e-09 -6.761653e-09
-7.126590e-09 -6.463308e-09 -3.940713e-09 -4.688277e-09 -5.275060e-09 -3.817597e-09 -4.283461e-09 -4.112343e-09 -3.488156e-09 -3.900895e-09
-3.075868e-09 -2.885574e-09 -1.422744e-09 -1.463742e-09 -1.357185e-09 -1.266735e-09 -3.121315e-10 -9.434227e-10 6.534611e-10 -1.515215e-09
-5.865021e-10
1.698523e-09 5.534536e-10 -9.363827e-10 8.407601e-10 8.419756e-10 -2.825564e-10 1.177477e-09 2.492308e-09 2.172802e-09 2.014585e-09
2.327218e-09 5.127049e-09 2.403481e-09 3.595514e-09 3.864412e-09 6.187111e-09 4.999678e-09 4.850963e-09 6.175859e-09 4.164609e-09
6.731914e-09 7.071576e-09 5.856709e-09 7.667287e-09 8.102375e-09 8.872813e-09 8.271264e-09 8.797695e-09 8.013000e-09 8.566452e-09
9.793950e-09 1.006241e-08 1.067596e-08 1.064398e-08 1.149829e-08 1.089121e-08 1.175063e-08 1.270988e-08 1.234289e-08 1.302865e-08
1.423775e-08 1.393554e-08 1.421483e-08 1.379001e-08 1.346807e-08 1.550626e-08 1.428576e-08 1.498158e-08 1.637983e-08 1.562538e-08
1.672928e-08 1.549436e-08 1.566369e-08 1.777564e-08 1.749540e-08 1.750305e-08 1.717754e-08 1.695559e-08 1.780765e-08 1.703753e-08
1.768741e-08 1.861354e-08 1.810564e-08 1.769569e-08 1.933056e-08 1.904208e-08 1.883800e-08 1.915629e-08 1.954187e-08 1.975189e-08
1.807127e-08 2.004459e-08 1.897216e-08 1.889072e-08 1.921781e-08 1.880171e-08 1.944342e-08 1.849171e-08 1.905772e-08 1.838254e-08
1.898920e-08 1.852779e-08 1.808378e-08 1.828196e-08 1.891240e-08 1.724474e-08 1.908279e-08 1.805213e-08 1.626169e-08 1.739392e-08
1.889791e-08 1.750040e-08 1.695997e-08 1.958129e-08 1.779871e-08 1.839034e-08 1.901141e-08 1.901391e-08 1.876863e-08 2.018910e-08
2.003254e-08 1.927840e-08 1.962422e-08 1.903208e-08 2.001282e-08 1.903503e-08 1.947586e-08 1.908011e-08 1.871501e-08 2.009210e-08
2.031988e-08 1.930604e-08 1.788523e-08 2.010479e-08 1.894260e-08 1.917797e-08 1.895402e-08 1.909119e-08 1.903571e-08 1.690431e-08
1.721545e-08 1.713706e-08 1.768528e-08 1.859125e-08 1.756903e-08 1.723995e-08 1.646458e-08 1.705688e-08 1.716029e-08 1.682507e-08
1.683463e-08 1.710994e-08 1.526765e-08 1.540960e-08 1.472250e-08 1.423171e-08 1.449056e-08 1.403417e-08 1.375290e-08 1.393299e-08
1.425589e-08 1.280351e-08 1.243814e-08 1.153753e-08 1.264604e-08 1.176585e-08 1.130876e-08 1.062023e-08 9.851385e-09 8.877335e-09
1.035840e-08 8.493494e-09 8.745782e-09 8.837210e-09 7.588992e-09 8.122608e-09 6.726818e-09 6.693252e-09 6.184594e-09 6.348017e-09
7.871407e-09 4.824108e-09 5.849925e-09 7.129505e-09 5.295276e-09 5.956412e-09 5.539487e-09 2.237854e-09 3.578666e-09 1.987130e-09
3.093380e-09 3.800347e-09 3.654059e-09 1.557282e-09 1.080211e-09 1.423792e-09 9.007590e-10 1.425592e-09 -1.106277e-09 2.627280e-10
1.515048e-09 -1.317191e-09 -1.446980e-09 -1.071372e-09 2.922713e-10 -8.901557e-10 -1.193856e-09 -2.622397e-09 -1.260710e-09 -2.745916e-09
-3.628189e-09 -3.231126e-09 -3.982901e-09 -4.152147e-09 -2.918683e-09 -5.116765e-09 -5.465174e-09 -5.717569e-09 -4.287798e-09 -5.553770e-09
-6.662675e-09 -5.720121e-09 -6.746018e-09 -7.251739e-09 -7.792853e-09 -9.133897e-09 -7.761297e-09 -8.973395e-09 -7.744109e-09 -9.031737e-09
-9.828267e-09 -1.044812e-08 -1.074553e-08 -1.081711e-08 -1.078140e-08 -1.106668e-08 -1.126458e-08 -1.104686e-08 -1.190195e-08 -1.245743e-08
-1.243230e-08 -1.362756e-08 -1.363232e-08 -1.327543e-08 -1.403922e-08 -1.542411e-08 -1.502289e-08 -1.562896e-08 -1.567370e-08 -1.631443e-08
-1.556661e-08 -1.628831e-08 -1.764634e-08 -1.699567e-08 -1.648972e-08 -1.782390e-08 -1.830080e-08 -1.687492e-08 -1.835533e-08 -1.732387e-08
-1.790567e-08 -1.744468e-08 -1.728651e-08 -1.711280e-08 -1.917152e-08 -1.769423e-08 -1.791403e-08 -1.790545e-08 -1.960001e-08 -1.883507e-08
-1.884318e-08 -1.945602e-08 -1.794008e-08 -1.905388e-08 -1.845825e-08 -1.853438e-08 -1.868917e-08 -1.975193e-08 -1.810074e-08 -1.797071e-08
-1.984474e-08 -1.892908e-08 -1.862286e-08 -1.787486e-08 -1.827433e-08 -1.852565e-08 -1.837020e-08 -1.764249e-08 -1.798580e-08 -1.917246e-08
-1.825520e-08 -1.914207e-08 -1.735114e-08 -1.756317e-08 -1.780052e-08 -1.868917e-08 -1.790636e-08 -1.686309e-08 -1.830880e-08 -1.851660e-08
-1.746062e-08 -1.811055e-08 -1.776576e-08 -2.157624e-08 -1.854324e-08 -1.989128e-08 -1.936135e-08 -1.837644e-08 -1.794348e-08 -1.875880e-08
-1.943266e-08 -2.083663e-08 -1.777101e-08 -1.764434e-08 -1.834347e-08 -1.917116e-08 -1.912005e-08 -1.943197e-08 -1.824086e-08 -1.751211e-08
-1.929173e-08 -1.649188e-08 -1.760893e-08 -1.738322e-08 -1.632941e-08 -1.745038e-08 -1.652386e-08 -1.612729e-08 -1.643735e-08 -1.584907e-08
-1.578627e-08 -1.646882e-08 -1.459678e-08 -1.464923e-08 -1.436407e-08 -1.383409e-08 -1.466439e-08 -1.318918e-08 -1.251191e-08 -1.392776e-08
-1.384998e-08 -1.206995e-08 -1.216204e-08 -1.104184e-08 -1.282663e-08 -1.193080e-08 -1.110936e-08 -1.028033e-08 -9.620357e-09 -9.818720e-09
-1.075180e-08 -1.023249e-08 -9.134800e-09 -8.322105e-09 -7.822107e-09 -6.896107e-09 -8.648477e-09 -8.032079e-09 -5.973742e-09 -5.210252e-09
-5.457218e-09 -6.527982e-09 -4.521260e-09 -5.181731e-09 -4.893610e-09 -5.992109e-09 -5.106405e-09 -3.947636e-09 -4.234091e-09 -2.881936e-09
-1.988025e-09 -2.531605e-09 -1.251650e-09 -4.051179e-09 -2.226967e-09 -1.410704e-09 -1.275140e-09 -3.117157e-10 -6.650235e-10 7.465812e-10
1.698523e-09
-8.275798e-10 -4.792409e-10 9.663205e-10 5.375990e-10 3.992722e-11 1.743352e-09 2.007482e-09 4.253492e-09 1.753062e-09 2.537666e-09
2.607890e-09 3.500408e-09 2.516481e-09 4.333032e-09 4.063381e-09 3.996206e-09 4.003611e-09 5.431295e-09 4.444483e-09 5.381145e-09
6.211917e-09 6.090259e-09 8.004723e-09 7.509874e-09 7.817850e-09 7.981538e-09 7.793239e-09 9.433657e-09 9.653945e-09 9.652930e-09
1.163676e-08 9.233214e-09 1.054119e-08 1.063079e-08 1.048810e-08 1.131897e-08 1.431725e-08 1.239239e-08 1.192158e-08 1.313637e-08
1.419744e-08 1.282022e-08 1.455927e-08 1.381902e-08 1.472012e-08 1.520794e-08 1.529905e-08 1.507338e-08 1.551293e-08 1.593442e-08
1.562400e-08 1.719552e-08 1.803352e-08 1.747503e-08 1.691376e-08 1.786368e-08 1.676828e-08 1.794101e-08 1.745781e-08 1.785319e-08
1.764264e-08 1.799924e-08 1.809762e-08 1.829646e-08 1.808160e-08 1.859426e-08 1.783797e-08 1.948461e-08 1.988117e-08 1.951937e-08
1.937278e-08 1.906917e-08 1.978622e-08 1.900187e-08 1.863056e-08 1.923341e-08 1.885914e-08 1.852697e-08 2.018120e-08 1.871032e-08
1.776601e-08 1.821866e-08 1.856999e-08 1.922884e-08 1.834240e-08 1.764070e-08 1.762947e-08 1.729960e-08 1.834957e-08 1.823499e-08
1.645069e-08 1.711152e-08 1.849349e-08 1.840381e-08 1.831422e-08 1.833052e-08 1.980821e-08 1.778947e-08 1.979551e-08 1.824152e-08
1.810930e-08 1.797362e-08 1.809425e-08 1.806990e-08 1.834866e-08 1.885591e-08 1.760369e-08 1.999379e-08 1.895364e-08 1.930176e-08
1.921605e-08 1.867926e-08 1.710029e-08 1.923470e-08 1.972561e-08 1.899348e-08 1.986332e-08 1.746973e-08 1.771732e-08 1.829835e-08
1.828010e-08 1.929552e-08 1.873038e-08 1.733789e-08 1.807033e-08 1.705140e-08 1.694386e-08 1.671596e-08 1.628953e-08 1.664818e-08
1.521829e-08 1.613740e-08 1.574598e-08 1.450838e-08 1.640722e-08 1.381194e-08 1.501586e-08 1.431228e-08 1.355756e-08 1.344983e-08
1.245965e-08 1.248200e-08 1.217032e-08 1.373077e-08 1.252760e-08 1.220035e-08 1.053076e-08 1.080973e-08 1.100480e-08 1.060882e-08
1.072664e-08 8.787435e-09 9.824514e-09 7.722721e-09 8.408958e-09 8.113338e-09 7.218141e-09 6.990541e-09 5.779261e-09 6.280727e-09
6.499242e-09 5.276968e-09 5.337457e-09 5.264910e-09 3.760487e-09 5.083576e-09 4.309422e-09 5.312152e-09 3.532884e-09 3.064843e-09
3.398204e-09 3.805336e-09 3.189960e-09 1.982927e-09 5.489040e-10 8.505179e-10 -9.321138e-10 1.592469e-10 -8.499434e-10 -4.975869e-10
6.009417e-10 3.205885e-10 -1.080904e-09 -1.972583e-09 -1.477481e-09 -2.837823e-09 -2.217950e-09 -1.412172e-09 -1.585497e-09 -7.224797e-10
-2.876076e-09 -2.897703e-09 -4.971458e-09 -4.059655e-09 -6.581219e-09 -3.779876e-09 -4.154269e-09 -5.265958e-09 -5.989553e-09 -5.956491e-09
-4.795724e-09 -5.302693e-09 -5.812797e-09 -7.687698e-09 -7.799007e-09 -6.089673e-09 -7.781268e-09 -1.087283e-08 -8.819235e-09 -9.794835e-09
-9.160549e-09 -1.004595e-08 -9.267530e-09 -9.761852e-09 -1.085681e-08 -1.148065e-08 -1.149220e-08 -1.299295e-08 -1.205403e-08 -1.345257e-08
-1.260889e-08 -1.324569e-08 -1.337949e-08 -1.318072e-08 -1.475607e-08 -1.477552e-08 -1.553815e-08 -1.386633e-08 -1.598925e-08 -1.594731e-08
-1.687134e-08 -1.572069e-08 -1.733989e-08 -1.755958e-08 -1.697232e-08 -1.651175e-08 -1.764072e-08 -1.764019e-08 -1.727572e-08 -1.699654e-08
-1.728271e-08 -1.789580e-08 -1.791164e-08 -1.767596e-08 -1.766949e-08 -1.862439e-08 -1.785739e-08 -1.794217e-08 -1.956024e-08 -1.788643e-08
-1.983742e-08 -1.863494e-08 -1.939156e-08 -1.789386e-08 -1.904053e-08 -1.876771e-08 -1.864136e-08 -1.850249e-08 -1.941701e-08 -1.851545e-08
-1.880855e-08 -1.870123e-08 -1.901484e-08 -1.703329e-08 -1.904544e-08 -1.877373e-08 -1.772700e-08 -1.646917e-08 -1.833727e-08 -1.702380e-08
-1.637280e-08 -1.925300e-08 -1.690169e-08 -1.704224e-08 -1.796839e-08 -1.688454e-08 -1.660790e-08 -1.872466e-08 -1.866961e-08 -1.846239e-08
-1.915392e-08 -1.830810e-08 -1.868513e-08 -1.907925e-08 -1.876744e-08 -1.799582e-08 -1.978201e-08 -1.809713e-08 -1.818948e-08 -1.846824e-08
-1.935797e-08 -1.906654e-08 -1.957643e-08 -1.897716e-08 -1.791215e-08 -1.815518e-08 -1.978182e-08 -1.939062e-08 -1.728359e-08 -1.823368e-08
-1.892354e-08 -1.763978e-08 -1.724779e-08 -1.773977e-08 -1.764894e-08 -1.640376e-08 -1.690450e-08 -1.695715e-08 -1.598439e-08 -1.643196e-08
-1.572253e-08 -1.738659e-08 -1.463956e-08 -1.442502e-08 -1.468284e-08 -1.440325e-08 -1.422957e-08 -1.385206e-08 -1.352434e-08 -1.206217e-08
-1.302339e-08 -1.263240e-08 -1.172850e-08 -1.101772e-08 -1.232421e-08 -1.080010e-08 -1.091155e-08 -9.799442e-09 -9.889377e-09 -1.154907e-08
-1.030895e-08 -1.058436e-08 -8.254264e-09 -8.841774e-09 -8.351608e-09 -8.516121e-09 -9.113574e-09 -7.635360e-09 -6.974945e-09 -5.471264e-09
-7.296468e-09 -5.357796e-09 -4.099934e-09 -5.118424e-09 -2.651870e-09 -4.997668e-09 -3.320076e-09 -3.454965e-09 -4.017828e-09 -1.462584e-09
-1.940450e-09 -2.185587e-09 -3.740670e-09 -1.916494e-09 -1.549685e-10 -5.935646e-10 -5.857297e-10 -6.856191e-10 3.113641e-11 1.758129e-10
-8.275798e-10
-1.582065e-10 1.044268e-09 -8.712794e-11 1.015568e-09 1.567411e-09 1.630491e-10 1.822314e-09 1.405357e-09 1.699165e-09 1.825757e-09
1.533136e-09 4.370308e-09 2.933567e-09 3.778293e-09 3.852517e-09 4.572354e-09 5.225496e-09 4.356876e-09 6.282904e-09 5.117233e-09
7.682682e-09 6.039041e-09 7.160552e-09 7.926810e-09 8.175746e-09 7.779882e-09 9.007301e-09 9.742904e-09 8.855750e-09 9.678352e-09
9.521156e-09 1.069780e-08 1.081164e-08 1.275536e-08 1.182656e-08 1.078753e-08 1.204968e-08 1.202144e-08 1.277113e-08 1.279988e-08
1.372919e-08 1.321598e-08 1.365119e-08 1.378551e-08 1.477714e-08 1.413835e-08 1.553269e-08 1.496560e-08 1.537352e-08 1.571153e-08
1.556925e-08 1.562909e-08 1.559852e-08 1.702121e-08 1.647683e-08 1.667766e-08 1.671178e-08 1.822522e-08 1.768829e-08 1.836840e-08
1.790215e-08 1.802240e-08 1.857970e-08 1.914366e-08 1.902780e-08 1.939744e-08 1.921902e-08 1.916101e-08 1.858984e-08 1.876227e-08
1.877062e-08 1.842549e-08 1.957758e-08 1.868366e-08 1.867737e-08 1.948549e-08 1.956609e-08 1.918638e-08 1.945386e-08 1.876166e-08
1.953459e-08 1.715118e-08 1.818514e-08 1.790146e-08 1.847889e-08 1.910529e-08 1.649024e-08 1.826437e-08 1.690788e-08 1.782021e-08
1.632316e-08 1.902213e-08 1.756757e-08 1.863688e-08 1.816795e-08 1.827304e-08 1.843662e-08 1.815507e-08 1.720710e-08 1.808679e-08
1.814238e-08 1.870944e-08 1.857543e-08 1.965087e-08 1.995127e-08 1.877402e-08 1.862124e-08 1.860333e-08 2.051562e-08 1.920485e-08
1.871084e-08 1.855472e-08 2.018489e-08 1.878118e-08 1.979679e-08 1.878742e-08 1.759344e-08 1.771700e-08 1.895731e-08 1.883939e-08
1.915287e-08 1.808313e-08 1.778068e-08 1.712220e-08 1.819850e-08 1.634645e-08 1.721755e-08 1.672785e-08 1.547706e-08 1.684403e-08
1.751979e-08 1.672878e-08 1.674908e-08 1.533780e-08 1.393298e-08 1.390557e-08 1.456514e-08 1.430056e-08 1.457034e-08 1.404453e-08
1.368152e-08 1.297822e-08 1.417028e-08 1.273498e-08 1.162156e-08 1.176178e-08 1.070429e-08 1.081656e-08 1.021890e-08 1.161978e-08
9.762029e-09 8.668795e-09 9.094645e-09 8.647338e-09 8.732256e-09 9.752725e-09 6.863527e-09 6.273493e-09 6.697371e-09 6.085806e-09
6.752266e-09 5.969504e-09 4.585650e-09 6.394788e-09 3.972950e-09 4.756813e-09 3.949510e-09 3.752860e-09 3.451336e-09 3.348015e-09
2.355701e-09 2.739771e-09 1.256952e-09 2.417726e-09 2.292670e-09 6.589431e-10 2.795073e-11 4.169363e-10 4.684201e-10 6.914331e-10
-1.273891e-09 6.671065e-10 1.506366e-10 -1.207566e-09 1.221391e-09 -2.950817e-11 4.432654e-11 -1.001450e-09 -1.498662e-09 -1.548130e-09
-4.758769e-09 -3.572832e-09 -5.156490e-09 -5.207361e-09 -6.409508e-09 -3.542964e-09 -3.678747e-09 -3.562712e-09 -5.987022e-09 -5.213014e-09
-5.725862e-09 -6.223263e-09 -6.621782e-09 -7.319939e-09 -7.205486e-09 -7.595220e-09 -8.749262e-09 -8.071669e-09 -9.795717e-09 -1.051855e-08
-9.614005e-09 -1.015496e-08 -9.042264e-09 -1.004719e-08 -1.049612e-08 -1.112228e-08 -1.056862e-08 -1.121531e-08 -1.234002e-08 -1.200432e-08
-1.314254e-08 -1.243691e-08 -1.374258e-08 -1.351472e-08 -1.361101e-08 -1.440550e-08 -1.523866e-08 -1.470438e-08 -1.668620e-08 -1.441755e-08
-1.628288e-08 -1.562875e-08 -1.637794e-08 -1.700053e-08 -1.611799e-08 -1.614823e-08 -1.651657e-08 -1.787529e-08 -1.769297e-08 -1.728180e-08
-1.836598e-08 -1.733618e-08 -1.823286e-08 -1.848585e-08 -1.817397e-08 -1.938319e-08 -1.895634e-08 -1.904973e-08 -1.831441e-08 -1.795191e-08
-1.775399e-08 -1.922037e-08 -1.946754e-08 -1.846835e-08 -1.862423e-08 -1.914313e-08 -1.753758e-08 -1.755849e-08 -1.903946e-08 -1.972383e-08
-1.774895e-08 -1.770144e-08 -1.899405e-08 -1.785246e-08 -1.643470e-08 -1.815018e-08 -1.755745e-08 -1.871953e-08 -1.848306e-08 -1.822847e-08
-1.731168e-08 -1.593021e-08 -1.753661e-08 -1.740327e-08 -1.862634e-08 -1.881032e-08 -1.763849e-08 -1.800024e-08 -1.742739e-08 -1.816890e-08
-1.841596e-08 -1.915212e-08 -1.927116e-08 -1.989358e-08 -1.922076e-08 -1.809732e-08 -1.817231e-08 -1.883028e-08 -1.929963e-08 -1.917811e-08
-1.838294e-08 -2.000061e-08 -1.790566e-08 -1.943947e-08 -1.736366e-08 -1.923988e-08 -1.828796e-08 -1.804387e-08 -1.701763e-08 -1.999789e-08
-1.619759e-08 -1.670984e-08 -1.808950e-08 -1.828203e-08 -1.662903e-08 -1.773614e-08 -1.655849e-08 -1.707739e-08 -1.543262e-08 -1.603210e-08
-1.578889e-08 -1.507625e-08 -1.453957e-08 -1.559655e-08 -1.424547e-08 -1.422764e-08 -1.410854e-08 -1.425168e-08 -1.294942e-08 -1.372169e-08
-1.302340e-08 -1.233618e-08 -1.184031e-08 -1.165473e-08 -1.048985e-08 -1.325481e-08 -1.049980e-08 -1.211329e-08 -9.265685e-09 -9.119053e-09
-9.182057e-09 -8.286041e-09 -8.093919e-09 -8.705053e-09 -6.826885e-09 -7.554192e-09 -5.802878e-09 -8.011557e-09 -6.799150e-09 -6.092144e-09
-5.449426e-09 -5.655870e-09 -6.906555e-09 -4.334568e-09 -6.241740e-09 -3.234919e-09 -2.560388e-09 -2.061315e-09 -2.920490e-09 -1.668965e-09
-2.209716e-09 -1.955654e-09 -1.615953e-09 -1.245529e-09 -2.366392e-09 -2.859033e-09 2.098773e-11 -7.965378e-10 3.151627e-10 -1.763964e-09
-1.582065e-10
1.491963e-09 1.876337e-10 9.436415e-11 1.065022e-09 -2.310863e-10 2.993978e-09 2.475181e-09 2.238235e-09 1.842991e-09 3.150900e-09
2.994365e-09 3.161855e-09 3.287458e-09 3.307579e-09 3.658027e-09 5.300546e-09 6.479025e-09 7.134377e-09 4.691305e-09 5.678709e-09
5.573357e-09 6.537859e-09 7.874174e-09 7.484814e-09 9.383180e-09 8.105293e-09 9.444363e-09 8.168889e-09 8.991381e-09 8.945692e-09
9.558694e-09 9.921933e-09 1.049299e-08 1.083631e-08 1.058219e-08 1.207485e-08 1.174774e-08 1.174316e-08 1.214824e-08 1.244935e-08
1.208645e-08 1.384340e-08 1.362756e-08 1.366385e-08 1.499276e-08 1.509269e-08 1.553402e-08 1.563715e-08 1.512868e-08 1.640084e-08
1.594739e-08 1.724098e-08 1.574846e-08 1.773811e-08 1.888327e-08 1.868258e-08 1.739867e-08 1.857505e-08 1.780784e-08 1.737012e-08
1.815693e-08 1.942958e-08 1.773101e-08 1.932941e-08 1.756443e-08 1.767476e-08 1.978881e-08 1.924915e-08 1.769991e-08 1.946816e-08
1.868204e-08 1.948109e-08 1.986324e-08 1.853213e-08 1.893461e-08 1.807411e-08 1.700499e-08 1.896225e-08 1.832111e-08 1.869982e-08
1.950256e-08 1.938223e-08 1.732927e-08 1.891319e-08 1.845989e-08 1.799288e-08 1.658532e-08 1.908578e-08 1.656441e-08 1.748744e-08
1.776052e-08 1.898634e-08 1.808850e-08 1.703714e-08 1.703961e-08 1.799740e-08 1.797306e-08 1.931698e-08 1.782992e-08 1.970627e-08
1.901494e-08 1.915300e-08 1.856246e-08 1.879567e-08 1.869400e-08 1.877443e-08 1.738325e-08 2.009002e-08 1.912804e-08 1.909344e-08
1.914149e-08 1.990770e-08 1.896255e-08 1.795257e-08 1.941948e-08 2.044587e-08 1.783855e-08 1.841774e-08 1.905211e-08 1.873173e-08
1.888828e-08 1.735931e-08 1.839417e-08 1.856947e-08 1.608047e-08 1.770645e-08 1.647100e-08 1.654472e-08 1.650963e-08 1.626056e-08
1.607823e-08 1.524960e-08 1.494011e-08 1.488351e-08 1.534299e-08 1.469890e-08 1.497069e-08 1.345350e-08 1.375991e-08 1.261950e-08
1.341111e-08 1.298526e-08 1.282559e-08 1.286448e-08 1.214069e-08 1.113143e-08 1.132053e-08 1.084426e-08 9.924311e-09 8.612033e-09
1.028131e-08 9.510212e-09 9.430213e-09 9.779805e-09 7.976041e-09 6.438531e-09 7.038905e-09 7.511477e-09 7.012220e-09 6.856373e-09
5.642747e-09 6.050628e-09 5.800592e-09 5.854384e-09 5.239860e-09 3.223891e-09 3.707542e-09 2.706494e-09 3.496186e-09 2.856495e-09
1.799980e-09 3.705695e-09 3.725253e-09 2.554872e-10 2.006942e-09 1.390078e-10 1.699979e-09 -1.232484e-10 2.633095e-09 5.905359e-10
-1.174676e-09 1.094539e-11 -1.094099e-09 -1.474612e-09 -7.405834e-10 -2.052976e-09 -1.386854e-09 -2.674359e-09 -2.775778e-09 -2.298729e-09
-4.045761e-09 -4.958693e-09 -4.121814e-09 -1.924879e-09 -2.442312e-09 -4.494203e-09 -5.453494e-09 -6.246440e-09 -4.755158e-09 -6.802713e-09
-5.499443e-09 -8.047498e-09 -6.108751e-09 -7.709051e-09 -7.222242e-09 -8.216822e-09 -7.218196e-09 -6.984949e-09 -9.229518e-09 -9.838530e-09
-9.297595e-09 -9.077355e-09 -1.088283e-08 -1.171455e-08 -9.989524e-09 -1.117631e-08 -1.257912e-08 -1.167491e-08 -1.390522e-08 -1.304218e-08
-1.238028e-08 -1.336152e-08 -1.437614e-08 -1.378702e-08 -1.412215e-08 -1.391414e-08 -1.462175e-08 -1.560321e-08 -1.510422e-08 -1.453790e-08
-1.575194e-08 -1.560279e-08 -1.621070e-08 -1.588277e-08 -1.690989e-08 -1.676789e-08 -1.809756e-08 -1.715514e-08 -1.682238e-08 -1.774737e-08
-1.741092e-08 -1.780442e-08 -1.888450e-08 -1.833853e-08 -1.914715e-08 -1.716442e-08 -1.816594e-08 -1.732719e-08 -1.823831e-08 -1.817480e-08
-1.966111e-08 -1.901859e-08 -1.794893e-08 -1.972897e-08 -1.745801e-08 -1.890168e-08 -1.953741e-08 -1.924361e-08 -1.917507e-08 -1.706266e-08
-1.881882e-08 -1.808039e-08 -1.812321e-08 -1.816713e-08 -1.873524e-08 -1.892379e-08 -1.801884e-08 -1.752432e-08 -1.705014e-08 -1.699820e-08
-1.789037e-08 -1.702137e-08 -1.781606e-08 -1.757684e-08 -1.936908e-08 -1.902148e-08 -1.763281e-08 -1.761414e-08 -1.808925e-08 -1.865312e-08
-1.882873e-08 -1.774796e-08 -1.972493e-08 -1.786337e-08 -1.847128e-08 -1.911314e-08 -1.866370e-08 -1.807219e-08 -1.811583e-08 -1.929166e-08
-1.790272e-08 -2.004757e-08 -1.822068e-08 -1.914415e-08 -1.750755e-08 -1.780108e-08 -1.819199e-08 -1.761522e-08 -1.887872e-08 -1.858633e-08
-1.812668e-08 -1.794957e-08 -1.722004e-08 -1.769768e-08 -1.757470e-08 -1.672066e-08 -1.607423e-08 -1.601766e-08 -1.616664e-08 -1.585752e-08
-1.566164e-08 -1.581868e-08 -1.452884e-08 -1.612597e-08 -1.432410e-08 -1.339863e-08 -1.358304e-08 -1.304197e-08 -1.370193e-08 -1.306698e-08
-1.330512e-08 -1.300792e-08 -1.229066e-08 -1.200470e-08 -1.286674e-08 -1.061195e-08 -1.064350e-08 -1.089910e-08 -8.722206e-09 -9.551010e-09
-1.078301e-08 -9.392319e-09 -1.050061e-08 -7.057761e-09 -7.339679e-09 -8.715420e-09 -7.492448e-09 -8.316972e-09 -7.829205e-09 -7.052691e-09
-6.170088e-09 -6.388436e-09 -5.292640e-09 -5.611636e-09 -3.717312e-09 -3.362082e-09 -4.228166e-09 -2.874643e-09 -3.023597e-09 -3.423406e-09
-2.112265e-09 -1.409308e-09 -1.122365e-09 3.019462e-10 -1.857993e-09 -7.662191e-10 -2.218880e-09 -1.566471e-09 9.659263e-11 5.437497e-10
1.491963e-09
-4.983347e-10 -9.727490e-10 -7.365172e-11 1.641587e-09 1.179919e-09 5.510951e-10 2.421754e-09 3.465379e-09 8.109740e-10 2.939367e-09
1.818705e-09 4.212582e-09 4.622727e-09 4.251857e-09 6.477411e-09 3.461007e-09 4.752098e-09 6.228923e-09 7.481928e-09 4.963827e-09
7.270097e-09 6.816988e-09 6.887487e-09 6.640205e-09 8.069694e-09 8.705539e-09 7.870340e-09 9.525869e-09 9.747843e-09 8.969655e-09
8.863551e-09 9.230924e-09 9.691369e-09 1.083498e-08 1.163540e-08 1.125017e-08 1.155764e-08 1.138324e-08 1.164759e-08 1.408147e-08
1.392250e-08 1.440630e-08 1.407859e-08 1.356364e-08 1.301325e-08 1.361637e-08 1.453558e-08 1.498184e-08 1.614894e-08 1.606920e-08
1.629295e-08 1.553280e-08 1.674658e-08 1.616463e-08 1.616817e-08 1.686648e-08 1.710603e-08 1.697959e-08 1.772520e-08 1.787551e-08
1.679767e-08 1.757919e-08 1.966584e-08 1.792869e-08 1.912055e-08 1.918915e-08 1.787356e-08 1.856045e-08 1.954165e-08 1.882365e-08
1.766877e-08 1.885552e-08 1.915980e-08 1.785980e-08 1.708653e-08 1.962395e-08 1.880696e-08 1.983427e-08 1.940299e-08 1.828076e-08
1.778109e-08 1.729411e-08 1.971361e-08 1.801890e-08 1.737908e-08 1.940972e-08 1.856435e-08 1.715951e-08 1.643713e-08 1.701158e-08
1.741613e-08 1.679413e-08 1.809899e-08 1.811894e-08 1.702451e-08 1.757442e-08 1.855580e-08 1.930351e-08 1.969492e-08 1.799063e-08
2.106890e-08 1.882565e-08 1.875821e-08 1.964520e-08 1.737496e-08 2.011586e-08 1.977704e-08 1.884146e-08 2.090669e-08 1.895015e-08
1.768284e-08 1.742340e-08 1.818645e-08 1.792709e-08 1.786824e-08 1.927143e-08 1.858759e-08 1.869284e-08 1.723646e-08 1.823434e-08
1.769727e-08 1.857596e-08 1.763618e-08 1.680536e-08 1.622643e-08 1.761069e-08 1.681598e-08 1.544878e-08 1.665506e-08 1.623159e-08
1.629346e-08 1.510052e-08 1.575972e-08 1.480759e-08 1.518119e-08 1.461443e-08 1.468387e-08 1.548231e-08 1.417234e-08 1.311319e-08
1.382570e-08 1.458437e-08 1.132869e-08 1.218938e-08 1.270034e-08 1.051542e-08 1.021814e-08 1.132899e-08 1.005012e-08 1.053298e-08
9.546891e-09 9.052144e-09 9.074694e-09 7.274528e-09 7.564867e-09 7.133366e-09 6.627528e-09 8.028070e-09 5.701013e-09 6.672892e-09
7.564987e-09 4.607607e-09 4.739313e-09 4.480427e-09 6.386123e-09 4.633282e-09 3.618288e-09 4.869152e-09 3.543811e-09 4.092477e-09
5.293412e-10 3.857249e-09 3.671572e-09 2.027996e-09 6.850668e-10 1.406208e-09 1.832474e-09 2.511305e-09 -2.240528e-10 1.294976e-09
-9.666438e-10 -2.760407e-10 1.145451e-09 -6.423954e-10 -1.314684e-09 -2.005281e-09 -7.858690e-10 -2.222904e-09 -3.156173e-09 -3.226368e-09
-2.317909e-09 -4.764480e-09 -4.797777e-09 -3.938584e-09 -2.923399e-09 -4.220243e-09 -5.194192e-09 -3.852484e-09 -4.702500e-09 -7.499062e-09
-6.292067e-09 -6.401284e-09 -7.778663e-09 -6.439638e-09 -7.555349e-09 -6.597439e-09 -8.879401e-09 -8.388206e-09 -8.637127e-09 -1.032038e-08
-9.964009e-09 -1.020670e-08 -1.140552e-08 -1.013197e-08 -1.116772e-08 -1.078153e-08 -1.152702e-08 -1.150989e-08 -1.231464e-08 -1.379284e-08
-1.219493e-08 -1.288186e-08 -1.389588e-08 -1.270376e-08 -1.383566e-08 -1.483865e-08 -1.492133e-08 -1.443184e-08 -1.553539e-08 -1.456148e-08
-1.532278e-08 -1.639970e-08 -1.601481e-08 -1.719923e-08 -1.628966e-08 -1.624919e-08 -1.721543e-08 -1.778093e-08 -1.787012e-08 -1.769585e-08
-1.757716e-08 -1.820047e-08 -1.873122e-08 -1.887074e-08 -1.875398e-08 -1.859806e-08 -1.865956e-08 -1.905072e-08 -1.814573e-08 -1.934731e-08
-1.846033e-08 -1.747233e-08 -1.806789e-08 -1.842974e-08 -1.980797e-08 -1.812836e-08 -1.887910e-08 -1.912158e-08 -1.729286e-08 -1.916974e-08
-1.803677e-08 -1.721823e-08 -1.806610e-08 -1.776276e-08 -1.705053e-08 -1.639705e-08 -1.770412e-08 -1.788541e-08 -1.676122e-08 -1.700914e-08
-1.848711e-08 -1.724039e-08 -1.911607e-08 -1.768220e-08 -1.719912e-08 -1.829084e-08 -1.834887e-08 -1.775711e-08 -1.887270e-08 -1.650380e-08
-1.871871e-08 -1.894771e-08 -1.817172e-08 -1.853681e-08 -1.868484e-08 -1.899445e-08 -1.884232e-08 -1.943057e-08 -1.934241e-08 -1.802069e-08
-2.001715e-08 -1.942620e-08 -1.909157e-08 -1.899363e-08 -1.822772e-08 -1.929805e-08 -1.773939e-08 -1.815577e-08 -1.726555e-08 -1.781494e-08
-1.694125e-08 -1.872295e-08 -1.696023e-08 -1.773150e-08 -1.621746e-08 -1.577578e-08 -1.706468e-08 -1.616865e-08 -1.613350e-08 -1.497449e-08
-1.557299e-08 -1.487992e-08 -1.510350e-08 -1.531892e-08 -1.397306e-08 -1.388597e-08 -1.423260e-08 -1.426968e-08 -1.390758e-08 -1.298006e-08
-1.230825e-08 -1.301969e-08 -1.294342e-08 -1.220397e-08 -1.094752e-08 -1.048737e-08 -1.135743e-08 -1.080523e-08 -1.149605e-08 -1.013087e-08
-9.415694e-09 -8.259721e-09 -9.237549e-09 -7.662426e-09 -7.588384e-09 -7.280534e-09 -9.251749e-09 -7.324924e-09 -7.737296e-09 -6.368296e-09
-6.900779e-09 -5.412337e-09 -6.089595e-09 -5.460763e-09 -5.615184e-09 -5.359329e-09 -2.672728e-09 -3.675186e-09 -4.836151e-09 -2.330829e-09
-1.835768e-09 -1.565204e-09 -2.995820e-09 -1.514086e-09 -1.197910e-09 -1.202802e-09 -3.622146e-09 1.530812e-11 -2.299316e-10 -1.253258e-09
-4.983347e-10
1.959532e-10 -2.458322e-10 9.404123e-10 2.441767e-09 3.629907e-10 1.966559e-09 1.524625e-09 2.950442e-09 3.088615e-09 2.083446e-09
2.432970e-09 2.514328e-09 4.001473e-09 3.305185e-09 3.478447e-09 5.121809e-09 5.780902e-09 4.629011e-09 6.355501e-09 5.992758e-09
5.137170e-09 6.259620e-09 6.801104e-09 7.681087e-09 7.630153e-09 8.583359e-09 8.421321e-09 7.497003e-09 8.707432e-09 1.149828e-08
1.020801e-08 1.011552e-08 1.212598e-08 1.149737e-08 1.098193e-08 1.207313e-08 1.197712e-08 1.216538e-08 1.325369e-08 1.236916e-08
1.242519e-08 1.284273e-08 1.424979e-08 1.503151e-08 1.427109e-08 1.427431e-08 1.412613e-08 1.549412e-08 1.580816e-08 1.706894e-08
1.601087e-08 1.562205e-08 1.613678e-08 1.752207e-08 1.845546e-08 1.804482e-08 1.834817e-08 1.663370e-08 1.788821e-08 1.761920e-08
1.868574e-08 1.736586e-08 1.892019e-08 1.905243e-08 1.848203e-08 1.909611e-08 1.892194e-08 1.830979e-08 1.801179e-08 1.951362e-08
1.931939e-08 1.783529e-08 1.935864e-08 1.806402e-08 1.962069e-08 1.862963e-08 1.947354e-08 1.908221e-08 1.796938e-08 1.992960e-08
1.738510e-08 1.785847e-08 1.913884e-08 1.921501e-08 2.041313e-08 1.756957e-08 1.704876e-08 1.890772e-08 1.859303e-08 1.806747e-08
1.664025e-08 1.673940e-08 1.804572e-08 1.721869e-08 1.708374e-08 1.859043e-08 1.830073e-08 1.837959e-08 1.859222e-08 1.760669e-08
1.792008e-08 1.991945e-08 1.868486e-08 1.850636e-08 1.954316e-08 1.885474e-08 1.923912e-08 2.072279e-08 1.963324e-08 1.941380e-08
1.892901e-08 1.831305e-08 1.952349e-08 1.829442e-08 1.758638e-08 1.819674e-08 1.791959e-08 1.811730e-08 1.744854e-08 1.819018e-08
1.706390e-08 1.761097e-08 1.843171e-08 1.654107e-08 1.859885e-08 1.647999e-08 1.687795e-08 1.655766e-08 1.702371e-08 1.600944e-08
1.584947e-08 1.602674e-08 1.518666e-08 1.523105e-08 1.377098e-08 1.577751e-08 1.409915e-08 1.397885e-08 1.418935e-08 1.339877e-08
1.356349e-08 1.299641e-08 1.217147e-08 1.269957e-08 1.032835e-08 1.147883e-08 1.079455e-08 1.141097e-08 9.825698e-09 9.780138e-09
9.447693e-09 9.204471e-09 9.195435e-09 8.798470e-09 7.255126e-09 8.038809e-09 8.360393e-09 6.499843e-09 6.167405e-09 6.965310e-09
4.694519e-09 5.591433e-09 4.988648e-09 3.114535e-09 6.049126e-09 2.835825e-09 3.116405e-09 4.002620e-09 4.134348e-09 4.178015e-09
1.729718e-09 2.856498e-09 1.854578e-10 6.888474e-10 3.172369e-09 1.259524e-09 -6.097840e-12 1.339171e-09 1.313312e-09 8.243184e-10
-1.968585e-10 -1.119858e-09 4.534262e-10 -2.251973e-09 -2.693317e-09 -1.569580e-09 -9.879028e-10 -3.824046e-09 -4.029844e-09 -2.767866e-09
-3.393756e-09 -3.439945e-09 -3.902128e-09 -3.219411e-09 -4.136826e-09 -3.167351e-09 -5.594030e-09 -4.912323e-09 -6.192387e-09 -6.215410e-09
-6.020700e-09 -7.170506e-09 -7.055412e-09 -6.904084e-09 -7.869979e-09 -8.099809e-09 -7.622629e-09 -8.429268e-09 -8.802164e-09 -8.043602e-09
-9.571258e-09 -9.411535e-09 -1.073519e-08 -9.939956e-09 -1.053607e-08 -1.131357e-08 -1.233741e-08 -1.324099e-08 -1.259300e-08 -1.365545e-08
-1.270479e-08 -1.321832e-08 -1.302496e-08 -1.441459e-08 -1.430016e-08 -1.448889e-08 -1.410385e-08 -1.409363e-08 -1.549494e-08 -1.487126e-08
-1.630914e-08 -1.649999e-08 -1.588328e-08 -1.608629e-08 -1.702927e-08 -1.647473e-08 -1.672822e-08 -1.639806e-08 -1.703606e-08 -1.766474e-08
-1.925674e-08 -1.769579e-08 -1.812085e-08 -1.884690e-08 -1.765626e-08 -1.844939e-08 -1.881175e-08 -1.850588e-08 -1.872814e-08 -1.847439e-08
-1.889953e-08 -1.787409e-08 -1.906337e-08 -1.926240e-08 -1.756216e-08 -1.931637e-08 -1.805337e-08 -1.884951e-08 -1.929822e-08 -1.799604e-08
-1.859531e-08 -1.949942e-08 -1.897041e-08 -1.831658e-08 -1.960865e-08 -1.751488e-08 -1.591790e-08 -1.843382e-08 -1.898937e-08 -1.688627e-08
-1.808040e-08 -1.753153e-08 -1.623589e-08 -1.815101e-08 -1.918666e-08 -1.821958e-08 -1.972137e-08 -1.866675e-08 -1.775052e-08 -1.889165e-08
-2.034303e-08 -1.659341e-08 -1.931443e-08 -1.885570e-08 -1.980341e-08 -1.969838e-08 -1.858034e-08 -1.991832e-08 -1.815526e-08 -1.787060e-08
-1.766708e-08 -1.968845e-08 -1.895592e-08 -1.899352e-08 -1.920079e-08 -1.859982e-08 -1.771368e-08 -1.831014e-08 -1.729494e-08 -1.832310e-08
-1.672191e-08 -1.809906e-08 -1.663017e-08 -1.772124e-08 -1.699933e-08 -1.645562e-08 -1.648059e-08 -1.547128e-08 -1.656142e-08 -1.491297e-08
-1.581292e-08 -1.560742e-08 -1.504818e-08 -1.457610e-08 -1.421080e-08 -1.481708e-08 -1.458018e-08 -1.294789e-08 -1.388282e-08 -1.270156e-08
-1.332639e-08 -1.359435e-08 -1.283771e-08 -1.231897e-08 -1.178603e-08 -1.036273e-08 -1.072134e-08 -1.068127e-08 -9.653053e-09 -9.488716e-09
-9.392294e-09 -9.314038e-09 -8.486538e-09 -9.222838e-09 -7.788152e-09 -9.078647e-09 -7.744347e-09 -7.746194e-09 -6.974489e-09 -5.652270e-09
-5.540480e-09 -5.546926e-09 -5.605521e-09 -5.945408e-09 -3.222900e-09 -5.580308e-09 -5.002869e-09 -3.182147e-09 -2.888390e-09 -4.628552e-09
-1.952445e-09 -1.029523e-09 -2.649081e-09 -1.533535e-09 -9.181111e-11 -1.657357e-09 -2.094862e-09 -8.807104e-10 -4.498591e-12 3.298344e-10
1.959532e-10
-5.838908e-10 1.869208e-10 5.035068e-10 1.288542e-09 8.029262e-10 1.426656e-09 2.895516e-09 9.923246e-10 3.152155e-09 4.175694e-09
3.368283e-09 3.288273e-09 3.061638e-09 4.811265e-09 4.172249e-09 5.522372e-09 4.855126e-09 4.202334e-09 4.748544e-09 5.705366e-09
6.571510e-09 6.810862e-09 6.966585e-09 6.867937e-09 9.001257e-09 7.752011e-09 8.246452e-09 8.297103e-09 1.072460e-08 8.777193e-09
9.777428e-09 1.007904e-08 1.033382e-08 1.235111e-08 1.044924e-08 1.091641e-08 1.246866e-08 1.159185e-08 1.212847e-08 1.302554e-08
1.325049e-08 1.380401e-08 1.384957e-08 1.323451e-08 1.517472e-08 1.608850e-08 1.528190e-08 1.454297e-08 1.486349e-08 1.545443e-08
1.626896e-08 1.580006e-08 1.611409e-08 1.643686e-08 1.638079e-08 1.614737e-08 1.736453e-08 1.810299e-08 1.735515e-08 1.769402e-08
1.855418e-08 1.880631e-08 1.831349e-08 1.816031e-08 1.904512e-08 1.835051e-08 1.858904e-08 1.919667e-08 1.941214e-08 1.881704e-08
1.734239e-08 1.899828e-08 1.895345e-08 2.028090e-08 1.818481e-08 1.806142e-08 1.873281e-08 1.860764e-08 1.858171e-08 1.898462e-08
1.809023e-08 1.691077e-08 1.813220e-08 1.805485e-08 1.673057e-08 1.637910e-08 1.985284e-08 1.732368e-08 1.698680e-08 1.670181e-08
1.667818e-08 1.684928e-08 1.760692e-08 1.654774e-08 1.851127e-08 1.685678e-08 1.772626e-08 1.759782e-08 1.915802e-08 2.000421e-08
1.922866e-08 1.729040e-08 1.965851e-08 1.838365e-08 1.867624e-08 1.986350e-08 1.967855e-08 1.860296e-08 1.938022e-08 1.916542e-08
1.858550e-08 1.964752e-08 1.919049e-08 1.982535e-08 1.905332e-08 1.781263e-08 1.845553e-08 2.015675e-08 1.701041e-08 1.764039e-08
1.781415e-08 1.752678e-08 1.718192e-08 1.702514e-08 1.689712e-08 1.750172e-08 1.671797e-08 1.712630e-08 1.691020e-08 1.722468e-08
1.547362e-08 1.585423e-08 1.549753e-08 1.375616e-08 1.412913e-08 1.431372e-08 1.410703e-08 1.493649e-08 1.354735e-08 1.273616e-08
1.320441e-08 1.352111e-08 1.252537e-08 1.383027e-08 1.148852e-08 1.162069e-08 1.102365e-08 1.122111e-08 1.077125e-08 9.031059e-09
9.554989e-09 8.686905e-09 1.036247e-08 9.252193e-09 7.259119e-09 8.117587e-09 8.416897e-09 5.757656e-09 5.333685e-09 6.475774e-09
4.717950e-09 5.272185e-09 6.235308e-09 5.459999e-09 4.154729e-09 2.288716e-09 3.476466e-09 1.639965e-09 1.382021e-09 2.277978e-09
2.104471e-09 2.670996e-09 2.652391e-09 1.341135e-09 8.302615e-10 9.270948e-10 1.852445e-09 7.167495e-10 5.963279e-10 1.399689e-10
2.055057e-10 3.660484e-10 1.753189e-10 -8.751399e-10 -8.632279e-10 -2.678763e-09 -8.700744e-10 -6.808177e-10 -2.899577e-09 -1.467060e-09
-2.771909e-09 -1.349161e-09 -3.538633e-09 -2.142763e-09 -4.503628e-09 -3.939775e-09 -4.032005e-09 -3.984820e-09 -5.275928e-09 -5.994247e-09
-6.784798e-09 -6.214225e-09 -7.166090e-09 -7.277558e-09 -6.823489e-09 -6.793960e-09 -9.479261e-09 -8.177484e-09 -7.362807e-09 -8.806270e-09
-7.897463e-09 -9.639463e-09 -8.983887e-09 -1.021682e-08 -1.091893e-08 -1.052786e-08 -1.122377e-08 -1.211303e-08 -1.288236e-08 -1.299734e-08
-1.300933e-08 -1.279662e-08 -1.399538e-08 -1.396495e-08 -1.414757e-08 -1.455693e-08 -1.377194e-08 -1.503462e-08 -1.532766e-08 -1.528099e-08
-1.657899e-08 -1.607869e-08 -1.637019e-08 -1.662752e-08 -1.687408e-08 -1.757655e-08 -1.690436e-08 -1.680736e-08 -1.740470e-08 -1.749792e-08
-1.775703e-08 -1.862843e-08 -1.793354e-08 -1.756118e-08 -1.798288e-08 -1.761828e-08 -1.727191e-08 -1.909169e-08 -1.951977e-08 -1.794954e-08
-1.833713e-08 -1.839929e-08 -1.970649e-08 -2.001811e-08 -2.047218e-08 -1.727700e-08 -1.837691e-08 -1.850352e-08 -1.770509e-08 -1.813974e-08
-1.758221e-08 -1.824135e-08 -1.879153e-08 -1.661913e-08 -1.876236e-08 -1.622600e-08 -1.786077e-08 -1.684584e-08 -1.631492e-08 -1.678861e-08
-1.761303e-08 -1.603659e-08 -1.777400e-08 -1.690343e-08 -1.623004e-08 -1.778095e-08 -1.854491e-08 -1.846151e-08 -1.941079e-08 -1.858419e-08
-1.811285e-08 -1.805077e-08 -1.750943e-08 -1.964688e-08 -1.823712e-08 -2.007276e-08 -1.770553e-08 -1.916612e-08 -1.844665e-08 -1.956803e-08
-1.848212e-08 -1.953883e-08 -1.918992e-08 -1.922174e-08 -1.841842e-08 -1.896556e-08 -1.804927e-08 -1.782191e-08 -1.743685e-08 -1.886083e-08
-1.708683e-08 -1.775573e-08 -1.671510e-08 -1.728421e-08 -1.626896e-08 -1.783878e-08 -1.695815e-08 -1.708913e-08 -1.556156e-08 -1.506077e-08
-1.571402e-08 -1.443455e-08 -1.545372e-08 -1.505115e-08 -1.355516e-08 -1.394454e-08 -1.371046e-08 -1.297945e-08 -1.336358e-08 -1.272472e-08
-1.279366e-08 -1.280196e-08 -1.138406e-08 -1.301134e-08 -1.146063e-08 -1.114330e-08 -9.809959e-09 -1.075895e-08 -1.099449e-08 -9.670200e-09
-9.250617e-09 -9.353361e-09 -8.574269e-09 -8.184546e-09 -6.301789e-09 -1.000265e-08 -6.930828e-09 -6.340151e-09 -6.402793e-09 -5.027371e-09
-5.382677e-09 -5.675729e-09 -5.370659e-09 -4.152527e-09 -5.248823e-09 -3.226240e-09 -4.439482e-09 -3.616289e-09 -3.811223e-09 -3.584568e-09
-3.742203e-09 -3.132967e-09 -1.934180e-09 -1.163377e-09 -2.079294e-09 -2.014157e-09 2.028025e-09 -2.076670e-10 9.709342e-10 -1.215788e-09
-5.838908e-10
-2.584869e-11 1.419502e-09 7.945822e-10 -7.124129e-10 1.486280e-09 1.862206e-09 3.444687e-09 6.807475e-10 1.545126e-09 2.732163e-09
3.926608e-09 2.986916e-09 4.939192e-09 5.422747e-09 3.715403e-09 4.829295e-09 5.721461e-09 6.045891e-09 6.041096e-09 5.957573e-09
6.216014e-09 7.937393e-09 6.285032e-09 7.033199e-09 7.747740e-09 7.885582e-09 9.136286e-09 8.096460e-09 9.248379e-09 9.209958e-09
8.918422e-09 1.047078e-08 1.077007e-08 9.850898e-09 1.144619e-08 1.085584e-08 1.157509e-08 1.127591e-08 1.280390e-08 1.208176e-08
1.362775e-08 1.300952e-08 1.374944e-08 1.595638e-08 1.374139e-08 1.560819e-08 1.463419e-08 1.490090e-08 1.624225e-08 1.654733e-08
1.566192e-08 1.597179e-08 1.608513e-08 1.727372e-08 1.806887e-08 1.625740e-08 1.669154e-08 1.654081e-08 1.795448e-08 1.960101e-08
1.626435e-08 1.883893e-08 1.826715e-08 1.859008e-08 1.802546e-08 1.807636e-08 1.789775e-08 1.771041e-08 1.824328e-08 1.887984e-08
2.018750e-08 1.896897e-08 1.775053e-08 1.744000e-08 1.814115e-08 1.833548e-08 1.830328e-08 1.701590e-08 1.783884e-08 1.780723e-08
1.835833e-08 1.999966e-08 1.880896e-08 1.894953e-08 1.821908e-08 1.676068e-08 1.865864e-08 1.709180e-08 1.626860e-08 1.727019e-08
1.592472e-08 1.725545e-08 1.608305e-08 1.823108e-08 1.743231e-08 1.755824e-08 1.782786e-08 1.664400e-08 1.784532e-08 1.814766e-08
1.844045e-08 1.800045e-08 2.007419e-08 1.882634e-08 1.762925e-08 2.074722e-08 1.942343e-08 1.838893e-08 1.844943e-08 1.827764e-08
1.970304e-08 1.793283e-08 1.941094e-08 1.902900e-08 1.828907e-08 1.741964e-08 1.878823e-08 1.790278e-08 1.803290e-08 1.736462e-08
1.828422e-08 1.707540e-08 1.749440e-08 1.851517e-08 1.717854e-08 1.763761e-08 1.573315e-08 1.632187e-08 1.681472e-08 1.603791e-08
1.581016e-08 1.516020e-08 1.416683e-08 1.493201e-08 1.454193e-08 1.348308e-08 1.467157e-08 1.475093e-08 1.277708e-08 1.351446e-08
1.227431e-08 1.246469e-08 1.246361e-08 1.185925e-08 1.142079e-08 1.195394e-08 1.101427e-08 1.128879e-08 9.488544e-09 1.082310e-08
8.606695e-09 8.526445e-09 8.761275e-09 8.272534e-09 6.444960e-09 9.969734e-09 7.798328e-09 6.551911e-09 7.001006e-09 6.811774e-09
5.369901e-09 6.807634e-09 6.191970e-09 3.960567e-09 4.452287e-09 4.208650e-09 3.286586e-09 4.489868e-09 4.269443e-09 3.121270e-09
4.349094e-09 2.529752e-09 2.031550e-09 1.963963e-09 1.504494e-09 4.128780e-10 4.231665e-10 6.460408e-10 9.577014e-10 -8.890095e-10
-1.573595e-09 -4.961735e-10 -1.413396e-09 -1.353155e-09 -8.738161e-10 -2.939454e-09 -9.253583e-10 -3.290331e-09 -2.082070e-09 -1.592668e-09
-4.151108e-09 -3.838276e-09 -3.277974e-09 -4.945194e-09 -5.675632e-09 -5.210804e-09 -4.789037e-09 -4.115156e-09 -4.044165e-09 -6.379415e-09
-6.655321e-09 -7.371657e-09 -6.438311e-09 -7.946988e-09 -8.039038e-09 -7.304645e-09 -7.523248e-09 -8.237460e-09 -8.900292e-09 -1.070426e-08
-9.875980e-09 -1.088042e-08 -1.058721e-08 -1.087215e-08 -1.265399e-08 -1.222146e-08 -1.109505e-08 -1.083239e-08 -1.310898e-08 -1.169526e-08
-1.256961e-08 -1.237248e-08 -1.427301e-08 -1.351103e-08 -1.298736e-08 -1.532950e-08 -1.426120e-08 -1.417229e-08 -1.503800e-08 -1.571862e-08
-1.537598e-08 -1.550645e-08 -1.717019e-08 -1.592645e-08 -1.633884e-08 -1.695454e-08 -1.728721e-08 -1.745690e-08 -1.635535e-08 -1.735718e-08
-1.742000e-08 -1.733122e-08 -1.776647e-08 -1.768524e-08 -1.807590e-08 -1.902663e-08 -1.885842e-08 -1.890667e-08 -1.842998e-08 -1.909791e-08
-1.861098e-08 -1.860320e-08 -1.975634e-08 -1.866906e-08 -1.807834e-08 -1.817358e-08 -1.762581e-08 -1.776298e-08 -1.742878e-08 -1.864228e-08
-1.882990e-08 -2.013074e-08 -1.612448e-08 -1.772389e-08 -1.669308e-08 -1.790903e-08 -1.756832e-08 -1.649677e-08 -1.824006e-08 -1.572649e-08
-1.663219e-08 -1.664849e-08 -1.636396e-08 -1.762005e-08 -1.764170e-08 -1.675227e-08 -1.825886e-08 -1.844859e-08 -1.787430e-08 -1.913571e-08
-2.017471e-08 -1.773927e-08 -1.799459e-08 -1.962981e-08 -1.934754e-08 -1.988676e-08 -1.967878e-08 -1.966302e-08 -1.920310e-08 -1.873257e-08
-1.909083e-08 -1.786672e-08 -1.850117e-08 -1.873364e-08 -1.864171e-08 -1.775185e-08 -1.930056e-08 -1.986126e-08 -1.787208e-08 -1.685253e-08
-1.721234e-08 -1.775744e-08 -1.705846e-08 -1.634255e-08 -1.755849e-08 -1.707370e-08 -1.569020e-08 -1.543649e-08 -1.531687e-08 -1.671840e-08
-1.576062e-08 -1.589753e-08 -1.377707e-08 -1.372952e-08 -1.505098e-08 -1.380526e-08 -1.341051e-08 -1.479131e-08 -1.258691e-08 -1.261600e-08
-1.380615e-08 -1.223442e-08 -1.216109e-08 -1.161435e-08 -1.104007e-08 -1.178229e-08 -1.007014e-08 -9.914121e-09 -8.702830e-09 -9.978105e-09
-9.135324e-09 -8.426054e-09 -8.111641e-09 -8.831691e-09 -7.359114e-09 -6.192004e-09 -7.140434e-09 -7.176164e-09 -5.885075e-09 -5.963912e-09
-5.287601e-09 -5.575218e-09 -5.683521e-09 -6.185226e-09 -4.508395e-09 -6.400807e-09 -3.522957e-09 -2.562896e-09 -4.150023e-09 -3.035250e-09
-8.983352e-10 -5.755221e-10 -1.521800e-09 -4.904327e-10 5.759824e-10 -6.368627e-10 -1.614304e-09 5.418496e-10 8.225973e-10 2.778719e-10
-2.584869e-11
2.211342e-09 -3.904207e-10 1.615748e-09 7.453247e-10 2.663781e-09 1.784575e-09 1.177600e-09 2.501060e-09 1.696194e-09 1.373492e-09
3.190030e-09 5.151987e-09 4.042325e-09 5.157036e-09 3.797111e-09 3.721346e-09 4.772815e-09 4.537706e-09 5.957951e-09 5.896394e-09
7.180846e-09 6.569840e-09 7.101530e-09 6.687046e-09 6.274812e-09 7.845717e-09 9.340115e-09 8.422497e-09 9.442647e-09 8.494102e-09
9.660081e-09 1.058752e-08 9.621123e-09 1.039878e-08 1.028032e-08 1.070703e-08 1.293925e-08 1.331836e-08 1.190382e-08 1.262229e-08
1.289844e-08 1.249738e-08 1.394401e-08 1.300032e-08 1.334698e-08 1.476095e-08 1.477408e-08 1.659201e-08 1.472872e-08 1.455736e-08
1.556160e-08 1.588504e-08 1.608014e-08 1.595379e-08 1.660269e-08 1.704983e-08 1.740266e-08 1.718944e-08 1.707245e-08 1.769568e-08
1.712842e-08 1.786791e-08 1.862268e-08 1.836599e-08 1.898640e-08 1.870495e-08 1.896029e-08 1.802430e-08 1.885531e-08 1.851971e-08
1.846930e-08 1.961670e-08 1.823488e-08 1.834471e-08 1.842951e-08 1.845673e-08 1.829914e-08 1.920485e-08 1.862875e-08 1.892936e-08
1.786632e-08 1.858287e-08 1.844001e-08 1.600892e-08 1.672289e-08 1.696133e-08 1.571868e-08 1.716215e-08 1.768927e-08 1.759106e-08
1.632721e-08 1.602927e-08 1.800721e-08 1.899669e-08 1.647979e-08 1.865036e-08 1.884300e-08 1.811406e-08 1.859813e-08 1.884546e-08
1.940749e-08 1.838464e-08 1.998792e-08 1.868468e-08 1.858665e-08 1.779068e-08 1.923867e-08 1.879138e-08 1.952559e-08 1.833271e-08
1.842448e-08 1.856928e-08 1.788892e-08 1.819025e-08 1.838024e-08 1.814786e-08 1.890525e-08 1.751725e-08 1.801546e-08 1.742040e-08
1.804734e-08 1.805723e-08 1.667115e-08 1.796828e-08 1.712758e-08 1.689222e-08 1.737544e-08 1.597958e-08 1.569322e-08 1.683599e-08
1.453122e-08 1.529015e-08 1.522569e-08 1.481275e-08 1.421179e-08 1.436818e-08 1.508242e-08 1.330851e-08 1.330435e-08 1.332191e-08
1.226945e-08 1.160346e-08 1.230681e-08 1.088117e-08 1.145630e-08 1.034747e-08 1.166924e-08 1.119254e-08 1.119579e-08 9.266729e-09
1.010986e-08 1.012167e-08 7.990784e-09 8.419226e-09 8.490312e-09 8.737273e-09 7.140580e-09 5.894483e-09 5.944061e-09 5.913941e-09
6.577680e-09 5.550378e-09 4.807438e-09 3.897759e-09 4.679491e-09 3.310651e-09 4.679832e-09 2.933443e-09 2.986685e-09 3.575818e-09
3.513064e-09 3.041576e-09 1.021020e-09 2.260139e-09 -1.208933e-11 9.115452e-10 -8.225418e-10 5.736141e-10 1.043861e-09 4.096371e-12
-2.134951e-11 -1.230745e-09 3.085719e-10 -1.370157e-09 4.354476e-10 -2.687846e-09 -1.745654e-09 -2.965657e-09 -2.900303e-09 -1.437583e-09
-3.505437e-09 -2.549539e-09 -4.208004e-09 -5.315011e-09 -3.630001e-09 -3.999179e-09 -3.317232e-09 -3.799945e-09 -6.319496e-09 -3.739120e-09
-6.030960e-09 -7.341554e-09 -4.873840e-09 -6.211170e-09 -5.872428e-09 -8.121247e-09 -9.286627e-09 -8.804948e-09 -8.966671e-09 -9.061455e-09
-9.253708e-09 -9.661397e-09 -9.053699e-09 -9.766533e-09 -1.082882e-08 -9.851564e-09 -1.106724e-08 -1.089088e-08 -1.246917e-08 -1.293315e-08
-1.268197e-08 -1.217496e-08 -1.265567e-08 -1.350498e-08 -1.330603e-08 -1.397137e-08 -1.398852e-08 -1.466087e-08 -1.426797e-08 -1.518187e-08
-1.470340e-08 -1.652763e-08 -1.663735e-08 -1.583215e-08 -1.677915e-08 -1.729051e-08 -1.691393e-08 -1.599095e-08 -1.681844e-08 -1.749050e-08
-1.732507e-08 -1.746711e-08 -1.720675e-08 -1.732327e-08 -1.832672e-08 -1.818387e-08 -1.802141e-08 -1.789253e-08 -1.790652e-08 -1.965599e-08
-1.876702e-08 -1.835702e-08 -1.895124e-08 -1.922228e-08 -1.832335e-08 -1.880345e-08 -1.909835e-08 -1.940604e-08 -1.841744e-08 -1.866980e-08
-1.789432e-08 -1.832988e-08 -1.811994e-08 -1.797903e-08 -1.917211e-08 -1.783793e-08 -1.717634e-08 -1.789617e-08 -1.694808e-08 -1.680745e-08
-1.661387e-08 -1.610799e-08 -1.641398e-08 -1.800947e-08 -1.695108e-08 -1.665009e-08 -1.651672e-08 -1.777059e-08 -1.896229e-08 -1.963075e-08
-1.702656e-08 -1.727975e-08 -1.917879e-08 -1.799289e-08 -1.776706e-08 -1.735694e-08 -1.790043e-08 -1.917133e-08 -1.881941e-08 -1.768841e-08
-1.835543e-08 -1.885272e-08 -1.710651e-08 -1.969667e-08 -1.800029e-08 -1.847624e-08 -1.835035e-08 -1.740802e-08 -1.729332e-08 -1.829651e-08
-1.859232e-08 -1.778710e-08 -1.805244e-08 -1.896120e-08 -1.714226e-08 -1.600666e-08 -1.737753e-08 -1.680089e-08 -1.704970e-08 -1.613665e-08
-1.509723e-08 -1.599649e-08 -1.597098e-08 -1.500370e-08 -1.531717e-08 -1.342979e-08 -1.349223e-08 -1.344671e-08 -1.353004e-08 -1.403764e-08
-1.194625e-08 -1.252238e-08 -1.182796e-08 -1.079600e-08 -1.158501e-08 -1.278849e-08 -9.813546e-09 -1.004724e-08 -9.392740e-09 -1.059925e-08
-9.656739e-09 -1.053771e-08 -7.959048e-09 -8.573348e-09 -8.797688e-09 -7.217392e-09 -7.418611e-09 -5.560106e-09 -6.513369e-09 -6.852205e-09
-5.058246e-09 -4.387673e-09 -4.866157e-09 -5.469831e-09 -4.343852e-09 -4.568007e-09 -5.531237e-09 -2.928702e-09 -3.721852e-09 -4.048058e-09
-1.309493e-09 -3.624753e-09 -3.477381e-09 -2.451954e-09 -1.055825e-09 -7.955405e-10 -1.877767e-09 -1.298123e-09 -2.639658e-10 9.643190e-10
2.211342e-09
-7.490544e-10 -2.315915e-10 1.999521e-09 2.459573e-09 2.775854e-09 1.491627e-09 2.604735e-09 1.475851e-09 4.013814e-09 2.191273e-09
2.283042e-09 5.065850e-09 4.104318e-09 3.398105e-09 3.947757e-09 3.944208e-09 5.898121e-09 6.532005e-09 4.839392e-09 5.179844e-09
6.558885e-09 7.316497e-09 7.345862e-09 6.767038e-09 6.932882e-09 7.342172e-09 7.480087e-09 8.430258e-09 7.019302e-09 9.152040e-09
1.011562e-08 1.004060e-08 9.192095e-09 1.035490e-08 1.109143e-08 1.267333e-08 1.214192e-08 1.160336e-08 1.278926e-08 1.149244e-08
1.420263e-08 1.271697e-08 1.442584e-08 1.345804e-08 1.367451e-08 1.464905e-08 1.419302e-08 1.515583e-08 1.575434e-08 1.486926e-08
1.511320e-08 1.610486e-08 1.497389e-08 1.695528e-08 1.627598e-08 1.644175e-08 1.779168e-08 1.678052e-08 1.756725e-08 1.655123e-08
1.918317e-08 1.711477e-08 1.820226e-08 1.868586e-08 1.741020e-08 1.657126e-08 1.847393e-08 1.928653e-08 1.900215e-08 1.744023e-08
1.784106e-08 1.950687e-08 1.916124e-08 1.876839e-08 1.863553e-08 1.784996e-08 1.989596e-08 1.859399e-08 1.830659e-08 1.820664e-08
1.821932e-08 1.728719e-08 1.784203e-08 1.997623e-08 1.828325e-08 1.762750e-08 1.772257e-08 1.634889e-08 1.715179e-08 1.628371e-08
1.756516e-08 1.715627e-08 1.687396e-08 1.778043e-08 1.677252e-08 1.682390e-08 1.683009e-08 1.799388e-08 1.807735e-08 1.634654e-08
1.678627e-08 1.778790e-08 1.798310e-08 1.855787e-08 1.799624e-08 1.897422e-08 1.952306e-08 1.880213e-08 1.923607e-08 1.827336e-08
1.917983e-08 1.877363e-08 1.972375e-08 1.889828e-08 1.806919e-08 1.668682e-08 1.933960e-08 1.896689e-08 1.644633e-08 1.781201e-08
1.832149e-08 1.699788e-08 1.814502e-08 1.654673e-08 1.676633e-08 1.597540e-08 1.607552e-08 1.568755e-08 1.609953e-08 1.548315e-08
1.505921e-08 1.442842e-08 1.499042e-08 1.340094e-08 1.409347e-08 1.393380e-08 1.310358e-08 1.349632e-08 1.338727e-08 1.222202e-08
1.227348e-08 1.194138e-08 1.120241e-08 1.176519e-08 1.132946e-08 1.192218e-08 9.969444e-09 9.837524e-09 1.008320e-08 9.310583e-09
1.133187e-08 8.984689e-09 8.851452e-09 7.809366e-09 7.885876e-09 6.893163e-09 8.090908e-09 6.682686e-09 7.117398e-09 5.395762e-09
4.273670e-09 5.897518e-09 4.650730e-09 4.405858e-09 3.584038e-09 4.216115e-09 4.829317e-09 3.930047e-09 4.597262e-09 1.507138e-09
9.250912e-10 3.117058e-09 3.098146e-09 2.253069e-09 -2.350557e-11 1.122172e-09 -1.026285e-09 -2.860674e-10 -1.484431e-09 5.602208e-10
1.038131e-09 3.059789e-10 -7.438906e-10 3.456578e-10 1.576835e-10 -1.079477e-09 -1.705157e-09 -4.774139e-10 -2.327345e-09 -2.390765e-09
-3.527604e-09 -2.975342e-09 -4.189632e-09 -3.475363e-09 -2.714718e-09 -3.423885e-09 -4.917165e-09 -5.934787e-09 -4.195554e-09 -5.825696e-09
-7.821935e-09 -4.574785e-09 -5.410191e-09 -7.607377e-09 -8.018533e-09 -7.769319e-09 -7.207424e-09 -8.947391e-09 -8.883579e-09 -7.862392e-09
-8.101445e-09 -1.023826e-08 -1.015859e-08 -9.893891e-09 -9.944355e-09 -1.007534e-08 -1.203948e-08 -1.111362e-08 -1.263601e-08 -1.246961e-08
-1.377276e-08 -1.209425e-08 -1.361540e-08 -1.357626e-08 -1.396606e-08 -1.555750e-08 -1.453678e-08 -1.498901e-08 -1.538148e-08 -1.434887e-08
-1.644660e-08 -1.612698e-08 -1.628283e-08 -1.556624e-08 -1.678951e-08 -1.559339e-08 -1.825801e-08 -1.764201e-08 -1.777637e-08 -1.696016e-08
-1.841400e-08 -1.770328e-08 -1.649424e-08 -1.852573e-08 -1.695676e-08 -1.903907e-08 -1.648261e-08 -1.816538e-08 -1.717727e-08 -1.736486e-08
-1.962805e-08 -1.920071e-08 -1.838173e-08 -1.844673e-08 -1.835249e-08 -1.762821e-08 -1.695098e-08 -1.823751e-08 -1.693105e-08 -1.848412e-08
-1.830743e-08 -1.874958e-08 -1.829400e-08 -1.856363e-08 -1.620315e-08 -1.732122e-08 -1.708976e-08 -1.821891e-08 -1.737916e-08 -1.657752e-08
-1.596095e-08 -1.865665e-08 -1.573185e-08 -1.778133e-08 -1.867854e-08 -1.743337e-08 -1.896235e-08 -1.815213e-08 -1.695016e-08 -1.767582e-08
-1.779411e-08 -1.772640e-08 -1.896377e-08 -1.789801e-08 -1.846909e-08 -1.769229e-08 -1.757725e-08 -1.841347e-08 -1.816439e-08 -1.792395e-08
-1.829027e-08 -1.834180e-08 -1.983827e-08 -1.689673e-08 -1.765806e-08 -1.730583e-08 -1.778337e-08 -1.764798e-08 -1.734009e-08 -1.764568e-08
-1.714058e-08 -1.787190e-08 -1.710537e-08 -1.833016e-08 -1.580967e-08 -1.691487e-08 -1.645990e-08 -1.660111e-08 -1.545129e-08 -1.527255e-08
-1.567341e-08 -1.629819e-08 -1.396313e-08 -1.478679e-08 -1.425233e-08 -1.316503e-08 -1.361226e-08 -1.431261e-08 -1.306516e-08 -1.248880e-08
-1.250391e-08 -1.278348e-08 -1.150858e-08 -1.111170e-08 -1.043036e-08 -9.994682e-09 -1.061780e-08 -1.113710e-08 -1.168025e-08 -8.730949e-09
-8.959860e-09 -9.176639e-09 -7.683084e-09 -8.092688e-09 -8.036442e-09 -7.850166e-09 -7.187678e-09 -6.354503e-09 -6.227363e-09 -6.242338e-09
-5.625953e-09 -5.470407e-09 -4.725738e-09 -4.091303e-09 -3.998812e-09 -3.439054e-09 -2.520651e-09 -4.611945e-09 -3.531585e-09 -4.433197e-09
-2.704556e-09 2.834750e-10 -2.078252e-09 -8.362245e-10 -1.314385e-09 -1.651801e-09 2.456777e-11 -7.649448e-10 -2.172061e-10 4.540159e-10
-7.490544e-10
1.455666e-09 -4.592061e-10 -2.810918e-10 8.499531e-10 2.231260e-09 2.058770e-09 1.097592e-09 7.043797e-10 1.448301e-09 4.489132e-09
4.250260e-09 2.988751e-09 5.404864e-09 4.842259e-09 3.904773e-09 2.585370e-09 3.707522e-09 6.308894e-09 6.987408e-09 5.352764e-09
5.591768e-09 5.181486e-09 6.950670e-09 8.087579e-09 8.583164e-09 6.532111e-09 7.870017e-09 8.074565e-09 6.657860e-09 1.138521e-08
1.080608e-08 8.763393e-09 9.622759e-09 1.118830e-08 1.115971e-08 1.092447e-08 1.136993e-08 1.190876e-08 1.144281e-08 1.158417e-08
1.213640e-08 1.239713e-08 1.380503e-08 1.344097e-08 1.443423e-08 1.452532e-08 1.474796e-08 1.575100e-08 1.512518e-08 1.526651e-08
1.737118e-08 1.585586e-08 1.603189e-08 1.572521e-08 1.556364e-08 1.570984e-08 1.701249e-08 1.641744e-08 1.654328e-08 1.699574e-08
1.635314e-08 1.700750e-08 1.768998e-08 1.628041e-08 1.697080e-08 1.727003e-08 1.649785e-08 1.779009e-08 1.706064e-08 1.750322e-08
1.789002e-08 1.870009e-08 1.866820e-08 1.822738e-08 1.767286e-08 1.859928e-08 1.739043e-08 1.805184e-08 1.902332e-08 1.860573e-08
1.835560e-08 1.791784e-08 1.785433e-08 1.765696e-08 1.781463e-08 1.770708e-08 1.627641e-08 1.668780e-08 1.600955e-08 1.804813e-08
1.531741e-08 1.667189e-08 1.701428e-08 1.842408e-08 1.707002e-08 1.624707e-08 1.593863e-08 1.845247e-08 1.683964e-08 1.810615e-08
1.853478e-08 1.997748e-08 1.894330e-08 1.801236e-08 1.825263e-08 1.837764e-08 2.032139e-08 1.806333e-08 1.895634e-08 1.800280e-08
1.772295e-08 1.789292e-08 1.686134e-08 1.861400e-08 1.949109e-08 1.879843e-08 1.715578e-08 1.792379e-08 1.790477e-08 1.785541e-08
1.721727e-08 1.730857e-08 1.670112e-08 1.641373e-08 1.760204e-08 1.686090e-08 1.606526e-08 1.743192e-08 1.523202e-08 1.536769e-08
1.627991e-08 1.432744e-08 1.578115e-08 1.443500e-08 1.410844e-08 1.388997e-08 1.421327e-08 1.490885e-08 1.319722e-08 1.284500e-08
1.384661e-08 1.173412e-08 1.279550e-08 1.094204e-08 1.097218e-08 1.188078e-08 9.174951e-09 1.030314e-08 1.019143e-08 8.615383e-09
1.008905e-08 9.078318e-09 8.991421e-09 7.359098e-09 8.285685e-09 7.270837e-09 6.568124e-09 5.699578e-09 8.109532e-09 5.531349e-09
5.156918e-09 7.298283e-09 5.654938e-09 2.694259e-09 4.639502e-09 3.302346e-09 4.244331e-09 3.060373e-09 4.431524e-09 2.762812e-09
1.396817e-09 3.748927e-09 4.197962e-10 1.697230e-09 1.128700e-09 1.283142e-09 2.735500e-09 3.074339e-09 4.018642e-10 -1.223533e-09
3.128109e-10 1.761453e-09 5.281374e-11 1.524357e-10 -1.027328e-09 -1.619954e-09 -1.446852e-09 -3.701403e-09 -2.419907e-09 -1.683380e-09
-2.749148e-09 -2.798860e-09 -3.488954e-09 -4.638919e-09 -6.212346e-09 -3.685952e-09 -4.144584e-09 -3.974279e-09 -3.531748e-09 -4.114096e-09
-6.816476e-09 -5.355111e-09 -5.997930e-09 -7.435625e-09 -6.641598e-09 -6.347764e-09 -7.189156e-09 -8.675163e-09 -8.608552e-09 -7.907634e-09
-8.577993e-09 -8.869271e-09 -1.041764e-08 -9.274982e-09 -9.684648e-09 -1.036390e-08 -1.192159e-08 -1.115963e-08 -1.204086e-08 -1.314254e-08
-1.309060e-08 -1.323224e-08 -1.252531e-08 -1.404134e-08 -1.396224e-08 -1.359467e-08 -1.337975e-08 -1.539450e-08 -1.425453e-08 -1.567602e-08
-1.503613e-08 -1.595584e-08 -1.545165e-08 -1.560362e-08 -1.632255e-08 -1.592380e-08 -1.601457e-08 -1.834404e-08 -1.703189e-08 -1.713635e-08
-1.769166e-08 -1.650248e-08 -1.822523e-08 -1.750876e-08 -1.780790e-08 -1.794413e-08 -1.842279e-08 -1.727575e-08 -1.820874e-08 -1.687174e-08
-1.813492e-08 -1.836724e-08 -1.810367e-08 -1.769566e-08 -1.868684e-08 -1.832023e-08 -1.706819e-08 -1.774021e-08 -1.872412e-08 -1.874757e-08
-1.844789e-08 -1.667433e-08 -1.833694e-08 -1.735264e-08 -1.902076e-08 -1.691313e-08 -1.663160e-08 -1.577044e-08 -1.574780e-08 -1.784164e-08
-1.775127e-08 -1.764358e-08 -1.590938e-08 -1.741476e-08 -1.774841e-08 -1.603478e-08 -1.714171e-08 -1.832293e-08 -1.738093e-08 -1.837103e-08
-1.766124e-08 -1.838261e-08 -1.733643e-08 -1.889127e-08 -1.732050e-08 -1.833249e-08 -1.714774e-08 -1.754494e-08 -1.993315e-08 -1.776434e-08
-1.826840e-08 -1.752343e-08 -1.828916e-08 -1.763845e-08 -1.885256e-08 -1.849161e-08 -1.726665e-08 -1.666532e-08 -1.801313e-08 -1.719252e-08
-1.680575e-08 -1.687184e-08 -1.665422e-08 -1.695521e-08 -1.712119e-08 -1.717389e-08 -1.655989e-08 -1.544237e-08 -1.566542e-08 -1.552917e-08
-1.545784e-08 -1.444542e-08 -1.403201e-08 -1.516011e-08 -1.358809e-08 -1.351315e-08 -1.314407e-08 -1.305149e-08 -1.279123e-08 -1.316865e-08
-1.444950e-08 -1.200876e-08 -1.214752e-08 -1.178165e-08 -1.202466e-08 -9.512767e-09 -1.222453e-08 -1.035161e-08 -9.346876e-09 -1.112560e-08
-8.443219e-09 -9.440855e-09 -9.007763e-09 -8.143592e-09 -8.219459e-09 -5.775075e-09 -7.886809e-09 -5.948786e-09 -5.883599e-09 -7.724725e-09
-6.157275e-09 -5.403981e-09 -6.952591e-09 -4.310080e-09 -4.193754e-09 -3.733196e-09 -4.279616e-09 -2.396353e-09 -2.827505e-09 -9.736492e-10
-2.755167e-09 -2.148406e-09 -2.163193e-09 -6.960190e-10 -1.725860e-09 -2.802804e-10 4.327934e-10 -6.412044e-10 6.731060e-10 -1.202975e-09
1.455666e-09
-1.002336e-09 -1.117482e-10 2.820635e-10 8.388771e-10 1.304158e-09 2.057354e-09 2.291342e-09 1.955641e-09 3.111545e-09 3.388250e-09
3.744844e-09 2.092856e-09 3.416360e-09 3.615275e-09 3.530771e-09 3.906446e-09 5.699773e-09 5.452757e-09 5.443581e-09 4.568414e-09
5.976814e-09 8.258964e-09 5.846806e-09 8.790576e-09 8.470740e-09 7.981952e-09 8.635026e-09 7.016088e-09 8.963821e-09 8.448684e-09
9.548038e-09 1.021396e-08 9.931647e-09 9.498392e-09 1.022716e-08 1.103839e-08 1.236744e-08 1.236056e-08 1.210852e-08 1.125682e-08
1.426947e-08 1.333159e-08 1.311657e-08 1.474022e-08 1.400981e-08 1.407964e-08 1.453472e-08 1.589880e-08 1.528159e-08 1.416029e-08
1.611375e-08 1.483668e-08 1.606493e-08 1.553235e-08 1.621531e-08 1.690162e-08 1.624544e-08 1.749389e-08 1.744239e-08 1.702398e-08
1.792805e-08 1.724390e-08 1.726181e-08 1.770976e-08 1.756785e-08 1.678164e-08 1.918368e-08 1.705371e-08 1.758999e-08 1.849509e-08
1.943601e-08 1.943159e-08 1.710424e-08 1.907086e-08 1.747998e-08 1.783424e-08 1.907274e-08 1.788174e-08 1.803178e-08 1.760849e-08
1.803337e-08 1.765498e-08 1.622386e-08 1.673696e-08 1.538626e-08 1.685994e-08 1.754832e-08 1.791704e-08 1.799850e-08 1.634270e-08
1.483338e-08 1.654691e-08 1.679157e-08 1.771144e-08 1.725100e-08 1.885152e-08 1.836338e-08 1.608802e-08 1.917125e-08 1.833221e-08
1.693809e-08 1.695943e-08 1.789722e-08 1.824075e-08 1.914924e-08 1.938012e-08 1.848240e-08 1.814834e-08 1.901395e-08 1.849231e-08
1.687180e-08 1.932928e-08 1.979482e-08 1.902669e-08 1.812427e-08 1.782224e-08 1.610519e-08 1.843060e-08 1.795461e-08 1.730919e-08
1.700902e-08 1.604342e-08 1.740875e-08 1.676229e-08 1.660822e-08 1.650549e-08 1.759829e-08 1.601349e-08 1.472512e-08 1.640370e-08
1.512164e-08 1.472677e-08 1.603193e-08 1.513524e-08 1.302328e-08 1.340824e-08 1.337124e-08 1.338938e-08 1.473400e-08 1.359469e-08
1.271540e-08 1.331155e-08 1.120455e-08 1.275485e-08 1.172138e-08 1.194023e-08 1.141021e-08 1.082233e-08 9.930046e-09 9.875600e-09
9.265370e-09 9.407938e-09 8.320153e-09 7.036788e-09 8.983207e-09 7.657382e-09 7.310186e-09 6.300381e-09 6.329136e-09 6.569183e-09
4.265797e-09 4.203290e-09 4.276734e-09 2.862268e-09 4.134264e-09 4.603768e-09 4.319751e-09 3.280797e-09 3.762447e-09 4.853302e-09
1.424075e-09 3.891598e-09 3.702836e-10 2.873418e-09 2.221211e-09 2.539741e-09 1.010803e-09 -5.772167e-10 -8.499647e-10 -1.035359e-09
-1.645312e-10 -1.232535e-09 3.990670e-10 -4.782121e-10 -1.148070e-09 -1.890309e-09 -5.472302e-10 -2.485627e-09 -2.599093e-09 -2.020178e-09
-1.542786e-09 -3.199283e-09 -2.465439e-09 -2.579592e-09 -5.205219e-09 -4.219752e-09 -3.602671e-09 -5.328339e-09 -4.419293e-09 -5.304915e-09
-5.784472e-09 -4.931207e-09 -7.343301e-09 -7.130575e-09 -6.277880e-09 -7.714768e-09 -7.653847e-09 -8.653095e-09 -8.130301e-09 -9.280299e-09
-9.044204e-09 -9.692395e-09 -9.319433e-09 -1.002203e-08 -1.070281e-08 -9.942283e-09 -1.146346e-08 -1.115104e-08 -1.231168e-08 -1.243042e-08
-1.216799e-08 -1.198057e-08 -1.250279e-08 -1.463527e-08 -1.457293e-08 -1.375575e-08 -1.422279e-08 -1.384749e-08 -1.519926e-08 -1.525647e-08
-1.595334e-08 -1.612072e-08 -1.489302e-08 -1.605956e-08 -1.644558e-08 -1.600738e-08 -1.637783e-08 -1.690820e-08 -1.785015e-08 -1.708580e-08
-1.726750e-08 -1.614216e-08 -1.760933e-08 -1.792756e-08 -1.747272e-08 -1.622398e-08 -1.808434e-08 -1.783546e-08 -1.729790e-08 -1.826802e-08
-1.882838e-08 -1.818919e-08 -1.883947e-08 -1.812129e-08 -1.968474e-08 -1.924235e-08 -1.815135e-08 -1.911281e-08 -1.751567e-08 -1.940168e-08
-1.798410e-08 -1.843596e-08 -1.687874e-08 -1.926746e-08 -1.612284e-08 -1.641986e-08 -1.739806e-08 -1.759659e-08 -1.591769e-08 -1.645729e-08
-1.605797e-08 -1.519221e-08 -1.750844e-08 -1.589121e-08 -1.623639e-08 -1.719642e-08 -1.749760e-08 -1.823876e-08 -1.698000e-08 -1.719687e-08
-1.804539e-08 -1.935702e-08 -1.813494e-08 -1.887805e-08 -1.831998e-08 -2.002497e-08 -1.788198e-08 -1.823223e-08 -1.748369e-08 -1.894328e-08
-1.861869e-08 -1.735105e-08 -1.745153e-08 -1.927319e-08 -1.825360e-08 -1.838880e-08 -1.771414e-08 -1.741880e-08 -1.775528e-08 -1.622080e-08
-1.734109e-08 -1.734527e-08 -1.652879e-08 -1.557154e-08 -1.602004e-08 -1.736826e-08 -1.535180e-08 -1.577620e-08 -1.453490e-08 -1.497085e-08
-1.419011e-08 -1.578661e-08 -1.489498e-08 -1.506132e-08 -1.440996e-08 -1.523051e-08 -1.344053e-08 -1.370030e-08 -1.300038e-08 -1.434390e-08
-1.277515e-08 -1.306995e-08 -1.230120e-08 -1.140010e-08 -1.112213e-08 -1.090131e-08 -9.829805e-09 -9.297844e-09 -9.320341e-09 -8.596511e-09
-9.813079e-09 -9.206169e-09 -8.682476e-09 -8.292170e-09 -6.937764e-09 -7.912892e-09 -7.307540e-09 -6.536920e-09 -8.327155e-09 -6.058237e-09
-7.289428e-09 -5.534754e-09 -4.293509e-09 -5.037165e-09 -3.354017e-09 -5.408137e-09 -3.534234e-09 -3.536980e-09 -5.712319e-09 -3.509173e-09
-2.513078e-09 -2.023505e-09 -1.567180e-09 -3.756874e-10 -1.633882e-09 -1.710915e-09 1.150921e-10 6.311576e-10 7.534014e-10 -4.770598e-10
-1.002336e-09
-6.715389e-10 -3.013385e-10 9.899803e-10 8.732029e-10 -8.762286e-10 1.565612e-09 1.049558e-09 3.488911e-09 1.423513e-09 1.150949e-09
2.925052e-09 3.211472e-09 3.275935e-09 2.640377e-09 4.409597e-09 3.860606e-09 4.350472e-09 4.356215e-09 4.843858e-09 5.384690e-09
5.386835e-09 6.292119e-09 7.067346e-09 8.712713e-09 6.494041e-09 7.629366e-09 1.008091e-08 8.209192e-09 8.659842e-09 9.846654e-09
9.000581e-09 1.120597e-08 9.704919e-09 9.971294e-09 1.031179e-08 1.034388e-08 1.383894e-08 1.109398e-08 1.234751e-08 1.190782e-08
1.342531e-08 1.195571e-08 1.351497e-08 1.424760e-08 1.401476e-08 1.364190e-08 1.425665e-08 1.534419e-08 1.360285e-08 1.457650e-08
1.655077e-08 1.630143e-08 1.609764e-08 1.606810e-08 1.648385e-08 1.633105e-08 1.765580e-08 1.565127e-08 1.625554e-08 1.691420e-08
1.556511e-08 1.756212e-08 1.734800e-08 1.715460e-08 1.667392e-08 1.862400e-08 1.818933e-08 1.840212e-08 1.810644e-08 1.917679e-08
1.854544e-08 1.817580e-08 1.791491e-08 1.736465e-08 1.889755e-08 1.809081e-08 1.816072e-08 1.959438e-08 1.785679e-08 1.742221e-08
1.852563e-08 1.890839e-08 1.684106e-08 1.849257e-08 1.782733e-08 1.770032e-08 1.681595e-08 1.618537e-08 1.645809e-08 1.514919e-08
1.644790e-08 1.603652e-08 1.589444e-08 1.620270e-08 1.679518e-08 1.707904e-08 1.556146e-08 1.842153e-08 1.810016e-08 1.629949e-08
1.742012e-08 1.643262e-08 1.803856e-08 1.831397e-08 1.849776e-08 1.745730e-08 1.850521e-08 1.745959e-08 1.781639e-08 1.826528e-08
1.893898e-08 1.931282e-08 1.756470e-08 1.880379e-08 1.787958e-08 1.811471e-08 1.764610e-08 1.750473e-08 1.776919e-08 1.773810e-08
1.673681e-08 1.791144e-08 1.550280e-08 1.626768e-08 1.610138e-08 1.560779e-08 1.591003e-08 1.658691e-08 1.473992e-08 1.479845e-08
1.598159e-08 1.601270e-08 1.557900e-08 1.420020e-08 1.455764e-08 1.397181e-08 1.368515e-08 1.293975e-08 1.202863e-08 1.288444e-08
1.293478e-08 1.113459e-08 1.212154e-08 1.215050e-08 1.073484e-08 1.170486e-08 9.852495e-09 1.055171e-08 9.907114e-09 8.788150e-09
8.215836e-09 8.493529e-09 8.619899e-09 7.785118e-09 7.915121e-09 7.290390e-09 5.901068e-09 5.424329e-09 5.823103e-09 6.212428e-09
4.957332e-09 4.961640e-09 4.200487e-09 3.000169e-09 4.517839e-09 2.924599e-09 3.844890e-09 2.974371e-09 2.112177e-09 3.156700e-09
1.977613e-09 2.768622e-09 2.773566e-10 2.472678e-09 1.638423e-09 1.457082e-10 1.396035e-09 -1.803449e-10 -6.590548e-10 -1.867003e-11
-8.517129e-10 6.838617e-10 6.661016e-10 -1.538282e-09 -1.699371e-10 -2.061555e-10 -8.161352e-10 -1.464973e-09 -4.368208e-10 -1.584854e-09
-2.307674e-09 -2.398149e-09 -1.895443e-09 -5.392625e-09 -3.779415e-09 -4.310605e-09 -3.209079e-09 -4.667664e-09 -4.263439e-09 -5.445373e-09
-7.351237e-09 -7.271968e-09 -6.093289e-09 -6.056863e-09 -7.749040e-09 -6.361862e-09 -7.405490e-09 -7.208338e-09 -9.128727e-09 -8.633115e-09
-8.513164e-09 -8.294184e-09 -9.855817e-09 -9.090683e-09 -1.070967e-08 -1.083460e-08 -1.043650e-08 -1.163857e-08 -1.088324e-08 -1.196414e-08
-1.149765e-08 -1.204554e-08 -1.217526e-08 -1.334740e-08 -1.287492e-08 -1.438899e-08 -1.331942e-08 -1.545421e-08 -1.399623e-08 -1.501367e-08
-1.567234e-08 -1.502842e-08 -1.539558e-08 -1.641099e-08 -1.708553e-08 -1.696698e-08 -1.590752e-08 -1.643473e-08 -1.623016e-08 -1.791413e-08
-1.751153e-08 -1.774111e-08 -1.738417e-08 -1.691967e-08 -1.791428e-08 -1.771138e-08 -1.789983e-08 -1.831049e-08 -1.745840e-08 -1.820337e-08
-1.895747e-08 -1.793055e-08 -1.869664e-08 -1.874287e-08 -1.761240e-08 -1.806006e-08 -1.683675e-08 -1.661572e-08 -1.842537e-08 -1.958009e-08
-1.741704e-08 -1.949500e-08 -1.868934e-08 -1.697217e-08 -1.688114e-08 -1.788138e-08 -1.663084e-08 -1.699427e-08 -1.790123e-08 -1.522655e-08
-1.670636e-08 -1.755905e-08 -1.759661e-08 -1.843972e-08 -1.707718e-08 -1.764880e-08 -1.651993e-08 -1.825436e-08 -1.665273e-08 -1.746762e-08
-1.901233e-08 -1.691853e-08 -1.742186e-08 -1.834862e-08 -1.758709e-08 -1.912739e-08 -1.835865e-08 -1.760601e-08 -1.860115e-08 -1.813417e-08
-1.921269e-08 -1.896562e-08 -1.732447e-08 -1.893506e-08 -1.796894e-08 -1.625669e-08 -1.751824e-08 -1.636668e-08 -1.705030e-08 -1.770501e-08
-1.568193e-08 -1.712131e-08 -1.745225e-08 -1.542010e-08 -1.727613e-08 -1.537035e-08 -1.590997e-08 -1.521284e-08 -1.594787e-08 -1.529152e-08
-1.506888e-08 -1.536075e-08 -1.494009e-08 -1.437043e-08 -1.355320e-08 -1.340564e-08 -1.379718e-08 -1.343279e-08 -1.241365e-08 -1.278783e-08
-1.230956e-08 -1.208723e-08 -1.181822e-08 -1.112975e-08 -1.142241e-08 -1.123336e-08 -9.826827e-09 -1.027646e-08 -9.428495e-09 -1.145782e-08
-1.073805e-08 -8.370858e-09 -7.083055e-09 -7.206687e-09 -7.865278e-09 -7.181634e-09 -6.644072e-09 -8.173934e-09 -6.953074e-09 -7.085299e-09
-6.220171e-09 -6.077297e-09 -5.266999e-09 -4.802155e-09 -5.194277e-09 -4.901144e-09 -5.095831e-09 -3.303804e-09 -3.665913e-09 -3.743418e-09
-3.130298e-09 -2.448689e-09 -9.353830e-10 -1.888682e-11 -1.541152e-09 -1.185641e-09 -3.384423e-10 -1.486859e-09 -3.916548e-10 5.890877e-10
-6.715389e-10
-2.687605e-10 7.897289e-10 1.447391e-09 1.162957e-09 8.882935e-10 1.164461e-09 9.869066e-10 1.083616e-09 1.105922e-09 2.420243e-09
3.041616e-09 1.116657e-09 1.915420e-09 3.953234e-09 3.118629e-09 5.336579e-09 3.397789e-09 5.956670e-09 5.906931e-09 6.392918e-09
5.077651e-09 6.381678e-09 7.111069e-09 7.673317e-09 7.525466e-09 7.991627e-09 7.378035e-09 8.063203e-09 8.524560e-09 9.991358e-09
9.632528e-09 9.008866e-09 1.067639e-08 1.075790e-08 1.030998e-08 1.051293e-08 1.011738e-08 1.301557e-08 1.191090e-08 1.228592e-08
1.245195e-08 1.420920e-08 1.368765e-08 1.289693e-08 1.392281e-08 1.342219e-08 1.432587e-08 1.404583e-08 1.456264e-08 1.643862e-08
1.466957e-08 1.503255e-08 1.625457e-08 1.528149e-08 1.593829e-08 1.590155e-08 1.684738e-08 1.639911e-08 1.667267e-08 1.828115e-08
1.678828e-08 1.773789e-08 1.850129e-08 1.754941e-08 1.834015e-08 1.949574e-08 1.834054e-08 1.925083e-08 1.705530e-08 1.788148e-08
1.752564e-08 1.718151e-08 1.880641e-08 1.923550e-08 1.880710e-08 1.759848e-08 1.836371e-08 1.842287e-08 1.884204e-08 1.811018e-08
1.741768e-08 1.815828e-08 1.506648e-08 1.886905e-08 1.714178e-08 1.764248e-08 1.671507e-08 1.694269e-08 1.727236e-08 1.757681e-08
1.763846e-08 1.486412e-08 1.765134e-08 1.569484e-08 1.863806e-08 1.700956e-08 1.639278e-08 1.723427e-08 1.863521e-08 1.716749e-08
1.800624e-08 1.904474e-08 1.793348e-08 1.730058e-08 1.825015e-08 1.763094e-08 1.822588e-08 1.895266e-08 1.774628e-08 1.771143e-08
1.943638e-08 1.858289e-08 1.791479e-08 1.809731e-08 1.676247e-08 1.710905e-08 1.827106e-08 1.744100e-08 1.822304e-08 1.737467e-08
1.719738e-08 1.634914e-08 1.705403e-08 1.632863e-08 1.679170e-08 1.643568e-08 1.535277e-08 1.539498e-08 1.547921e-08 1.487252e-08
1.569559e-08 1.577876e-08 1.379183e-08 1.369813e-08 1.360647e-08 1.406625e-08 1.308323e-08 1.381855e-08 1.275041e-08 1.344038e-08
1.308378e-08 1.283771e-08 1.065639e-08 1.188654e-08 1.087529e-08 1.191320e-08 1.082568e-08 1.159580e-08 1.131952e-08 1.006114e-08
9.651214e-09 8.647948e-09 9.357129e-09 7.203514e-09 7.441185e-09 6.833568e-09 5.376958e-09 6.103207e-09 6.176747e-09 5.417632e-09
5.872399e-09 5.145470e-09 6.316556e-09 4.858999e-09 2.512105e-09 2.971730e-09 4.465051e-09 4.804595e-09 3.314832e-09 4.554445e-09
9.438179e-10 2.007531e-09 3.256549e-09 6.292392e-10 9.288637e-10 1.627255e-09 7.090300e-10 1.277380e-10 5.270130e-10 6.790243e-10
5.803080e-12 3.691767e-10 -1.435676e-09 8.287190e-11 5.491762e-10 -4.007096e-11 -3.082403e-09 -1.576760e-09 -1.576878e-09 -2.314497e-09
-1.854902e-09 -2.715815e-09 -3.504158e-09 -5.834158e-09 -4.379545e-09 -4.727868e-09 -4.309134e-09 -4.501149e-09 -4.402868e-09 -3.657167e-09
-5.702671e-09 -6.928913e-09 -6.573418e-09 -6.774660e-09 -6.594405e-09 -8.352901e-09 -6.066415e-09 -7.948203e-09 -7.105760e-09 -8.803451e-09
-9.954206e-09 -9.584364e-09 -9.423197e-09 -9.834259e-09 -1.024196e-08 -1.166931e-08 -1.109403e-08 -1.025966e-08 -1.144456e-08 -1.419870e-08
-1.202938e-08 -1.330428e-08 -1.267180e-08 -1.381196e-08 -1.284406e-08 -1.419273e-08 -1.424975e-08 -1.467024e-08 -1.522157e-08 -1.518436e-08
-1.493532e-08 -1.503284e-08 -1.552134e-08 -1.541913e-08 -1.432668e-08 -1.582560e-08 -1.666538e-08 -1.688058e-08 -1.769971e-08 -1.704252e-08
-1.715314e-08 -1.731416e-08 -1.865080e-08 -1.851565e-08 -1.699446e-08 -1.758907e-08 -1.723200e-08 -1.759729e-08 -1.791500e-08 -1.808155e-08
-1.857076e-08 -1.819219e-08 -1.713734e-08 -1.822776e-08 -1.678638e-08 -1.834072e-08 -1.840862e-08 -2.012731e-08 -1.835734e-08 -1.871991e-08
-1.757327e-08 -1.813556e-08 -1.891689e-08 -1.881823e-08 -1.852780e-08 -1.628698e-08 -1.808096e-08 -1.699734e-08 -1.641684e-08 -1.705740e-08
-1.535403e-08 -1.575557e-08 -1.531068e-08 -1.671914e-08 -1.643162e-08 -1.595660e-08 -1.912601e-08 -1.648717e-08 -1.811435e-08 -1.866624e-08
-1.799750e-08 -1.718903e-08 -1.836527e-08 -1.903578e-08 -1.975121e-08 -1.887574e-08 -1.794198e-08 -1.866918e-08 -1.833906e-08 -1.826566e-08
-1.843595e-08 -1.903440e-08 -1.785605e-08 -1.908687e-08 -1.908498e-08 -1.848432e-08 -1.731654e-08 -1.767310e-08 -1.655362e-08 -1.802509e-08
-1.733693e-08 -1.717424e-08 -1.588318e-08 -1.628430e-08 -1.524297e-08 -1.652113e-08 -1.622894e-08 -1.427362e-08 -1.466532e-08 -1.482935e-08
-1.495481e-08 -1.405411e-08 -1.456463e-08 -1.415488e-08 -1.386085e-08 -1.361654e-08 -1.357855e-08 -1.424296e-08 -1.309075e-08 -1.270057e-08
-1.209142e-08 -1.240914e-08 -1.250522e-08 -1.160585e-08 -1.135724e-08 -1.010591e-08 -1.177223e-08 -9.946731e-09 -9.221426e-09 -1.017807e-08
-9.190753e-09 -8.964741e-09 -8.693227e-09 -7.156006e-09 -8.039617e-09 -6.496733e-09 -6.829663e-09 -5.843523e-09 -5.662955e-09 -4.799626e-09
-5.189099e-09 -6.805519e-09 -5.072421e-09 -6.349812e-09 -5.004292e-09 -5.854407e-09 -3.555686e-09 -2.733151e-09 -1.925076e-09 -3.312440e-09
-2.528777e-09 1.923020e-10 -1.586203e-09 -8.612840e-11 -2.057988e-09 -8.686259e-10 -1.469200e-09 -1.292046e-10 -9.389235e-10 -2.141989e-09
-2.687605e-10
-1.419232e-09 1.761142e-10 1.283768e-09 7.268894e-10 1.302201e-09 1.269471e-09 1.055414e-09 3.267352e-09 3.315276e-09 1.742581e-09
1.143916e-09 -8.371337e-11 4.345570e-09 2.149894e-09 3.877301e-09 4.444351e-09 5.334815e-09 5.279956e-09 6.239549e-09 5.317951e-09
5.073165e-09 6.311999e-09 5.290663e-09 8.437523e-09 6.574508e-09 7.372807e-09 7.845745e-09 8.460508e-09 7.769001e-09 9.456518e-09
8.253419e-09 1.030199e-08 1.039027e-08 1.174214e-08 1.090002e-08 1.075978e-08 1.082807e-08 1.136171e-08 1.172361e-08 1.216344e-08
1.276887e-08 1.290350e-08 1.285373e-08 1.231550e-08 1.342777e-08 1.372481e-08 1.392115e-08 1.469226e-08 1.548026e-08 1.472640e-08
1.615336e-08 1.493656e-08 1.484558e-08 1.745770e-08 1.787371e-08 1.641840e-08 1.750572e-08 1.543994e-08 1.662103e-08 1.852919e-08
1.674669e-08 1.754542e-08 1.694158e-08 1.883456e-08 1.805703e-08 1.745628e-08 1.824360e-08 1.728052e-08 1.907638e-08 1.789480e-08
1.783795e-08 2.009951e-08 1.910106e-08 1.808695e-08 1.756402e-08 1.824128e-08 1.854213e-08 1.775310e-08 2.000679e-08 1.834848e-08
1.662229e-08 1.689735e-08 1.706542e-08 1.839666e-08 1.566607e-08 1.728415e-08 1.887784e-08 1.514333e-08 1.718704e-08 1.683082e-08
1.653372e-08 1.672684e-08 1.578139e-08 1.616997e-08 1.795466e-08 1.736532e-08 1.812232e-08 1.820135e-08 1.830526e-08 1.739110e-08
1.852898e-08 1.817355e-08 1.889794e-08 1.784556e-08 2.050085e-08 1.834079e-08 1.898500e-08 1.883405e-08 1.860734e-08 1.844913e-08
1.727549e-08 1.899998e-08 1.794082e-08 1.896590e-08 1.865295e-08 1.730574e-08 1.749412e-08 1.764522e-08 1.750517e-08 1.708305e-08
1.772726e-08 1.662882e-08 1.705259e-08 1.583341e-08 1.734711e-08 1.702034e-08 1.615753e-08 1.550723e-08 1.537894e-08 1.513382e-08
1.565985e-08 1.377239e-08 1.534882e-08 1.398943e-08 1.460436e-08 1.377300e-08 1.329027e-08 1.206160e-08 1.297212e-08 1.226621e-08
1.215750e-08 1.288915e-08 1.179060e-08 1.119331e-08 1.184320e-08 1.066966e-08 1.189861e-08 1.048634e-08 9.189492e-09 9.256322e-09
9.949436e-09 8.678318e-09 7.358555e-09 9.001138e-09 7.753059e-09 6.673346e-09 8.699675e-09 8.588413e-09 5.675133e-09 6.059624e-09
5.965050e-09 4.672373e-09 5.977845e-09 2.625500e-09 4.177277e-09 5.154686e-09 2.805668e-09 3.199543e-09 2.269962e-09 2.355780e-09
3.135297e-09 2.123350e-09 1.932445e-09 4.355439e-10 1.809138e-09 1.147020e-09 -1.126654e-11 -1.222567e-09 -9.522357e-10 1.223348e-09
-1.252205e-09 1.884822e-10 -9.416294e-10 -1.389646e-09 -1.264782e-09 -1.164270e-09 -2.622200e-09 -7.203885e-12 -2.216168e-09 -1.027794e-09
-2.956785e-09 -4.365438e-09 -2.577248e-09 -2.914381e-09 -4.567429e-09 -3.883479e-09 -3.987489e-09 -4.363562e-09 -5.966663e-09 -5.373397e-09
-6.970795e-09 -4.840193e-09 -5.514542e-09 -7.382143e-09 -7.066711e-09 -6.474213e-09 -9.941736e-09 -7.815927e-09 -9.133003e-09 -8.676614e-09
-8.096706e-09 -9.724336e-09 -1.000852e-08 -1.011519e-08 -9.530075e-09 -1.255770e-08 -1.209914e-08 -1.377414e-08 -1.230385e-08 -1.215921e-08
-1.202240e-08 -1.354927e-08 -1.284064e-08 -1.289072e-08 -1.370129e-08 -1.350164e-08 -1.363043e-08 -1.466618e-08 -1.478684e-08 -1.452398e-08
-1.555416e-08 -1.500045e-08 -1.579556e-08 -1.720665e-08 -1.563472e-08 -1.661566e-08 -1.706281e-08 -1.695609e-08 -1.660373e-08 -1.805567e-08
-1.767781e-08 -1.779013e-08 -1.755514e-08 -1.705394e-08 -1.782399e-08 -1.703432e-08 -1.765805e-08 -1.712970e-08 -1.749736e-08 -1.725627e-08
-1.787271e-08 -1.829167e-08 -1.589001e-08 -1.887867e-08 -1.832326e-08 -1.911826e-08 -1.840769e-08 -1.775131e-08 -1.956354e-08 -1.703462e-08
-1.844907e-08 -1.764281e-08 -1.842026e-08 -1.684594e-08 -1.630300e-08 -1.644800e-08 -1.627233e-08 -1.715321e-08 -1.637987e-08 -1.627946e-08
-1.541472e-08 -1.570020e-08 -1.700523e-08 -1.766231e-08 -1.611896e-08 -1.594937e-08 -1.686404e-08 -1.707706e-08 -1.791101e-08 -1.716382e-08
-1.852548e-08 -1.889225e-08 -1.773285e-08 -2.012920e-08 -1.776461e-08 -1.778606e-08 -1.905331e-08 -1.951547e-08 -1.822799e-08 -1.819868e-08
-1.946589e-08 -1.785600e-08 -1.806182e-08 -1.785531e-08 -1.836383e-08 -1.818401e-08 -1.807407e-08 -1.746238e-08 -1.713224e-08 -1.770204e-08
-1.632657e-08 -1.573793e-08 -1.687005e-08 -1.744617e-08 -1.746925e-08 -1.663632e-08 -1.574005e-08 -1.575059e-08 -1.672226e-08 -1.438152e-08
-1.524744e-08 -1.591447e-08 -1.378808e-08 -1.494761e-08 -1.368413e-08 -1.308578e-08 -1.306072e-08 -1.363963e-08 -1.186690e-08 -1.210997e-08
-1.367826e-08 -1.198865e-08 -1.243630e-08 -1.147694e-08 -1.146208e-08 -1.081011e-08 -9.450081e-09 -9.178406e-09 -9.223052e-09 -1.011189e-08
-9.247461e-09 -8.488159e-09 -7.531793e-09 -6.874563e-09 -9.454721e-09 -8.888531e-09 -6.440658e-09 -5.267896e-09 -6.362848e-09 -6.455444e-09
-5.335979e-09 -5.832373e-09 -4.706842e-09 -4.992297e-09 -4.241238e-09 -5.085914e-09 -5.542155e-09 -4.237620e-09 -3.868899e-09 -3.369587e-09
-3.237042e-09 -2.877621e-09 -1.515563e-09 -2.549262e-09 -2.405933e-09 -8.060597e-10 -4.513373e-10 -1.583993e-09 2.913457e-11 3.158387e-10
-1.419232e-09
1.835649e-09 -6.675605e-12 1.136257e-10 2.274330e-09 -7.129509e-10 1.493917e-09 2.384541e-09 3.994669e-09 2.039234e-09 2.703808e-09
2.893520e-09 1.868638e-09 3.392297e-09 3.074295e-09 3.531951e-09 4.682201e-09 4.797627e-09 5.434206e-09 5.120787e-09 6.496479e-09
4.881504e-09 6.388555e-09 6.604195e-09 7.034510e-09 7.792835e-09 7.517327e-09 7.447909e-09 8.183034e-09 8.499068e-09 9.190380e-09
9.572093e-09 1.010217e-08 9.898490e-09 1.003959e-08 1.086609e-08 1.088977e-08 1.124758e-08 1.192097e-08 1.255038e-08 1.242339e-08
1.203180e-08 1.325346e-08 1.319278e-08 1.366674e-08 1.375203e-08 1.427845e-08 1.463728e-08 1.522356e-08 1.575638e-08 1.443949e-08
1.499990e-08 1.656107e-08 1.582087e-08 1.704457e-08 1.567473e-08 1.704918e-08 1.647751e-08 1.645251e-08 1.592158e-08 1.735895e-08
1.808721e-08 1.816739e-08 1.773329e-08 1.767985e-08 1.872848e-08 2.000288e-08 1.778615e-08 1.753859e-08 1.998794e-08 1.832094e-08
1.812827e-08 1.863845e-08 1.888466e-08 1.796217e-08 1.799355e-08 1.919459e-08 1.890325e-08 1.766811e-08 1.775911e-08 1.858089e-08
1.961953e-08 1.773103e-08 1.792112e-08 1.884328e-08 1.706851e-08 1.703686e-08 1.753419e-08 1.689080e-08 1.813400e-08 1.745435e-08
1.801118e-08 1.760671e-08 1.725992e-08 1.661816e-08 1.712060e-08 1.840530e-08 1.851824e-08 1.801154e-08 1.700801e-08 1.723489e-08
1.883383e-08 1.741395e-08 1.880052e-08 1.695161e-08 1.837952e-08 1.811599e-08 1.720472e-08 1.688852e-08 1.753765e-08 1.759905e-08
1.765834e-08 1.795447e-08 1.917527e-08 1.856827e-08 1.868226e-08 1.999970e-08 1.665521e-08 1.885676e-08 1.794903e-08 1.716627e-08
1.637716e-08 1.770723e-08 1.791258e-08 1.750833e-08 1.674364e-08 1.635441e-08 1.590740e-08 1.568102e-08 1.765599e-08 1.566182e-08
1.654305e-08 1.499858e-08 1.365987e-08 1.482465e-08 1.344770e-08 1.426015e-08 1.404605e-08 1.442600e-08 1.224195e-08 1.221476e-08
1.331623e-08 1.216489e-08 1.182069e-08 1.047784e-08 1.204837e-08 1.085083e-08 1.075905e-08 9.971377e-09 9.673676e-09 8.768972e-09
9.209288e-09 8.786436e-09 7.391743e-09 7.696364e-09 6.886499e-09 8.231333e-09 7.155366e-09 6.589526e-09 7.084305e-09 5.743817e-09
6.713699e-09 5.296602e-09 4.388318e-09 3.909705e-09 3.267969e-09 3.326821e-09 2.934723e-09 4.242528e-09 3.471582e-09 2.716128e-09
1.910037e-09 1.494619e-09 1.896810e-09 1.799004e-09 7.974030e-10 1.317107e-09 2.824818e-10 5.817090e-10 7.938988e-10 2.095510e-09
-5.324532e-10 2.634855e-10 1.400620e-09 -1.450785e-09 2.474644e-10 -7.499246e-10 -1.563798e-09 -2.560543e-09 -3.479134e-09 -3.866559e-09
-1.511792e-09 -2.475091e-09 -4.299268e-09 -3.896515e-09 -5.953204e-09 -4.880178e-09 -6.098861e-09 -5.780057e-09 -4.907561e-09 -4.633501e-09
-6.255416e-09 -5.182482e-09 -7.615512e-09 -8.354196e-09 -8.252019e-09 -6.173565e-09 -6.400404e-09 -7.728993e-09 -8.645967e-09 -8.801782e-09
-8.533718e-09 -8.976525e-09 -9.727439e-09 -1.036376e-08 -1.031749e-08 -1.156355e-08 -1.007942e-08 -1.083139e-08 -1.199471e-08 -1.175688e-08
-1.274851e-08 -1.368694e-08 -1.291181e-08 -1.295275e-08 -1.472361e-08 -1.484914e-08 -1.408115e-08 -1.531913e-08 -1.536404e-08 -1.559281e-08
-1.614919e-08 -1.527354e-08 -1.647265e-08 -1.636355e-08 -1.597746e-08 -1.550681e-08 -1.770240e-08 -1.661189e-08 -1.677166e-08 -1.685332e-08
-1.793415e-08 -1.665924e-08 -1.728591e-08 -1.782329e-08 -1.759978e-08 -1.809702e-08 -1.721146e-08 -1.836739e-08 -1.921979e-08 -1.904424e-08
-1.913900e-08 -1.990126e-08 -1.925957e-08 -1.754174e-08 -1.824596e-08 -1.884718e-08 -1.843609e-08 -1.857546e-08 -1.819850e-08 -1.816251e-08
-1.937457e-08 -1.802006e-08 -1.853609e-08 -1.734210e-08 -1.740977e-08 -1.815901e-08 -1.835619e-08 -1.872580e-08 -1.681368e-08 -1.851560e-08
-1.627757e-08 -1.729355e-08 -1.668569e-08 -1.480957e-08 -1.657025e-08 -1.809856e-08 -1.753435e-08 -1.705336e-08 -1.774276e-08 -1.838222e-08
-1.930095e-08 -1.873265e-08 -1.839861e-08 -1.813814e-08 -1.985684e-08 -1.791310e-08 -1.872673e-08 -1.652715e-08 -1.927663e-08 -1.866750e-08
-1.818232e-08 -1.905552e-08 -1.919337e-08 -1.710110e-08 -1.838396e-08 -1.983137e-08 -1.801024e-08 -1.704905e-08 -1.783713e-08 -1.796403e-08
-1.718222e-08 -1.769250e-08 -1.667430e-08 -1.640587e-08 -1.678263e-08 -1.674030e-08 -1.599061e-08 -1.609756e-08 -1.623529e-08 -1.478784e-08
-1.498824e-08 -1.649346e-08 -1.483933e-08 -1.463600e-08 -1.463375e-08 -1.419261e-08 -1.364140e-08 -1.409119e-08 -1.223763e-08 -1.311915e-08
-1.210354e-08 -1.192235e-08 -1.385987e-08 -1.228176e-08 -1.199575e-08 -1.127775e-08 -1.025000e-08 -9.716679e-09 -1.003425e-08 -1.077310e-08
-8.547282e-09 -9.219068e-09 -9.135920e-09 -8.740202e-09 -8.926997e-09 -8.299849e-09 -8.280402e-09 -7.225123e-09 -8.089951e-09 -5.562780e-09
-4.155452e-09 -6.280394e-09 -4.447496e-09 -3.015292e-09 -7.069036e-09 -5.229062e-09 -3.375528e-09 -4.363872e-09 -4.191867e-09 -3.628490e-09
-3.374727e-09 -2.030043e-09 -3.773874e-10 -1.493613e-09 1.555315e-11 -2.328610e-09 -7.044323e-10 5.701249e-10 7.425732e-10 1.780118e-09
1.835649e-09
-1.692764e-09 -2.051208e-10 1.668480e-09 7.357859e-10 8.647036e-10 8.201955e-10 9.330653e-10 2.151853e-09 2.745367e-09 3.348010e-09
3.475684e-09 4.089876e-09 3.619922e-09 4.287988e-09 5.199861e-09 4.493466e-09 4.227001e-09 5.576312e-09 4.580942e-09 5.695179e-09
6.617421e-09 5.369873e-09 5.998264e-09 6.333547e-09 7.312643e-09 8.808491e-09 8.091770e-09 8.374582e-09 8.919819e-09 9.957271e-09
9.130029e-09 8.916001e-09 1.019358e-08 1.234922e-08 1.128612e-08 1.110865e-08 1.095254e-08 1.095092e-08 1.226843e-08 1.223457e-08
1.315896e-08 1.199652e-08 1.373765e-08 1.282566e-08 1.524146e-08 1.411137e-08 1.600936e-08 1.494422e-08 1.550533e-08 1.570839e-08
1.548434e-08 1.600114e-08 1.662207e-08 1.666975e-08 1.644544e-08 1.576546e-08 1.789812e-08 1.633000e-08 1.730603e-08 1.683435e-08
1.714641e-08 1.768778e-08 1.757154e-08 1.820687e-08 1.710313e-08 1.748589e-08 1.760611e-08 1.879174e-08 1.914069e-08 1.849977e-08
1.925124e-08 1.800743e-08 1.943322e-08 1.821819e-08 1.828569e-08 1.768400e-08 1.944091e-08 1.828409e-08 1.850746e-08 1.835402e-08
1.814832e-08 1.895035e-08 1.757819e-08 1.727482e-08 1.835311e-08 1.783254e-08 1.805272e-08 1.722464e-08 1.760605e-08 1.597662e-08
1.656946e-08 1.828144e-08 1.778362e-08 1.795000e-08 1.724644e-08 1.806945e-08 1.821214e-08 1.801693e-08 1.795350e-08 1.689959e-08
1.813043e-08 1.917411e-08 1.850749e-08 1.990402e-08 1.788732e-08 1.879580e-08 1.903460e-08 1.782433e-08 1.948929e-08 1.904802e-08
1.689493e-08 1.881535e-08 1.943909e-08 1.947275e-08 1.848166e-08 1.752811e-08 1.876529e-08 1.778632e-08 1.806069e-08 1.646618e-08
1.827710e-08 1.684000e-08 1.711320e-08 1.647334e-08 1.666083e-08 1.734231e-08 1.607958e-08 1.595297e-08 1.658650e-08 1.577079e-08
1.555594e-08 1.493241e-08 1.560821e-08 1.455994e-08 1.422925e-08 1.333928e-08 1.319308e-08 1.322041e-08 1.303191e-08 1.336581e-08
1.232012e-08 1.220726e-08 1.165260e-08 1.216119e-08 1.334206e-08 1.075683e-08 1.131172e-08 9.415500e-09 1.014525e-08 9.575193e-09
9.850591e-09 8.510818e-09 8.527365e-09 8.678573e-09 7.423743e-09 7.950343e-09 8.534733e-09 7.717582e-09 6.546025e-09 5.699981e-09
6.381201e-09 5.867455e-09 5.306038e-09 5.791412e-09 4.191166e-09 3.621292e-09 3.375840e-09 3.576834e-09 2.578445e-09 1.696976e-09
1.672444e-09 1.919095e-09 1.544423e-09 9.957556e-10 1.444728e-09 1.975158e-09 -3.892659e-10 2.983839e-11 5.817321e-10 5.989479e-10
3.415418e-10 1.457614e-09 -4.573007e-10 -1.473848e-09 -1.758674e-09 -8.159266e-11 5.477414e-10 -3.190963e-09 -1.906822e-09 -5.962917e-10
-2.743029e-09 -4.460767e-09 -2.363653e-09 -1.972437e-09 -4.177910e-09 -3.770176e-09 -3.072210e-09 -5.864930e-09 -6.566484e-09 -6.567203e-09
-6.065866e-09 -7.905579e-09 -8.072487e-09 -7.681563e-09 -7.032633e-09 -8.715792e-09 -7.074894e-09 -8.521011e-09 -8.787056e-09 -8.535206e-09
-1.004284e-08 -9.567184e-09 -1.038692e-08 -9.967327e-09 -1.118602e-08 -1.088347e-08 -1.039149e-08 -1.205191e-08 -1.258430e-08 -1.427606e-08
-1.210299e-08 -1.313208e-08 -1.486988e-08 -1.264305e-08 -1.350962e-08 -1.368907e-08 -1.367840e-08 -1.439049e-08 -1.500916e-08 -1.456755e-08
-1.506577e-08 -1.503502e-08 -1.767974e-08 -1.638654e-08 -1.653601e-08 -1.712513e-08 -1.687714e-08 -1.723338e-08 -1.746484e-08 -1.747103e-08
-1.783150e-08 -1.724656e-08 -1.740342e-08 -1.724783e-08 -1.709105e-08 -1.760027e-08 -1.833729e-08 -1.984535e-08 -1.887951e-08 -1.750081e-08
-1.805928e-08 -1.886000e-08 -1.802908e-08 -1.894911e-08 -1.753331e-08 -1.825972e-08 -1.775241e-08 -1.902546e-08 -1.798369e-08 -1.738926e-08
-1.880240e-08 -1.806434e-08 -1.907858e-08 -1.737469e-08 -1.949323e-08 -1.700681e-08 -1.560289e-08 -1.726190e-08 -1.733803e-08 -1.653747e-08
-1.687649e-08 -1.783661e-08 -1.752916e-08 -1.879672e-08 -1.725667e-08 -1.726795e-08 -1.737741e-08 -1.828002e-08 -1.733338e-08 -1.842073e-08
-1.713454e-08 -1.860086e-08 -1.802523e-08 -1.962199e-08 -1.739061e-08 -1.790799e-08 -1.763443e-08 -1.864306e-08 -2.056025e-08 -1.905476e-08
-1.879681e-08 -1.891551e-08 -1.820885e-08 -1.951738e-08 -1.808760e-08 -1.918570e-08 -1.763039e-08 -1.749273e-08 -1.800944e-08 -1.831078e-08
-1.746145e-08 -1.724380e-08 -1.612798e-08 -1.689384e-08 -1.757491e-08 -1.581406e-08 -1.728340e-08 -1.623469e-08 -1.577489e-08 -1.512225e-08
-1.559277e-08 -1.489300e-08 -1.528315e-08 -1.537388e-08 -1.446945e-08 -1.491453e-08 -1.293192e-08 -1.432258e-08 -1.308574e-08 -1.297350e-08
-1.375674e-08 -1.240359e-08 -1.141278e-08 -1.112273e-08 -1.218106e-08 -1.122141e-08 -1.048978e-08 -9.424666e-09 -1.030663e-08 -1.002241e-08
-1.091492e-08 -9.385210e-09 -9.563277e-09 -8.053365e-09 -8.973630e-09 -7.553084e-09 -7.669610e-09 -5.328136e-09 -8.041671e-09 -5.446868e-09
-4.086671e-09 -5.411567e-09 -5.475378e-09 -4.135887e-09 -5.300031e-09 -5.102942e-09 -3.827745e-09 -2.379017e-09 -2.955985e-09 -2.137761e-09
-2.943350e-09 -3.276390e-09 -2.031492e-09 -1.186741e-09 -2.179753e-09 -1.530638e-09 -7.706296e-10 -4.983981e-10 1.937158e-10 -1.184810e-09
-1.692764e-09
5.135397e-10 -3.143277e-10 1.275832e-09 -7.557525e-10 7.713714e-10 5.125831e-10 2.170797e-09 1.557310e-09 3.207316e-09 2.692103e-09
3.092716e-09 5.348063e-09 3.615391e-09 4.934925e-09 4.035555e-09 4.982337e-09 4.525651e-09 4.941171e-09 6.179454e-09 5.585698e-09
5.259596e-09 6.527019e-09 6.050262e-09 8.277170e-09 8.335225e-09 7.840229e-09 8.309172e-09 8.906421e-09 1.004281e-08 8.582385e-09
9.322506e-09 1.146570e-08 1.043774e-08 9.996671e-09 1.176237e-08 1.166000e-08 1.224133e-08 1.197272e-08 1.301849e-08 1.399733e-08
1.353484e-08 1.348005e-08 1.312329e-08 1.434665e-08 1.391589e-08 1.441395e-08 1.495511e-08 1.462441e-08 1.562027e-08 1.540691e-08
1.547607e-08 1.679848e-08 1.600445e-08 1.602290e-08 1.674174e-08 1.791800e-08 1.696673e-08 1.729737e-08 1.801565e-08 1.763567e-08
1.699518e-08 1.898832e-08 1.937407e-08 1.858370e-08 1.729642e-08 1.813153e-08 1.959017e-08 1.822024e-08 1.834378e-08 1.922030e-08
1.866655e-08 1.848585e-08 1.872251e-08 1.861523e-08 1.817658e-08 1.944409e-08 1.841956e-08 1.937761e-08 1.801955e-08 1.907531e-08
1.778747e-08 1.876686e-08 1.745384e-08 1.927189e-08 1.719954e-08 1.743151e-08 1.755699e-08 1.700355e-08 1.770958e-08 1.713903e-08
1.791362e-08 1.810518e-08 1.706699e-08 1.717102e-08 1.663099e-08 1.969212e-08 1.792855e-08 1.674333e-08 1.801075e-08 1.854972e-08
1.865917e-08 1.840598e-08 1.842911e-08 1.883062e-08 1.873272e-08 1.860309e-08 1.865600e-08 1.653364e-08 1.877218e-08 1.887784e-08
1.903135e-08 1.876717e-08 1.791749e-08 1.838763e-08 1.888880e-08 1.838735e-08 1.869694e-08 1.858631e-08 1.743808e-08 1.799880e-08
1.694625e-08 1.753925e-08 1.660518e-08 1.750258e-08 1.625304e-08 1.724489e-08 1.537424e-08 1.598622e-08 1.704454e-08 1.555628e-08
1.519422e-08 1.524342e-08 1.547234e-08 1.402202e-08 1.403427e-08 1.372862e-08 1.416036e-08 1.367137e-08 1.395376e-08 1.204884e-08
1.236585e-08 1.223886e-08 1.205969e-08 1.239585e-08 1.138238e-08 1.206480e-08 1.088057e-08 1.024365e-08 1.012985e-08 8.809241e-09
9.301000e-09 7.941353e-09 8.359383e-09 7.850696e-09 7.836420e-09 7.112869e-09 7.076506e-09 6.453129e-09 6.367062e-09 5.466541e-09
5.752627e-09 4.972283e-09 5.144010e-09 4.788057e-09 3.881699e-09 4.777232e-09 2.512619e-09 1.748315e-09 2.476099e-09 2.637286e-09
3.532950e-09 2.521436e-09 3.044715e-09 2.037056e-09 2.381123e-09 2.215579e-09 9.418692e-10 -7.645346e-11 -6.609797e-10 -1.594498e-09
-1.577872e-10 -1.095303e-09 -1.632031e-09 2.200479e-10 -6.357741e-10 -2.294790e-09 -2.479871e-09 -2.016572e-09 -2.809678e-09 -3.238721e-10
-2.518334e-09 -3.477809e-09 -2.635940e-09 -2.869794e-09 -3.328867e-09 -3.817340e-09 -3.661365e-09 -3.816793e-09 -6.241645e-09 -4.481636e-09
-6.448146e-09 -6.234037e-09 -6.258975e-09 -6.479754e-09 -7.451137e-09 -7.488087e-09 -7.148190e-09 -9.559844e-09 -1.007398e-08 -1.107964e-08
-8.721149e-09 -8.800462e-09 -1.111647e-08 -1.048387e-08 -1.074760e-08 -1.241003e-08 -1.266980e-08 -1.061661e-08 -1.245387e-08 -1.341233e-08
-1.245882e-08 -1.451977e-08 -1.483201e-08 -1.326020e-08 -1.384240e-08 -1.405625e-08 -1.491627e-08 -1.496930e-08 -1.475945e-08 -1.535145e-08
-1.581837e-08 -1.618977e-08 -1.487427e-08 -1.553122e-08 -1.673597e-08 -1.611926e-08 -1.623279e-08 -1.670146e-08 -1.662438e-08 -1.807106e-08
-1.823412e-08 -1.809624e-08 -1.938005e-08 -1.841724e-08 -1.730890e-08 -1.823715e-08 -1.793447e-08 -1.854180e-08 -1.739307e-08 -1.816257e-08
-1.904991e-08 -1.713885e-08 -1.765237e-08 -1.782476e-08 -1.925536e-08 -1.821108e-08 -2.072253e-08 -1.895014e-08 -1.909420e-08 -1.833245e-08
-1.681411e-08 -1.813213e-08 -1.718113e-08 -1.963971e-08 -2.027556e-08 -1.758454e-08 -1.681284e-08 -1.619993e-08 -1.600425e-08 -1.862565e-08
-1.825861e-08 -1.570843e-08 -1.794097e-08 -1.798146e-08 -1.789219e-08 -1.824227e-08 -1.822614e-08 -1.823312e-08 -1.938938e-08 -1.889567e-08
-1.897857e-08 -1.823387e-08 -1.943990e-08 -1.912925e-08 -1.975934e-08 -2.086463e-08 -1.818994e-08 -1.910837e-08 -1.941803e-08 -1.944941e-08
-1.891325e-08 -1.918101e-08 -1.947785e-08 -1.956462e-08 -1.939015e-08 -1.860816e-08 -1.859324e-08 -1.871056e-08 -1.715344e-08 -1.737324e-08
-1.783579e-08 -1.677485e-08 -1.803497e-08 -1.712771e-08 -1.771014e-08 -1.698500e-08 -1.630944e-08 -1.647054e-08 -1.827673e-08 -1.651397e-08
-1.637426e-08 -1.584779e-08 -1.600232e-08 -1.491317e-08 -1.442504e-08 -1.507429e-08 -1.462379e-08 -1.471248e-08 -1.321124e-08 -1.348268e-08
-1.495226e-08 -1.369488e-08 -1.219669e-08 -1.220769e-08 -1.108531e-08 -1.058437e-08 -9.785261e-09 -9.740817e-09 -1.055825e-08 -1.030627e-08
-1.028808e-08 -1.013542e-08 -8.848396e-09 -8.253243e-09 -8.420859e-09 -7.068966e-09 -6.775084e-09 -6.735759e-09 -6.254668e-09 -7.089326e-09
-8.542460e-09 -6.484222e-09 -4.591240e-09 -4.101544e-09 -5.474434e-09 -6.564003e-09 -4.130932e-09 -3.778515e-09 -2.663932e-09 -2.642097e-09
-1.855670e-09 -1.505952e-09 -2.961382e-09 -3.679281e-10 -1.965165e-09 -1.929748e-09 -3.016385e-10 -1.350076e-09 -1.788104e-10 1.222442e-10
5.135397e-10
2.730382e-10 2.552002e-10 3.616022e-09 2.941818e-09 2.154706e-09 1.707639e-09 3.018111e-09 3.644877e-09 2.151478e-09 3.238540e-09
1.434995e-09 2.749858e-09 3.162378e-09 4.519878e-09 3.125882e-09 3.828962e-09 4.836254e-09 4.037755e-09 7.573568e-09 6.006289e-09
5.420203e-09 7.167051e-09 7.132559e-09 7.390986e-09 7.359240e-09 7.718858e-09 9.419001e-09 1.060847e-08 8.666493e-09 8.894093e-09
9.855459e-09 1.007488e-08 1.124608e-08 1.130696e-08 1.015153e-08 1.209334e-08 1.117722e-08 1.168074e-08 1.271383e-08 1.275754e-08
1.274499e-08 1.271608e-08 1.365296e-08 1.441594e-08 1.670974e-08 1.593153e-08 1.548485e-08 1.493421e-08 1.534563e-08 1.626757e-08
1.649667e-08 1.535378e-08 1.583916e-08 1.619325e-08 1.651720e-08 1.690533e-08 1.759578e-08 1.842037e-08 1.730276e-08 1.733112e-08
1.754483e-08 1.742145e-08 1.822680e-08 1.919403e-08 1.829088e-08 1.954529e-08 1.874947e-08 1.852015e-08 1.910025e-08 1.944924e-08
1.994719e-08 1.818077e-08 1.788334e-08 2.012566e-08 1.850120e-08 1.989240e-08 1.906645e-08 1.848318e-08 1.881782e-08 1.838178e-08
1.837900e-08 1.834739e-08 1.677525e-08 1.801031e-08 1.843413e-08 1.772684e-08 1.623864e-08 1.924268e-08 1.858025e-08 1.765926e-08
1.675257e-08 1.702792e-08 1.843684e-08 1.881565e-08 1.871917e-08 1.729350e-08 1.746611e-08 1.870263e-08 1.863966e-08 1.936290e-08
1.852284e-08 1.932062e-08 1.783342e-08 1.824697e-08 1.754315e-08 1.981787e-08 1.994667e-08 1.863159e-08 1.837831e-08 1.961345e-08
1.893162e-08 1.976458e-08 1.895363e-08 1.830504e-08 1.943485e-08 1.842709e-08 1.879814e-08 1.833432e-08 1.731996e-08 1.873816e-08
1.793273e-08 1.762873e-08 1.733148e-08 1.722738e-08 1.689034e-08 1.717378e-08 1.679447e-08 1.803827e-08 1.633599e-08 1.559279e-08
1.542705e-08 1.479193e-08 1.568995e-08 1.701394e-08 1.415115e-08 1.383738e-08 1.543831e-08 1.384286e-08 1.447000e-08 1.256498e-08
1.228173e-08 1.264856e-08 1.193552e-08 1.258453e-08 1.146410e-08 1.075860e-08 1.153134e-08 9.442185e-09 1.052158e-08 9.975204e-09
9.635560e-09 9.382332e-09 8.533918e-09 8.259115e-09 9.026657e-09 7.059571e-09 9.506612e-09 6.134405e-09 5.632323e-09 8.394612e-09
5.932196e-09 5.705919e-09 4.946324e-09 4.540011e-09 2.207152e-09 5.756230e-09 3.387057e-09 1.695917e-09 3.302316e-09 2.935584e-09
3.516274e-09 3.266922e-09 1.115567e-09 2.758642e-09 7.479840e-10 2.707395e-09 -7.959356e-11 -4.432784e-10 -2.635790e-10 1.103702e-10
-1.720954e-09 4.012399e-10 -1.821425e-09 -1.324768e-09 -2.635570e-09 3.801051e-10 -8.079846e-10 -1.549527e-09 -1.731355e-09 -2.315935e-09
-2.137049e-09 -2.348561e-09 -1.528831e-09 -3.558830e-09 -2.715740e-09 -5.792856e-09 -4.853837e-09 -6.440102e-09 -5.326198e-09 -5.294126e-09
-6.427324e-09 -6.742985e-09 -5.826414e-09 -7.624569e-09 -8.541302e-09 -8.121886e-09 -7.661632e-09 -9.284160e-09 -1.058935e-08 -9.185539e-09
-9.578552e-09 -1.085272e-08 -9.681082e-09 -1.150342e-08 -1.085526e-08 -1.137978e-08 -1.313991e-08 -1.180334e-08 -1.132269e-08 -1.402426e-08
-1.391143e-08 -1.386562e-08 -1.326564e-08 -1.321757e-08 -1.349583e-08 -1.451717e-08 -1.521031e-08 -1.380463e-08 -1.559142e-08 -1.584899e-08
-1.683998e-08 -1.684352e-08 -1.672761e-08 -1.612414e-08 -1.702357e-08 -1.694433e-08 -1.649895e-08 -1.772461e-08 -1.772848e-08 -1.916982e-08
-1.752802e-08 -1.833123e-08 -1.815854e-08 -1.812573e-08 -1.872365e-08 -1.912154e-08 -1.836179e-08 -1.914178e-08 -1.860852e-08 -1.931024e-08
-1.922751e-08 -1.896193e-08 -1.866603e-08 -1.868272e-08 -1.966211e-08 -1.851729e-08 -1.923947e-08 -1.938149e-08 -1.810248e-08 -1.828153e-08
-1.805835e-08 -1.955750e-08 -1.785571e-08 -1.784945e-08 -1.895342e-08 -1.593587e-08 -1.767103e-08 -1.848642e-08 -1.710182e-08 -1.659835e-08
-1.923999e-08 -1.697399e-08 -1.725757e-08 -1.618878e-08 -1.783699e-08 -1.746922e-08 -1.798388e-08 -1.951732e-08 -1.775229e-08 -1.846888e-08
-1.962272e-08 -2.117491e-08 -1.845469e-08 -1.843974e-08 -1.937952e-08 -1.902131e-08 -1.970222e-08 -1.797240e-08 -1.846209e-08 -1.977699e-08
-1.935957e-08 -1.967641e-08 -1.948162e-08 -1.948751e-08 -1.924876e-08 -1.846593e-08 -1.726688e-08 -1.796434e-08 -1.800513e-08 -1.834371e-08
-1.793996e-08 -1.796643e-08 -1.829333e-08 -1.730114e-08 -1.839103e-08 -1.842128e-08 -1.648506e-08 -1.739112e-08 -1.567905e-08 -1.684840e-08
-1.556960e-08 -1.597530e-08 -1.460280e-08 -1.488302e-08 -1.502468e-08 -1.517336e-08 -1.419117e-08 -1.328772e-08 -1.372797e-08 -1.310054e-08
-1.281991e-08 -1.287172e-08 -1.316808e-08 -1.126016e-08 -1.284043e-08 -1.235608e-08 -1.107740e-08 -1.186684e-08 -9.501018e-09 -1.042352e-08
-1.148374e-08 -8.470034e-09 -9.798165e-09 -7.060759e-09 -6.390747e-09 -7.315517e-09 -7.630243e-09 -8.078362e-09 -5.248917e-09 -5.925473e-09
-6.621258e-09 -5.252081e-09 -6.579231e-09 -5.036215e-09 -2.922601e-09 -4.587017e-09 -4.873118e-09 -5.032741e-09 -2.702548e-09 -5.008447e-09
-2.439774e-09 -3.986051e-09 -3.492682e-09 -3.038703e-09 -1.437058e-10 -2.566537e-09 4.787057e-10 -1.984257e-09 -7.894250e-10 -1.266276e-09
2.730382e-10
1.177984e-09 5.631718e-10 -1.716982e-09 2.635944e-10 1.330637e-09 1.235478e-09 2.619089e-09 2.127221e-09 2.909340e-09 4.231923e-09
3.165884e-09 1.852065e-09 4.456833e-09 4.444543e-09 5.884063e-09 5.790539e-09 5.733817e-09 3.592160e-09 5.534473e-09 6.868206e-09
6.621070e-09 6.868214e-09 6.579976e-09 6.319948e-09 6.924071e-09 7.502018e-09 6.978495e-09 8.980138e-09 9.757627e-09 8.768032e-09
9.596200e-09 9.646619e-09 1.033013e-08 1.166142e-08 1.069467e-08 1.159724e-08 1.275429e-08 1.215165e-08 1.280346e-08 1.439813e-08
1.354015e-08 1.306632e-08 1.527043e-08 1.385248e-08 1.455251e-08 1.569372e-08 1.595315e-08 1.672019e-08 1.531265e-08 1.550166e-08
1.545004e-08 1.585160e-08 1.553640e-08 1.604830e-08 1.754032e-08 1.785528e-08 1.825238e-08 1.726846e-08 1.729884e-08 1.758651e-08
1.843357e-08 1.933344e-08 1.789603e-08 1.804600e-08 1.777113e-08 1.935426e-08 1.762558e-08 1.969579e-08 1.914628e-08 1.930627e-08
1.918910e-08 1.870292e-08 1.764757e-08 2.061577e-08 2.020264e-08 1.885883e-08 1.925321e-08 2.009535e-08 1.852450e-08 1.830549e-08
1.807535e-08 1.854718e-08 1.815352e-08 1.967841e-08 1.882176e-08 1.664377e-08 1.795851e-08 1.852001e-08 1.829491e-08 1.779965e-08
1.615031e-08 1.779176e-08 1.952209e-08 1.805964e-08 1.919052e-08 1.831963e-08 1.830868e-08 1.814063e-08 1.861246e-08 1.836368e-08
1.846216e-08 1.967232e-08 1.785303e-08 1.968511e-08 1.895085e-08 2.051320e-08 1.722929e-08 1.924358e-08 1.807188e-08 1.859517e-08
1.825229e-08 1.916354e-08 1.956217e-08 1.915096e-08 1.848249e-08 1.874140e-08 1.930983e-08 1.896036e-08 1.809047e-08 1.837886e-08
1.885651e-08 1.869185e-08 1.824769e-08 1.783587e-08 1.633983e-08 1.770767e-08 1.826196e-08 1.538705e-08 1.569620e-08 1.733330e-08
1.641197e-08 1.647661e-08 1.432544e-08 1.470322e-08 1.438941e-08 1.426667e-08 1.420119e-08 1.468511e-08 1.327935e-08 1.298474e-08
1.309411e-08 1.329458e-08 1.128200e-08 1.299338e-08 1.346021e-08 1.165817e-08 1.067519e-08 1.112860e-08 9.649287e-09 1.036242e-08
9.458045e-09 8.687941e-09 8.662291e-09 8.848009e-09 7.308611e-09 7.238968e-09 8.415546e-09 6.387619e-09 7.724075e-09 6.405282e-09
5.022667e-09 4.763691e-09 4.675047e-09 5.833074e-09 5.628221e-09 4.280789e-09 3.769969e-09 3.767313e-09 2.842567e-09 4.687819e-09
1.270843e-09 1.867213e-09 5.772580e-10 1.730977e-09 1.539583e-09 1.534503e-09 6.675942e-10 -5.731616e-10 1.217719e-10 -1.629433e-09
-1.012014e-09 -2.740360e-10 -1.968461e-09 -3.008657e-10 -8.924845e-10 -3.530821e-09 -2.819825e-09 -1.261222e-09 -1.490447e-09 -3.801118e-09
-3.035485e-09 -2.916233e-09 -4.907398e-09 -3.199803e-09 -4.347512e-09 -5.237367e-09 -5.537739e-09 -4.950106e-09 -4.635546e-09 -3.870197e-09
-6.701482e-09 -6.971900e-09 -6.236905e-09 -7.126598e-09 -7.459621e-09 -6.607241e-09 -8.573820e-09 -7.543417e-09 -8.871374e-09 -9.685519e-09
-1.178203e-08 -1.113558e-08 -9.290534e-09 -1.093340e-08 -1.098078e-08 -1.049725e-08 -1.143006e-08 -1.190896e-08 -1.363910e-08 -1.267440e-08
-1.438580e-08 -1.366413e-08 -1.316672e-08 -1.432074e-08 -1.453876e-08 -1.341387e-08 -1.457381e-08 -1.430266e-08 -1.606884e-08 -1.596021e-08
-1.607531e-08 -1.673578e-08 -1.715777e-08 -1.725229e-08 -1.699443e-08 -1.715891e-08 -1.758360e-08 -1.719711e-08 -1.741877e-08 -1.769402e-08
-1.764128e-08 -1.790919e-08 -1.793580e-08 -1.829909e-08 -1.841539e-08 -1.811275e-08 -1.939900e-08 -1.922884e-08 -1.918963e-08 -1.899141e-08
-1.886967e-08 -1.907434e-08 -1.956131e-08 -1.931109e-08 -1.954691e-08 -1.890687e-08 -1.821727e-08 -1.883880e-08 -1.942945e-08 -1.737263e-08
-1.776690e-08 -1.972964e-08 -1.903237e-08 -1.907642e-08 -1.823101e-08 -1.760202e-08 -1.795335e-08 -1.752291e-08 -1.785879e-08 -1.822830e-08
-1.767859e-08 -1.771793e-08 -1.747924e-08 -1.890294e-08 -1.930916e-08 -1.905923e-08 -1.757732e-08 -1.832339e-08 -1.822616e-08 -1.850293e-08
-1.805248e-08 -1.904046e-08 -2.093112e-08 -1.854286e-08 -2.008213e-08 -1.898698e-08 -1.858475e-08 -1.858854e-08 -1.813948e-08 -1.829462e-08
-1.974364e-08 -1.785736e-08 -1.941532e-08 -1.959374e-08 -1.887893e-08 -1.859147e-08 -1.983159e-08 -1.898647e-08 -1.779387e-08 -1.827155e-08
-1.822131e-08 -1.802330e-08 -1.825002e-08 -1.722722e-08 -1.686803e-08 -1.740197e-08 -1.723517e-08 -1.732853e-08 -1.887230e-08 -1.593289e-08
-1.707454e-08 -1.611419e-08 -1.540018e-08 -1.471044e-08 -1.514058e-08 -1.422223e-08 -1.361015e-08 -1.463744e-08 -1.393111e-08 -1.313242e-08
-1.344305e-08 -1.222177e-08 -1.312711e-08 -1.280964e-08 -1.291691e-08 -1.254679e-08 -1.212986e-08 -1.039676e-08 -1.011357e-08 -1.035395e-08
-1.053102e-08 -9.349001e-09 -1.034937e-08 -8.650066e-09 -8.964391e-09 -8.249379e-09 -7.497504e-09 -6.464756e-09 -7.157395e-09 -7.913564e-09
-7.153641e-09 -6.551018e-09 -5.893158e-09 -4.057080e-09 -5.660271e-09 -4.244008e-09 -5.390847e-09 -3.286827e-09 -3.355514e-09 -2.366590e-09
-2.354801e-09 -8.873310e-10 -1.524563e-09 -2.812801e-09 -7.541170e-10 -2.143575e-09 3.277722e-10 -1.658666e-09 -4.011778e-10 6.252089e-10
1.177984e-09
9.045753e-10 4.339986e-10 -3.245420e-10 1.561016e-11 3.400836e-10 2.332895e-09 1.047583e-09 9.350596e-10 1.818732e-10 3.181204e-09
2.188234e-09 4.202942e-09 3.302317e-09 4.120718e-09 4.290816e-09 4.917784e-09 5.543077e-09 5.865375e-09 6.788364e-09 6.345358e-09
8.352782e-09 7.628588e-09 8.102844e-09 7.065404e-09 6.875789e-09 8.571944e-09 9.692211e-09 8.701409e-09 9.011617e-09 8.899254e-09
1.059017e-08 1.058435e-08 1.025352e-08 1.136833e-08 1.246955e-08 1.086432e-08 1.194376e-08 1.254568e-08 1.214353e-08 1.339641e-08
1.405089e-08 1.344198e-08 1.477564e-08 1.497269e-08 1.535476e-08 1.611288e-08 1.587732e-08 1.527268e-08 1.523305e-08 1.706417e-08
1.602394e-08 1.610735e-08 1.605837e-08 1.816243e-08 1.765591e-08 1.801182e-08 1.678980e-08 1.829252e-08 1.723412e-08 1.866652e-08
1.777477e-08 1.860918e-08 1.827510e-08 1.861091e-08 1.865460e-08 1.821623e-08 1.858367e-08 1.882143e-08 1.871558e-08 1.861387e-08
2.015950e-08 1.784475e-08 2.063576e-08 1.930161e-08 2.028637e-08 1.890518e-08 1.946983e-08 1.988554e-08 1.864366e-08 1.834602e-08
2.004651e-08 2.036214e-08 1.788114e-08 1.956380e-08 1.813501e-08 1.881778e-08 1.837236e-08 1.851560e-08 1.885008e-08 1.841692e-08
1.706450e-08 1.730087e-08 1.819813e-08 1.683392e-08 1.689743e-08 1.726111e-08 1.856084e-08 1.889340e-08 1.847169e-08 2.016678e-08
1.993454e-08 2.013584e-08 1.806263e-08 1.942798e-08 1.909875e-08 1.902680e-08 1.937098e-08 2.041025e-08 1.759558e-08 1.863818e-08
1.840842e-08 1.909689e-08 1.973667e-08 1.894728e-08 1.835700e-08 1.877882e-08 1.873143e-08 1.779106e-08 1.838472e-08 1.881644e-08
1.850598e-08 1.764927e-08 1.752290e-08 1.801759e-08 1.717649e-08 1.726941e-08 1.813759e-08 1.614559e-08 1.648438e-08 1.580947e-08
1.550586e-08 1.572365e-08 1.428835e-08 1.456481e-08 1.583270e-08 1.385372e-08 1.472138e-08 1.356864e-08 1.440280e-08 1.297910e-08
1.325326e-08 1.306180e-08 1.363700e-08 1.157309e-08 1.298304e-08 1.116751e-08 1.153288e-08 9.958101e-09 9.844972e-09 1.023724e-08
1.066112e-08 9.301981e-09 8.583791e-09 8.364522e-09 7.680195e-09 7.664398e-09 7.771218e-09 6.599456e-09 7.663356e-09 7.738087e-09
6.982070e-09 7.496503e-09 4.034546e-09 6.344884e-09 4.296945e-09 5.660028e-09 3.744118e-09 5.031131e-09 3.358715e-09 3.625309e-09
3.048788e-09 2.455092e-09 2.537493e-09 2.183375e-09 2.332468e-09 5.073020e-10 -2.318797e-11 1.700103e-09 2.257426e-09 -1.383385e-09
8.680530e-10 1.835192e-10 -6.254664e-10 -1.862199e-09 -3.506816e-09 9.809561e-11 -1.231920e-09 -2.217412e-09 -5.027180e-09 -3.172096e-09
-3.628741e-09 -3.779958e-09 -3.302634e-09 -5.505370e-09 -4.066193e-09 -3.498481e-09 -3.876907e-09 -4.257869e-09 -4.793967e-09 -5.460671e-09
-5.322685e-09 -6.514172e-09 -5.451442e-09 -8.111878e-09 -8.440417e-09 -6.502278e-09 -1.019484e-08 -8.383766e-09 -8.637352e-09 -9.428955e-09
-7.707640e-09 -9.845318e-09 -1.042703e-08 -1.021170e-08 -1.140553e-08 -1.053717e-08 -1.258387e-08 -1.193333e-08 -1.152002e-08 -1.323666e-08
-1.312071e-08 -1.358580e-08 -1.336161e-08 -1.526542e-08 -1.512537e-08 -1.398150e-08 -1.543921e-08 -1.566585e-08 -1.532550e-08 -1.566321e-08
-1.643556e-08 -1.629608e-08 -1.601250e-08 -1.743846e-08 -1.646626e-08 -1.614236e-08 -1.725393e-08 -1.674204e-08 -1.722509e-08 -1.906944e-08
-1.750945e-08 -1.711800e-08 -1.863796e-08 -1.787442e-08 -1.819490e-08 -1.842302e-08 -1.827503e-08 -2.016210e-08 -1.857514e-08 -1.925280e-08
-1.967990e-08 -1.874244e-08 -1.968047e-08 -1.955098e-08 -1.893732e-08 -1.920347e-08 -1.888447e-08 -1.892902e-08 -1.962725e-08 -1.947042e-08
-1.885860e-08 -1.906535e-08 -1.853024e-08 -1.895516e-08 -2.007577e-08 -1.819157e-08 -1.921695e-08 -1.726528e-08 -1.913367e-08 -1.589269e-08
-1.892415e-08 -1.774725e-08 -1.726922e-08 -1.917410e-08 -1.734113e-08 -1.711715e-08 -1.808255e-08 -1.856329e-08 -1.952841e-08 -1.798492e-08
-2.042711e-08 -1.958353e-08 -1.965464e-08 -2.053119e-08 -1.858049e-08 -1.896589e-08 -1.900958e-08 -1.920407e-08 -2.013896e-08 -1.826959e-08
-1.938675e-08 -1.901385e-08 -2.015544e-08 -1.853180e-08 -1.865404e-08 -1.980282e-08 -1.815804e-08 -1.859883e-08 -1.811636e-08 -1.813022e-08
-1.774035e-08 -1.805988e-08 -1.716609e-08 -1.712364e-08 -1.799333e-08 -1.653531e-08 -1.651104e-08 -1.641785e-08 -1.652429e-08 -1.602784e-08
-1.575144e-08 -1.621372e-08 -1.446687e-08 -1.581413e-08 -1.787121e-08 -1.411817e-08 -1.353435e-08 -1.470647e-08 -1.353871e-08 -1.533164e-08
-1.486441e-08 -1.236625e-08 -1.329592e-08 -1.198280e-08 -1.195199e-08 -1.150204e-08 -1.050549e-08 -1.240796e-08 -1.040425e-08 -9.936808e-09
-9.944102e-09 -9.605772e-09 -8.961117e-09 -7.993830e-09 -8.297419e-09 -9.579433e-09 -7.767245e-09 -8.946588e-09 -6.730746e-09 -8.090060e-09
-8.105327e-09 -6.816386e-09 -4.760182e-09 -5.376330e-09 -4.859227e-09 -3.138959e-09 -5.486064e-09 -3.184968e-09 -3.319008e-09 -1.310998e-09
-1.839581e-09 -3.238267e-09 -8.574549e-10 -1.477180e-09 -8.734961e-10 -1.022747e-09 -1.131860e-09 -1.623488e-09 -1.880043e-09 1.623995e-09
9.045753e-10
1.820257e-09 1.397173e-09 1.070192e-09 1.497637e-09 7.125344e-10 1.504541e-09 9.796527e-10 1.120099e-09 4.502455e-09 2.567008e-09
2.783232e-09 4.427640e-09 3.954800e-09 5.420663e-09 4.724867e-09 4.633467e-09 5.582031e-09 4.824649e-09 6.262006e-09 4.938734e-09
6.249130e-09 8.132149e-09 6.027471e-09 7.303770e-09 8.043984e-09 6.757617e-09 7.667786e-09 7.958422e-09 9.199222e-09 1.041547e-08
1.142493e-08 1.057268e-08 1.029240e-08 1.178735e-08 1.136547e-08 1.088961e-08 1.193194e-08 1.313357e-08 1.270698e-08 1.321820e-08
1.351767e-08 1.420564e-08 1.339377e-08 1.448345e-08 1.569033e-08 1.556230e-08 1.532199e-08 1.616405e-08 1.588566e-08 1.630590e-08
1.652523e-08 1.603621e-08 1.616933e-08 1.796700e-08 1.835982e-08 1.866134e-08 1.793114e-08 1.709501e-08 1.753241e-08 1.847846e-08
1.844604e-08 1.899076e-08 1.779204e-08 1.800358e-08 1.948983e-08 1.813010e-08 2.032860e-08 1.837324e-08 2.002827e-08 1.790537e-08
1.840293e-08 1.905380e-08 1.922140e-08 1.939174e-08 1.948880e-08 1.944051e-08 1.898805e-08 1.801217e-08 1.992994e-08 1.960345e-08
1.836743e-08 2.033392e-08 2.040700e-08 1.816898e-08 1.801146e-08 1.730838e-08 1.742414e-08 1.679633e-08 1.905519e-08 1.826225e-08
1.718175e-08 1.837174e-08 1.683185e-08 1.972802e-08 1.770434e-08 1.724993e-08 1.892742e-08 1.772618e-08 2.047039e-08 1.935400e-08
1.776066e-08 2.029521e-08 1.911306e-08 1.807961e-08 1.987218e-08 1.854779e-08 1.928993e-08 1.853442e-08 2.035654e-08 1.880436e-08
1.930642e-08 1.954555e-08 2.068664e-08 2.048191e-08 1.921798e-08 1.936936e-08 1.756120e-08 1.877409e-08 1.912203e-08 1.817649e-08
1.759851e-08 1.816151e-08 1.795445e-08 1.793142e-08 1.798180e-08 1.771230e-08 1.658874e-08 1.678885e-08 1.668456e-08 1.667266e-08
1.632314e-08 1.590489e-08 1.525571e-08 1.498484e-08 1.728809e-08 1.469104e-08 1.339810e-08 1.382738e-08 1.420931e-08 1.253220e-08
1.415231e-08 1.263277e-08 1.206378e-08 1.131439e-08 1.189439e-08 1.103708e-08 1.040671e-08 9.598907e-09 1.017672e-08 9.346368e-09
9.980746e-09 9.334859e-09 8.698692e-09 9.718410e-09 6.733863e-09 8.009812e-09 7.665272e-09 5.354352e-09 5.744943e-09 5.948518e-09
4.894761e-09 4.485583e-09 5.587806e-09 5.832646e-09 5.920371e-09 3.733728e-09 5.318186e-09 4.092845e-09 2.255952e-09 2.425017e-09
3.221405e-09 3.210588e-09 2.070285e-09 2.131951e-09 2.477982e-09 1.213782e-09 4.576609e-10 -7.767518e-10 -6.786423e-13 4.694415e-10
-1.743565e-09 1.972609e-10 -1.059486e-09 -1.659712e-09 -1.892503e-09 -6.455318e-10 -1.203698e-09 -2.684294e-09 -2.252903e-09 -1.770375e-09
-1.265623e-09 -4.076672e-09 -3.138194e-09 -2.408913e-09 -4.238064e-09 -2.934806e-09 -7.404326e-09 -4.024192e-09 -5.659167e-09 -6.331502e-09
-7.217666e-09 -6.355664e-09 -6.600225e-09 -8.219691e-09 -7.512289e-09 -6.970542e-09 -8.036519e-09 -9.559135e-09 -9.315287e-09 -8.322515e-09
-9.111869e-09 -9.723586e-09 -9.986336e-09 -1.069818e-08 -1.220510e-08 -1.399362e-08 -1.062824e-08 -1.209463e-08 -1.251144e-08 -1.381007e-08
-1.248091e-08 -1.320261e-08 -1.445475e-08 -1.326863e-08 -1.477184e-08 -1.473986e-08 -1.449490e-08 -1.503548e-08 -1.597533e-08 -1.631302e-08
-1.665233e-08 -1.684078e-08 -1.573114e-08 -1.697407e-08 -1.710128e-08 -1.728048e-08 -1.672691e-08 -1.890671e-08 -1.897337e-08 -1.704121e-08
-1.874768e-08 -1.935248e-08 -1.895081e-08 -1.854557e-08 -1.838487e-08 -1.873280e-08 -1.827299e-08 -1.964822e-08 -2.005690e-08 -1.908684e-08
-1.946958e-08 -1.870958e-08 -1.935466e-08 -2.048608e-08 -1.905930e-08 -1.897830e-08 -1.999350e-08 -1.926459e-08 -1.869063e-08 -1.956170e-08
-1.953956e-08 -1.868501e-08 -1.884729e-08 -1.883320e-08 -1.928000e-08 -1.729182e-08 -1.929781e-08 -1.778267e-08 -1.752945e-08 -1.873943e-08
-1.787953e-08 -1.807813e-08 -1.849882e-08 -1.683436e-08 -1.865402e-08 -2.001792e-08 -1.964313e-08 -1.999431e-08 -1.917690e-08 -1.881857e-08
-2.027234e-08 -1.975874e-08 -1.938093e-08 -1.858826e-08 -1.976487e-08 -1.986466e-08 -1.860629e-08 -1.995648e-08 -1.927532e-08 -1.890580e-08
-1.911302e-08 -1.820510e-08 -1.804043e-08 -1.787478e-08 -2.083471e-08 -1.882174e-08 -1.893180e-08 -1.818820e-08 -1.886356e-08 -1.812426e-08
-1.884717e-08 -1.924479e-08 -1.776368e-08 -1.848805e-08 -1.660078e-08 -1.757121e-08 -1.708290e-08 -1.723351e-08 -1.647111e-08 -1.729155e-08
-1.721384e-08 -1.564796e-08 -1.583065e-08 -1.521267e-08 -1.615853e-08 -1.520534e-08 -1.521563e-08 -1.436423e-08 -1.404572e-08 -1.333971e-08
-1.308033e-08 -1.315080e-08 -1.293810e-08 -1.310675e-08 -1.211568e-08 -1.244652e-08 -1.222722e-08 -1.111859e-08 -1.013898e-08 -1.046995e-08
-9.361953e-09 -1.051839e-08 -9.003243e-09 -7.975071e-09 -9.351464e-09 -7.593997e-09 -8.275582e-09 -6.957394e-09 -7.765834e-09 -6.499947e-09
-7.649271e-09 -5.026224e-09 -5.275156e-09 -4.798885e-09 -6.765782e-09 -4.402828e-09 -1.849622e-09 -5.619415e-09 -4.494735e-09 -4.571741e-09
-2.718076e-09 -2.408856e-09 -2.582762e-09 -2.910048e-09 -3.496640e-09 -2.317022e-09 -1.415316e-09 7.521630e-10 1.387013e-09 2.800379e-10
1.820257e-09
6.977032e-10 3.573949e-10 1.157240e-09 1.647392e-10 4.468576e-10 2.427973e-09 1.803369e-09 3.785396e-09 3.046404e-09 1.848969e-09
2.670911e-09 3.827399e-09 3.409911e-09 3.077207e-09 5.886758e-09 5.081962e-09 6.354727e-09 6.491476e-09 5.164375e-09 6.266811e-09
4.929928e-09 6.093078e-09 6.442724e-09 7.543052e-09 7.924946e-09 8.946412e-09 8.479357e-09 8.480822e-09 9.989930e-09 9.775075e-09
1.028254e-08 9.954536e-09 1.163165e-08 1.081064e-08 1.023801e-08 1.172679e-08 1.284446e-08 1.284988e-08 1.329240e-08 1.310869e-08
1.387662e-08 1.360671e-08 1.326446e-08 1.390184e-08 1.471287e-08 1.473281e-08 1.470003e-08 1.493743e-08 1.549146e-08 1.606242e-08
1.650376e-08 1.734789e-08 1.651047e-08 1.764735e-08 1.693083e-08 1.839399e-08 1.726848e-08 1.751980e-08 1.781880e-08 1.774812e-08
1.844281e-08 1.822068e-08 1.909371e-08 1.857910e-08 1.902961e-08 1.865098e-08 1.843570e-08 1.875638e-08 1.958661e-08 2.017977e-08
2.004625e-08 1.881377e-08 2.018690e-08 1.981158e-08 1.876664e-08 1.920967e-08 1.903704e-08 2.104093e-08 1.899601e-08 2.005056e-08
1.975663e-08 1.884103e-08 1.816833e-08 1.729787e-08 1.847527e-08 1.744740e-08 1.821574e-08 1.751992e-08 1.923930e-08 1.793507e-08
1.886605e-08 1.853357e-08 1.805656e-08 1.783216e-08 1.836320e-08 1.828943e-08 1.843383e-08 1.808810e-08 1.974906e-08 2.042196e-08
1.924802e-08 1.942742e-08 2.057902e-08 1.882234e-08 1.911943e-08 1.960640e-08 1.920546e-08 1.852611e-08 1.913943e-08 1.882892e-08
1.911878e-08 1.941162e-08 1.993913e-08 1.984142e-08 1.821338e-08 1.964378e-08 1.871893e-08 1.759675e-08 1.806243e-08 1.815785e-08
1.823164e-08 1.805567e-08 1.826096e-08 1.815631e-08 1.893800e-08 1.600494e-08 1.651617e-08 1.620463e-08 1.706957e-08 1.774709e-08
1.654245e-08 1.651214e-08 1.687684e-08 1.545680e-08 1.564173e-08 1.367168e-08 1.454241e-08 1.422876e-08 1.555413e-08 1.275970e-08
1.292589e-08 1.394841e-08 1.259606e-08 1.347044e-08 1.136549e-08 1.165609e-08 1.050943e-08 1.229600e-08 9.554001e-09 1.065494e-08
9.712299e-09 9.421659e-09 9.181513e-09 1.051124e-08 8.358950e-09 7.998650e-09 7.476873e-09 7.200844e-09 6.294041e-09 6.345299e-09
6.597772e-09 6.584192e-09 5.065404e-09 4.894529e-09 3.572814e-09 6.047865e-09 3.588985e-09 4.587155e-09 4.076969e-09 3.171786e-09
1.981005e-09 3.096497e-09 3.376623e-09 1.839160e-09 2.104317e-09 1.339091e-09 -1.379809e-10 -3.243055e-10 6.940215e-10 4.191635e-10
-2.383849e-10 1.855303e-10 1.062117e-10 -1.748711e-09 3.134442e-10 -2.402134e-09 -1.887128e-09 -1.651323e-09 -2.477681e-09 -2.921936e-09
-2.271497e-09 -3.549913e-09 -2.903793e-09 -4.106646e-09 -3.905374e-09 -3.958119e-09 -4.616445e-09 -3.336368e-09 -6.352656e-09 -6.341919e-09
-6.308715e-09 -6.064965e-09 -6.588722e-09 -7.697154e-09 -7.742113e-09 -8.968303e-09 -7.936311e-09 -1.018182e-08 -8.012917e-09 -9.207619e-09
-1.173689e-08 -1.112509e-08 -9.404983e-09 -9.428049e-09 -1.237210e-08 -1.259643e-08 -1.294990e-08 -1.351310e-08 -1.332827e-08 -1.375036e-08
-1.258535e-08 -1.414200e-08 -1.395702e-08 -1.348356e-08 -1.431157e-08 -1.523918e-08 -1.532614e-08 -1.531605e-08 -1.522196e-08 -1.524587e-08
-1.743449e-08 -1.707464e-08 -1.656064e-08 -1.701894e-08 -1.793785e-08 -1.786936e-08 -1.914379e-08 -1.744032e-08 -1.806086e-08 -1.705684e-08
-1.815774e-08 -1.928779e-08 -1.813293e-08 -1.914572e-08 -1.914788e-08 -1.753180e-08 -1.830829e-08 -2.092932e-08 -1.874976e-08 -1.987639e-08
-1.908785e-08 -1.860164e-08 -1.933587e-08 -1.916095e-08 -1.876185e-08 -1.914609e-08 -1.936808e-08 -1.957150e-08 -1.857653e-08 -2.054082e-08
-1.932126e-08 -2.055345e-08 -1.805631e-08 -1.755535e-08 -1.939910e-08 -1.771314e-08 -1.954180e-08 -1.846056e-08 -1.858906e-08 -1.907056e-08
-1.860094e-08 -1.798165e-08 -1.935514e-08 -1.986894e-08 -1.759627e-08 -1.798325e-08 -1.874936e-08 -1.957865e-08 -1.776726e-08 -1.840806e-08
-1.947629e-08 -2.007509e-08 -1.962975e-08 -1.840784e-08 -1.942982e-08 -1.849752e-08 -1.946014e-08 -1.902883e-08 -1.929864e-08 -2.060851e-08
-1.929035e-08 -2.044680e-08 -1.926233e-08 -1.854127e-08 -1.983970e-08 -1.927771e-08 -1.984032e-08 -1.889324e-08 -1.918942e-08 -1.924546e-08
-1.830652e-08 -1.819371e-08 -1.782726e-08 -1.809623e-08 -1.745916e-08 -1.648778e-08 -1.753330e-08 -1.704493e-08 -1.679220e-08 -1.566500e-08
-1.593439e-08 -1.582559e-08 -1.643176e-08 -1.561470e-08 -1.553140e-08 -1.402745e-08 -1.520187e-08 -1.473751e-08 -1.407773e-08 -1.473384e-08
-1.362518e-08 -1.401496e-08 -1.249373e-08 -1.243111e-08 -1.318211e-08 -1.245278e-08 -1.088554e-08 -1.180351e-08 -1.187727e-08 -1.038740e-08
-9.835328e-09 -1.053818e-08 -1.051330e-08 -8.869144e-09 -8.216237e-09 -7.664897e-09 -8.564069e-09 -7.830158e-09 -8.314115e-09 -8.445653e-09
-5.064089e-09 -6.426761e-09 -4.555153e-09 -6.107209e-09 -5.155478e-09 -4.806714e-09 -2.967055e-09 -3.350477e-09 -3.323181e-09 -2.124877e-09
-2.561704e-09 -6.748637e-10 -1.727311e-09 -1.433695e-09 -1.772588e-09 -6.657244e-10 -1.446612e-09 -3.741977e-11 -5.360705e-10 -3.652181e-10
6.977032e-10
-4.171844e-10 -1.846961e-09 6.383760e-10 1.324899e-09 6.636491e-11 1.739396e-09 8.637482e-10 2.412464e-09 1.807667e-09 1.878549e-09
1.710726e-09 3.220832e-09 3.989368e-09 4.899730e-09 5.022780e-09 4.849056e-09 5.437835e-09 4.037862e-09 3.588736e-09 6.239490e-09
6.651384e-09 6.209128e-09 7.241829e-09 6.382583e-09 7.545421e-09 7.992207e-09 8.068525e-09 9.852315e-09 9.073627e-09 9.567125e-09
1.029498e-08 9.399869e-09 1.092587e-08 1.194694e-08 1.133083e-08 1.109797e-08 1.228312e-08 1.211541e-08 1.521333e-08 1.375876e-08
1.425393e-08 1.299970e-08 1.446344e-08 1.450237e-08 1.521055e-08 1.462796e-08 1.533070e-08 1.573533e-08 1.582834e-08 1.683485e-08
1.654093e-08 1.734172e-08 1.894520e-08 1.655378e-08 1.897688e-08 1.815841e-08 1.761041e-08 1.727154e-08 1.774917e-08 1.737287e-08
1.986519e-08 1.824907e-08 1.798541e-08 1.926519e-08 1.933134e-08 1.860116e-08 1.922055e-08 2.004050e-08 1.892007e-08 1.933824e-08
1.965551e-08 1.987551e-08 1.898261e-08 1.926699e-08 1.936382e-08 1.852458e-08 1.990166e-08 1.985175e-08 1.969674e-08 1.935520e-08
1.792290e-08 2.058105e-08 1.925464e-08 1.797656e-08 1.874795e-08 1.804499e-08 1.747517e-08 1.864156e-08 1.857486e-08 1.833527e-08
1.710782e-08 1.778939e-08 1.815353e-08 1.685594e-08 1.864126e-08 1.916787e-08 1.971088e-08 1.872639e-08 2.034392e-08 1.894649e-08
1.774516e-08 2.118531e-08 1.987395e-08 2.123421e-08 1.916488e-08 2.024788e-08 1.983282e-08 1.841127e-08 1.950768e-08 1.966050e-08
1.921992e-08 1.882741e-08 2.100008e-08 1.964451e-08 2.013127e-08 1.984504e-08 1.947493e-08 1.808213e-08 1.898810e-08 1.934267e-08
1.916396e-08 1.830582e-08 1.775747e-08 1.775988e-08 1.706960e-08 1.601557e-08 1.828283e-08 1.688975e-08 1.696774e-08 1.570429e-08
1.716692e-08 1.696892e-08 1.486886e-08 1.547195e-08 1.403216e-08 1.448243e-08 1.431912e-08 1.335191e-08 1.397726e-08 1.411545e-08
1.291017e-08 1.232701e-08 1.259965e-08 1.168873e-08 1.224245e-08 1.069112e-08 1.066959e-08 1.152001e-08 1.031852e-08 1.101186e-08
9.639885e-09 9.267215e-09 9.602175e-09 8.475320e-09 8.880753e-09 7.981201e-09 9.910491e-09 9.007500e-09 7.513588e-09 7.050271e-09
6.502084e-09 5.035753e-09 4.287809e-09 6.128177e-09 5.193376e-09 4.342831e-09 3.939896e-09 4.231146e-09 3.296686e-09 3.725417e-09
4.295108e-09 3.661540e-09 2.012849e-09 -9.598942e-12 8.377694e-10 1.163959e-09 3.456970e-10 2.330187e-09 1.279355e-09 1.970073e-10
-2.850385e-10 -5.860091e-10 -1.350840e-09 -1.265178e-09 -1.380256e-09 -2.226395e-09 -2.361073e-09 -2.584742e-09 -3.049784e-09 -4.498952e-09
-3.655188e-09 -2.818952e-09 -3.869432e-09 -4.207101e-09 -4.063166e-09 -4.331839e-09 -4.737279e-09 -5.352614e-09 -5.307698e-09 -4.931050e-09
-4.943778e-09 -7.878089e-09 -6.848688e-09 -7.352487e-09 -6.535407e-09 -8.536405e-09 -8.936869e-09 -7.612367e-09 -1.009426e-08 -1.021025e-08
-1.089601e-08 -1.063101e-08 -1.118312e-08 -1.101509e-08 -1.101754e-08 -1.280222e-08 -1.350800e-08 -1.156461e-08 -1.343457e-08 -1.267275e-08
-1.376878e-08 -1.343897e-08 -1.415398e-08 -1.333976e-08 -1.435604e-08 -1.512356e-08 -1.456467e-08 -1.451824e-08 -1.563260e-08 -1.605519e-08
-1.589779e-08 -1.626299e-08 -1.627136e-08 -1.685820e-08 -1.617187e-08 -1.714386e-08 -1.895169e-08 -1.729216e-08 -1.694846e-08 -1.849389e-08
-1.849030e-08 -1.821881e-08 -1.946568e-08 -1.900409e-08 -1.877039e-08 -1.981245e-08 -1.955838e-08 -1.931587e-08 -1.919028e-08 -1.916032e-08
-1.975891e-08 -1.927548e-08 -1.915938e-08 -1.917799e-08 -1.836348e-08 -1.928789e-08 -1.890196e-08 -1.964441e-08 -1.933277e-08 -1.916107e-08
-2.085250e-08 -1.980495e-08 -1.805848e-08 -1.880881e-08 -1.871508e-08 -1.840307e-08 -1.832848e-08 -1.819978e-08 -1.884273e-08 -1.842640e-08
-1.844376e-08 -1.803508e-08 -1.746613e-08 -1.926212e-08 -1.791332e-08 -1.782317e-08 -1.949108e-08 -1.916865e-08 -2.075986e-08 -1.907347e-08
-1.911357e-08 -1.867989e-08 -1.931036e-08 -1.832492e-08 -2.057365e-08 -1.882463e-08 -2.019223e-08 -1.820044e-08 -2.064079e-08 -1.829611e-08
-2.022799e-08 -2.001200e-08 -2.039398e-08 -1.881880e-08 -1.877730e-08 -1.952665e-08 -1.973699e-08 -1.819294e-08 -1.860459e-08 -1.837279e-08
-1.788375e-08 -1.809524e-08 -1.822978e-08 -1.750066e-08 -1.852025e-08 -1.777557e-08 -1.761754e-08 -1.730751e-08 -1.731460e-08 -1.642994e-08
-1.689576e-08 -1.592090e-08 -1.630774e-08 -1.652179e-08 -1.674241e-08 -1.609862e-08 -1.527427e-08 -1.512275e-08 -1.487836e-08 -1.420481e-08
-1.278935e-08 -1.356859e-08 -1.285088e-08 -1.256437e-08 -1.351994e-08 -1.251324e-08 -1.236084e-08 -1.231912e-08 -1.000912e-08 -1.003898e-08
-9.607111e-09 -9.796762e-09 -1.086318e-08 -9.900724e-09 -8.196475e-09 -8.785523e-09 -7.340856e-09 -7.918090e-09 -5.881438e-09 -8.180677e-09
-6.958471e-09 -7.325962e-09 -7.332260e-09 -5.030223e-09 -4.384924e-09 -6.651073e-09 -4.601807e-09 -2.798365e-09 -4.526971e-09 -2.071634e-09
-3.364424e-09 -1.144475e-09 -1.342273e-09 -2.938743e-09 -2.070574e-09 6.687595e-11 -1.663867e-09 -4.993915e-10 -2.452330e-10 -1.292341e-09
-4.171844e-10
-8.448826e-10 -1.290019e-09 5.908351e-10 4.168474e-10 2.090913e-09 2.039459e-09 2.506501e-09 2.466237e-09 9.820978e-10 2.940409e-09
2.316431e-09 4.193278e-09 5.271211e-09 1.196125e-09 5.201753e-09 6.380376e-09 3.707619e-09 5.856668e-09 6.010235e-09 6.687353e-09
6.018621e-09 7.166372e-09 6.293716e-09 8.396506e-09 8.201298e-09 8.924597e-09 8.798526e-09 8.496859e-09 9.446109e-09 9.323619e-09
1.016304e-08 9.834646e-09 1.144721e-08 1.308670e-08 1.207124e-08 1.167278e-08 1.213112e-08 1.297087e-08 1.496045e-08 1.304869e-08
1.338253e-08 1.331880e-08 1.488276e-08 1.383121e-08 1.567193e-08 1.563729e-08 1.570971e-08 1.621017e-08 1.623097e-08 1.696525e-08
1.685454e-08 1.796292e-08 1.653285e-08 1.662418e-08 1.761206e-08 1.868221e-08 1.795962e-08 1.736438e-08 1.753558e-08 1.838704e-08
1.780836e-08 1.820792e-08 1.880809e-08 1.971642e-08 1.825649e-08 1.970127e-08 1.997339e-08 1.815254e-08 1.923500e-08 2.010205e-08
1.854176e-08 1.928882e-08 1.942306e-08 1.998992e-08 1.994830e-08 1.925713e-08 1.964133e-08 2.016179e-08 1.976155e-08 1.943711e-08
1.835070e-08 1.905901e-08 1.877448e-08 2.010982e-08 2.020941e-08 1.748842e-08 1.910182e-08 1.853984e-08 1.732791e-08 1.919000e-08
1.749477e-08 1.777136e-08 1.804832e-08 1.746597e-08 1.698706e-08 1.917723e-08 2.067374e-08 1.983073e-08 2.023772e-08 1.851584e-08
2.081176e-08 1.813064e-08 1.870109e-08 1.981740e-08 1.877698e-08 1.955701e-08 1.895362e-08 1.874576e-08 1.969023e-08 1.986558e-08
1.821448e-08 2.010344e-08 1.954628e-08 1.879742e-08 1.824104e-08 1.926016e-08 1.860859e-08 1.834716e-08 1.940762e-08 1.785834e-08
1.710155e-08 1.793530e-08 1.710963e-08 1.801286e-08 1.686769e-08 1.719209e-08 1.658417e-08 1.717328e-08 1.696189e-08 1.650088e-08
1.577590e-08 1.615314e-08 1.644939e-08 1.440735e-08 1.472512e-08 1.599572e-08 1.410795e-08 1.596456e-08 1.426537e-08 1.337842e-08
1.213129e-08 1.234124e-08 1.158114e-08 1.304372e-08 1.232621e-08 1.136121e-08 1.158575e-08 1.138908e-08 1.065414e-08 1.105000e-08
1.002554e-08 1.015667e-08 1.069504e-08 9.769523e-09 1.058287e-08 6.932806e-09 7.000588e-09 6.771988e-09 5.429907e-09 7.692116e-09
4.715713e-09 5.761782e-09 6.902386e-09 3.778335e-09 4.527974e-09 4.735741e-09 4.576634e-09 4.097264e-09 3.088437e-09 3.525697e-09
3.812527e-09 1.128703e-09 3.397584e-09 1.573057e-09 2.075547e-10 1.374531e-09 1.943165e-09 1.173073e-09 8.659902e-10 -1.257438e-10
-5.723161e-10 8.155809e-10 -1.134203e-10 -1.263634e-11 -6.595991e-10 -2.008536e-09 -2.446731e-10 -2.161134e-09 -2.384342e-09 -1.615652e-09
-2.607718e-09 -4.382745e-09 -3.332612e-09 -1.963341e-09 -3.162565e-09 -4.585049e-09 -4.797372e-09 -4.907436e-09 -5.221523e-09 -5.055103e-09
-6.194713e-09 -6.257879e-09 -7.717937e-09 -5.852998e-09 -7.091411e-09 -8.658166e-09 -1.054624e-08 -7.389865e-09 -1.017407e-08 -9.795257e-09
-9.267302e-09 -1.181955e-08 -1.035014e-08 -1.167626e-08 -1.264243e-08 -1.171978e-08 -1.159483e-08 -1.175881e-08 -1.155906e-08 -1.240972e-08
-1.356500e-08 -1.282825e-08 -1.477904e-08 -1.384936e-08 -1.415810e-08 -1.528699e-08 -1.515689e-08 -1.518357e-08 -1.643185e-08 -1.598699e-08
-1.549911e-08 -1.621362e-08 -1.626361e-08 -1.807490e-08 -1.807840e-08 -1.703823e-08 -1.720520e-08 -1.802992e-08 -1.726299e-08 -1.873311e-08
-1.960225e-08 -1.858800e-08 -1.805010e-08 -1.737993e-08 -1.925218e-08 -1.951210e-08 -1.967619e-08 -1.888978e-08 -1.895103e-08 -1.866197e-08
-1.988628e-08 -1.980535e-08 -2.063227e-08 -2.009144e-08 -1.884282e-08 -1.981615e-08 -2.007520e-08 -1.961831e-08 -1.970075e-08 -1.945844e-08
-1.851377e-08 -1.865785e-08 -1.883030e-08 -1.903775e-08 -1.968841e-08 -1.853708e-08 -1.840681e-08 -1.794090e-08 -1.710501e-08 -1.731660e-08
-1.863140e-08 -1.703793e-08 -1.807617e-08 -1.812000e-08 -1.961533e-08 -1.883643e-08 -1.947213e-08 -1.994777e-08 -1.834374e-08 -1.967511e-08
-1.897500e-08 -1.963752e-08 -2.073205e-08 -2.129634e-08 -1.939181e-08 -2.054545e-08 -1.937714e-08 -1.973622e-08 -2.043551e-08 -1.947942e-08
-2.033653e-08 -1.868443e-08 -1.977870e-08 -1.770738e-08 -1.960809e-08 -1.964332e-08 -1.916737e-08 -1.954191e-08 -1.939755e-08 -1.876880e-08
-1.698313e-08 -1.859505e-08 -1.829349e-08 -1.811114e-08 -1.881481e-08 -1.786442e-08 -1.711877e-08 -1.702272e-08 -1.710185e-08 -1.672736e-08
-1.717783e-08 -1.570404e-08 -1.720284e-08 -1.626378e-08 -1.525113e-08 -1.442762e-08 -1.501122e-08 -1.600570e-08 -1.331284e-08 -1.448244e-08
-1.290868e-08 -1.360175e-08 -1.372020e-08 -1.285307e-08 -1.395122e-08 -1.341905e-08 -1.212609e-08 -1.276226e-08 -1.174115e-08 -1.020527e-08
-1.308729e-08 -9.117798e-09 -9.923583e-09 -8.864181e-09 -8.969123e-09 -8.083649e-09 -7.521519e-09 -7.464870e-09 -7.208592e-09 -5.457125e-09
-6.357142e-09 -7.156670e-09 -6.244742e-09 -7.594097e-09 -5.698980e-09 -6.141448e-09 -4.888860e-09 -4.225629e-09 -3.299446e-09 -3.243616e-09
-2.427448e-09 -1.959519e-09 -1.670074e-09 -2.444160e-09 -1.397153e-09 -1.500860e-10 -1.767475e-09 -6.764343e-10 -9.148378e-10 -1.511338e-09
-8.448826e-10
4.663125e-10 -9.854703e-10 9.422237e-10 -5.822527e-10 2.007728e-09 1.087301e-09 6.363481e-10 3.981573e-09 1.280902e-09 3.369144e-09
2.554921e-09 2.794122e-09 4.015035e-09 5.255215e-09 5.880320e-09 4.815606e-09 5.956192e-09 4.400203e-09 6.103297e-09 8.297955e-09
7.446735e-09 7.585940e-09 7.009690e-09 8.897082e-09 7.731102e-09 8.411278e-09 8.420762e-09 8.318437e-09 9.741176e-09 1.002948e-08
1.070522e-08 1.124929e-08 1.222011e-08 1.195828e-08 1.225894e-08 1.088122e-08 1.291708e-08 1.260011e-08 1.434646e-08 1.343748e-08
1.344943e-08 1.548583e-08 1.477700e-08 1.386697e-08 1.396901e-08 1.512859e-08 1.522846e-08 1.671372e-08 1.671929e-08 1.543423e-08
1.620494e-08 1.635738e-08 1.692229e-08 1.690415e-08 1.798913e-08 1.675727e-08 1.836864e-08 1.869147e-08 1.912404e-08 1.810682e-08
1.885696e-08 1.886119e-08 1.934660e-08 1.978614e-08 1.860977e-08 1.983886e-08 2.013407e-08 2.077654e-08 2.092122e-08 1.986810e-08
1.966778e-08 1.946265e-08 2.058484e-08 1.858722e-08 2.046954e-08 1.864764e-08 1.983405e-08 1.868077e-08 1.914051e-08 2.045308e-08
1.930790e-08 1.889228e-08 1.832116e-08 1.791153e-08 1.915190e-08 1.865847e-08 1.979402e-08 1.910052e-08 1.641720e-08 1.758639e-08
1.801341e-08 1.917071e-08 1.835688e-08 1.813053e-08 1.891997e-08 1.975975e-08 1.859004e-08 1.928729e-08 1.898037e-08 1.985687e-08
1.859103e-08 2.018779e-08 1.959678e-08 1.906899e-08 1.892539e-08 2.053639e-08 1.976004e-08 1.929205e-08 1.951385e-08 2.026644e-08
1.826927e-08 1.972368e-08 1.984870e-08 1.967008e-08 1.961328e-08 1.879926e-08 2.009028e-08 2.034617e-08 1.765966e-08 2.013258e-08
1.778067e-08 1.841739e-08 1.765283e-08 1.866009e-08 1.820897e-08 1.889053e-08 1.642834e-08 1.545651e-08 1.665166e-08 1.706953e-08
1.678602e-08 1.563591e-08 1.641055e-08 1.570602e-08 1.483500e-08 1.507537e-08 1.538990e-08 1.502169e-08 1.469762e-08 1.470384e-08
1.302622e-08 1.207539e-08 1.204605e-08 1.227924e-08 1.349411e-08 1.117027e-08 1.316918e-08 9.756990e-09 9.457819e-09 1.025341e-08
1.074873e-08 1.062318e-08 9.554008e-09 9.737401e-09 7.695150e-09 7.844716e-09 7.804445e-09 8.612495e-09 6.536350e-09 6.973166e-09
7.328640e-09 5.029225e-09 6.183654e-09 4.659546e-09 4.653485e-09 4.229124e-09 4.085315e-09 3.863625e-09 2.807072e-09 3.386715e-09
1.818943e-09 3.130764e-09 1.551470e-09 1.386162e-09 3.018730e-09 1.237095e-09 1.710987e-09 4.976797e-10 3.788090e-12 -1.713926e-09
9.873009e-10 -9.284196e-10 9.612496e-11 -1.318469e-09 -1.782214e-09 -1.150024e-09 -1.945557e-09 -1.879265e-09 -1.198975e-09 -4.230296e-09
-3.961240e-09 -4.265698e-09 -2.594522e-09 -2.599470e-09 -2.589324e-09 -4.897035e-09 -5.526445e-09 -3.391833e-09 -7.491132e-09 -6.893036e-09
-6.273705e-09 -5.034159e-09 -6.569068e-09 -7.251272e-09 -8.301606e-09 -8.632202e-09 -8.861547e-09 -8.278157e-09 -9.609741e-09 -9.427869e-09
-1.041448e-08 -1.038179e-08 -1.040881e-08 -1.166800e-08 -1.042945e-08 -1.116037e-08 -1.250409e-08 -1.213690e-08 -1.138956e-08 -1.307176e-08
-1.368014e-08 -1.302766e-08 -1.437376e-08 -1.385365e-08 -1.472692e-08 -1.613243e-08 -1.475862e-08 -1.635724e-08 -1.645070e-08 -1.646909e-08
-1.530772e-08 -1.651986e-08 -1.632629e-08 -1.712382e-08 -1.717708e-08 -1.832442e-08 -1.800904e-08 -1.951155e-08 -1.859531e-08 -1.795016e-08
-1.881412e-08 -1.858690e-08 -1.848101e-08 -1.800983e-08 -1.928935e-08 -2.042490e-08 -1.939280e-08 -1.807621e-08 -1.837504e-08 -1.875610e-08
-2.020587e-08 -2.037964e-08 -1.926586e-08 -1.890368e-08 -1.981128e-08 -1.964455e-08 -1.851777e-08 -1.828966e-08 -1.847703e-08 -2.067604e-08
-1.887430e-08 -1.924935e-08 -1.843191e-08 -1.822911e-08 -1.987134e-08 -1.721933e-08 -1.848539e-08 -1.773337e-08 -1.998540e-08 -1.859591e-08
-1.818601e-08 -1.706214e-08 -1.764918e-08 -1.819959e-08 -1.977638e-08 -1.875007e-08 -1.956060e-08 -1.868673e-08 -1.876299e-08 -1.961648e-08
-1.923303e-08 -1.927372e-08 -1.983562e-08 -2.024552e-08 -1.915436e-08 -1.907601e-08 -1.943618e-08 -2.000173e-08 -1.987832e-08 -2.000187e-08
-1.926283e-08 -2.002707e-08 -1.999305e-08 -1.816510e-08 -1.918330e-08 -1.891016e-08 -1.949910e-08 -1.873317e-08 -1.800838e-08 -1.910126e-08
-1.971299e-08 -1.923522e-08 -1.878144e-08 -1.820827e-08 -1.741386e-08 -1.806512e-08 -1.807234e-08 -1.739885e-08 -1.699802e-08 -1.723482e-08
-1.729002e-08 -1.585206e-08 -1.501480e-08 -1.701884e-08 -1.544020e-08 -1.554237e-08 -1.519093e-08 -1.487055e-08 -1.548190e-08 -1.447741e-08
-1.507935e-08 -1.431414e-08 -1.325169e-08 -1.266938e-08 -1.174089e-08 -1.242211e-08 -1.239139e-08 -1.165158e-08 -1.004720e-08 -1.222424e-08
-9.337016e-09 -1.016991e-08 -9.081436e-09 -8.945475e-09 -9.568588e-09 -7.260284e-09 -7.753813e-09 -6.579552e-09 -7.825725e-09 -5.961554e-09
-6.135159e-09 -6.705869e-09 -4.861777e-09 -4.465037e-09 -5.741452e-09 -5.835995e-09 -5.204318e-09 -4.509757e-09 -2.133128e-09 -3.442575e-09
-2.844856e-09 -3.123178e-09 -4.394821e-09 -1.565735e-09 -1.910406e-09 -8.661985e-10 3.024937e-10 -2.427583e-10 7.351740e-10 -1.439245e-09
4.663125e-10
6.701809e-11 1.060886e-09 -2.115823e-10 1.830582e-09 1.859804e-09 3.869560e-09 1.887366e-09 4.886339e-10 2.468549e-09 3.981154e-09
3.308942e-09 3.044519e-09 3.350398e-09 4.312648e-09 3.926318e-09 4.083275e-09 5.752003e-09 5.628916e-09 5.777003e-09 5.476787e-09
5.662386e-09 6.157724e-09 7.067805e-09 7.676666e-09 7.715222e-09 9.182870e-09 9.241496e-09 9.244026e-09 9.423940e-09 8.904935e-09
9.121712e-09 1.001369e-08 9.985254e-09 1.266639e-08 1.230598e-08 1.223732e-08 1.439703e-08 1.313325e-08 1.361401e-08 1.280524e-08
1.346051e-08 1.442400e-08 1.361428e-08 1.479703e-08 1.587436e-08 1.561832e-08 1.555227e-08 1.561283e-08 1.528202e-08 1.552622e-08
1.674314e-08 1.767377e-08 1.757382e-08 1.781953e-08 1.702654e-08 1.684787e-08 1.746208e-08 1.890774e-08 1.973000e-08 1.827970e-08
1.760355e-08 1.763854e-08 1.945578e-08 2.010974e-08 1.880841e-08 1.886267e-08 1.906947e-08 1.887416e-08 1.952411e-08 1.925353e-08
1.935977e-08 2.048691e-08 1.842827e-08 1.883026e-08 1.894609e-08 1.862276e-08 2.013150e-08 2.022938e-08 2.012814e-08 1.942507e-08
1.820206e-08 1.882656e-08 1.981631e-08 1.934029e-08 1.872242e-08 1.832422e-08 1.889045e-08 1.866450e-08 1.907250e-08 1.803523e-08
1.845981e-08 1.777599e-08 1.804345e-08 1.934546e-08 1.872409e-08 1.877774e-08 1.866595e-08 1.794076e-08 1.959005e-08 1.920029e-08
2.024808e-08 2.003614e-08 2.042201e-08 2.176659e-08 1.836025e-08 1.823158e-08 1.951545e-08 1.958157e-08 2.011367e-08 1.901317e-08
1.884654e-08 2.031692e-08 2.007879e-08 1.976321e-08 1.918568e-08 1.894802e-08 1.890308e-08 1.827039e-08 2.026992e-08 1.840595e-08
1.821262e-08 1.845176e-08 1.737971e-08 1.806989e-08 1.654377e-08 1.760266e-08 1.630429e-08 1.664440e-08 1.616549e-08 1.571353e-08
1.581473e-08 1.542714e-08 1.584283e-08 1.539548e-08 1.489153e-08 1.561235e-08 1.485876e-08 1.417399e-08 1.449148e-08 1.501271e-08
1.301510e-08 1.299910e-08 1.324130e-08 1.280054e-08 1.160045e-08 1.079141e-08 1.185315e-08 1.095355e-08 9.773406e-09 1.001855e-08
1.098840e-08 9.793422e-09 1.064250e-08 9.015044e-09 9.283052e-09 8.003632e-09 6.938753e-09 7.766441e-09 6.957343e-09 7.269874e-09
5.439563e-09 7.236611e-09 6.111129e-09 4.565895e-09 4.617233e-09 5.757430e-09 2.469954e-09 3.857190e-09 3.265431e-09 1.954358e-09
3.339429e-09 1.337778e-09 2.343648e-09 1.709077e-09 -1.218480e-10 -5.679190e-10 2.138414e-09 7.361356e-10 8.349518e-11 2.103350e-09
2.378863e-10 -1.146257e-09 9.861161e-10 -1.227247e-09 -2.025298e-09 -8.730340e-10 -2.320169e-09 -2.255591e-09 -3.654413e-09 -3.767076e-09
-3.830943e-09 -2.145917e-09 -3.287679e-09 -4.701442e-09 -4.300777e-09 -4.482861e-09 -4.535173e-09 -4.671640e-09 -4.746993e-09 -6.273958e-09
-6.084487e-09 -6.944273e-09 -6.254288e-09 -5.951987e-09 -8.503981e-09 -6.714943e-09 -1.023660e-08 -9.306585e-09 -1.105098e-08 -1.028242e-08
-9.785517e-09 -9.979860e-09 -1.166861e-08 -1.172380e-08 -1.183628e-08 -1.151162e-08 -1.245291e-08 -1.290058e-08 -1.388280e-08 -1.272784e-08
-1.284049e-08 -1.516314e-08 -1.432778e-08 -1.455305e-08 -1.489745e-08 -1.608815e-08 -1.556088e-08 -1.485467e-08 -1.529331e-08 -1.616801e-08
-1.553190e-08 -1.759975e-08 -1.756566e-08 -1.690370e-08 -1.635443e-08 -1.728508e-08 -1.786357e-08 -1.838082e-08 -1.948723e-08 -1.879154e-08
-1.994001e-08 -1.859243e-08 -1.884145e-08 -1.924695e-08 -1.811893e-08 -1.943276e-08 -1.905389e-08 -1.945550e-08 -1.950125e-08 -1.861516e-08
-1.900508e-08 -2.052651e-08 -1.860839e-08 -1.996425e-08 -2.035232e-08 -1.954794e-08 -1.826618e-08 -2.043355e-08 -2.041931e-08 -1.962478e-08
-1.752868e-08 -1.948594e-08 -1.797387e-08 -1.975476e-08 -1.854927e-08 -1.930648e-08 -1.928817e-08 -1.718412e-08 -1.947910e-08 -1.907257e-08
-1.798905e-08 -1.900854e-08 -1.826555e-08 -1.784277e-08 -1.744316e-08 -1.890741e-08 -1.791532e-08 -2.007086e-08 -1.759036e-08 -2.022489e-08
-2.027451e-08 -2.097548e-08 -2.005864e-08 -1.936433e-08 -1.982156e-08 -1.962132e-08 -1.930053e-08 -1.977956e-08 -1.961144e-08 -1.984582e-08
-1.918106e-08 -1.933215e-08 -2.059412e-08 -1.965336e-08 -1.869146e-08 -1.922930e-08 -1.899667e-08 -1.953179e-08 -2.001549e-08 -1.778864e-08
-1.825609e-08 -1.825791e-08 -1.687669e-08 -1.801191e-08 -1.716646e-08 -1.731639e-08 -1.858294e-08 -1.691862e-08 -1.800464e-08 -1.769847e-08
-1.763634e-08 -1.622738e-08 -1.531540e-08 -1.575546e-08 -1.444340e-08 -1.595624e-08 -1.380074e-08 -1.405602e-08 -1.491438e-08 -1.407159e-08
-1.391988e-08 -1.278493e-08 -1.345419e-08 -1.213239e-08 -1.364101e-08 -1.119231e-08 -1.191354e-08 -1.046690e-08 -1.004154e-08 -1.065966e-08
-1.124950e-08 -9.124785e-09 -9.602036e-09 -9.395047e-09 -9.690734e-09 -8.575159e-09 -8.731976e-09 -7.733369e-09 -6.809794e-09 -7.801361e-09
-6.207724e-09 -4.539638e-09 -7.660600e-09 -7.350948e-09 -5.675096e-09 -4.134072e-09 -4.717092e-09 -3.920471e-09 -3.927437e-09 -3.648091e-09
-3.531831e-09 -3.679056e-09 -1.373750e-09 -1.759756e-09 -3.385735e-09 -1.353229e-09 -1.694262e-09 -2.108016e-09 -2.722398e-10 1.125933e-09
6.701809e-11
-2.218754e-10 1.051745e-09 -1.026819e-10 3.178593e-09 1.404503e-09 1.705624e-09 8.762992e-10 8.295178e-10 2.310513e-09 1.885705e-09
4.464046e-09 2.931933e-09 2.115330e-09 3.822532e-09 5.246326e-09 3.044685e-09 6.422408e-09 5.156531e-09 6.325835e-09 5.873989e-09
6.662339e-09 6.869015e-09 7.728147e-09 8.059133e-09 8.670869e-09 7.948374e-09 7.533333e-09 1.172409e-08 9.016991e-09 1.087774e-08
1.040014e-08 1.112081e-08 1.264669e-08 1.018268e-08 1.218399e-08 1.098879e-08 1.359329e-08 1.157037e-08 1.314673e-08 1.279932e-08
1.307251e-08 1.411823e-08 1.446015e-08 1.470460e-08 1.464000e-08 1.615957e-08 1.689347e-08 1.702397e-08 1.626209e-08 1.631603e-08
1.741431e-08 1.631877e-08 1.645875e-08 1.710592e-08 1.688647e-08 1.751822e-08 1.750053e-08 1.770882e-08 1.865949e-08 1.812036e-08
1.833793e-08 1.945996e-08 1.947250e-08 2.010486e-08 1.948458e-08 1.919111e-08 2.006639e-08 1.927474e-08 1.838802e-08 2.002474e-08
1.949737e-08 1.943554e-08 1.921843e-08 2.052545e-08 1.946300e-08 2.055809e-08 1.954274e-08 2.004276e-08 1.798487e-08 1.887149e-08
2.083409e-08 1.918489e-08 1.929354e-08 1.860514e-08 1.803465e-08 1.861268e-08 1.808931e-08 1.787691e-08 1.995527e-08 1.821653e-08
1.806980e-08 1.766208e-08 1.877239e-08 1.783342e-08 1.897776e-08 1.907641e-08 2.039364e-08 1.983820e-08 1.924758e-08 1.857104e-08
1.798907e-08 1.923384e-08 1.966631e-08 1.897124e-08 1.975515e-08 1.828752e-08 2.044081e-08 1.957809e-08 1.919699e-08 1.930223e-08
1.930281e-08 1.867895e-08 1.903757e-08 1.800661e-08 1.919741e-08 1.862395e-08 1.886665e-08 1.837152e-08 1.918665e-08 1.785900e-08
1.936957e-08 1.760867e-08 1.877451e-08 1.814333e-08 1.898537e-08 1.681663e-08 1.829874e-08 1.725755e-08 1.685276e-08 1.575421e-08
1.572189e-08 1.524435e-08 1.543729e-08 1.554175e-08 1.495281e-08 1.440526e-08 1.408165e-08 1.491054e-08 1.459012e-08 1.452076e-08
1.433908e-08 1.489609e-08 1.329728e-08 1.247910e-08 1.173483e-08 1.203628e-08 1.102317e-08 9.773426e-09 1.144149e-08 1.154531e-08
9.093655e-09 9.855326e-09 9.966175e-09 1.036095e-08 8.045761e-09 7.804201e-09 8.165622e-09 8.810547e-09 6.156034e-09 6.270790e-09
6.461601e-09 5.806026e-09 4.410244e-09 4.346530e-09 5.782738e-09 3.202102e-09 4.935786e-09 3.933363e-09 3.353466e-09 5.044615e-09
3.004097e-09 3.386319e-10 2.634319e-09 4.267642e-10 6.777212e-10 1.331310e-09 2.637427e-10 -1.014660e-09 7.919754e-10 -1.147327e-09
6.452365e-10 -9.406596e-10 -5.655974e-10 -1.714895e-09 -1.173333e-09 -1.507405e-09 -1.518026e-09 -1.878271e-09 -2.022739e-09 -1.651543e-09
-1.880918e-09 -3.139506e-09 -4.127259e-09 -3.623655e-09 -4.965138e-09 -5.137575e-09 -4.956403e-09 -6.408075e-09 -7.612161e-09 -5.089920e-09
-5.589824e-09 -6.189746e-09 -6.773610e-09 -8.492903e-09 -8.240460e-09 -6.820410e-09 -8.985238e-09 -8.963406e-09 -9.326804e-09 -1.004944e-08
-8.340471e-09 -1.049333e-08 -1.051818e-08 -1.120163e-08 -1.119616e-08 -1.192516e-08 -1.254324e-08 -1.255061e-08 -1.277422e-08 -1.220247e-08
-1.239585e-08 -1.354110e-08 -1.401596e-08 -1.459584e-08 -1.411722e-08 -1.554431e-08 -1.475671e-08 -1.521611e-08 -1.533561e-08 -1.685582e-08
-1.571583e-08 -1.720989e-08 -1.583049e-08 -1.715576e-08 -1.711893e-08 -1.773076e-08 -1.887348e-08 -1.831694e-08 -1.799962e-08 -1.831794e-08
-1.918158e-08 -1.839001e-08 -1.843844e-08 -1.850954e-08 -1.875370e-08 -1.901130e-08 -2.039797e-08 -1.935067e-08 -1.902298e-08 -1.881046e-08
-2.001775e-08 -1.942511e-08 -1.914649e-08 -2.115877e-08 -1.878382e-08 -1.925114e-08 -2.031550e-08 -1.997803e-08 -1.950693e-08 -1.913572e-08
-1.995783e-08 -1.947203e-08 -1.843918e-08 -2.028496e-08 -1.852303e-08 -2.030799e-08 -1.869383e-08 -1.948694e-08 -1.840780e-08 -1.941468e-08
-1.825446e-08 -1.982934e-08 -1.695038e-08 -1.817899e-08 -1.908771e-08 -1.901737e-08 -1.923436e-08 -2.094489e-08 -2.017857e-08 -1.968070e-08
-1.947021e-08 -1.968444e-08 -2.009415e-08 -1.976244e-08 -2.004274e-08 -1.994863e-08 -1.886979e-08 -1.993336e-08 -2.076582e-08 -2.093213e-08
-2.069546e-08 -1.964168e-08 -1.944966e-08 -2.069402e-08 -2.043601e-08 -1.970875e-08 -1.941014e-08 -1.885654e-08 -1.985843e-08 -1.870507e-08
-2.029584e-08 -1.851875e-08 -1.854656e-08 -1.646458e-08 -1.805694e-08 -1.695617e-08 -1.687452e-08 -1.729109e-08 -1.803348e-08 -1.693172e-08
-1.613685e-08 -1.642705e-08 -1.571756e-08 -1.592174e-08 -1.543222e-08 -1.570567e-08 -1.413583e-08 -1.563130e-08 -1.436909e-08 -1.406712e-08
-1.415311e-08 -1.455430e-08 -1.176519e-08 -1.309900e-08 -1.210189e-08 -1.263398e-08 -1.226124e-08 -1.299671e-08 -1.227019e-08 -1.054076e-08
-9.953985e-09 -1.116878e-08 -9.331412e-09 -9.615325e-09 -8.314653e-09 -7.819129e-09 -8.056269e-09 -8.876416e-09 -7.181868e-09 -6.719061e-09
-5.957560e-09 -7.514471e-09 -6.323411e-09 -5.428495e-09 -5.722459e-09 -5.856645e-09 -2.764886e-09 -4.382702e-09 -4.684371e-09 -2.969958e-09
-4.157651e-09 -2.003402e-09 -2.004006e-09 -2.986345e-09 -2.831513e-09 -1.673247e-09 -2.498560e-09 -6.055687e-10 8.245615e-11 2.311492e-10
-2.218754e-10
-5.888394e-10 2.358638e-09 1.524159e-09 3.202350e-09 -9.451001e-10 2.206348e-09 1.454783e-09 1.085185e-09 3.367807e-09 2.593906e-09
2.535806e-09 2.252756e-09 5.378571e-09 3.901803e-09 5.069598e-09 3.525084e-09 5.269393e-09 5.641823e-09 5.497636e-09 5.803595e-09
5.268962e-09 6.584026e-09 7.727331e-09 8.050741e-09 7.920944e-09 8.829764e-09 8.388609e-09 9.751015e-09 9.507255e-09 9.071935e-09
9.860726e-09 1.091396e-08 1.079194e-08 1.258219e-08 1.194718e-08 1.202624e-08 1.232313e-08 1.194226e-08 1.322472e-08 1.348035e-08
1.379075e-08 1.456261e-08 1.366468e-08 1.421815e-08 1.489726e-08 1.521878e-08 1.537989e-08 1.563135e-08 1.666879e-08 1.551848e-08
1.645823e-08 1.663766e-08 1.722970e-08 1.760646e-08 1.674019e-08 1.895682e-08 1.791870e-08 1.891107e-08 1.850027e-08 1.846524e-08
1.802815e-08 2.008272e-08 2.012205e-08 1.959575e-08 1.830742e-08 1.861903e-08 1.944992e-08 1.829509e-08 1.954615e-08 2.128219e-08
1.868318e-08 1.969175e-08 1.991659e-08 2.024779e-08 1.947567e-08 2.127216e-08 2.152632e-08 1.989872e-08 2.047357e-08 1.835769e-08
1.868674e-08 1.891578e-08 2.041334e-08 1.981610e-08 1.886830e-08 1.830828e-08 1.918384e-08 1.925715e-08 1.831551e-08 1.928453e-08
1.871070e-08 1.969944e-08 1.753900e-08 1.951621e-08 1.882284e-08 1.961925e-08 1.978154e-08 1.877459e-08 1.955003e-08 1.935224e-08
1.992793e-08 1.923264e-08 1.978881e-08 1.992674e-08 1.998577e-08 1.996852e-08 2.174652e-08 1.847059e-08 2.009111e-08 2.059244e-08
1.933793e-08 2.008136e-08 1.903176e-08 1.766151e-08 2.101464e-08 1.922795e-08 1.948662e-08 1.914705e-08 1.799961e-08 1.813873e-08
1.911869e-08 1.925357e-08 1.897845e-08 1.814619e-08 1.810729e-08 1.756304e-08 1.755653e-08 1.822432e-08 1.750642e-08 1.566751e-08
1.584746e-08 1.648754e-08 1.596847e-08 1.472083e-08 1.562623e-08 1.454946e-08 1.467639e-08 1.391273e-08 1.432727e-08 1.371894e-08
1.378889e-08 1.281412e-08 1.338819e-08 1.257402e-08 1.167930e-08 1.120725e-08 1.006808e-08 1.127777e-08 1.013466e-08 1.113018e-08
9.775790e-09 9.388341e-09 1.041854e-08 8.969516e-09 9.471438e-09 1.052068e-08 7.821678e-09 8.007174e-09 8.270106e-09 7.796355e-09
6.727813e-09 5.086255e-09 3.903184e-09 5.993752e-09 4.656890e-09 4.623157e-09 3.701597e-09 4.754356e-09 4.058831e-09 2.762608e-09
2.406441e-09 3.228016e-09 2.230826e-09 1.469423e-09 2.523198e-09 2.154044e-09 1.613995e-09 5.744998e-10 3.266828e-10 -1.531422e-09
1.843557e-09 8.332657e-10 -1.076352e-09 -1.860701e-09 -1.790827e-12 -3.022456e-10 -2.765320e-09 -1.773437e-09 -1.525384e-09 -1.422444e-09
-3.544891e-09 -2.416881e-09 -3.780708e-09 -4.002719e-09 -3.310119e-09 -6.273701e-09 -6.692110e-09 -6.587063e-09 -4.063446e-09 -6.338469e-09
-8.542687e-09 -7.259231e-09 -5.744071e-09 -8.151956e-09 -6.993351e-09 -7.999224e-09 -8.064673e-09 -7.506171e-09 -9.010484e-09 -9.170054e-09
-1.032630e-08 -1.116329e-08 -1.005373e-08 -9.997382e-09 -1.097525e-08 -1.187834e-08 -1.246043e-08 -1.178257e-08 -1.347412e-08 -1.378118e-08
-1.493978e-08 -1.282559e-08 -1.331136e-08 -1.527991e-08 -1.539256e-08 -1.514485e-08 -1.520789e-08 -1.565856e-08 -1.626568e-08 -1.656644e-08
-1.666406e-08 -1.592988e-08 -1.686047e-08 -1.733394e-08 -1.813992e-08 -1.849429e-08 -1.898370e-08 -1.790512e-08 -1.790255e-08 -1.780878e-08
-1.899162e-08 -1.895688e-08 -1.911794e-08 -1.894509e-08 -1.999565e-08 -1.927918e-08 -1.983237e-08 -1.964339e-08 -1.935343e-08 -1.966148e-08
-1.991375e-08 -1.879489e-08 -1.956896e-08 -1.880526e-08 -1.946260e-08 -2.016444e-08 -2.005424e-08 -1.776128e-08 -1.916096e-08 -1.964496e-08
-1.855109e-08 -2.054988e-08 -1.796380e-08 -1.983095e-08 -1.933872e-08 -2.020542e-08 -2.032071e-08 -1.889195e-08 -1.656403e-08 -1.803983e-08
-1.760810e-08 -1.770588e-08 -1.850132e-08 -1.841035e-08 -1.776017e-08 -1.927361e-08 -1.946961e-08 -1.887928e-08 -1.974047e-08 -1.976312e-08
-1.922859e-08 -1.976823e-08 -1.993709e-08 -2.030377e-08 -2.077651e-08 -1.921137e-08 -1.876122e-08 -2.047366e-08 -1.995565e-08 -1.942374e-08
-1.953009e-08 -2.123514e-08 -1.949773e-08 -2.185666e-08 -1.994462e-08 -2.101925e-08 -1.847010e-08 -1.963159e-08 -1.820798e-08 -1.822079e-08
-1.858486e-08 -1.885978e-08 -1.880300e-08 -1.923749e-08 -1.797483e-08 -1.780741e-08 -1.787938e-08 -1.629192e-08 -1.777292e-08 -1.688586e-08
-1.667102e-08 -1.646178e-08 -1.598855e-08 -1.625538e-08 -1.544944e-08 -1.534008e-08 -1.403839e-08 -1.496077e-08 -1.392659e-08 -1.527701e-08
-1.502976e-08 -1.250881e-08 -1.307512e-08 -1.396779e-08 -1.320438e-08 -1.284582e-08 -1.102604e-08 -1.318498e-08 -1.045012e-08 -9.429751e-09
-9.696211e-09 -1.093180e-08 -1.067339e-08 -1.041941e-08 -8.654516e-09 -7.674265e-09 -7.689811e-09 -8.557338e-09 -8.788548e-09 -6.732676e-09
-7.903648e-09 -8.060312e-09 -6.886494e-09 -5.531517e-09 -5.722538e-09 -4.491937e-09 -4.755710e-09 -4.325600e-09 -4.005556e-09 -3.411735e-09
-3.129316e-09 -4.155833e-09 -3.063750e-09 -1.952196e-09 -2.752572e-09 -1.473194e-10 -1.369477e-09 -1.883751e-09 2.341604e-09 1.784006e-10
-5.888394e-10
-4.124406e-10 2.225526e-10 -6.232025e-10 1.483104e-09 2.283476e-09 6.689083e-10 3.133642e-09 1.415134e-09 2.347908e-09 2.373328e-09
4.229860e-09 4.981459e-09 1.524988e-09 2.892381e-09 4.170611e-09 7.010396e-09 4.264903e-09 5.217615e-09 6.076268e-09 8.488608e-09
6.507772e-09 5.455348e-09 7.563471e-09 7.792051e-09 8.932685e-09 9.018059e-09 9.564862e-09 9.111273e-09 9.410162e-09 1.253359e-08
9.102115e-09 1.172852e-08 1.072440e-08 1.106439e-08 1.049173e-08 1.104040e-08 1.194359e-08 1.286027e-08 1.369007e-08 1.300970e-08
1.454435e-08 1.378093e-08 1.540917e-08 1.573764e-08 1.620502e-08 1.612947e-08 1.469615e-08 1.541069e-08 1.589233e-08 1.739403e-08
1.705124e-08 1.631705e-08 1.636985e-08 1.650004e-08 1.811921e-08 1.754111e-08 1.910998e-08 1.779917e-08 1.825326e-08 1.805389e-08
1.851800e-08 1.906608e-08 1.828802e-08 1.918580e-08 2.013177e-08 1.936280e-08 2.024297e-08 1.835445e-08 2.054325e-08 1.797090e-08
2.097025e-08 1.924473e-08 2.021146e-08 2.032729e-08 2.071966e-08 1.962844e-08 2.079712e-08 1.942109e-08 1.991658e-08 1.864863e-08
1.935182e-08 1.954963e-08 1.942827e-08 1.868017e-08 1.922337e-08 1.793016e-08 1.811544e-08 1.764296e-08 1.795348e-08 1.871991e-08
1.762285e-08 1.769144e-08 1.863680e-08 1.965026e-08 2.000140e-08 1.893837e-08 1.896350e-08 1.832291e-08 1.866778e-08 1.971344e-08
2.014303e-08 2.038830e-08 1.970324e-08 1.898228e-08 1.978094e-08 2.034570e-08 2.048065e-08 2.036622e-08 2.092747e-08 1.948285e-08
2.053785e-08 1.992328e-08 2.041457e-08 1.786425e-08 1.960188e-08 1.875157e-08 2.063581e-08 1.943302e-08 1.842617e-08 1.839433e-08
1.903654e-08 1.883924e-08 1.811356e-08 1.810618e-08 1.780805e-08 1.656971e-08 1.718587e-08 1.670739e-08 1.593171e-08 1.541515e-08
1.647220e-08 1.602294e-08 1.687327e-08 1.623697e-08 1.503250e-08 1.556281e-08 1.507987e-08 1.386833e-08 1.395968e-08 1.450323e-08
1.455176e-08 1.292125e-08 1.161945e-08 1.413295e-08 1.345079e-08 1.149512e-08 1.173979e-08 1.105771e-08 9.877493e-09 9.996028e-09
8.947227e-09 9.095385e-09 9.202221e-09 8.062295e-09 8.338946e-09 8.365451e-09 5.912801e-09 9.077319e-09 6.437576e-09 8.159217e-09
7.998458e-09 5.410143e-09 6.043697e-09 6.279757e-09 3.696479e-09 3.601708e-09 5.346412e-09 2.778769e-09 3.012119e-09 1.781454e-09
2.685392e-09 1.735778e-09 2.759746e-09 6.967865e-10 3.529513e-09 5.212279e-10 4.584741e-10 1.306300e-09 -3.114768e-10 -7.415486e-10
-4.393190e-11 -1.986182e-10 -2.614998e-09 -2.449392e-09 -7.551623e-10 -7.764493e-10 -6.641250e-10 -2.782804e-09 -9.651763e-10 -1.952850e-09
-1.161295e-09 -3.404686e-09 -4.338711e-09 -3.520516e-09 -3.373189e-09 -4.303226e-09 -3.730283e-09 -6.531840e-09 -5.215523e-09 -4.139711e-09
-8.695932e-09 -7.354244e-09 -6.711647e-09 -1.017188e-08 -7.765255e-09 -9.373153e-09 -7.402795e-09 -9.893225e-09 -1.053392e-08 -9.581022e-09
-8.950956e-09 -9.252195e-09 -1.135930e-08 -1.052109e-08 -1.240833e-08 -1.273073e-08 -1.236063e-08 -1.263468e-08 -1.171747e-08 -1.323599e-08
-1.328544e-08 -1.423650e-08 -1.484602e-08 -1.448213e-08 -1.613468e-08 -1.516594e-08 -1.535940e-08 -1.629473e-08 -1.631829e-08 -1.584954e-08
-1.738610e-08 -1.642582e-08 -1.730190e-08 -1.785914e-08 -1.685107e-08 -1.665216e-08 -1.703924e-08 -1.882426e-08 -1.856610e-08 -1.899536e-08
-1.900223e-08 -1.876509e-08 -1.827945e-08 -1.860062e-08 -1.796528e-08 -1.848508e-08 -1.805971e-08 -1.912642e-08 -1.925719e-08 -2.032594e-08
-1.866638e-08 -1.926319e-08 -1.944082e-08 -1.913343e-08 -1.839796e-08 -1.828982e-08 -1.943046e-08 -2.103283e-08 -1.931890e-08 -1.970686e-08
-1.883116e-08 -1.929055e-08 -1.862799e-08 -2.016347e-08 -1.945031e-08 -1.906873e-08 -1.945171e-08 -1.806742e-08 -1.820312e-08 -1.814048e-08
-1.809737e-08 -1.850886e-08 -1.889896e-08 -1.853336e-08 -1.963273e-08 -1.881977e-08 -1.942588e-08 -1.944918e-08 -2.015118e-08 -1.866105e-08
-1.956065e-08 -1.780149e-08 -1.950853e-08 -1.926809e-08 -1.922446e-08 -1.961057e-08 -1.967037e-08 -2.082154e-08 -2.000962e-08 -2.041127e-08
-1.883961e-08 -1.925625e-08 -2.019627e-08 -1.962086e-08 -1.844335e-08 -1.980536e-08 -1.947909e-08 -1.850239e-08 -1.864151e-08 -1.946279e-08
-1.927629e-08 -1.860715e-08 -1.841542e-08 -1.783284e-08 -1.704806e-08 -1.819040e-08 -1.714585e-08 -1.764496e-08 -1.581359e-08 -1.796061e-08
-1.700706e-08 -1.586587e-08 -1.588720e-08 -1.582651e-08 -1.464977e-08 -1.475583e-08 -1.558246e-08 -1.478811e-08 -1.436497e-08 -1.353407e-08
-1.278721e-08 -1.268570e-08 -1.357803e-08 -1.494675e-08 -1.124676e-08 -1.110941e-08 -1.097244e-08 -1.094110e-08 -1.067866e-08 -1.041691e-08
-9.799490e-09 -9.155692e-09 -9.477255e-09 -7.361899e-09 -8.756345e-09 -7.387877e-09 -8.251674e-09 -9.155645e-09 -7.699254e-09 -5.876365e-09
-5.645798e-09 -6.553933e-09 -6.103930e-09 -4.153855e-09 -4.150299e-09 -3.006173e-09 -3.925814e-09 -3.154354e-09 -5.165739e-09 -1.655074e-09
-2.398869e-09 -2.058598e-09 -1.115923e-09 -7.586582e-10 -9.189811e-10 -1.677955e-09 -1.499326e-09 -6.648663e-10 2.338122e-11 -4.884463e-11
-4.124406e-10
9.642680e-10 -5.508213e-10 -1.090983e-09 5.215409e-10 2.313845e-09 8.333633e-10 4.801504e-10 3.487576e-09 2.681928e-10 2.953247e-09
3.087629e-09 2.188635e-09 4.185634e-09 2.582519e-09 4.192071e-09 4.781882e-09 5.133431e-09 5.830363e-09 7.158361e-09 6.717325e-09
6.556220e-09 6.097828e-09 7.219167e-09 7.493431e-09 8.805257e-09 9.173175e-09 8.593747e-09 8.924138e-09 8.756088e-09 9.590304e-09
1.130547e-08 1.026258e-08 1.000167e-08 1.196423e-08 1.147091e-08 1.357861e-08 1.362169e-08 1.283060e-08 1.425429e-08 1.300826e-08
1.499301e-08 1.418282e-08 1.456526e-08 1.554022e-08 1.436479e-08 1.533961e-08 1.677988e-08 1.565383e-08 1.556667e-08 1.565391e-08
1.602339e-08 1.801236e-08 1.674206e-08 1.918099e-08 1.672151e-08 1.841416e-08 1.806678e-08 1.789895e-08 1.777200e-08 1.815266e-08
1.714183e-08 1.873136e-08 1.870059e-08 1.813618e-08 1.930500e-08 1.950262e-08 1.971451e-08 1.793469e-08 1.878816e-08 1.849585e-08
2.047887e-08 1.909385e-08 2.083106e-08 1.895144e-08 2.004624e-08 1.932862e-08 1.822451e-08 2.005400e-08 2.038856e-08 1.940932e-08
1.974981e-08 1.952478e-08 1.925658e-08 1.796742e-08 2.003831e-08 1.724013e-08 1.995324e-08 1.885995e-08 2.018331e-08 1.901996e-08
1.958833e-08 1.898688e-08 1.896257e-08 1.889355e-08 1.807822e-08 1.904211e-08 1.874788e-08 1.921220e-08 1.946469e-08 2.136044e-08
1.918577e-08 1.873996e-08 1.888950e-08 1.935353e-08 1.979488e-08 2.021681e-08 1.877532e-08 1.888352e-08 1.877731e-08 1.953206e-08
1.999329e-08 1.897589e-08 1.979230e-08 2.010688e-08 2.089178e-08 1.917398e-08 1.935298e-08 1.865160e-08 1.814348e-08 1.941868e-08
1.944446e-08 1.783166e-08 1.760803e-08 1.926970e-08 1.741437e-08 1.762184e-08 1.644335e-08 1.666863e-08 1.737500e-08 1.681179e-08
1.580986e-08 1.627064e-08 1.530310e-08 1.575368e-08 1.579835e-08 1.397147e-08 1.342202e-08 1.457896e-08 1.415102e-08 1.502999e-08
1.246251e-08 1.375293e-08 1.299054e-08 1.298024e-08 1.276229e-08 1.204289e-08 1.057642e-08 9.863188e-09 9.097664e-09 9.938275e-09
9.162382e-09 8.379767e-09 7.601471e-09 9.209870e-09 8.711737e-09 9.678379e-09 8.873905e-09 6.298349e-09 5.227291e-09 8.824016e-09
6.276534e-09 7.511769e-09 3.809443e-09 3.383117e-09 4.980799e-09 3.863021e-09 4.423999e-09 4.288173e-09 3.893785e-09 1.021084e-09
3.540611e-09 3.787922e-09 2.325487e-09 1.737700e-09 2.809867e-09 8.757489e-10 1.225591e-09 7.625400e-10 1.938555e-09 4.669864e-10
-2.180495e-09 -1.110575e-09 -1.637926e-10 -6.888031e-10 -1.822925e-09 -8.836514e-10 -1.803135e-09 -1.477260e-09 -3.017615e-09 -2.167979e-09
-2.174893e-09 -2.316525e-09 -3.107081e-09 -3.193865e-09 -3.393421e-09 -4.128593e-09 -5.774611e-09 -4.551996e-09 -5.917844e-09 -5.920633e-09
-6.377861e-09 -5.810376e-09 -8.378810e-09 -7.851161e-09 -8.598946e-09 -8.453012e-09 -8.429734e-09 -8.558323e-09 -7.567629e-09 -1.017870e-08
-1.151136e-08 -9.953379e-09 -1.119731e-08 -1.122195e-08 -1.109109e-08 -1.128068e-08 -1.347054e-08 -1.134848e-08 -1.384239e-08 -1.267518e-08
-1.401488e-08 -1.477092e-08 -1.411563e-08 -1.399487e-08 -1.422206e-08 -1.518394e-08 -1.525152e-08 -1.460029e-08 -1.691667e-08 -1.564113e-08
-1.783859e-08 -1.769620e-08 -1.584764e-08 -1.746653e-08 -1.700173e-08 -1.750515e-08 -1.829022e-08 -1.867204e-08 -1.852359e-08 -1.775073e-08
-1.871544e-08 -1.995075e-08 -1.778837e-08 -1.872719e-08 -1.967775e-08 -1.934316e-08 -1.792243e-08 -1.961117e-08 -2.003753e-08 -1.877712e-08
-2.018528e-08 -1.935901e-08 -1.994768e-08 -2.058377e-08 -1.958897e-08 -1.934356e-08 -2.102674e-08 -1.936828e-08 -1.923804e-08 -1.865149e-08
-1.978844e-08 -1.949182e-08 -2.059705e-08 -1.913541e-08 -1.906743e-08 -1.866564e-08 -2.016420e-08 -1.773624e-08 -1.897966e-08 -1.895440e-08
-1.920735e-08 -1.992526e-08 -1.915058e-08 -1.762378e-08 -1.879121e-08 -1.792394e-08 -1.954877e-08 -1.928672e-08 -1.869479e-08 -1.858517e-08
-1.901127e-08 -1.949635e-08 -1.843050e-08 -1.900341e-08 -2.066903e-08 -1.924423e-08 -2.055007e-08 -1.935775e-08 -1.928719e-08 -2.131964e-08
-1.943121e-08 -1.909660e-08 -1.958857e-08 -1.897807e-08 -1.978916e-08 -1.937404e-08 -1.942172e-08 -2.021265e-08 -1.810941e-08 -1.832562e-08
-2.015867e-08 -1.771139e-08 -1.907594e-08 -1.732641e-08 -1.804589e-08 -1.830162e-08 -1.772394e-08 -1.719256e-08 -1.680903e-08 -1.614133e-08
-1.615085e-08 -1.574687e-08 -1.684120e-08 -1.519135e-08 -1.455963e-08 -1.596202e-08 -1.457051e-08 -1.502598e-08 -1.410212e-08 -1.417510e-08
-1.446040e-08 -1.387223e-08 -1.207793e-08 -1.279817e-08 -1.363820e-08 -1.142923e-08 -1.140026e-08 -1.133471e-08 -1.220385e-08 -1.059767e-08
-1.104623e-08 -9.456380e-09 -1.005184e-08 -9.342673e-09 -7.588064e-09 -9.980205e-09 -9.922355e-09 -5.601997e-09 -6.754463e-09 -7.080736e-09
-5.790779e-09 -5.312990e-09 -5.322093e-09 -6.161792e-09 -5.639432e-09 -6.534908e-09 -4.320671e-09 -4.336830e-09 -5.541662e-09 -4.085404e-09
-4.318892e-09 -2.820135e-09 -2.941563e-09 -1.840847e-09 -2.448411e-09 -1.355189e-09 -1.288405e-09 9.673301e-10 -7.200909e-10 -6.793899e-10
9.642680e-10
5.441350e-10 1.331479e-09 -1.157616e-09 2.214273e-09 1.290215e-09 9.589748e-10 1.399904e-09 1.986910e-09 1.622238e-09 2.189714e-09
3.965500e-09 4.225607e-09 6.994251e-09 3.311059e-09 2.151264e-09 4.843657e-09 4.177555e-09 5.451278e-09 7.523918e-09 6.270703e-09
6.683735e-09 8.809073e-09 7.514157e-09 6.650847e-09 8.273395e-09 8.963330e-09 8.763382e-09 1.000489e-08 9.432585e-09 9.903320e-09
1.117998e-08 9.928645e-09 1.067647e-08 1.177568e-08 1.134786e-08 1.185596e-08 1.210750e-08 1.315136e-08 1.332054e-08 1.354991e-08
1.458568e-08 1.407132e-08 1.645729e-08 1.485027e-08 1.581733e-08 1.546915e-08 1.468196e-08 1.591215e-08 1.504996e-08 1.560967e-08
1.671837e-08 1.630912e-08 1.706182e-08 1.794144e-08 1.661519e-08 1.802873e-08 1.781884e-08 1.870342e-08 1.759466e-08 1.867600e-08
1.730341e-08 1.840623e-08 1.860299e-08 1.921287e-08 1.900992e-08 1.992955e-08 1.907291e-08 2.052472e-08 2.066718e-08 1.941533e-08
2.019157e-08 1.974157e-08 1.877220e-08 2.001174e-08 2.049124e-08 1.919995e-08 1.897540e-08 1.991593e-08 1.994174e-08 1.990675e-08
1.946724e-08 1.931970e-08 1.891115e-08 1.906653e-08 1.980507e-08 1.971031e-08 1.913348e-08 2.079486e-08 1.888642e-08 1.892662e-08
1.772236e-08 1.827827e-08 1.883916e-08 1.834758e-08 1.984314e-08 1.967873e-08 1.948290e-08 1.931610e-08 1.952887e-08 1.909764e-08
2.043949e-08 2.013273e-08 1.988616e-08 2.075674e-08 2.109275e-08 1.925424e-08 2.015939e-08 2.044789e-08 2.029545e-08 1.941128e-08
1.965630e-08 1.875019e-08 1.955637e-08 1.856088e-08 1.982296e-08 2.016335e-08 2.011492e-08 1.935121e-08 1.925149e-08 1.885265e-08
1.755720e-08 1.826263e-08 1.820979e-08 1.786488e-08 1.702154e-08 1.656723e-08 1.715214e-08 1.704263e-08 1.575482e-08 1.718010e-08
1.619036e-08 1.505741e-08 1.678603e-08 1.520379e-08 1.539481e-08 1.508434e-08 1.448152e-08 1.355000e-08 1.489739e-08 1.406160e-08
1.261472e-08 1.219328e-08 1.335706e-08 1.229793e-08 1.326122e-08 1.114118e-08 1.218793e-08 1.064589e-08 1.119309e-08 9.472036e-09
9.669054e-09 1.094384e-08 1.062742e-08 8.118952e-09 9.033905e-09 7.233248e-09 7.315972e-09 7.988292e-09 8.754085e-09 6.063507e-09
6.958057e-09 6.042015e-09 5.085618e-09 4.022675e-09 5.765083e-09 4.650200e-09 4.833884e-09 2.440060e-09 4.267279e-09 2.817653e-09
3.057540e-09 3.084215e-09 1.062797e-09 1.597936e-09 1.449713e-09 2.438006e-09 1.458889e-09 -3.304123e-10 -7.736172e-10 -7.709733e-11
-1.108727e-09 -7.811131e-10 -9.175609e-10 -1.748274e-09 -3.341835e-09 -2.011549e-09 -3.101185e-09 -1.860851e-09 -3.310790e-09 -2.197915e-09
-3.633351e-09 -3.808575e-09 -2.390961e-09 -4.601199e-09 -4.573529e-09 -4.176952e-09 -5.528509e-09 -5.726477e-09 -7.470486e-09 -5.745321e-09
-6.796734e-09 -6.606061e-09 -6.864022e-09 -6.685337e-09 -7.765728e-09 -6.927291e-09 -8.394671e-09 -9.664851e-09 -1.139738e-08 -9.524887e-09
-1.078652e-08 -9.965528e-09 -1.241998e-08 -1.100771e-08 -1.112023e-08 -1.232221e-08 -1.211202e-08 -1.278729e-08 -1.408490e-08 -1.272484e-08
-1.484926e-08 -1.503212e-08 -1.351902e-08 -1.590544e-08 -1.448579e-08 -1.469762e-08 -1.525651e-08 -1.534312e-08 -1.551759e-08 -1.608519e-08
-1.696146e-08 -1.652595e-08 -1.794290e-08 -1.769746e-08 -1.746106e-08 -1.827996e-08 -1.677117e-08 -1.784746e-08 -1.865406e-08 -1.957513e-08
-1.787815e-08 -1.894771e-08 -1.929888e-08 -1.916961e-08 -1.882621e-08 -1.805411e-08 -1.972701e-08 -2.007434e-08 -2.040958e-08 -1.931259e-08
-1.906658e-08 -1.912347e-08 -2.037349e-08 -2.063617e-08 -1.931837e-08 -2.044139e-08 -1.904558e-08 -1.975932e-08 -1.922541e-08 -1.896503e-08
-1.845877e-08 -1.892037e-08 -1.942191e-08 -1.949357e-08 -1.912964e-08 -1.893251e-08 -1.979790e-08 -1.851813e-08 -1.754045e-08 -1.949471e-08
-1.910478e-08 -1.895600e-08 -2.019207e-08 -1.828197e-08 -1.880348e-08 -1.754378e-08 -1.941944e-08 -1.864768e-08 -1.840118e-08 -1.969999e-08
-1.909714e-08 -1.859848e-08 -1.948198e-08 -1.952015e-08 -2.043020e-08 -2.043472e-08 -2.031052e-08 -2.010121e-08 -1.991795e-08 -1.979881e-08
-1.930382e-08 -1.904966e-08 -1.959655e-08 -2.003376e-08 -2.082777e-08 -1.971363e-08 -1.930971e-08 -1.977287e-08 -1.916943e-08 -2.017173e-08
-1.741931e-08 -1.866260e-08 -1.774790e-08 -1.827646e-08 -1.746458e-08 -1.683658e-08 -1.802756e-08 -1.802822e-08 -1.766738e-08 -1.576326e-08
-1.649555e-08 -1.613070e-08 -1.526522e-08 -1.523517e-08 -1.575026e-08 -1.458284e-08 -1.440978e-08 -1.388876e-08 -1.378625e-08 -1.347347e-08
-1.303819e-08 -1.394220e-08 -1.323458e-08 -1.480741e-08 -1.255760e-08 -1.227007e-08 -1.142548e-08 -1.186384e-08 -1.096327e-08 -9.925030e-09
-1.006255e-08 -1.064872e-08 -9.491047e-09 -9.686470e-09 -8.451017e-09 -8.847248e-09 -8.317495e-09 -8.018471e-09 -6.682914e-09 -6.221455e-09
-7.074454e-09 -6.121546e-09 -6.495521e-09 -4.997005e-09 -5.295566e-09 -4.924331e-09 -3.821508e-09 -4.138704e-09 -4.490101e-09 -2.389821e-09
-2.272123e-09 -2.581603e-09 -1.776605e-09 -3.906515e-09 -2.202666e-09 -6.357107e-10 -1.230217e-09 -1.483169e-09 5.693767e-10 4.842562e-10
5.441350e-10
1.556941e-09 1.084817e-09 7.603809e-10 2.596435e-10 9.524214e-10 1.031454e-09 2.160354e-09 3.656852e-09 3.976357e-09 4.868164e-09
2.970719e-09 4.088806e-09 3.413662e-09 3.382755e-09 4.172410e-09 6.048421e-09 4.734578e-09 4.758149e-09 5.580954e-09 6.402483e-09
5.753922e-09 7.524505e-09 6.888982e-09 7.956136e-09 8.538206e-09 8.135177e-09 7.698571e-09 9.867388e-09 1.008458e-08 1.196107e-08
1.000389e-08 9.488004e-09 1.020903e-08 1.096134e-08 1.306227e-08 1.080375e-08 1.122564e-08 1.250026e-08 1.321001e-08 1.517537e-08
1.373995e-08 1.426770e-08 1.434159e-08 1.431812e-08 1.516507e-08 1.501707e-08 1.543182e-08 1.523240e-08 1.559566e-08 1.578475e-08
1.567454e-08 1.667357e-08 1.614721e-08 1.782996e-08 1.760026e-08 1.827983e-08 1.727016e-08 1.808241e-08 1.928156e-08 1.867136e-08
1.813184e-08 1.888394e-08 1.986101e-08 1.836355e-08 1.940400e-08 1.962512e-08 1.886871e-08 1.934415e-08 2.101150e-08 2.004639e-08
1.925405e-08 1.860791e-08 2.001841e-08 2.012595e-08 2.074754e-08 1.896124e-08 1.888837e-08 1.967081e-08 2.098387e-08 1.924395e-08
1.874646e-08 2.063111e-08 1.881351e-08 1.985462e-08 1.924634e-08 1.942209e-08 1.795525e-08 1.825251e-08 1.772461e-08 1.938692e-08
1.979065e-08 1.810254e-08 1.993444e-08 1.896146e-08 1.937692e-08 2.062609e-08 2.057634e-08 2.022428e-08 1.922453e-08 2.001940e-08
1.882086e-08 1.952380e-08 1.993163e-08 1.944356e-08 1.938998e-08 1.969338e-08 2.057823e-08 1.976105e-08 2.079737e-08 1.962620e-08
1.996841e-08 1.987966e-08 1.957019e-08 1.898682e-08 1.898298e-08 1.946700e-08 1.877566e-08 1.900857e-08 1.862859e-08 1.966520e-08
1.767250e-08 1.947448e-08 1.792500e-08 1.897242e-08 1.805938e-08 1.718018e-08 1.581757e-08 1.621938e-08 1.654720e-08 1.605784e-08
1.655199e-08 1.652895e-08 1.626574e-08 1.504728e-08 1.434673e-08 1.419291e-08 1.408377e-08 1.339994e-08 1.416649e-08 1.334782e-08
1.265097e-08 1.416438e-08 1.333186e-08 1.156992e-08 1.191942e-08 1.208155e-08 1.173893e-08 1.178165e-08 1.059767e-08 1.047532e-08
9.254470e-09 1.036221e-08 8.732125e-09 9.075304e-09 8.384261e-09 7.321598e-09 8.641412e-09 8.447873e-09 6.151074e-09 6.119965e-09
7.373049e-09 5.874425e-09 4.746033e-09 6.169215e-09 5.127162e-09 4.558433e-09 4.269377e-09 3.567832e-09 3.657662e-09 3.311799e-09
4.203706e-09 3.219537e-09 3.044766e-09 4.056172e-10 1.266336e-09 7.343973e-10 1.167473e-09 8.946297e-10 -8.376618e-11 -6.838793e-10
5.842111e-10 5.731951e-10 2.031605e-10 -1.898891e-10 -4.257957e-11 -1.465229e-09 -2.806170e-09 -2.789784e-09 -8.748671e-10 -2.744749e-09
-4.086545e-09 -2.792725e-09 -2.825471e-09 -3.508817e-09 -4.346402e-09 -5.557427e-09 -4.513596e-09 -4.675251e-09 -6.434032e-09 -6.187086e-09
-4.782301e-09 -6.937096e-09 -7.652257e-09 -6.503264e-09 -6.482947e-09 -9.839996e-09 -7.630951e-09 -7.911226e-09 -9.317247e-09 -8.397625e-09
-8.875202e-09 -9.292253e-09 -1.089097e-08 -1.057063e-08 -1.210977e-08 -1.117139e-08 -1.233387e-08 -1.168025e-08 -1.203170e-08 -1.362436e-08
-1.407186e-08 -1.318704e-08 -1.368445e-08 -1.535180e-08 -1.406487e-08 -1.492015e-08 -1.663165e-08 -1.483748e-08 -1.757361e-08 -1.652734e-08
-1.675633e-08 -1.697830e-08 -1.654284e-08 -1.743978e-08 -1.842599e-08 -1.810138e-08 -1.807854e-08 -1.756702e-08 -1.738948e-08 -1.782765e-08
-1.836007e-08 -1.825804e-08 -1.867374e-08 -1.995004e-08 -1.916246e-08 -1.796973e-08 -1.924612e-08 -1.904582e-08 -2.010326e-08 -2.092641e-08
-1.917746e-08 -1.918358e-08 -1.946069e-08 -2.019907e-08 -1.852471e-08 -1.985055e-08 -2.040696e-08 -1.950360e-08 -1.917149e-08 -1.837837e-08
-1.898567e-08 -1.895122e-08 -1.959334e-08 -2.035397e-08 -2.036963e-08 -1.748348e-08 -1.842563e-08 -1.827761e-08 -1.719416e-08 -1.736272e-08
-1.840810e-08 -1.832098e-08 -1.886531e-08 -1.865441e-08 -1.864654e-08 -1.974491e-08 -1.920601e-08 -1.856994e-08 -1.786419e-08 -1.932421e-08
-1.994989e-08 -1.991191e-08 -1.960930e-08 -1.998835e-08 -1.991460e-08 -1.854096e-08 -2.034929e-08 -1.945928e-08 -1.854982e-08 -1.964388e-08
-1.969961e-08 -1.938054e-08 -1.821433e-08 -1.963372e-08 -1.937587e-08 -1.879544e-08 -1.880499e-08 -1.857372e-08 -1.798271e-08 -1.818513e-08
-2.026925e-08 -1.829088e-08 -1.819572e-08 -1.865481e-08 -1.715948e-08 -1.825426e-08 -1.741508e-08 -1.770165e-08 -1.781866e-08 -1.730108e-08
-1.707404e-08 -1.621883e-08 -1.592011e-08 -1.564774e-08 -1.559061e-08 -1.473953e-08 -1.379677e-08 -1.486928e-08 -1.648357e-08 -1.364731e-08
-1.421202e-08 -1.263640e-08 -1.344477e-08 -1.170736e-08 -1.163933e-08 -1.317649e-08 -1.149626e-08 -1.174101e-08 -1.006083e-08 -1.142508e-08
-1.006514e-08 -1.031465e-08 -9.367192e-09 -8.970425e-09 -7.917811e-09 -9.527102e-09 -7.988509e-09 -8.946145e-09 -6.583681e-09 -7.043203e-09
-6.618436e-09 -5.859480e-09 -5.370298e-09 -4.066004e-09 -4.665363e-09 -4.318335e-09 -5.028358e-09 -3.059394e-09 -4.896684e-09 -2.445452e-10
-2.098522e-09 -1.219107e-09 -3.951724e-09 -6.543217e-10 -8.050715e-10 -1.931046e-09 -1.394573e-09 -1.765439e-09 -1.506578e-10 -1.016546e-11
1.556941e-09
3.107711e-10 9.173863e-10 -5.771402e-10 1.724147e-09 1.548455e-09 1.126045e-09 2.774642e-09 3.457915e-09 3.462954e-10 2.787873e-09
1.143925e-09 3.779454e-09 2.865062e-09 4.475568e-09 5.615451e-09 4.832933e-09 3.923523e-09 5.977082e-09 6.616856e-09 6.307360e-09
5.418199e-09 7.405562e-09 7.997520e-09 6.951014e-09 8.483247e-09 8.539863e-09 9.874054e-09 7.662005e-09 8.957394e-09 1.102770e-08
1.178181e-08 1.128692e-08 1.066734e-08 1.075401e-08 1.242877e-08 1.219452e-08 1.289698e-08 1.186270e-08 1.371968e-08 1.259265e-08
1.359505e-08 1.408435e-08 1.458364e-08 1.434448e-08 1.486170e-08 1.612712e-08 1.565734e-08 1.483612e-08 1.511904e-08 1.654069e-08
1.755648e-08 1.597004e-08 1.658396e-08 1.600616e-08 1.744037e-08 1.824488e-08 1.723676e-08 1.722830e-08 1.843972e-08 1.772310e-08
1.908884e-08 1.897086e-08 1.753764e-08 1.976007e-08 2.136310e-08 1.880529e-08 1.966520e-08 2.020870e-08 1.811327e-08 1.962138e-08
2.010792e-08 1.988055e-08 1.916944e-08 1.953803e-08 1.954547e-08 1.817041e-08 1.969993e-08 2.032754e-08 1.921556e-08 2.001805e-08
1.986086e-08 1.907757e-08 1.894184e-08 1.805944e-08 1.937860e-08 1.887773e-08 1.877452e-08 1.757874e-08 1.853985e-08 1.789754e-08
1.840033e-08 1.882904e-08 2.014891e-08 1.922375e-08 1.904648e-08 1.824940e-08 1.989937e-08 1.849301e-08 1.972977e-08 2.127159e-08
1.881527e-08 1.848229e-08 1.907321e-08 2.097326e-08 1.917067e-08 1.982796e-08 1.920492e-08 1.961387e-08 2.174867e-08 2.002652e-08
1.914123e-08 1.934005e-08 1.995559e-08 1.868080e-08 1.837734e-08 2.088250e-08 1.990103e-08 1.878331e-08 1.900440e-08 1.857859e-08
1.796728e-08 1.752502e-08 1.862232e-08 1.766161e-08 1.689110e-08 1.747383e-08 1.714680e-08 1.691332e-08 1.768759e-08 1.708186e-08
1.567386e-08 1.523470e-08 1.590471e-08 1.524652e-08 1.410648e-08 1.555879e-08 1.367558e-08 1.435991e-08 1.347361e-08 1.467083e-08
1.531573e-08 1.428288e-08 1.444512e-08 1.214279e-08 1.196700e-08 1.244367e-08 1.135042e-08 1.085459e-08 1.045322e-08 9.786031e-09
1.058614e-08 1.046013e-08 9.585422e-09 7.193977e-09 8.031729e-09 7.733332e-09 7.711432e-09 6.649207e-09 7.504044e-09 6.130644e-09
5.973373e-09 7.175543e-09 7.147344e-09 4.432616e-09 5.195474e-09 4.644415e-09 5.811911e-09 2.885861e-09 3.592419e-09 2.643562e-09
4.842738e-09 2.237112e-09 1.773160e-09 3.367209e-09 5.503700e-10 1.090718e-09 -6.598442e-10 8.242626e-10 -6.544844e-10 3.948859e-10
4.095542e-10 -6.783873e-10 -1.909033e-09 -1.389783e-09 -1.479378e-09 -2.191708e-09 -2.362198e-09 -3.243850e-09 -2.222233e-09 -3.752258e-09
-3.442034e-09 -2.462409e-09 -2.940194e-09 -5.290018e-09 -4.826120e-09 -3.429554e-09 -4.157671e-09 -4.727839e-09 -4.834511e-09 -7.003745e-09
-5.434870e-09 -7.883581e-09 -6.966454e-09 -7.228587e-09 -7.549018e-09 -8.852399e-09 -7.867770e-09 -8.950511e-09 -8.737353e-09 -9.687739e-09
-9.622063e-09 -1.045751e-08 -1.202919e-08 -1.229373e-08 -1.075659e-08 -1.238174e-08 -1.324473e-08 -1.240084e-08 -1.263251e-08 -1.195745e-08
-1.335288e-08 -1.455194e-08 -1.342098e-08 -1.514010e-08 -1.336608e-08 -1.374091e-08 -1.437783e-08 -1.527144e-08 -1.690104e-08 -1.607604e-08
-1.601517e-08 -1.608915e-08 -1.665586e-08 -1.744834e-08 -1.678780e-08 -1.797833e-08 -1.757886e-08 -1.698903e-08 -1.692641e-08 -1.872547e-08
-1.739778e-08 -1.926886e-08 -1.786898e-08 -1.865249e-08 -1.848171e-08 -1.799325e-08 -1.891473e-08 -1.843184e-08 -2.022350e-08 -1.975489e-08
-1.874197e-08 -1.974397e-08 -1.938227e-08 -1.792332e-08 -1.942223e-08 -1.941842e-08 -1.918907e-08 -1.900218e-08 -2.157868e-08 -1.819142e-08
-1.879603e-08 -2.043959e-08 -2.056032e-08 -1.988107e-08 -2.068853e-08 -1.914327e-08 -1.830099e-08 -1.843292e-08 -1.814664e-08 -1.940011e-08
-1.998123e-08 -1.926873e-08 -1.849905e-08 -1.903238e-08 -2.112789e-08 -1.894213e-08 -1.994031e-08 -1.786785e-08 -1.926496e-08 -1.891446e-08
-1.895063e-08 -1.921887e-08 -1.945680e-08 -1.968358e-08 -1.940423e-08 -2.029088e-08 -1.968514e-08 -1.952724e-08 -2.047060e-08 -1.862517e-08
-1.898128e-08 -2.127317e-08 -1.935309e-08 -1.889934e-08 -1.891029e-08 -1.958320e-08 -1.902453e-08 -1.931064e-08 -1.962988e-08 -1.939885e-08
-1.983758e-08 -1.928989e-08 -1.726765e-08 -1.790531e-08 -1.784435e-08 -1.744616e-08 -1.805527e-08 -1.645586e-08 -1.635956e-08 -1.606316e-08
-1.592768e-08 -1.774938e-08 -1.601486e-08 -1.462437e-08 -1.596749e-08 -1.635413e-08 -1.533299e-08 -1.536537e-08 -1.563755e-08 -1.343433e-08
-1.282214e-08 -1.427020e-08 -1.302755e-08 -1.223206e-08 -1.284239e-08 -1.017942e-08 -1.222914e-08 -1.060436e-08 -1.092673e-08 -9.480805e-09
-1.098637e-08 -1.042970e-08 -9.143018e-09 -8.675615e-09 -9.469165e-09 -9.830223e-09 -7.872161e-09 -8.388046e-09 -8.548590e-09 -5.710396e-09
-7.064922e-09 -7.056415e-09 -6.524364e-09 -5.508711e-09 -3.868003e-09 -6.337980e-09 -3.086864e-09 -3.026045e-09 -4.239690e-09 -1.842004e-09
-2.878071e-09 -4.024329e-09 -3.203989e-09 -2.374619e-09 -2.585089e-11 -1.286666e-09 -1.561413e-09 -1.975931e-09 -6.909973e-10 -3.606274e-10
3.107711e-10
-1.721606e-09 5.470529e-10 1.194600e-09 1.816648e-09 2.146743e-09 2.242567e-09 1.712469e-09 2.517471e-09 1.221101e-09 2.697400e-09
3.952573e-09 2.638949e-09 3.968802e-09 4.537087e-09 4.200173e-09 5.735300e-09 4.571830e-09 4.620866e-09 4.816499e-09 6.579464e-09
6.106760e-09 6.634031e-09 8.198351e-09 6.551349e-09 8.763504e-09 7.713028e-09 9.448253e-09 9.378829e-09 9.166456e-09 9.443117e-09
1.109207e-08 9.608485e-09 1.154346e-08 1.079416e-08 1.159220e-08 1.116210e-08 1.223151e-08 1.210647e-08 1.225086e-08 1.258835e-08
1.298247e-08 1.313743e-08 1.553086e-08 1.481256e-08 1.526381e-08 1.454512e-08 1.654988e-08 1.586719e-08 1.655990e-08 1.828044e-08
1.758096e-08 1.784722e-08 1.629863e-08 1.637166e-08 1.803866e-08 1.767916e-08 1.905034e-08 1.741968e-08 1.723388e-08 1.826065e-08
1.833667e-08 1.945882e-08 1.756196e-08 1.914255e-08 1.972317e-08 1.885102e-08 1.880371e-08 1.871041e-08 1.923666e-08 1.924837e-08
1.843970e-08 1.933192e-08 2.060602e-08 1.984554e-08 1.846816e-08 2.020232e-08 1.970459e-08 1.977431e-08 1.890734e-08 2.032594e-08
1.924746e-08 1.848163e-08 1.957446e-08 1.972220e-08 1.898032e-08 1.955894e-08 1.836798e-08 1.908401e-08 1.824928e-08 2.039069e-08
1.840733e-08 1.891978e-08 1.709805e-08 1.701515e-08 1.931865e-08 1.846893e-08 1.904928e-08 1.781020e-08 1.820938e-08 2.005916e-08
1.864741e-08 1.895479e-08 1.994045e-08 1.935687e-08 1.982006e-08 1.841840e-08 2.022258e-08 1.986619e-08 1.885451e-08 1.926133e-08
1.962317e-08 1.995842e-08 1.850931e-08 1.999660e-08 1.888685e-08 1.921311e-08 1.822162e-08 1.885587e-08 1.892037e-08 1.816337e-08
1.771310e-08 1.794011e-08 1.679921e-08 1.877318e-08 1.711389e-08 1.871015e-08 1.735934e-08 1.660808e-08 1.613189e-08 1.622558e-08
1.618320e-08 1.508783e-08 1.517995e-08 1.475834e-08 1.554023e-08 1.564649e-08 1.336277e-08 1.350990e-08 1.437347e-08 1.307907e-08
1.295714e-08 1.455566e-08 1.381979e-08 1.148188e-08 1.236931e-08 1.235385e-08 1.243672e-08 1.113330e-08 1.213156e-08 1.028519e-08
1.032735e-08 1.082073e-08 9.155456e-09 9.338109e-09 8.194569e-09 6.719832e-09 7.369650e-09 5.480254e-09 6.965345e-09 8.484622e-09
8.489646e-09 4.886206e-09 4.014356e-09 5.323941e-09 5.422601e-09 3.786110e-09 5.494886e-09 3.766305e-09 4.216151e-09 2.720879e-09
2.064266e-09 3.649388e-09 4.404259e-10 2.680120e-09 1.339709e-09 9.070329e-10 -3.407606e-10 -1.120959e-09 4.927579e-10 -1.648142e-09
-1.311590e-09 -5.863718e-10 8.688613e-11 -7.796627e-10 -4.131090e-10 -1.322727e-09 -2.539794e-09 -1.396025e-09 -2.295946e-09 -4.719406e-09
-4.003153e-09 -4.128891e-09 -4.049898e-09 -4.879758e-09 -4.705552e-09 -5.513193e-09 -6.435242e-09 -6.643450e-09 -5.920670e-09 -5.897073e-09
-6.696270e-09 -7.888057e-09 -5.157719e-09 -6.745950e-09 -8.631803e-09 -8.038133e-09 -9.527494e-09 -8.837010e-09 -9.016807e-09 -9.772871e-09
-1.127670e-08 -9.996785e-09 -1.029115e-08 -1.069106e-08 -1.207158e-08 -1.331639e-08 -1.126238e-08 -1.240100e-08 -1.368630e-08 -1.256054e-08
-1.213581e-08 -1.397919e-08 -1.503202e-08 -1.493059e-08 -1.519271e-08 -1.444640e-08 -1.433273e-08 -1.520255e-08 -1.585403e-08 -1.636204e-08
-1.580952e-08 -1.728470e-08 -1.694608e-08 -1.719647e-08 -1.737117e-08 -1.728182e-08 -1.715374e-08 -1.817109e-08 -1.978603e-08 -1.813800e-08
-1.785338e-08 -1.762239e-08 -1.830844e-08 -1.857293e-08 -1.853128e-08 -1.849988e-08 -1.963823e-08 -1.824813e-08 -1.870778e-08 -1.974239e-08
-1.860906e-08 -1.818831e-08 -1.893246e-08 -2.031508e-08 -2.046849e-08 -2.021338e-08 -1.972784e-08 -2.020904e-08 -2.110989e-08 -2.030200e-08
-1.902388e-08 -1.912166e-08 -1.761285e-08 -1.988665e-08 -1.891279e-08 -1.979950e-08 -1.933447e-08 -1.832762e-08 -1.947360e-08 -1.750427e-08
-1.764078e-08 -1.795116e-08 -1.931343e-08 -1.840719e-08 -1.925704e-08 -1.850796e-08 -1.884309e-08 -1.880639e-08 -1.853616e-08 -1.957487e-08
-1.899059e-08 -2.021233e-08 -1.913261e-08 -1.938345e-08 -1.908889e-08 -1.940338e-08 -1.814288e-08 -1.963870e-08 -2.038846e-08 -1.942820e-08
-1.827356e-08 -1.996911e-08 -1.826552e-08 -1.943278e-08 -1.945698e-08 -1.954537e-08 -1.898908e-08 -1.976704e-08 -1.878231e-08 -1.874172e-08
-1.907997e-08 -1.784125e-08 -1.847331e-08 -1.916236e-08 -1.762140e-08 -1.687913e-08 -1.752367e-08 -1.897962e-08 -1.644623e-08 -1.644489e-08
-1.720065e-08 -1.616284e-08 -1.553034e-08 -1.554779e-08 -1.546877e-08 -1.497661e-08 -1.416598e-08 -1.477298e-08 -1.430180e-08 -1.364104e-08
-1.230818e-08 -1.332117e-08 -1.227617e-08 -1.348896e-08 -1.217787e-08 -1.333534e-08 -1.138768e-08 -1.103139e-08 -1.094324e-08 -1.055063e-08
-1.048131e-08 -8.906557e-09 -9.120554e-09 -9.154867e-09 -1.018251e-08 -8.235786e-09 -8.750052e-09 -8.815126e-09 -6.783476e-09 -7.027478e-09
-5.616089e-09 -5.499609e-09 -4.942242e-09 -8.078708e-09 -4.404654e-09 -4.046372e-09 -4.687995e-09 -5.209298e-09 -4.906444e-09 -3.863626e-09
-2.543426e-09 -3.346534e-09 -1.965977e-09 -3.301513e-09 -2.370393e-09 -5.232524e-10 -2.345094e-09 4.105327e-10 -6.288177e-10 -1.031624e-09
-1.721606e-09
-9.963886e-10 -1.042924e-09 1.139050e-09 2.726924e-09 1.593718e-09 1.678292e-09 1.197451e-09 2.941353e-09 2.657236e-09 2.724417e-09
2.293453e-09 6.565657e-09 2.100082e-09 2.435474e-09 5.050588e-09 4.523972e-09 6.044073e-09 5.429321e-09 4.764209e-09 5.139551e-09
7.274160e-09 6.928889e-09 8.047757e-09 7.137396e-09 6.960655e-09 9.216335e-09 9.844386e-09 9.787666e-09 8.658623e-09 8.853874e-09
9.488322e-09 1.034801e-08 9.987183e-09 1.126310e-08 1.098768e-08 1.240658e-08 1.150067e-08 1.429078e-08 1.243562e-08 1.430015e-08
1.310177e-08 1.459153e-08 1.448095e-08 1.556491e-08 1.563490e-08 1.520314e-08 1.529690e-08 1.466701e-08 1.555813e-08 1.674441e-08
1.698840e-08 1.675922e-08 1.625554e-08 1.723372e-08 1.663561e-08 1.684693e-08 1.811534e-08 1.781780e-08 1.788196e-08 1.807452e-08
1.919317e-08 1.904545e-08 1.806758e-08 1.950731e-08 1.826571e-08 1.954057e-08 1.967601e-08 1.924331e-08 1.987657e-08 1.939647e-08
1.970874e-08 1.992844e-08 1.964987e-08 1.924949e-08 1.866439e-08 1.899953e-08 1.858788e-08 2.038383e-08 1.889610e-08 1.855991e-08
1.876439e-08 1.882306e-08 1.866069e-08 1.926429e-08 1.920129e-08 1.705785e-08 1.887460e-08 1.961429e-08 1.776304e-08 1.765382e-08
1.815203e-08 1.921365e-08 2.010394e-08 1.823375e-08 2.004585e-08 1.868292e-08 1.835305e-08 1.885861e-08 2.030409e-08 1.982987e-08
1.783772e-08 2.025151e-08 1.945457e-08 1.976430e-08 1.837856e-08 1.956571e-08 1.863092e-08 1.998901e-08 2.056270e-08 1.846395e-08
2.017295e-08 1.935889e-08 1.911238e-08 1.958531e-08 1.853713e-08 1.947247e-08 1.848855e-08 1.856778e-08 1.946772e-08 1.806964e-08
1.821152e-08 1.824506e-08 1.787079e-08 1.769081e-08 1.727685e-08 1.793068e-08 1.734347e-08 1.733684e-08 1.777240e-08 1.684981e-08
1.573189e-08 1.613291e-08 1.414418e-08 1.437086e-08 1.501463e-08 1.452775e-08 1.516037e-08 1.440922e-08 1.412749e-08 1.299493e-08
1.237667e-08 1.263448e-08 1.224010e-08 1.156685e-08 1.209383e-08 1.110702e-08 1.075656e-08 1.077060e-08 1.120059e-08 9.241077e-09
1.017637e-08 9.856963e-09 9.432131e-09 7.883973e-09 8.088301e-09 7.904522e-09 8.462854e-09 7.552218e-09 7.019409e-09 7.404868e-09
4.824345e-09 5.733619e-09 5.023118e-09 3.681866e-09 6.623908e-09 6.504413e-09 2.957715e-09 4.511301e-09 4.115538e-09 1.512788e-09
2.137066e-09 1.205583e-09 9.958255e-10 2.137802e-09 3.540848e-09 2.195370e-09 7.172596e-11 1.438897e-09 -5.734445e-10 1.760512e-10
5.781442e-10 -1.573380e-09 -8.474095e-10 1.551022e-10 1.365673e-10 -1.062731e-09 -2.242752e-09 -8.805139e-10 -2.901930e-09 -2.662282e-09
-2.217744e-09 -2.581415e-09 -4.037601e-09 -4.290479e-09 -3.063429e-09 -7.053860e-09 -4.515009e-09 -4.254036e-09 -5.513754e-09 -4.863892e-09
-5.585477e-09 -6.558833e-09 -9.995120e-09 -8.091185e-09 -7.906384e-09 -7.685265e-09 -7.512487e-09 -9.096722e-09 -8.837833e-09 -9.825910e-09
-1.369811e-08 -1.098422e-08 -9.464976e-09 -1.054980e-08 -1.117749e-08 -1.080974e-08 -1.310119e-08 -1.370715e-08 -1.342174e-08 -1.454260e-08
-1.274833e-08 -1.361619e-08 -1.327846e-08 -1.383811e-08 -1.516747e-08 -1.436457e-08 -1.648446e-08 -1.678625e-08 -1.537111e-08 -1.488224e-08
-1.564954e-08 -1.588778e-08 -1.786144e-08 -1.826090e-08 -1.694132e-08 -1.718455e-08 -1.683833e-08 -1.696029e-08 -1.675457e-08 -1.847415e-08
-1.771241e-08 -1.801511e-08 -1.984100e-08 -1.871710e-08 -1.799285e-08 -2.070630e-08 -1.871949e-08 -1.983071e-08 -1.842728e-08 -1.994344e-08
-1.963223e-08 -1.898171e-08 -1.926429e-08 -1.927456e-08 -1.826815e-08 -1.951023e-08 -1.933317e-08 -1.923243e-08 -2.047632e-08 -1.874334e-08
-1.929114e-08 -1.863742e-08 -2.006105e-08 -2.006923e-08 -1.980273e-08 -1.937136e-08 -1.816298e-08 -1.944999e-08 -1.881567e-08 -1.737402e-08
-1.838133e-08 -1.833483e-08 -1.947717e-08 -1.819299e-08 -1.946022e-08 -1.837949e-08 -1.880342e-08 -2.087131e-08 -1.926047e-08 -1.917767e-08
-1.891010e-08 -1.867430e-08 -1.927613e-08 -2.002891e-08 -1.867638e-08 -1.951768e-08 -1.861465e-08 -1.900398e-08 -1.865343e-08 -1.963437e-08
-1.866741e-08 -1.944153e-08 -1.932688e-08 -1.925357e-08 -1.991494e-08 -1.791455e-08 -1.926784e-08 -1.821922e-08 -1.910609e-08 -1.910137e-08
-1.843704e-08 -1.873786e-08 -1.779167e-08 -1.944712e-08 -1.698452e-08 -1.781419e-08 -1.754668e-08 -1.808165e-08 -1.733226e-08 -1.658308e-08
-1.750088e-08 -1.539564e-08 -1.552281e-08 -1.454723e-08 -1.483216e-08 -1.416708e-08 -1.592550e-08 -1.427705e-08 -1.469335e-08 -1.487368e-08
-1.421666e-08 -1.252693e-08 -1.257922e-08 -1.309080e-08 -1.181341e-08 -1.234404e-08 -1.203070e-08 -1.107010e-08 -1.235408e-08 -1.291077e-08
-9.083440e-09 -9.890976e-09 -9.298724e-09 -9.446794e-09 -9.078347e-09 -9.387810e-09 -8.329547e-09 -8.220220e-09 -7.493458e-09 -6.458704e-09
-6.960863e-09 -6.104313e-09 -6.125156e-09 -5.195833e-09 -6.091108e-09 -4.706833e-09 -1.871967e-09 -3.904178e-09 -3.695068e-09 -2.483765e-09
-3.468869e-09 -2.289112e-09 -1.551275e-09 -3.253449e-09 -2.005274e-09 -1.828744e-09 2.442176e-10 -2.286417e-09 -1.496007e-09 4.230466e-10
-9.963886e-10
-1.022248e-10 -1.625932e-09 1.798933e-09 2.033685e-09 2.410284e-09 1.528441e-09 3.064395e-09 2.006497e-09 3.269853e-09 1.271262e-09
5.315850e-09 3.135805e-09 4.472803e-09 4.124563e-09 5.818528e-09 5.411515e-09 7.475028e-09 5.334404e-09 6.349494e-09 8.809285e-09
7.855147e-09 7.666759e-09 8.810980e-09 7.985080e-09 7.314248e-09 9.585304e-09 9.104055e-09 8.841795e-09 8.296342e-09 1.101917e-08
9.811395e-09 1.054152e-08 1.182119e-08 1.027562e-08 1.164792e-08 1.076095e-08 1.198749e-08 1.244269e-08 1.260623e-08 1.373634e-08
1.254622e-08 1.411201e-08 1.378294e-08 1.480381e-08 1.372017e-08 1.477346e-08 1.465957e-08 1.500430e-08 1.507116e-08 1.583447e-08
1.620599e-08 1.624078e-08 1.638789e-08 1.578746e-08 1.635305e-08 1.693559e-08 1.875790e-08 1.817774e-08 1.723412e-08 1.865828e-08
1.859370e-08 1.853046e-08 1.889082e-08 1.880760e-08 1.865662e-08 1.883055e-08 2.028269e-08 1.831948e-08 1.942538e-08 1.858107e-08
1.902209e-08 1.992492e-08 1.928825e-08 1.873896e-08 1.977775e-08 1.926736e-08 2.002644e-08 1.913731e-08 1.921584e-08 1.926124e-08
1.981362e-08 2.009000e-08 1.953386e-08 1.933774e-08 1.967766e-08 1.863930e-08 1.842684e-08 1.894148e-08 1.955498e-08 1.966831e-08
1.762574e-08 1.824009e-08 1.919219e-08 1.808522e-08 1.783732e-08 1.765091e-08 2.034028e-08 1.971841e-08 1.931870e-08 1.997744e-08
1.884304e-08 1.944520e-08 1.902855e-08 1.944939e-08 1.976290e-08 2.055666e-08 1.923823e-08 1.996646e-08 1.974583e-08 1.806156e-08
1.855158e-08 1.888393e-08 1.860468e-08 1.965307e-08 1.839178e-08 1.961932e-08 1.940825e-08 1.860174e-08 1.864689e-08 1.740944e-08
1.793748e-08 1.810733e-08 1.864774e-08 1.735419e-08 1.695792e-08 1.788474e-08 1.634387e-08 1.588341e-08 1.571180e-08 1.577563e-08
1.487696e-08 1.522990e-08 1.610550e-08 1.425389e-08 1.563624e-08 1.530165e-08 1.461995e-08 1.351403e-08 1.428748e-08 1.334162e-08
1.281532e-08 1.341128e-08 1.174091e-08 1.322710e-08 1.221051e-08 1.199391e-08 1.180513e-08 1.114713e-08 1.044873e-08 9.445688e-09
1.023644e-08 8.306723e-09 9.003279e-09 7.616152e-09 8.188642e-09 8.769800e-09 9.791775e-09 8.210044e-09 7.268066e-09 5.839710e-09
6.950471e-09 5.247860e-09 4.737601e-09 7.178228e-09 5.580838e-09 3.653170e-09 6.225795e-09 4.891552e-09 3.839907e-09 1.844387e-09
2.007327e-09 8.921395e-10 1.907247e-09 2.142723e-09 7.225419e-10 1.135138e-09 3.495277e-10 -2.269624e-10 8.268468e-10 -1.847212e-09
1.158220e-10 -1.348906e-09 -1.291007e-09 -2.530961e-09 -1.764394e-09 -4.709566e-10 -3.059039e-09 -2.083165e-10 -1.693875e-09 -1.629978e-09
-1.833276e-09 -3.031460e-09 -3.464587e-09 -3.881091e-09 -4.812116e-09 -5.655050e-09 -4.823443e-09 -5.150808e-09 -4.588576e-09 -7.254146e-09
-7.284115e-09 -6.810597e-09 -7.530867e-09 -8.266551e-09 -7.477370e-09 -7.881709e-09 -1.120085e-08 -9.171818e-09 -9.741355e-09 -9.549606e-09
-9.749283e-09 -1.069425e-08 -9.998476e-09 -1.151042e-08 -1.071754e-08 -1.084662e-08 -1.214077e-08 -1.174534e-08 -1.263958e-08 -1.165944e-08
-1.423204e-08 -1.313491e-08 -1.369732e-08 -1.405275e-08 -1.341128e-08 -1.492359e-08 -1.462890e-08 -1.616594e-08 -1.489725e-08 -1.475116e-08
-1.658383e-08 -1.586829e-08 -1.619775e-08 -1.663954e-08 -1.880289e-08 -1.723797e-08 -1.651348e-08 -1.703510e-08 -1.800540e-08 -1.867413e-08
-1.785026e-08 -1.801377e-08 -1.832550e-08 -1.838944e-08 -1.740780e-08 -1.934859e-08 -1.941274e-08 -1.885383e-08 -1.873823e-08 -1.911779e-08
-1.828545e-08 -2.002037e-08 -1.899973e-08 -1.933831e-08 -1.940415e-08 -1.915911e-08 -1.776364e-08 -1.906663e-08 -2.010172e-08 -1.960866e-08
-1.967084e-08 -1.931178e-08 -1.987409e-08 -1.954209e-08 -1.901590e-08 -1.822297e-08 -1.993968e-08 -1.758786e-08 -1.805345e-08 -1.755542e-08
-1.772106e-08 -1.740425e-08 -1.837275e-08 -1.718964e-08 -1.925808e-08 -1.852020e-08 -1.991358e-08 -1.961173e-08 -1.897594e-08 -1.900765e-08
-1.943685e-08 -1.869211e-08 -1.879745e-08 -1.883645e-08 -1.860856e-08 -1.920677e-08 -1.920978e-08 -1.970212e-08 -1.973056e-08 -1.935173e-08
-2.005314e-08 -1.973508e-08 -1.888943e-08 -1.940323e-08 -2.009802e-08 -1.851283e-08 -1.844078e-08 -1.903508e-08 -1.858620e-08 -1.943700e-08
-1.747330e-08 -1.887135e-08 -1.891207e-08 -1.776895e-08 -1.709279e-08 -1.671610e-08 -1.837819e-08 -1.689176e-08 -1.648394e-08 -1.599242e-08
-1.630314e-08 -1.616202e-08 -1.561014e-08 -1.479809e-08 -1.553802e-08 -1.429604e-08 -1.654714e-08 -1.459559e-08 -1.424368e-08 -1.389738e-08
-1.412074e-08 -1.304842e-08 -1.375711e-08 -1.459323e-08 -1.247471e-08 -1.229125e-08 -1.084453e-08 -1.031805e-08 -9.951937e-09 -1.220907e-08
-1.004193e-08 -8.700945e-09 -1.003523e-08 -9.575333e-09 -8.541625e-09 -6.271364e-09 -6.431149e-09 -8.594813e-09 -7.615840e-09 -7.174178e-09
-6.388525e-09 -6.885203e-09 -4.975866e-09 -5.289010e-09 -5.733389e-09 -4.500133e-09 -5.990523e-09 -2.328283e-09 -4.358356e-09 -4.550538e-09
-3.128142e-09 -4.166712e-09 -1.831150e-09 -5.637181e-11 -1.198488e-09 -1.660175e-09 2.199542e-10 -2.243631e-10 -1.062079e-09 -1.666925e-10
-1.022248e-10
9.310113e-10 -3.522328e-10 8.451178e-10 -6.040627e-10 -2.942052e-10 9.013058e-10 1.581414e-09 4.336828e-09 3.835469e-09 3.071332e-09
2.352947e-09 5.139157e-09 4.804080e-09 5.196435e-09 6.750676e-09 5.542971e-09 6.765729e-09 6.112894e-09 5.561905e-09 6.906987e-09
4.827446e-09 6.476547e-09 6.495135e-09 6.460441e-09 7.414871e-09 7.551172e-09 8.757486e-09 7.545628e-09 8.482375e-09 8.638188e-09
8.273356e-09 1.105677e-08 1.040289e-08 1.090554e-08 1.279266e-08 1.095220e-08 1.214694e-08 1.241530e-08 1.303072e-08 1.198477e-08
1.387384e-08 1.310731e-08 1.358519e-08 1.356342e-08 1.498407e-08 1.533706e-08 1.543170e-08 1.539216e-08 1.640029e-08 1.646351e-08
1.707070e-08 1.679310e-08 1.632922e-08 1.824218e-08 1.731995e-08 1.667055e-08 1.868347e-08 1.719043e-08 1.789013e-08 1.754798e-08
1.788619e-08 1.751775e-08 1.957942e-08 1.936183e-08 1.905025e-08 1.996122e-08 1.937082e-08 1.891833e-08 1.857964e-08 1.847782e-08
1.987634e-08 1.952188e-08 1.911246e-08 1.922752e-08 1.999245e-08 1.911468e-08 1.827243e-08 1.950435e-08 1.865627e-08 1.969085e-08
1.851108e-08 1.810911e-08 2.006545e-08 1.954400e-08 1.874301e-08 1.929504e-08 1.893163e-08 1.822327e-08 1.958562e-08 1.816941e-08
1.690341e-08 1.859522e-08 1.881183e-08 1.829445e-08 1.793625e-08 1.769713e-08 1.844455e-08 1.773172e-08 1.854670e-08 1.925972e-08
1.940232e-08 1.911254e-08 1.997281e-08 1.999032e-08 1.883022e-08 1.917774e-08 1.918587e-08 2.011337e-08 1.923381e-08 1.916371e-08
1.869611e-08 1.992056e-08 1.852926e-08 1.835870e-08 1.783090e-08 1.938147e-08 1.847839e-08 1.913622e-08 1.906341e-08 1.710513e-08
1.783509e-08 1.960002e-08 1.714029e-08 1.647513e-08 1.751964e-08 1.568796e-08 1.668810e-08 1.631137e-08 1.786010e-08 1.544753e-08
1.518937e-08 1.471278e-08 1.453367e-08 1.521813e-08 1.380774e-08 1.483687e-08 1.366090e-08 1.290062e-08 1.404446e-08 1.240881e-08
1.363815e-08 1.311233e-08 1.307145e-08 1.085018e-08 1.167943e-08 1.325288e-08 1.148520e-08 1.007564e-08 1.102492e-08 1.199510e-08
9.928080e-09 8.028891e-09 8.525294e-09 8.494674e-09 9.091187e-09 7.110366e-09 7.180772e-09 8.306147e-09 5.996454e-09 8.013232e-09
5.920408e-09 5.970801e-09 5.951595e-09 4.689217e-09 3.219518e-09 6.225746e-09 4.563395e-09 4.786006e-09 2.978522e-09 3.244280e-09
2.224619e-09 2.446339e-09 -5.606658e-11 1.441164e-09 1.517032e-09 2.276199e-09 9.032808e-10 1.246872e-09 5.251709e-10 2.514376e-10
-2.492087e-09 8.532152e-11 -9.310510e-10 -8.430571e-10 -1.313793e-09 5.842370e-10 -1.716151e-09 -3.904720e-09 -2.421197e-09 -3.416491e-09
-3.545199e-09 -3.942111e-09 -4.112964e-09 -4.214054e-09 -5.008756e-09 -6.058167e-09 -5.838077e-09 -4.722570e-09 -5.005851e-09 -6.034024e-09
-6.266987e-09 -6.729884e-09 -5.963612e-09 -7.679534e-09 -8.392537e-09 -8.093451e-09 -9.741473e-09 -8.379943e-09 -8.396904e-09 -9.186491e-09
-1.018293e-08 -1.104629e-08 -1.179383e-08 -1.019970e-08 -1.326923e-08 -1.286585e-08 -1.240719e-08 -1.086584e-08 -1.198401e-08 -1.238126e-08
-1.357757e-08 -1.310208e-08 -1.364242e-08 -1.301620e-08 -1.539882e-08 -1.384912e-08 -1.458791e-08 -1.589551e-08 -1.542318e-08 -1.585024e-08
-1.658760e-08 -1.706018e-08 -1.616847e-08 -1.614237e-08 -1.592782e-08 -1.792068e-08 -1.798731e-08 -1.699124e-08 -1.699203e-08 -1.806318e-08
-1.802331e-08 -1.811711e-08 -1.905597e-08 -1.847590e-08 -1.873760e-08 -1.850117e-08 -1.788381e-08 -1.879572e-08 -1.998817e-08 -1.917813e-08
-1.952174e-08 -1.991479e-08 -2.019756e-08 -2.003664e-08 -1.997643e-08 -2.008653e-08 -1.939608e-08 -1.855478e-08 -1.868469e-08 -1.955954e-08
-1.918882e-08 -1.858241e-08 -1.974071e-08 -1.900511e-08 -1.769123e-08 -1.765694e-08 -1.961493e-08 -1.927130e-08 -1.882366e-08 -1.748779e-08
-1.708450e-08 -1.876465e-08 -1.940909e-08 -1.914163e-08 -1.814893e-08 -1.972310e-08 -1.859980e-08 -1.861060e-08 -1.942530e-08 -1.927983e-08
-1.931752e-08 -2.023558e-08 -1.958140e-08 -1.918239e-08 -1.971239e-08 -1.902285e-08 -1.982170e-08 -1.927119e-08 -1.912189e-08 -1.993469e-08
-1.953488e-08 -1.978794e-08 -1.834507e-08 -1.958806e-08 -2.003986e-08 -1.865253e-08 -1.914117e-08 -1.885930e-08 -1.929629e-08 -1.973026e-08
-1.837001e-08 -1.727093e-08 -1.852000e-08 -1.862823e-08 -1.650669e-08 -1.732429e-08 -1.829633e-08 -1.813695e-08 -1.644330e-08 -1.843531e-08
-1.641619e-08 -1.581072e-08 -1.667482e-08 -1.567796e-08 -1.477901e-08 -1.616036e-08 -1.578318e-08 -1.400162e-08 -1.403713e-08 -1.405282e-08
-1.228724e-08 -1.433735e-08 -1.244574e-08 -1.168878e-08 -1.309426e-08 -1.151451e-08 -1.223393e-08 -1.194104e-08 -9.689898e-09 -1.111033e-08
-1.049789e-08 -1.098057e-08 -9.778091e-09 -7.980350e-09 -8.603918e-09 -8.065598e-09 -6.823068e-09 -7.027474e-09 -6.488396e-09 -6.991112e-09
-7.009114e-09 -6.116926e-09 -5.660121e-09 -7.634505e-09 -4.448163e-09 -3.910544e-09 -5.080983e-09 -4.687706e-09 -3.207601e-09 -4.880909e-09
-3.951459e-09 -5.663690e-10 -1.839307e-09 -1.895482e-09 -1.717381e-09 -2.577830e-09 -9.045431e-10 -1.119004e-09 -4.849605e-10 7.616363e-10
9.310113e-10
8.973124e-10 5.305742e-10 1.695798e-09 1.501560e-09 -6.348633e-11 8.208151e-10 3.753482e-09 2.522042e-09 1.060143e-09 3.344467e-09
2.781740e-09 2.614856e-09 5.503415e-09 2.620948e-09 4.025336e-09 3.707280e-09 6.723660e-09 3.351387e-09 8.285814e-09 6.028870e-09
6.663589e-09 5.584665e-09 8.089496e-09 9.096655e-09 8.052506e-09 7.282299e-09 9.357366e-09 9.282359e-09 9.871236e-09 9.084632e-09
9.573658e-09 9.166695e-09 1.012532e-08 1.044975e-08 1.077344e-08 1.095772e-08 1.139405e-08 1.332843e-08 1.403663e-08 1.344749e-08
1.306882e-08 1.394092e-08 1.300624e-08 1.409929e-08 1.496074e-08 1.478361e-08 1.508999e-08 1.491189e-08 1.518497e-08 1.622642e-08
1.503223e-08 1.528113e-08 1.591255e-08 1.624644e-08 1.707321e-08 1.638683e-08 1.851982e-08 1.665959e-08 1.884873e-08 1.779140e-08
1.821026e-08 1.716117e-08 1.753101e-08 1.778061e-08 1.857290e-08 1.772096e-08 1.850085e-08 1.972353e-08 1.910140e-08 1.980612e-08
1.889644e-08 2.010395e-08 1.822208e-08 1.982779e-08 1.943530e-08 1.905624e-08 1.971708e-08 1.859551e-08 1.811428e-08 1.873281e-08
1.897171e-08 1.944736e-08 1.801478e-08 1.875225e-08 1.887101e-08 1.894037e-08 1.700914e-08 1.800365e-08 1.811944e-08 1.956853e-08
1.923506e-08 1.787197e-08 1.839651e-08 1.887107e-08 1.934573e-08 1.805694e-08 1.864715e-08 1.909764e-08 1.960335e-08 1.891586e-08
2.024658e-08 1.850057e-08 1.828826e-08 1.998967e-08 1.901321e-08 1.883071e-08 1.979012e-08 1.907814e-08 1.918131e-08 1.870365e-08
1.913919e-08 1.854932e-08 1.884082e-08 1.926771e-08 1.843578e-08 1.932279e-08 1.833382e-08 1.938217e-08 1.899168e-08 1.761108e-08
1.791382e-08 1.889416e-08 1.698710e-08 1.676904e-08 1.676265e-08 1.687998e-08 1.708967e-08 1.593754e-08 1.724521e-08 1.564729e-08
1.672554e-08 1.481284e-08 1.491313e-08 1.465273e-08 1.522776e-08 1.356283e-08 1.436902e-08 1.378857e-08 1.402712e-08 1.401041e-08
1.363042e-08 1.218226e-08 1.341509e-08 1.387140e-08 1.146821e-08 1.038768e-08 1.168200e-08 9.804155e-09 1.016275e-08 8.072504e-09
9.910831e-09 8.778884e-09 1.004784e-08 7.542909e-09 7.012009e-09 9.641883e-09 7.297393e-09 5.721009e-09 7.900475e-09 6.361232e-09
5.874358e-09 6.478031e-09 5.305374e-09 5.202693e-09 5.331762e-09 4.434860e-09 4.399070e-09 2.859530e-09 2.069424e-09 2.139454e-09
1.378743e-09 4.549006e-09 2.376393e-09 3.437336e-09 1.288585e-09 1.626788e-09 -7.999124e-10 7.923227e-10 -2.941538e-10 8.939988e-10
-9.354594e-10 -4.477026e-10 -1.419572e-09 -9.185593e-10 -9.369489e-10 -1.061953e-09 -5.923901e-10 -1.930686e-09 -2.501967e-09 -3.485031e-09
-4.248546e-09 -2.141513e-09 -6.470767e-09 -4.604924e-09 -5.835943e-09 -4.659841e-09 -4.694094e-09 -4.624242e-09 -5.805163e-09 -6.153998e-09
-6.830766e-09 -6.842086e-09 -6.425411e-09 -6.723469e-09 -7.694593e-09 -6.001843e-09 -8.706960e-09 -8.804510e-09 -9.749716e-09 -7.788757e-09
-1.174198e-08 -1.123860e-08 -1.070805e-08 -1.094554e-08 -9.949310e-09 -1.183940e-08 -1.231097e-08 -1.070824e-08 -1.317418e-08 -1.316483e-08
-1.239868e-08 -1.307464e-08 -1.369362e-08 -1.335399e-08 -1.447938e-08 -1.479445e-08 -1.481803e-08 -1.419938e-08 -1.535731e-08 -1.528094e-08
-1.580344e-08 -1.529218e-08 -1.605912e-08 -1.600363e-08 -1.654405e-08 -1.698450e-08 -1.622255e-08 -1.806449e-08 -1.756258e-08 -1.846167e-08
-1.874866e-08 -1.732485e-08 -1.914313e-08 -1.902866e-08 -1.921031e-08 -1.798493e-08 -1.786901e-08 -1.858721e-08 -1.802120e-08 -1.910396e-08
-1.900662e-08 -1.853739e-08 -1.910209e-08 -1.897049e-08 -1.988881e-08 -1.973653e-08 -1.900298e-08 -1.883425e-08 -1.845788e-08 -1.986212e-08
-1.887267e-08 -1.872333e-08 -1.915876e-08 -1.840044e-08 -1.826928e-08 -2.000751e-08 -1.894388e-08 -1.923067e-08 -1.858501e-08 -1.862129e-08
-1.832897e-08 -1.881719e-08 -1.765772e-08 -1.941541e-08 -1.819456e-08 -1.767788e-08 -1.866884e-08 -1.771095e-08 -1.843480e-08 -1.913777e-08
-1.855884e-08 -1.824265e-08 -1.802576e-08 -1.924145e-08 -1.950819e-08 -1.997082e-08 -1.940276e-08 -1.945629e-08 -1.887330e-08 -1.963377e-08
-1.816965e-08 -1.798749e-08 -1.820745e-08 -1.827768e-08 -1.999089e-08 -1.871984e-08 -1.840806e-08 -1.962288e-08 -1.803187e-08 -1.817298e-08
-1.737361e-08 -1.783472e-08 -1.897054e-08 -1.779660e-08 -1.727359e-08 -1.661987e-08 -1.688352e-08 -1.686824e-08 -1.621875e-08 -1.502742e-08
-1.706620e-08 -1.720598e-08 -1.579975e-08 -1.644584e-08 -1.505895e-08 -1.553871e-08 -1.463902e-08 -1.368694e-08 -1.368330e-08 -1.274838e-08
-1.382438e-08 -1.281727e-08 -1.290263e-08 -1.262379e-08 -1.337626e-08 -1.347597e-08 -1.147096e-08 -1.072122e-08 -1.236052e-08 -1.114798e-08
-9.162872e-09 -1.054171e-08 -9.784642e-09 -7.954863e-09 -8.301747e-09 -8.652060e-09 -6.960054e-09 -7.490726e-09 -7.483664e-09 -7.905524e-09
-7.236103e-09 -5.326996e-09 -5.992518e-09 -4.429937e-09 -3.276986e-09 -4.107664e-09 -4.578916e-09 -3.681090e-09 -3.737535e-09 -1.571514e-09
-3.532034e-09 -3.916027e-09 -1.752678e-09 -2.875706e-09 -1.685154e-09 -1.509831e-10 -1.793384e-10 1.145450e-09 -2.836561e-09 -1.055260e-09
8.973124e-10
-1.793113e-09 6.207670e-10 7.630027e-10 1.075513e-09 7.310674e-10 2.602859e-09 3.255413e-09 2.348399e-09 1.399550e-09 2.371923e-09
3.414607e-09 4.334812e-09 3.669986e-09 5.025412e-09 4.341163e-09 3.913569e-09 4.061819e-09 6.554565e-09 7.199807e-09 5.967465e-09
6.081342e-09 6.098990e-09 6.561413e-09 7.216407e-09 8.915976e-09 8.723428e-09 7.893717e-09 9.408210e-09 9.138034e-09 9.292030e-09
1.099496e-08 1.144130e-08 1.117701e-08 1.074944e-08 1.165205e-08 1.100025e-08 1.237024e-08 1.177168e-08 1.322961e-08 1.183115e-08
1.272899e-08 1.413886e-08 1.421338e-08 1.429987e-08 1.338840e-08 1.574272e-08 1.473152e-08 1.543548e-08 1.497480e-08 1.519061e-08
1.674844e-08 1.648039e-08 1.619433e-08 1.695326e-08 1.637839e-08 1.708604e-08 1.729735e-08 1.742178e-08 1.674228e-08 1.892388e-08
1.792349e-08 1.769789e-08 1.771572e-08 1.916482e-08 1.776378e-08 1.742535e-08 1.903400e-08 1.870328e-08 1.823265e-08 1.884272e-08
1.953879e-08 1.951986e-08 1.947981e-08 1.980469e-08 1.849800e-08 1.884158e-08 1.970049e-08 1.994447e-08 1.780892e-08 1.905888e-08
2.081113e-08 1.848302e-08 1.870674e-08 1.934910e-08 2.002772e-08 1.905563e-08 1.879997e-08 1.810704e-08 1.766544e-08 1.805933e-08
1.873445e-08 1.923086e-08 1.956899e-08 1.873956e-08 1.861768e-08 1.869491e-08 1.833695e-08 1.855425e-08 1.845010e-08 1.880338e-08
1.977590e-08 1.960567e-08 1.857989e-08 1.841575e-08 1.917620e-08 1.891073e-08 1.829493e-08 2.001380e-08 1.991794e-08 1.779508e-08
2.011865e-08 1.822422e-08 1.881165e-08 1.892552e-08 1.834738e-08 1.935237e-08 1.838029e-08 1.723935e-08 1.958807e-08 1.799983e-08
1.815846e-08 1.717259e-08 1.673035e-08 1.815910e-08 1.717082e-08 1.681380e-08 1.660547e-08 1.559659e-08 1.596214e-08 1.739669e-08
1.621136e-08 1.592567e-08 1.555692e-08 1.405447e-08 1.417678e-08 1.446418e-08 1.496535e-08 1.313369e-08 1.333472e-08 1.508425e-08
1.260516e-08 1.276942e-08 1.245217e-08 1.176651e-08 1.093132e-08 1.174083e-08 1.070368e-08 1.098714e-08 1.075627e-08 1.094404e-08
9.396068e-09 7.849860e-09 9.303281e-09 8.427651e-09 7.176901e-09 7.453341e-09 7.824158e-09 8.039022e-09 5.848073e-09 7.011902e-09
6.444175e-09 6.378092e-09 3.967803e-09 5.711648e-09 5.107327e-09 5.372966e-09 3.046978e-09 3.868796e-09 1.846565e-09 4.226422e-09
3.956550e-09 2.550107e-09 2.162776e-09 8.173979e-10 1.330823e-09 2.526133e-09 -1.549661e-09 -1.325500e-09 2.440304e-09 1.182857e-09
-1.663410e-09 -1.022197e-09 3.861469e-10 -1.726714e-09 -9.570623e-10 4.212200e-10 -2.427261e-09 -3.330081e-09 -5.599116e-10 -2.194408e-09
-3.289676e-09 -3.588942e-09 -3.607510e-09 -4.597602e-09 -3.703232e-09 -5.344882e-09 -4.438451e-09 -4.150500e-09 -6.677171e-09 -7.529185e-09
-5.615606e-09 -6.540291e-09 -8.764432e-09 -7.436727e-09 -7.687965e-09 -7.790167e-09 -7.474530e-09 -9.047156e-09 -8.823722e-09 -9.436218e-09
-1.210141e-08 -1.021085e-08 -1.072956e-08 -1.079578e-08 -9.990579e-09 -9.874257e-09 -1.023449e-08 -1.171842e-08 -1.286785e-08 -1.235408e-08
-1.274548e-08 -1.362323e-08 -1.433535e-08 -1.344104e-08 -1.342773e-08 -1.519857e-08 -1.390439e-08 -1.447130e-08 -1.496848e-08 -1.592072e-08
-1.608119e-08 -1.662221e-08 -1.573560e-08 -1.639717e-08 -1.672082e-08 -1.701024e-08 -1.703731e-08 -1.711533e-08 -1.740699e-08 -1.730778e-08
-1.696623e-08 -1.801361e-08 -1.854995e-08 -1.857822e-08 -1.824296e-08 -1.894144e-08 -1.884027e-08 -1.858045e-08 -1.926038e-08 -2.101321e-08
-1.811990e-08 -2.018404e-08 -1.867588e-08 -1.833385e-08 -1.867047e-08 -1.873291e-08 -1.980824e-08 -1.969779e-08 -1.874178e-08 -1.900263e-08
-1.903354e-08 -1.867659e-08 -1.777911e-08 -1.833997e-08 -1.970290e-08 -1.773055e-08 -1.919435e-08 -1.842772e-08 -1.898677e-08 -1.831630e-08
-1.824769e-08 -1.822491e-08 -1.800552e-08 -1.934822e-08 -1.783853e-08 -1.864929e-08 -1.811900e-08 -1.934045e-08 -1.792866e-08 -1.917542e-08
-1.867424e-08 -1.847794e-08 -1.881394e-08 -1.912408e-08 -2.047580e-08 -1.753369e-08 -1.893021e-08 -1.875500e-08 -1.985137e-08 -1.976331e-08
-1.834488e-08 -1.869482e-08 -1.810719e-08 -1.889230e-08 -1.906044e-08 -1.889323e-08 -1.780655e-08 -1.760108e-08 -1.856189e-08 -1.809456e-08
-1.770732e-08 -1.980480e-08 -1.849957e-08 -1.705416e-08 -1.725393e-08 -1.739677e-08 -1.797669e-08 -1.652395e-08 -1.619135e-08 -1.670022e-08
-1.564302e-08 -1.699723e-08 -1.497646e-08 -1.657269e-08 -1.516602e-08 -1.490943e-08 -1.467370e-08 -1.561863e-08 -1.375404e-08 -1.339746e-08
-1.237890e-08 -1.187612e-08 -1.423502e-08 -1.178347e-08 -1.102174e-08 -1.184000e-08 -1.255178e-08 -1.139153e-08 -1.012430e-08 -1.181549e-08
-9.570590e-09 -1.050585e-08 -9.118031e-09 -9.506561e-09 -8.525180e-09 -8.056890e-09 -7.365298e-09 -5.310695e-09 -7.838383e-09 -8.636943e-09
-6.094555e-09 -5.811619e-09 -6.107780e-09 -6.385601e-09 -6.610863e-09 -4.356774e-09 -2.292942e-09 -4.271610e-09 -3.869659e-09 -2.443261e-09
-2.319153e-09 -3.619199e-09 -2.899964e-09 -1.933419e-09 -1.052297e-09 -1.365924e-09 2.765790e-10 -6.852079e-10 -1.426380e-09 4.498505e-10
-1.793113e-09
6.843497e-10 5.637342e-10 -1.070982e-09 -1.962480e-10 -7.238106e-10 3.924163e-09 1.113912e-09 6.086192e-10 2.721157e-09 8.743255e-10
3.066059e-09 2.688018e-09 5.179501e-09 5.381365e-09 4.225182e-09 5.575603e-09 6.504314e-09 5.739617e-09 5.646987e-09 8.891117e-09
5.506167e-09 5.965329e-09 6.509696e-09 7.381765e-09 7.666430e-09 6.878426e-09 8.711124e-09 8.783565e-09 1.101751e-08 9.796651e-09
9.830633e-09 1.148462e-08 1.158491e-08 9.816320e-09 1.103516e-08 1.161445e-08 1.115004e-08 1.237164e-08 1.326430e-08 1.225883e-08
1.369303e-08 1.364672e-08 1.359410e-08 1.373699e-08 1.365336e-08 1.565006e-08 1.467650e-08 1.531280e-08 1.472507e-08 1.499498e-08
1.483489e-08 1.505684e-08 1.704549e-08 1.655820e-08 1.675587e-08 1.814801e-08 1.775334e-08 1.834723e-08 1.832529e-08 1.688051e-08
1.765247e-08 1.802968e-08 1.724781e-08 1.807520e-08 1.870773e-08 1.896320e-08 1.775917e-08 1.818482e-08 1.998001e-08 1.964089e-08
1.857714e-08 1.881310e-08 1.870999e-08 1.889592e-08 1.910599e-08 1.882220e-08 1.862184e-08 1.963479e-08 1.913037e-08 1.900159e-08
2.061524e-08 1.783542e-08 1.804185e-08 1.793961e-08 1.714705e-08 1.873248e-08 1.854105e-08 1.674017e-08 2.003805e-08 1.763451e-08
1.729658e-08 1.889030e-08 1.989205e-08 1.914125e-08 1.896500e-08 1.792184e-08 1.878469e-08 1.922448e-08 1.825286e-08 1.872855e-08
1.982814e-08 1.871516e-08 1.830032e-08 1.791482e-08 1.933215e-08 1.839820e-08 1.894863e-08 1.861081e-08 1.982232e-08 1.947680e-08
1.925655e-08 1.836841e-08 2.008498e-08 1.766005e-08 1.813129e-08 1.986653e-08 1.817109e-08 1.887843e-08 1.818579e-08 1.780691e-08
1.802552e-08 1.849193e-08 1.870142e-08 1.686582e-08 1.632664e-08 1.694769e-08 1.644611e-08 1.500787e-08 1.644533e-08 1.552888e-08
1.541304e-08 1.552948e-08 1.441255e-08 1.497196e-08 1.424510e-08 1.445358e-08 1.330192e-08 1.449562e-08 1.348557e-08 1.390888e-08
1.270886e-08 1.313052e-08 1.394061e-08 1.094904e-08 1.234645e-08 1.052766e-08 1.087101e-08 9.797072e-09 1.150577e-08 9.616021e-09
9.769179e-09 8.112592e-09 9.540372e-09 8.498599e-09 8.505485e-09 7.486906e-09 7.674259e-09 5.885274e-09 7.605030e-09 4.761827e-09
5.828394e-09 6.780675e-09 6.959430e-09 5.378407e-09 4.232908e-09 4.477735e-09 4.439191e-09 3.816905e-09 3.327593e-09 2.414637e-09
3.281503e-09 3.186247e-09 1.321589e-09 2.407288e-09 1.418062e-09 1.569120e-09 1.906190e-09 2.070491e-09 -2.160157e-09 5.049764e-10
7.544478e-10 -1.769936e-09 5.383696e-10 -1.180351e-09 -2.314453e-09 -2.766770e-09 -2.209277e-09 -2.312106e-11 -2.077699e-09 -3.774713e-09
-5.466943e-09 -3.886710e-09 -4.336740e-09 -4.568117e-09 -5.191419e-09 -3.078322e-09 -7.050671e-09 -5.172124e-09 -5.688655e-09 -5.968516e-09
-5.562478e-09 -9.288108e-09 -7.289691e-09 -8.557140e-09 -9.313339e-09 -7.419448e-09 -8.285110e-09 -8.721142e-09 -8.001646e-09 -1.006360e-08
-1.027467e-08 -1.002028e-08 -1.023141e-08 -1.118393e-08 -1.142149e-08 -1.164819e-08 -1.169585e-08 -1.244755e-08 -1.285977e-08 -1.219799e-08
-1.240592e-08 -1.444649e-08 -1.375947e-08 -1.613195e-08 -1.408905e-08 -1.581103e-08 -1.445975e-08 -1.660571e-08 -1.512546e-08 -1.491007e-08
-1.520008e-08 -1.540770e-08 -1.677143e-08 -1.699567e-08 -1.652202e-08 -1.840052e-08 -1.713649e-08 -1.640626e-08 -1.792686e-08 -1.833925e-08
-1.853501e-08 -1.787654e-08 -1.692107e-08 -1.802873e-08 -1.829012e-08 -1.913215e-08 -2.066930e-08 -1.766193e-08 -1.961063e-08 -1.826448e-08
-1.851934e-08 -2.011925e-08 -1.797707e-08 -1.967749e-08 -1.862447e-08 -2.032899e-08 -1.885429e-08 -1.821613e-08 -1.838723e-08 -1.834769e-08
-2.020693e-08 -1.870497e-08 -1.788823e-08 -1.795663e-08 -1.743413e-08 -2.009723e-08 -1.809900e-08 -1.804495e-08 -1.893889e-08 -1.864617e-08
-1.925516e-08 -1.825916e-08 -1.839478e-08 -1.765105e-08 -1.783238e-08 -1.705300e-08 -1.724028e-08 -1.867271e-08 -1.861137e-08 -1.821327e-08
-1.981104e-08 -1.778931e-08 -1.877539e-08 -1.945854e-08 -1.965981e-08 -1.999935e-08 -1.938358e-08 -1.875972e-08 -1.772931e-08 -1.977363e-08
-1.782737e-08 -1.752030e-08 -1.882472e-08 -1.796115e-08 -1.801464e-08 -1.785524e-08 -1.805870e-08 -1.934282e-08 -1.883457e-08 -1.765692e-08
-1.837626e-08 -1.816664e-08 -1.947321e-08 -1.683397e-08 -1.717997e-08 -1.594963e-08 -1.647422e-08 -1.606126e-08 -1.668305e-08 -1.653482e-08
-1.607182e-08 -1.495309e-08 -1.475454e-08 -1.456207e-08 -1.482427e-08 -1.623365e-08 -1.526280e-08 -1.379342e-08 -1.507663e-08 -1.366253e-08
-1.348475e-08 -1.316683e-08 -1.283114e-08 -1.227091e-08 -1.144551e-08 -1.178130e-08 -1.009329e-08 -1.083990e-08 -1.045925e-08 -1.158603e-08
-9.722871e-09 -8.638081e-09 -1.024154e-08 -1.182333e-08 -7.910333e-09 -8.138449e-09 -6.915004e-09 -7.962124e-09 -6.536461e-09 -5.051051e-09
-5.577907e-09 -5.152430e-09 -4.258566e-09 -3.528748e-09 -4.105513e-09 -5.435304e-09 -3.360045e-09 -3.135832e-09 -2.920007e-09 -3.603369e-09
-2.887017e-09 -6.371538e-10 -2.978010e-09 -1.715592e-09 -1.009688e-09 -1.965067e-09 -1.166336e-09 3.471762e-10 -9.474229e-10 3.861305e-10
6.843497e-10
1.001504e-09 -7.178669e-11 -4.856494e-10 1.677813e-09 -7.133580e-10 -8.066422e-11 3.750098e-09 1.652545e-09 3.309216e-09 1.827405e-09
5.217148e-09 1.996421e-09 4.193176e-09 5.438940e-09 5.014279e-09 5.831188e-09 5.982010e-09 4.981784e-09 5.277462e-09 5.567979e-09
4.899945e-09 7.271417e-09 8.360994e-09 8.078565e-09 8.000842e-09 7.623092e-09 7.384450e-09 8.367097e-09 8.669464e-09 9.224972e-09
1.040002e-08 1.017725e-08 1.172573e-08 1.197953e-08 1.119288e-08 1.064698e-08 1.254444e-08 1.236729e-08 1.357558e-08 1.270732e-08
1.423843e-08 1.349687e-08 1.417507e-08 1.268109e-08 1.443599e-08 1.376840e-08 1.522853e-08 1.499309e-08 1.586832e-08 1.579000e-08
1.495857e-08 1.521805e-08 1.628533e-08 1.739141e-08 1.654328e-08 1.710202e-08 1.645355e-08 1.955074e-08 1.777922e-08 1.739526e-08
1.801165e-08 1.754660e-08 1.822571e-08 1.800815e-08 1.886382e-08 1.854327e-08 1.884611e-08 1.808110e-08 1.711749e-08 1.851425e-08
1.844229e-08 1.903857e-08 2.049455e-08 1.983488e-08 1.919038e-08 1.803712e-08 1.841341e-08 1.826910e-08 1.837827e-08 1.777738e-08
1.932193e-08 2.049112e-08 1.877079e-08 1.897734e-08 1.909921e-08 1.742502e-08 1.787292e-08 1.923365e-08 1.810217e-08 1.794343e-08
1.870843e-08 1.796032e-08 1.771907e-08 1.915596e-08 1.937792e-08 1.816721e-08 1.934792e-08 1.894800e-08 1.888193e-08 1.994382e-08
1.892035e-08 1.849354e-08 1.842255e-08 2.006016e-08 1.889581e-08 1.850979e-08 1.839740e-08 1.840082e-08 1.902676e-08 1.807582e-08
1.860883e-08 1.973983e-08 2.004828e-08 2.027812e-08 1.793963e-08 1.830829e-08 1.783483e-08 1.803736e-08 1.722894e-08 1.726477e-08
1.789211e-08 1.727879e-08 1.637713e-08 1.637785e-08 1.596763e-08 1.522819e-08 1.652508e-08 1.533090e-08 1.705268e-08 1.579246e-08
1.506519e-08 1.592210e-08 1.513413e-08 1.627701e-08 1.394544e-08 1.374270e-08 1.518902e-08 1.274121e-08 1.307775e-08 1.323577e-08
1.325082e-08 1.331808e-08 1.181941e-08 1.214555e-08 1.176752e-08 1.117467e-08 1.120803e-08 8.643688e-09 9.164917e-09 9.299961e-09
9.178723e-09 8.719490e-09 9.451594e-09 8.186386e-09 7.927313e-09 7.175238e-09 6.687559e-09 6.696467e-09 5.821755e-09 6.440471e-09
6.252802e-09 6.342721e-09 4.720753e-09 3.562013e-09 7.393389e-09 3.628553e-09 6.255976e-09 5.208195e-09 3.014628e-09 1.824932e-09
4.024929e-09 1.958676e-09 7.140517e-10 3.054420e-09 2.051322e-09 2.016590e-09 -5.212034e-12 3.151015e-11 3.288814e-10 7.240414e-10
-7.962713e-10 -4.371328e-10 6.769652e-10 1.862535e-10 -1.584720e-09 -1.693937e-09 -1.680013e-09 -2.558433e-09 -1.335842e-09 -2.262098e-09
-3.610870e-09 -3.648933e-09 -3.676838e-09 -3.588914e-09 -3.669722e-09 -4.382590e-09 -6.837439e-09 -4.654623e-09 -4.873204e-09 -5.341535e-09
-7.258509e-09 -7.612098e-09 -8.383259e-09 -7.657352e-09 -8.221904e-09 -8.625809e-09 -8.560196e-09 -8.623982e-09 -9.327565e-09 -8.278643e-09
-8.181564e-09 -9.289825e-09 -9.874383e-09 -1.028493e-08 -1.124232e-08 -1.076508e-08 -1.160377e-08 -1.157343e-08 -1.224154e-08 -1.382025e-08
-1.159630e-08 -1.280289e-08 -1.244972e-08 -1.412139e-08 -1.298258e-08 -1.412519e-08 -1.505784e-08 -1.609852e-08 -1.581318e-08 -1.476134e-08
-1.688661e-08 -1.586938e-08 -1.825113e-08 -1.575533e-08 -1.736969e-08 -1.685235e-08 -1.590272e-08 -1.657718e-08 -1.646648e-08 -1.659521e-08
-1.773849e-08 -1.828977e-08 -1.719374e-08 -1.824829e-08 -1.760855e-08 -1.892550e-08 -1.901401e-08 -1.803305e-08 -1.860930e-08 -1.810516e-08
-1.808434e-08 -1.776490e-08 -1.786786e-08 -1.791362e-08 -1.948201e-08 -1.789103e-08 -1.934242e-08 -1.810591e-08 -1.949580e-08 -1.927212e-08
-1.942611e-08 -1.764164e-08 -1.772033e-08 -1.830001e-08 -1.786007e-08 -1.824021e-08 -1.852541e-08 -1.748128e-08 -1.858619e-08 -1.837907e-08
-1.819290e-08 -1.830591e-08 -1.753278e-08 -1.812727e-08 -1.804217e-08 -1.845096e-08 -1.687926e-08 -1.853748e-08 -1.834474e-08 -1.843288e-08
-1.869702e-08 -1.974166e-08 -1.858145e-08 -1.970384e-08 -1.786090e-08 -1.888091e-08 -1.900554e-08 -1.833826e-08 -1.810349e-08 -1.934362e-08
-1.825229e-08 -1.879951e-08 -1.883677e-08 -1.893522e-08 -1.934839e-08 -1.886472e-08 -1.782396e-08 -1.809929e-08 -1.840795e-08 -1.824485e-08
-1.839386e-08 -1.836351e-08 -1.773849e-08 -1.845730e-08 -1.744766e-08 -1.629975e-08 -1.625721e-08 -1.652300e-08 -1.759182e-08 -1.617985e-08
-1.600052e-08 -1.552084e-08 -1.410875e-08 -1.506415e-08 -1.438499e-08 -1.379907e-08 -1.383177e-08 -1.464799e-08 -1.431088e-08 -1.241303e-08
-1.330295e-08 -1.243481e-08 -1.306549e-08 -1.165735e-08 -1.231857e-08 -1.372979e-08 -1.023435e-08 -9.961976e-09 -1.190157e-08 -1.086029e-08
-1.037345e-08 -8.416824e-09 -7.722597e-09 -8.881329e-09 -9.879366e-09 -1.046296e-08 -6.912014e-09 -7.221372e-09 -6.517920e-09 -5.247194e-09
-5.887674e-09 -6.406389e-09 -4.832280e-09 -4.975284e-09 -4.411351e-09 -5.514367e-09 -3.980762e-09 -4.709908e-09 -2.993574e-09 -2.468320e-09
-1.881978e-09 -1.957853e-09 -2.004783e-09 -1.141619e-09 -3.616827e-10 -3.071221e-09 1.014548e-09 -1.158699e-09 1.671733e-09 -7.280446e-10
1.001504e-09
-6.704781e-10 3.098151e-09 -1.725728e-09 9.303708e-11 2.290603e-09 -4.972203e-10 2.198280e-09 3.571032e-09 2.200276e-09 3.160906e-09
3.609553e-09 2.728715e-09 4.669603e-09 3.978039e-09 4.994433e-09 5.395520e-09 5.953319e-09 5.470930e-09 4.744017e-09 6.249376e-09
5.807510e-09 7.099599e-09 9.066924e-09 8.252045e-09 7.723273e-09 8.046324e-09 7.494961e-09 7.928247e-09 1.051858e-08 1.006049e-08
1.019887e-08 1.099671e-08 1.095123e-08 1.112956e-08 1.157088e-08 1.141888e-08 1.228525e-08 1.118548e-08 1.272640e-08 1.454772e-08
1.381575e-08 1.317632e-08 1.432112e-08 1.504166e-08 1.373833e-08 1.519104e-08 1.519319e-08 1.416367e-08 1.555282e-08 1.493589e-08
1.456388e-08 1.508849e-08 1.730253e-08 1.612300e-08 1.568574e-08 1.596695e-08 1.708602e-08 1.712733e-08 1.754473e-08 1.681889e-08
1.759688e-08 1.720405e-08 1.860479e-08 1.951132e-08 1.873716e-08 1.893482e-08 1.806152e-08 1.804598e-08 1.852431e-08 2.023161e-08
1.882758e-08 1.879313e-08 1.802137e-08 1.830831e-08 1.875890e-08 1.871165e-08 1.955751e-08 1.809330e-08 1.871987e-08 1.888247e-08
1.854509e-08 1.763698e-08 1.733292e-08 1.887482e-08 1.760446e-08 1.883461e-08 1.927267e-08 1.972702e-08 1.917191e-08 1.770272e-08
1.752965e-08 1.948170e-08 1.828666e-08 1.934487e-08 1.949124e-08 1.853258e-08 1.739798e-08 1.812521e-08 1.815618e-08 1.838720e-08
1.748931e-08 1.968334e-08 1.916965e-08 1.756211e-08 1.902241e-08 1.792954e-08 2.047851e-08 1.894973e-08 1.932143e-08 1.831419e-08
1.854165e-08 1.820112e-08 1.827135e-08 1.869343e-08 1.835940e-08 1.891242e-08 1.851544e-08 1.737691e-08 1.824775e-08 1.641643e-08
1.723429e-08 1.673638e-08 1.710259e-08 1.730639e-08 1.616620e-08 1.585943e-08 1.640988e-08 1.519172e-08 1.509830e-08 1.485054e-08
1.502954e-08 1.434340e-08 1.561693e-08 1.406454e-08 1.539998e-08 1.425295e-08 1.343823e-08 1.325922e-08 1.335994e-08 1.321300e-08
1.325074e-08 1.384931e-08 1.207355e-08 1.208163e-08 1.090384e-08 1.116839e-08 1.201661e-08 1.099317e-08 1.012551e-08 9.498813e-09
1.002288e-08 7.841447e-09 9.191663e-09 8.996508e-09 7.907570e-09 9.186943e-09 9.294695e-09 7.319236e-09 7.390524e-09 5.295018e-09
4.695817e-09 6.524083e-09 5.243772e-09 4.666635e-09 6.364127e-09 4.737573e-09 5.076615e-09 5.152239e-09 3.535272e-09 2.984345e-09
2.158290e-09 1.617372e-09 1.302652e-12 2.083209e-09 1.307102e-09 3.005623e-09 2.083556e-09 9.993306e-10 -8.344655e-11 7.615569e-10
-4.035077e-10 1.307450e-10 -1.057647e-09 -1.502565e-10 -1.991627e-09 -2.051786e-10 -2.543033e-09 -3.551897e-09 -5.649914e-10 -2.057887e-09
-2.665054e-09 -3.017043e-09 -3.443065e-09 -3.062787e-09 -3.364464e-09 -5.243100e-09 -5.572519e-09 -5.985701e-09 -6.387062e-09 -6.209338e-09
-6.096380e-09 -5.252145e-09 -6.672430e-09 -7.058810e-09 -8.150838e-09 -8.435859e-09 -7.945037e-09 -7.913582e-09 -1.023411e-08 -1.084339e-08
-1.002470e-08 -9.475630e-09 -8.873086e-09 -1.053102e-08 -1.096077e-08 -1.219452e-08 -1.123999e-08 -1.245840e-08 -1.230077e-08 -1.264476e-08
-1.295197e-08 -1.250463e-08 -1.305823e-08 -1.314236e-08 -1.453707e-08 -1.516534e-08 -1.410024e-08 -1.444608e-08 -1.560934e-08 -1.545026e-08
-1.552645e-08 -1.509997e-08 -1.489463e-08 -1.578770e-08 -1.662485e-08 -1.700877e-08 -1.736237e-08 -1.710970e-08 -1.821711e-08 -1.655465e-08
-1.780737e-08 -1.721104e-08 -1.858065e-08 -1.721148e-08 -1.838793e-08 -1.737515e-08 -1.877346e-08 -1.800060e-08 -1.788082e-08 -1.859213e-08
-1.795646e-08 -1.908242e-08 -1.844379e-08 -1.916248e-08 -1.829006e-08 -1.848789e-08 -1.857495e-08 -1.875939e-08 -1.746773e-08 -1.867392e-08
-1.759059e-08 -1.853160e-08 -1.895997e-08 -1.920083e-08 -1.795493e-08 -1.786835e-08 -1.945771e-08 -1.873012e-08 -1.852106e-08 -1.950020e-08
-1.756579e-08 -1.800292e-08 -1.967951e-08 -1.765366e-08 -1.711662e-08 -1.693701e-08 -1.808210e-08 -1.752862e-08 -1.854833e-08 -1.940265e-08
-1.867051e-08 -1.835758e-08 -1.891302e-08 -1.806118e-08 -1.819184e-08 -1.853808e-08 -1.801615e-08 -1.976809e-08 -1.862760e-08 -1.847603e-08
-1.840375e-08 -1.745310e-08 -1.819209e-08 -1.841358e-08 -1.806040e-08 -1.874029e-08 -1.812007e-08 -1.702820e-08 -1.781038e-08 -1.726203e-08
-1.736378e-08 -1.654664e-08 -1.906442e-08 -1.757246e-08 -1.604773e-08 -1.774349e-08 -1.634211e-08 -1.625468e-08 -1.716226e-08 -1.553451e-08
-1.630398e-08 -1.544880e-08 -1.387911e-08 -1.571297e-08 -1.490940e-08 -1.356540e-08 -1.477822e-08 -1.271910e-08 -1.325525e-08 -1.294963e-08
-1.266392e-08 -1.210187e-08 -1.320166e-08 -1.174964e-08 -1.169784e-08 -1.279940e-08 -1.037811e-08 -1.165373e-08 -1.073446e-08 -8.922661e-09
-8.996964e-09 -9.068557e-09 -9.071389e-09 -9.027151e-09 -7.707654e-09 -8.629049e-09 -8.382358e-09 -7.752646e-09 -5.907978e-09 -6.750473e-09
-5.755057e-09 -7.144880e-09 -5.138002e-09 -6.122473e-09 -3.471184e-09 -4.075450e-09 -4.439661e-09 -3.421692e-09 -2.753455e-09 -2.998118e-09
-2.976905e-09 -2.944537e-09 -2.355192e-09 -8.275789e-10 -1.385476e-09 -1.062035e-09 -4.973095e-10 -8.555257e-10 1.219428e-09 -1.054366e-09
-6.704781e-10
-1.519956e-10 1.352465e-09 -7.075323e-10 2.905582e-09 1.790772e-09 1.432977e-09 3.525156e-09 1.440290e-09 2.231728e-09 2.705439e-09
3.000017e-09 6.003022e-09 4.667717e-09 3.319188e-09 4.220251e-09 4.852110e-09 5.769251e-09 3.943972e-09 5.940434e-09 7.094537e-09
5.620234e-09 6.861359e-09 7.708593e-09 8.991616e-09 7.601314e-09 7.684165e-09 7.103090e-09 8.386852e-09 8.244109e-09 1.072348e-08
1.072348e-08 9.289565e-09 1.122706e-08 1.167913e-08 1.099798e-08 1.182404e-08 1.081232e-08 1.178496e-08 1.215891e-08 1.237609e-08
1.434996e-08 1.285044e-08 1.336694e-08 1.313211e-08 1.312357e-08 1.400416e-08 1.440275e-08 1.416932e-08 1.456476e-08 1.652224e-08
1.534775e-08 1.531373e-08 1.657027e-08 1.600065e-08 1.647088e-08 1.732598e-08 1.627902e-08 1.684677e-08 1.648066e-08 1.754737e-08
1.726415e-08 1.867787e-08 1.765000e-08 1.757872e-08 1.770419e-08 1.782859e-08 1.842045e-08 1.947426e-08 1.935639e-08 1.774014e-08
1.779090e-08 1.819687e-08 1.839068e-08 1.849829e-08 1.823413e-08 1.856099e-08 1.790355e-08 1.904395e-08 1.742670e-08 1.869778e-08
1.824954e-08 1.840013e-08 1.769267e-08 1.845924e-08 1.849914e-08 1.781922e-08 1.732915e-08 1.889244e-08 1.756875e-08 1.713962e-08
1.748682e-08 1.773743e-08 1.732979e-08 1.878655e-08 1.808829e-08 1.803024e-08 1.953353e-08 1.911684e-08 1.908615e-08 1.855561e-08
1.901742e-08 1.904519e-08 1.974078e-08 1.884984e-08 1.826139e-08 1.770649e-08 1.875817e-08 1.746707e-08 1.882923e-08 1.929973e-08
1.920617e-08 1.759663e-08 1.939344e-08 1.801366e-08 1.780356e-08 1.678030e-08 1.812752e-08 1.840230e-08 1.714392e-08 1.741595e-08
1.728129e-08 1.823798e-08 1.701460e-08 1.675122e-08 1.608297e-08 1.600809e-08 1.630997e-08 1.649676e-08 1.731714e-08 1.478044e-08
1.502286e-08 1.433018e-08 1.439658e-08 1.398783e-08 1.461671e-08 1.458692e-08 1.495987e-08 1.291000e-08 1.288159e-08 1.318473e-08
1.252163e-08 1.249510e-08 1.210253e-08 1.085407e-08 1.082930e-08 1.066032e-08 1.015433e-08 1.178155e-08 9.699267e-09 9.844910e-09
8.273755e-09 8.191146e-09 9.503462e-09 7.715614e-09 6.816342e-09 8.688757e-09 7.852623e-09 6.602380e-09 6.054000e-09 6.586356e-09
6.872479e-09 7.325244e-09 4.712034e-09 5.046426e-09 5.939654e-09 4.079963e-09 4.773940e-09 2.734666e-09 2.651914e-09 5.178394e-09
3.164675e-09 2.198262e-09 1.799123e-09 1.380529e-09 2.056709e-09 9.713871e-10 1.120461e-09 1.742218e-09 2.001238e-09 -8.175454e-10
1.469254e-09 -1.679157e-09 6.063768e-10 -7.784950e-10 -1.422556e-09 -2.451987e-09 -2.898924e-09 -1.040346e-09 -3.203884e-09 -3.698768e-09
-1.714329e-09 -2.408700e-09 -5.230179e-09 -2.334146e-09 -2.510458e-09 -4.068123e-09 -4.951045e-09 -5.471787e-09 -4.697200e-09 -6.103767e-09
-6.175764e-09 -6.184772e-09 -5.850136e-09 -8.051622e-09 -7.338318e-09 -6.863093e-09 -7.512624e-09 -9.185230e-09 -8.828239e-09 -9.230276e-09
-8.498698e-09 -1.043412e-08 -1.041319e-08 -1.012868e-08 -1.096877e-08 -1.112213e-08 -1.215752e-08 -1.220127e-08 -1.171206e-08 -1.191926e-08
-1.325313e-08 -1.329307e-08 -1.270396e-08 -1.423402e-08 -1.359576e-08 -1.526886e-08 -1.566176e-08 -1.427167e-08 -1.455652e-08 -1.447718e-08
-1.637575e-08 -1.585610e-08 -1.614107e-08 -1.499703e-08 -1.696245e-08 -1.770162e-08 -1.879512e-08 -1.831168e-08 -1.751958e-08 -1.606730e-08
-1.812952e-08 -1.772161e-08 -1.747711e-08 -1.731255e-08 -1.809880e-08 -1.764096e-08 -1.855113e-08 -1.739215e-08 -1.784283e-08 -1.840674e-08
-1.754840e-08 -1.781334e-08 -1.872602e-08 -1.800783e-08 -1.724387e-08 -1.798914e-08 -1.874659e-08 -1.769393e-08 -1.935748e-08 -1.886137e-08
-1.875392e-08 -1.828752e-08 -1.909564e-08 -1.785004e-08 -1.775963e-08 -1.801597e-08 -1.718031e-08 -1.886882e-08 -1.869031e-08 -1.838900e-08
-1.664394e-08 -1.797127e-08 -1.817362e-08 -1.846665e-08 -1.861433e-08 -1.881147e-08 -1.700632e-08 -1.765475e-08 -1.740836e-08 -1.759923e-08
-1.842409e-08 -1.819839e-08 -1.805491e-08 -1.805542e-08 -1.899626e-08 -1.878873e-08 -1.774395e-08 -1.922117e-08 -1.800630e-08 -1.863287e-08
-1.882954e-08 -1.814061e-08 -1.788747e-08 -1.819147e-08 -1.830733e-08 -1.800795e-08 -1.793054e-08 -1.755973e-08 -1.829347e-08 -1.809036e-08
-1.692822e-08 -1.845232e-08 -1.789958e-08 -1.651105e-08 -1.594873e-08 -1.632830e-08 -1.611259e-08 -1.531493e-08 -1.670837e-08 -1.533141e-08
-1.503214e-08 -1.739975e-08 -1.460283e-08 -1.443052e-08 -1.484180e-08 -1.503063e-08 -1.510893e-08 -1.308503e-08 -1.465520e-08 -1.429945e-08
-1.426874e-08 -1.292336e-08 -1.278608e-08 -1.292253e-08 -1.092160e-08 -1.175175e-08 -1.277237e-08 -1.024271e-08 -1.132398e-08 -1.050164e-08
-9.283604e-09 -8.648964e-09 -7.815800e-09 -8.065293e-09 -7.779271e-09 -8.194005e-09 -8.220275e-09 -6.505878e-09 -5.717967e-09 -5.887480e-09
-6.733276e-09 -5.868573e-09 -6.569993e-09 -6.186200e-09 -6.360215e-09 -5.117689e-09 -4.933959e-09 -4.878294e-09 -3.632321e-09 -2.807722e-09
-2.758847e-09 -2.684394e-09 -1.406168e-09 -2.273618e-09 -2.865637e-09 -1.137659e-09 -5.329281e-10 -2.709190e-10 -8.890808e-10 -2.542001e-10
-1.519956e-10
4.717104e-11 2.738449e-09 7.036977e-11 6.711305e-10 2.191288e-09 4.650604e-09 2.837869e-09 4.951477e-10 4.048910e-09 4.327577e-09
5.101854e-09 2.920693e-09 2.372414e-09 4.985775e-09 4.504381e-09 5.502548e-09 5.784243e-09 7.574491e-09 5.641333e-09 6.737594e-09
6.899169e-09 6.518626e-09 7.233467e-09 6.918218e-09 8.312643e-09 9.720583e-09 6.873831e-09 9.330916e-09 8.907199e-09 7.257751e-09
9.656557e-09 8.482612e-09 1.036868e-08 1.138780e-08 1.265226e-08 1.049419e-08 1.222388e-08 1.200045e-08 1.227489e-08 1.332311e-08
1.205634e-08 1.437810e-08 1.300706e-08 1.364773e-08 1.436808e-08 1.411212e-08 1.530766e-08 1.465636e-08 1.517421e-08 1.541300e-08
1.514873e-08 1.497826e-08 1.534118e-08 1.635722e-08 1.669436e-08 1.656916e-08 1.774765e-08 1.770267e-08 1.674519e-08 1.667166e-08
1.656538e-08 1.867283e-08 1.759421e-08 1.747092e-08 1.722531e-08 1.786475e-08 1.826450e-08 1.698654e-08 1.845548e-08 1.805175e-08
1.843431e-08 1.787488e-08 1.821265e-08 1.910209e-08 1.906193e-08 1.889358e-08 1.865418e-08 1.938545e-08 1.772098e-08 1.763403e-08
1.879598e-08 1.912016e-08 1.960703e-08 1.756610e-08 1.719094e-08 1.744569e-08 1.836806e-08 1.759416e-08 1.672049e-08 1.752858e-08
1.983862e-08 1.842464e-08 1.811037e-08 1.796333e-08 1.737176e-08 1.815925e-08 1.715975e-08 1.942273e-08 1.751708e-08 1.751132e-08
1.791594e-08 1.798858e-08 1.975213e-08 1.834654e-08 1.881344e-08 1.722411e-08 1.768662e-08 1.924486e-08 1.780690e-08 1.832043e-08
1.866919e-08 1.862604e-08 1.914653e-08 1.796499e-08 1.795689e-08 1.760509e-08 1.843959e-08 1.705620e-08 1.778251e-08 1.715742e-08
1.687639e-08 1.679691e-08 1.611738e-08 1.669031e-08 1.596600e-08 1.550455e-08 1.649562e-08 1.439576e-08 1.605430e-08 1.605247e-08
1.467001e-08 1.588886e-08 1.447834e-08 1.421590e-08 1.357271e-08 1.394333e-08 1.444614e-08 1.320522e-08 1.252139e-08 1.260571e-08
1.190804e-08 1.186012e-08 1.238714e-08 1.039953e-08 1.150896e-08 1.138149e-08 9.530972e-09 1.068001e-08 9.251622e-09 1.002295e-08
8.024933e-09 8.362130e-09 9.996604e-09 7.788320e-09 7.994537e-09 6.988281e-09 7.128381e-09 7.474505e-09 6.124946e-09 4.617636e-09
6.119194e-09 7.176835e-09 5.125674e-09 5.791577e-09 4.724211e-09 4.908687e-09 3.808259e-09 2.954949e-09 3.176319e-09 2.847771e-09
4.555031e-09 3.331544e-09 2.611926e-09 2.433016e-09 1.986167e-09 1.320700e-09 1.972413e-09 -1.946680e-10 -4.936223e-10 9.023358e-10
-2.044062e-10 -8.637457e-11 1.192685e-10 9.837584e-10 -8.279897e-10 -3.291701e-10 -4.246261e-09 -4.696941e-09 -1.762764e-09 -2.583059e-09
-2.342975e-09 -3.892307e-09 -4.418281e-09 -3.336533e-09 -4.730426e-09 -4.594616e-09 -4.797901e-09 -6.959866e-09 -7.783648e-09 -6.660227e-09
-8.064281e-09 -6.672250e-09 -6.298427e-09 -7.389473e-09 -6.555169e-09 -9.388457e-09 -7.509354e-09 -7.943287e-09 -9.171778e-09 -1.030890e-08
-1.021568e-08 -1.180076e-08 -9.084212e-09 -9.595795e-09 -9.568991e-09 -1.240253e-08 -1.079752e-08 -1.166891e-08 -1.199914e-08 -1.381512e-08
-1.311239e-08 -1.444584e-08 -1.329382e-08 -1.293626e-08 -1.421804e-08 -1.302811e-08 -1.393858e-08 -1.616698e-08 -1.692231e-08 -1.434624e-08
-1.737877e-08 -1.447348e-08 -1.528503e-08 -1.547394e-08 -1.702841e-08 -1.590437e-08 -1.613032e-08 -1.748876e-08 -1.582506e-08 -1.697051e-08
-1.785609e-08 -1.776328e-08 -1.759280e-08 -1.877387e-08 -1.886179e-08 -1.688069e-08 -1.766393e-08 -1.863973e-08 -1.829639e-08 -1.777533e-08
-1.759725e-08 -1.774556e-08 -1.823747e-08 -1.920222e-08 -1.907554e-08 -1.720375e-08 -1.753440e-08 -1.819741e-08 -1.838581e-08 -1.788344e-08
-1.935307e-08 -1.830506e-08 -1.810623e-08 -1.738737e-08 -1.944215e-08 -1.902449e-08 -1.786849e-08 -1.726351e-08 -1.757829e-08 -1.686129e-08
-1.763470e-08 -1.771854e-08 -1.713498e-08 -1.690925e-08 -1.795399e-08 -1.725765e-08 -1.775366e-08 -1.884016e-08 -1.894341e-08 -1.830987e-08
-1.878961e-08 -1.780630e-08 -1.793664e-08 -1.857866e-08 -1.801192e-08 -1.794909e-08 -1.887285e-08 -1.802151e-08 -1.725067e-08 -1.888112e-08
-1.748662e-08 -1.841990e-08 -1.833166e-08 -1.862053e-08 -1.762672e-08 -1.841586e-08 -1.824702e-08 -1.748411e-08 -1.733675e-08 -1.734179e-08
-1.746003e-08 -1.675404e-08 -1.693422e-08 -1.643237e-08 -1.675348e-08 -1.605106e-08 -1.650644e-08 -1.552354e-08 -1.465277e-08 -1.543572e-08
-1.565279e-08 -1.423950e-08 -1.434919e-08 -1.479877e-08 -1.395289e-08 -1.498560e-08 -1.424267e-08 -1.405421e-08 -1.327468e-08 -1.124711e-08
-1.264881e-08 -1.223109e-08 -1.273283e-08 -1.157443e-08 -1.105403e-08 -1.174263e-08 -1.010193e-08 -1.029921e-08 -1.106875e-08 -9.956683e-09
-9.798915e-09 -1.146601e-08 -8.276662e-09 -9.769036e-09 -8.343860e-09 -7.458826e-09 -7.332282e-09 -7.601359e-09 -7.909819e-09 -8.602602e-09
-6.235747e-09 -4.851216e-09 -5.099970e-09 -4.171218e-09 -4.442864e-09 -4.738877e-09 -4.548410e-09 -4.480697e-09 -3.604629e-09 -2.596933e-09
-1.929069e-09 -3.471158e-09 -3.179043e-09 7.170767e-11 -2.550669e-09 -2.017287e-09 -2.137611e-09 -1.457555e-09 -1.560725e-09 6.964075e-10
4.717104e-11
9.321867e-10 8.484513e-10 -8.963900e-10 -1.164326e-09 1.203659e-09 1.974044e-09 1.873541e-09 1.554891e-09 2.244713e-09 3.585845e-09
1.801011e-09 3.307597e-09 5.203865e-09 1.834140e-09 4.085289e-09 4.750273e-09 4.121962e-09 5.627447e-09 6.527857e-09 5.386279e-09
4.062620e-09 7.335736e-09 6.146241e-09 7.926452e-09 7.621130e-09 8.550884e-09 6.380828e-09 7.170094e-09 9.465750e-09 1.011750e-08
1.015751e-08 8.925642e-09 9.239138e-09 8.443805e-09 1.170210e-08 1.115654e-08 1.147262e-08 1.174043e-08 1.238471e-08 1.217225e-08
1.332311e-08 1.427947e-08 1.459565e-08 1.212679e-08 1.239503e-08 1.415584e-08 1.433134e-08 1.416436e-08 1.386500e-08 1.466579e-08
1.601831e-08 1.517088e-08 1.529694e-08 1.580718e-08 1.742741e-08 1.657731e-08 1.658125e-08 1.584347e-08 1.636159e-08 1.687044e-08
1.689613e-08 1.758284e-08 1.731674e-08 1.724357e-08 1.882581e-08 1.669939e-08 1.878649e-08 1.728320e-08 1.824155e-08 1.812292e-08
1.868340e-08 1.996713e-08 1.862306e-08 1.711536e-08 1.776222e-08 1.822930e-08 1.745864e-08 1.729748e-08 1.859157e-08 1.812078e-08
1.779634e-08 1.743419e-08 1.758811e-08 1.805756e-08 1.691499e-08 1.770688e-08 1.708984e-08 1.748677e-08 1.724190e-08 1.765131e-08
1.636113e-08 1.708368e-08 1.804599e-08 1.693623e-08 1.773539e-08 1.748120e-08 1.834875e-08 1.692266e-08 1.785270e-08 1.805260e-08
1.755534e-08 1.717927e-08 1.896760e-08 1.798143e-08 1.811334e-08 1.901490e-08 1.736248e-08 1.875497e-08 1.742056e-08 1.763596e-08
1.733897e-08 1.762205e-08 1.681670e-08 1.780661e-08 1.806639e-08 1.898531e-08 1.833027e-08 1.769629e-08 1.830841e-08 1.771077e-08
1.726922e-08 1.743567e-08 1.704140e-08 1.747127e-08 1.654380e-08 1.558830e-08 1.519791e-08 1.560049e-08 1.560142e-08 1.540392e-08
1.449911e-08 1.384432e-08 1.514160e-08 1.448047e-08 1.404400e-08 1.379503e-08 1.314124e-08 1.253418e-08 1.186187e-08 1.254253e-08
1.224333e-08 1.263539e-08 1.191038e-08 1.027650e-08 1.025625e-08 1.111315e-08 1.000515e-08 1.073799e-08 9.573317e-09 7.633209e-09
1.006772e-08 8.327521e-09 8.550820e-09 7.615827e-09 7.787009e-09 7.819061e-09 5.833918e-09 6.803435e-09 4.931760e-09 5.432292e-09
6.351164e-09 6.483448e-09 6.012062e-09 3.505483e-09 6.270728e-09 3.869759e-09 4.714071e-09 3.597919e-09 3.146224e-09 4.854650e-09
1.744832e-09 1.883652e-09 -5.824431e-10 1.784452e-09 2.329811e-09 2.524300e-09 1.792731e-09 1.437714e-09 -7.759942e-10 -1.314314e-09
-8.956177e-10 -1.045355e-09 -1.936625e-09 1.135730e-10 -2.606622e-09 3.944717e-10 -2.171881e-09 -3.738552e-09 -2.099569e-09 -2.119313e-09
-4.195972e-09 -2.975281e-09 -4.851239e-09 -4.127002e-09 -5.630319e-09 -3.558911e-09 -5.858657e-09 -4.750729e-09 -6.428490e-09 -7.329481e-09
-5.490513e-09 -6.839910e-09 -8.068194e-09 -7.015608e-09 -6.842420e-09 -6.983221e-09 -8.287632e-09 -7.411840e-09 -8.422834e-09 -1.022089e-08
-9.791628e-09 -9.264567e-09 -1.204028e-08 -8.979446e-09 -1.149051e-08 -1.085219e-08 -1.242840e-08 -1.280155e-08 -1.259660e-08 -1.114171e-08
-1.375742e-08 -1.353508e-08 -1.358744e-08 -1.361110e-08 -1.360290e-08 -1.316563e-08 -1.497057e-08 -1.432688e-08 -1.519417e-08 -1.639417e-08
-1.598911e-08 -1.536589e-08 -1.627599e-08 -1.668470e-08 -1.553724e-08 -1.616023e-08 -1.632664e-08 -1.635360e-08 -1.725189e-08 -1.591756e-08
-1.649381e-08 -1.788437e-08 -1.642609e-08 -1.740317e-08 -1.690161e-08 -1.810480e-08 -1.802422e-08 -1.770237e-08 -1.908734e-08 -1.928415e-08
-1.717440e-08 -1.686318e-08 -1.809657e-08 -1.856989e-08 -1.774113e-08 -1.871115e-08 -1.806212e-08 -1.797781e-08 -1.865364e-08 -1.838732e-08
-1.750081e-08 -1.676167e-08 -1.786006e-08 -1.747138e-08 -1.774178e-08 -1.699806e-08 -1.763139e-08 -1.826455e-08 -1.886816e-08 -1.828992e-08
-1.760544e-08 -1.809393e-08 -1.649425e-08 -1.819914e-08 -1.719119e-08 -1.740186e-08 -1.782600e-08 -1.788242e-08 -1.762086e-08 -1.790289e-08
-1.796163e-08 -1.785886e-08 -1.742962e-08 -1.693980e-08 -1.731638e-08 -1.844094e-08 -1.788556e-08 -1.706187e-08 -1.856943e-08 -1.864048e-08
-1.765507e-08 -1.828674e-08 -1.753514e-08 -1.975698e-08 -1.650461e-08 -1.863854e-08 -1.713747e-08 -1.723892e-08 -1.787470e-08 -1.722175e-08
-1.616674e-08 -1.664398e-08 -1.700727e-08 -1.588279e-08 -1.707201e-08 -1.663951e-08 -1.622139e-08 -1.532696e-08 -1.589844e-08 -1.758190e-08
-1.508588e-08 -1.381729e-08 -1.430321e-08 -1.396588e-08 -1.459199e-08 -1.295699e-08 -1.424590e-08 -1.378030e-08 -1.217083e-08 -1.434836e-08
-1.322267e-08 -1.341038e-08 -1.266544e-08 -1.220267e-08 -1.217459e-08 -1.191066e-08 -1.039791e-08 -1.205121e-08 -9.856264e-09 -9.281111e-09
-7.612963e-09 -7.609817e-09 -8.907032e-09 -7.414348e-09 -9.012496e-09 -7.487607e-09 -8.009976e-09 -5.807115e-09 -6.632319e-09 -6.502104e-09
-9.025025e-09 -6.245729e-09 -5.440391e-09 -4.501512e-09 -5.936250e-09 -3.768593e-09 -4.996865e-09 -4.491757e-09 -4.472289e-09 -4.839258e-09
-1.523400e-09 -1.413889e-09 -2.451237e-09 -1.934249e-09 -9.369534e-10 -1.299634e-11 -3.408822e-10 -1.443314e-09 -1.087847e-09 -1.613080e-09
9.321867e-10
-2.199138e-10 1.445624e-09 -1.934106e-09 1.666291e-09 1.659876e-09 1.893298e-09 -1.629075e-10 1.791000e-09 1.005149e-09 3.545699e-09
3.289425e-09 2.364231e-09 2.900189e-09 2.883423e-09 1.619555e-09 3.690267e-09 4.067966e-09 5.960764e-09 4.951551e-09 5.363132e-09
6.206529e-09 6.931713e-09 7.754433e-09 6.915025e-09 7.397008e-09 7.217781e-09 7.952996e-09 7.857701e-09 8.503135e-09 7.868181e-09
9.489963e-09 9.878533e-09 1.039008e-08 9.685078e-09 1.036871e-08 1.297434e-08 1.225558e-08 1.287527e-08 1.262389e-08 1.220990e-08
1.365135e-08 1.402087e-08 1.209682e-08 1.465158e-08 1.298150e-08 1.437644e-08 1.424831e-08 1.533826e-08 1.570521e-08 1.437906e-08
1.566896e-08 1.565231e-08 1.477733e-08 1.482047e-08 1.725812e-08 1.501850e-08 1.556350e-08 1.543975e-08 1.708562e-08 1.607203e-08
1.630857e-08 1.763246e-08 1.731824e-08 1.706586e-08 1.758711e-08 1.766125e-08 1.684472e-08 1.791158e-08 1.695306e-08 1.769598e-08
1.774250e-08 1.675661e-08 1.845963e-08 1.876224e-08 1.799646e-08 1.789303e-08 1.836940e-08 1.771488e-08 1.867752e-08 1.751532e-08
1.732610e-08 1.803416e-08 1.874724e-08 1.901618e-08 1.884026e-08 1.786470e-08 1.758487e-08 1.847521e-08 1.709243e-08 1.824149e-08
1.714869e-08 1.667222e-08 1.810178e-08 1.836216e-08 1.789187e-08 1.801967e-08 1.798124e-08 1.780793e-08 1.823468e-08 1.719429e-08
1.721388e-08 1.754839e-08 1.843182e-08 1.816899e-08 1.877849e-08 1.708066e-08 1.721345e-08 1.919863e-08 1.748388e-08 1.778662e-08
1.730234e-08 1.755750e-08 1.760628e-08 1.837181e-08 1.746051e-08 1.688959e-08 1.726885e-08 1.767530e-08 1.686310e-08 1.627523e-08
1.729157e-08 1.593254e-08 1.633629e-08 1.591556e-08 1.631650e-08 1.517984e-08 1.701171e-08 1.531148e-08 1.616083e-08 1.482349e-08
1.496798e-08 1.407366e-08 1.394027e-08 1.375539e-08 1.340182e-08 1.468744e-08 1.407201e-08 1.464874e-08 1.333101e-08 1.200487e-08
1.378137e-08 1.179409e-08 1.143444e-08 1.022560e-08 9.819874e-09 9.919086e-09 9.724392e-09 1.019058e-08 9.136783e-09 8.193370e-09
8.715762e-09 9.212310e-09 7.689457e-09 7.953787e-09 7.663075e-09 1.058266e-08 8.249143e-09 5.949943e-09 5.634613e-09 7.027513e-09
5.491993e-09 7.615839e-09 8.367004e-09 3.505630e-09 4.910321e-09 4.656383e-09 4.545047e-09 3.356137e-09 3.940159e-09 2.584646e-09
1.381378e-09 5.643025e-10 -4.915579e-11 1.058086e-09 4.212254e-09 6.094470e-10 1.455311e-09 9.310712e-10 -1.457980e-09 6.132861e-10
1.092466e-09 -2.857574e-10 1.333073e-10 -6.134170e-10 -1.555927e-09 -2.129297e-09 -2.802995e-09 -2.074666e-09 -3.108564e-09 -3.289356e-09
-3.369631e-09 -3.649592e-09 -1.589046e-09 -4.926165e-09 -6.046157e-09 -3.318730e-09 -4.541286e-09 -4.043002e-09 -7.297833e-09 -6.189550e-09
-5.603868e-09 -6.801319e-09 -5.597303e-09 -6.708474e-09 -7.388886e-09 -8.319049e-09 -8.644196e-09 -7.944460e-09 -9.205070e-09 -8.924997e-09
-9.055406e-09 -1.151841e-08 -9.449336e-09 -1.095837e-08 -1.221886e-08 -1.027107e-08 -1.192364e-08 -1.216337e-08 -1.099922e-08 -1.228832e-08
-1.352173e-08 -1.090965e-08 -1.345232e-08 -1.317769e-08 -1.382919e-08 -1.409104e-08 -1.345408e-08 -1.551917e-08 -1.455404e-08 -1.457665e-08
-1.619620e-08 -1.412488e-08 -1.525583e-08 -1.589963e-08 -1.509743e-08 -1.579970e-08 -1.681190e-08 -1.618609e-08 -1.685216e-08 -1.566076e-08
-1.791569e-08 -1.628857e-08 -1.677313e-08 -1.752910e-08 -1.756483e-08 -1.821771e-08 -1.800594e-08 -1.756202e-08 -1.756359e-08 -1.789094e-08
-1.746753e-08 -1.765653e-08 -1.888121e-08 -1.807516e-08 -1.774090e-08 -1.815585e-08 -1.840851e-08 -1.951114e-08 -1.786628e-08 -1.762859e-08
-1.841586e-08 -1.828638e-08 -1.846072e-08 -1.840792e-08 -1.739167e-08 -1.833214e-08 -1.803682e-08 -1.686681e-08 -1.883261e-08 -1.816985e-08
-1.881100e-08 -1.731858e-08 -1.741562e-08 -1.809361e-08 -1.739264e-08 -1.827908e-08 -1.802291e-08 -1.819457e-08 -1.792561e-08 -1.749721e-08
-1.810409e-08 -1.746183e-08 -1.715638e-08 -1.799784e-08 -1.725886e-08 -1.703133e-08 -1.704537e-08 -1.834194e-08 -1.848658e-08 -1.883318e-08
-1.722210e-08 -1.839026e-08 -1.753108e-08 -1.741358e-08 -1.791509e-08 -1.768064e-08 -1.798252e-08 -1.739017e-08 -1.636092e-08 -1.730817e-08
-1.710468e-08 -1.774955e-08 -1.720531e-08 -1.653352e-08 -1.633750e-08 -1.623451e-08 -1.445439e-08 -1.474031e-08 -1.585371e-08 -1.524283e-08
-1.530295e-08 -1.425933e-08 -1.434981e-08 -1.512996e-08 -1.393768e-08 -1.301550e-08 -1.464857e-08 -1.354672e-08 -1.251978e-08 -1.305372e-08
-1.351280e-08 -1.371366e-08 -1.284539e-08 -1.020426e-08 -1.154647e-08 -1.120651e-08 -1.225393e-08 -9.560193e-09 -8.870829e-09 -8.985801e-09
-9.403869e-09 -8.425811e-09 -8.318239e-09 -8.635158e-09 -5.815976e-09 -7.385105e-09 -9.251440e-09 -6.062617e-09 -6.313400e-09 -6.606282e-09
-5.128847e-09 -6.012331e-09 -6.709866e-09 -6.487605e-09 -5.073031e-09 -4.472569e-09 -3.281347e-09 -4.522701e-09 -3.759818e-09 -1.809427e-09
-1.349664e-09 -3.695688e-09 -3.302403e-09 -1.686379e-09 -2.109237e-09 4.483399e-11 -2.629173e-09 -2.525263e-09 2.751246e-10 4.228374e-10
-2.199138e-10
9.196183e-10 -7.985172e-11 -2.923108e-10 -5.368981e-10 1.609802e-09 4.037287e-09 1.414346e-09 1.075133e-09 1.861855e-09 2.907333e-09
5.781519e-10 4.766213e-09 3.373820e-09 5.292290e-09 3.693682e-09 3.876461e-09 5.105660e-09 5.205407e-09 6.800941e-09 5.144916e-09
8.362830e-09 5.753436e-09 5.547335e-09 6.913158e-09 6.957048e-09 7.094410e-09 8.673121e-09 8.450745e-09 8.484502e-09 1.040457e-08
9.303645e-09 9.722232e-09 9.065073e-09 1.109434e-08 1.201078e-08 1.090733e-08 1.054788e-08 1.192636e-08 1.070227e-08 1.169436e-08
1.304095e-08 1.315877e-08 1.290264e-08 1.256746e-08 1.339730e-08 1.352738e-08 1.385938e-08 1.425743e-08 1.412977e-08 1.493724e-08
1.581225e-08 1.427536e-08 1.540244e-08 1.687410e-08 1.605654e-08 1.492728e-08 1.636983e-08 1.705087e-08 1.632416e-08 1.601653e-08
1.560438e-08 1.658835e-08 1.722312e-08 1.651139e-08 1.670905e-08 1.673267e-08 1.674393e-08 1.911088e-08 1.616302e-08 1.764264e-08
1.843908e-08 1.810282e-08 1.764080e-08 1.804100e-08 1.778397e-08 1.815984e-08 1.735678e-08 1.791016e-08 1.771755e-08 1.791840e-08
1.676056e-08 1.672383e-08 1.812168e-08 1.687882e-08 1.691147e-08 1.743728e-08 1.758503e-08 1.808167e-08 1.751791e-08 1.629795e-08
1.752740e-08 1.812475e-08 1.749400e-08 1.879325e-08 1.704847e-08 1.760864e-08 1.739187e-08 1.803944e-08 1.697374e-08 1.734343e-08
1.672982e-08 1.792870e-08 1.748966e-08 1.846641e-08 1.791545e-08 1.800365e-08 1.682564e-08 1.795517e-08 1.865503e-08 1.834009e-08
1.784262e-08 1.771643e-08 1.757341e-08 1.683759e-08 1.702611e-08 1.746555e-08 1.735477e-08 1.746407e-08 1.778896e-08 1.698168e-08
1.667765e-08 1.592977e-08 1.504753e-08 1.533558e-08 1.753264e-08 1.499035e-08 1.571195e-08 1.520187e-08 1.429789e-08 1.494842e-08
1.570129e-08 1.399393e-08 1.284379e-08 1.442321e-08 1.327094e-08 1.412536e-08 1.284905e-08 1.194509e-08 1.188804e-08 1.233865e-08
1.064544e-08 1.276532e-08 1.053890e-08 1.116701e-08 1.056075e-08 9.293273e-09 1.005474e-08 8.214212e-09 9.856911e-09 8.660384e-09
1.030596e-08 8.929841e-09 8.075890e-09 8.767477e-09 9.229696e-09 7.938277e-09 6.418006e-09 6.271847e-09 7.084499e-09 5.653542e-09
5.857890e-09 3.704771e-09 5.938777e-09 5.820206e-09 4.267326e-09 3.586752e-09 3.748426e-09 3.330341e-09 2.704811e-09 3.094142e-09
3.425890e-09 2.591238e-09 1.225072e-09 2.374499e-09 1.261430e-09 5.674150e-10 5.701699e-10 -3.658118e-10 -2.908074e-10 -1.269799e-09
2.572917e-09 -9.344611e-10 -3.815197e-10 -2.189424e-09 -2.043311e-09 -7.601645e-10 -3.121776e-09 -9.977660e-10 -8.763250e-10 -2.548800e-09
-2.834050e-09 -2.475019e-09 -3.247790e-09 -4.186509e-09 -3.347203e-09 -5.465309e-09 -6.285597e-09 -3.168886e-09 -4.541208e-09 -5.715432e-09
-6.375199e-09 -6.473748e-09 -4.521688e-09 -6.091291e-09 -7.051959e-09 -7.272936e-09 -1.044611e-08 -6.922139e-09 -9.870983e-09 -9.729255e-09
-9.668931e-09 -8.577370e-09 -9.896177e-09 -9.944068e-09 -1.106778e-08 -1.083980e-08 -1.128510e-08 -9.940304e-09 -1.184119e-08 -1.238571e-08
-1.219681e-08 -1.262832e-08 -1.386215e-08 -1.267175e-08 -1.361232e-08 -1.504268e-08 -1.349605e-08 -1.333516e-08 -1.393111e-08 -1.433821e-08
-1.473150e-08 -1.493628e-08 -1.412382e-08 -1.694315e-08 -1.555029e-08 -1.523868e-08 -1.555535e-08 -1.599816e-08 -1.699205e-08 -1.587623e-08
-1.605753e-08 -1.631973e-08 -1.684682e-08 -1.609643e-08 -1.727447e-08 -1.709445e-08 -1.774750e-08 -1.664793e-08 -1.790751e-08 -1.694509e-08
-1.821269e-08 -1.891394e-08 -1.881441e-08 -1.773581e-08 -1.894137e-08 -1.711527e-08 -1.897193e-08 -1.671147e-08 -1.644854e-08 -1.829031e-08
-1.723538e-08 -1.938057e-08 -1.652274e-08 -1.689904e-08 -1.853931e-08 -1.699924e-08 -1.646085e-08 -1.634262e-08 -1.720741e-08 -1.706533e-08
-1.706434e-08 -1.716618e-08 -1.709146e-08 -1.621700e-08 -1.778458e-08 -1.945867e-08 -1.746070e-08 -1.628760e-08 -1.650867e-08 -1.814158e-08
-1.824727e-08 -1.899788e-08 -1.724395e-08 -1.693455e-08 -1.638387e-08 -1.764715e-08 -1.809977e-08 -1.884637e-08 -1.775216e-08 -1.738844e-08
-1.720399e-08 -1.658470e-08 -1.805659e-08 -1.827679e-08 -1.776307e-08 -1.688054e-08 -1.667615e-08 -1.586199e-08 -1.654197e-08 -1.770397e-08
-1.627659e-08 -1.599376e-08 -1.821186e-08 -1.676561e-08 -1.594583e-08 -1.626543e-08 -1.586056e-08 -1.627824e-08 -1.614251e-08 -1.411214e-08
-1.413967e-08 -1.572134e-08 -1.507352e-08 -1.480987e-08 -1.626309e-08 -1.480994e-08 -1.339475e-08 -1.442690e-08 -1.383006e-08 -1.367373e-08
-1.356831e-08 -1.239336e-08 -1.103696e-08 -1.211592e-08 -1.063712e-08 -1.205090e-08 -1.145489e-08 -9.936277e-09 -1.154986e-08 -9.916267e-09
-9.298732e-09 -1.001095e-08 -8.429104e-09 -9.226981e-09 -8.727305e-09 -8.498052e-09 -6.667734e-09 -9.130837e-09 -6.774820e-09 -7.246166e-09
-5.707629e-09 -5.768551e-09 -5.023064e-09 -6.341494e-09 -6.405943e-09 -6.316993e-09 -3.385574e-09 -4.236832e-09 -3.257799e-09 -4.281645e-09
-1.778664e-09 -4.358735e-09 -1.487926e-09 -2.630741e-09 -1.139289e-09 -2.414424e-09 -8.270002e-10 -1.850030e-09 -2.290854e-09 3.828005e-10
9.196183e-10
1.907336e-09 -8.504267e-11 1.538015e-09 -6.909377e-10 3.167845e-09 2.477615e-09 -1.098817e-09 1.772623e-09 -1.109097e-10 3.506678e-09
3.080022e-09 2.809214e-09 3.125195e-09 4.542525e-09 3.394100e-09 3.059648e-09 4.654769e-09 6.054006e-09 4.964515e-09 6.236385e-09
5.504555e-09 5.224759e-09 7.262746e-09 5.806639e-09 6.828030e-09 8.806809e-09 9.197097e-09 7.598103e-09 1.008962e-08 9.323210e-09
8.843307e-09 9.321107e-09 1.083840e-08 1.059946e-08 1.093613e-08 1.119138e-08 1.143945e-08 1.157435e-08 1.168101e-08 1.143497e-08
1.281958e-08 1.186697e-08 1.172686e-08 1.160375e-08 1.335523e-08 1.389368e-08 1.358654e-08 1.444733e-08 1.452363e-08 1.527946e-08
1.412845e-08 1.498460e-08 1.552549e-08 1.574660e-08 1.590839e-08 1.683044e-08 1.591236e-08 1.557718e-08 1.589076e-08 1.558758e-08
1.607349e-08 1.581851e-08 1.595120e-08 1.657764e-08 1.694293e-08 1.714237e-08 1.734516e-08 1.689915e-08 1.873984e-08 1.663653e-08
1.769916e-08 1.817472e-08 1.679352e-08 1.815836e-08 1.856528e-08 1.669425e-08 1.834953e-08 1.740314e-08 1.652400e-08 1.732961e-08
1.804063e-08 1.714087e-08 1.696655e-08 1.790748e-08 1.642541e-08 1.655634e-08 1.722904e-08 1.643885e-08 1.782734e-08 1.754855e-08
1.676198e-08 1.722205e-08 1.688057e-08 1.728144e-08 1.685495e-08 1.787694e-08 1.672402e-08 1.774704e-08 1.758568e-08 1.746847e-08
1.745096e-08 1.741974e-08 1.732014e-08 1.788765e-08 1.884252e-08 1.735039e-08 1.808032e-08 1.880493e-08 1.792761e-08 1.688415e-08
1.777592e-08 1.692117e-08 1.906593e-08 1.699687e-08 1.721935e-08 1.769509e-08 1.635954e-08 1.649983e-08 1.697440e-08 1.625245e-08
1.679204e-08 1.615680e-08 1.792076e-08 1.711348e-08 1.644367e-08 1.540316e-08 1.771580e-08 1.413165e-08 1.534473e-08 1.544482e-08
1.522419e-08 1.378108e-08 1.365945e-08 1.480027e-08 1.354641e-08 1.196875e-08 1.284332e-08 1.200624e-08 1.228439e-08 1.113203e-08
1.013333e-08 1.059901e-08 1.137024e-08 1.044328e-08 9.666143e-09 1.066213e-08 9.067587e-09 8.859123e-09 8.929288e-09 8.360513e-09
7.192028e-09 9.812022e-09 7.852052e-09 9.562794e-09 7.621259e-09 8.614505e-09 5.863003e-09 3.828344e-09 5.700382e-09 7.423279e-09
3.394083e-09 4.999651e-09 5.124874e-09 4.334134e-09 5.356009e-09 3.726263e-09 3.200141e-09 9.179303e-10 4.055902e-09 1.346935e-09
1.233965e-09 2.251238e-09 2.234861e-09 2.278335e-09 2.925167e-09 1.437793e-09 1.716766e-09 7.225174e-10 -2.339770e-10 -1.882283e-09
-5.936734e-10 1.340032e-09 7.633931e-10 -2.603510e-12 -1.848882e-09 -9.658562e-10 -2.999242e-09 -1.489274e-09 -1.131464e-09 -3.570001e-09
-1.995778e-09 -2.863540e-09 -2.804505e-09 -3.078015e-09 -4.989232e-09 -3.062819e-09 -3.146440e-09 -4.208520e-09 -4.163476e-09 -5.529876e-09
-5.688369e-09 -7.046188e-09 -5.265210e-09 -7.480232e-09 -8.327691e-09 -8.963804e-09 -9.833858e-09 -8.003073e-09 -9.249593e-09 -8.786788e-09
-7.768827e-09 -9.542688e-09 -8.959065e-09 -1.006378e-08 -9.966143e-09 -9.796549e-09 -1.187323e-08 -1.044255e-08 -1.083540e-08 -1.093882e-08
-1.137082e-08 -1.189094e-08 -1.334808e-08 -1.328457e-08 -1.407324e-08 -1.383091e-08 -1.343094e-08 -1.316839e-08 -1.364174e-08 -1.563383e-08
-1.360619e-08 -1.499564e-08 -1.558424e-08 -1.488529e-08 -1.629490e-08 -1.531084e-08 -1.513682e-08 -1.621518e-08 -1.612294e-08 -1.624636e-08
-1.584489e-08 -1.690354e-08 -1.719502e-08 -1.634696e-08 -1.601559e-08 -1.697426e-08 -1.730017e-08 -1.772325e-08 -1.713070e-08 -1.794502e-08
-1.837607e-08 -1.804405e-08 -1.766347e-08 -1.838706e-08 -1.785717e-08 -1.808209e-08 -1.698182e-08 -1.648206e-08 -1.685019e-08 -1.699590e-08
-1.786542e-08 -1.770738e-08 -1.686110e-08 -1.729864e-08 -1.761711e-08 -1.764223e-08 -1.708476e-08 -1.621848e-08 -1.758833e-08 -1.728225e-08
-1.651894e-08 -1.615349e-08 -1.848245e-08 -1.714425e-08 -1.692762e-08 -1.730063e-08 -1.706954e-08 -1.707298e-08 -1.721500e-08 -1.687839e-08
-1.774383e-08 -1.653151e-08 -1.752240e-08 -1.676219e-08 -1.723994e-08 -1.721721e-08 -1.750764e-08 -1.667541e-08 -1.741994e-08 -1.765222e-08
-1.673382e-08 -1.756212e-08 -1.682504e-08 -1.766205e-08 -1.728827e-08 -1.672937e-08 -1.728845e-08 -1.660241e-08 -1.604588e-08 -1.756810e-08
-1.547414e-08 -1.736964e-08 -1.583185e-08 -1.600279e-08 -1.537578e-08 -1.582035e-08 -1.536025e-08 -1.758046e-08 -1.589845e-08 -1.512597e-08
-1.601920e-08 -1.305341e-08 -1.316902e-08 -1.388251e-08 -1.316552e-08 -1.350345e-08 -1.210883e-08 -1.341690e-08 -1.380555e-08 -1.336186e-08
-1.243424e-08 -1.281073e-08 -1.104907e-08 -1.117161e-08 -1.149744e-08 -1.184595e-08 -1.051049e-08 -1.096475e-08 -1.079038e-08 -9.483625e-09
-1.019834e-08 -8.228736e-09 -8.914497e-09 -8.822512e-09 -8.054791e-09 -7.137469e-09 -7.791512e-09 -8.309693e-09 -8.243777e-09 -6.493515e-09
-5.825007e-09 -4.807291e-09 -4.198940e-09 -4.360573e-09 -4.799858e-09 -4.165237e-09 -3.979073e-09 -3.186222e-09 -2.854490e-09 -1.421757e-09
-1.835301e-10 -2.766721e-09 -5.067722e-09 -7.433494e-10 -1.052954e-09 -9.500142e-10 -2.347529e-10 -4.463347e-10 8.630665e-10 -1.275672e-09
1.907336e-09
8.003638e-10 3.997676e-10 1.178387e-09 1.062948e-09 4.633744e-09 1.034449e-09 3.642745e-09 2.375456e-09 2.600802e-09 3.619865e-09
2.444047e-09 1.784738e-09 5.692727e-09 3.531941e-09 2.033738e-09 4.921763e-09 2.654927e-09 5.093316e-09 4.902509e-09 4.523120e-09
7.138210e-09 5.419259e-09 5.992710e-09 5.190385e-09 8.274671e-09 6.413037e-09 7.710156e-09 7.437783e-09 9.172726e-09 9.339995e-09
8.103981e-09 8.883014e-09 9.182159e-09 9.388766e-09 1.135925e-08 1.142211e-08 1.078755e-08 1.370740e-08 1.145920e-08 1.229403e-08
1.183740e-08 1.177918e-08 1.118239e-08 1.486664e-08 1.398607e-08 1.287749e-08 1.323607e-08 1.297281e-08 1.430470e-08 1.465921e-08
1.571042e-08 1.518160e-08 1.426905e-08 1.430107e-08 1.646588e-08 1.472870e-08 1.691124e-08 1.464754e-08 1.622076e-08 1.614834e-08
1.595422e-08 1.617999e-08 1.775836e-08 1.657681e-08 1.740347e-08 1.829610e-08 1.832728e-08 1.636168e-08 1.743748e-08 1.641118e-08
1.661274e-08 1.628030e-08 1.740779e-08 1.807477e-08 1.722928e-08 1.610568e-08 1.753807e-08 1.612534e-08 1.775554e-08 1.675555e-08
1.708845e-08 1.714427e-08 1.705469e-08 1.665391e-08 1.768418e-08 1.687480e-08 1.803640e-08 1.621802e-08 1.717909e-08 1.798202e-08
1.518472e-08 1.697019e-08 1.769379e-08 1.800258e-08 1.679975e-08 1.737827e-08 1.735568e-08 1.695960e-08 1.773918e-08 1.758648e-08
1.802724e-08 1.708075e-08 1.677483e-08 1.833037e-08 1.797435e-08 1.762901e-08 1.789127e-08 1.735875e-08 1.796253e-08 1.733241e-08
1.661896e-08 1.788463e-08 1.662268e-08 1.666885e-08 1.716586e-08 1.665599e-08 1.776865e-08 1.605584e-08 1.668544e-08 1.627956e-08
1.592298e-08 1.722837e-08 1.536918e-08 1.723200e-08 1.441568e-08 1.489077e-08 1.442385e-08 1.423753e-08 1.371182e-08 1.356823e-08
1.264073e-08 1.380359e-08 1.359163e-08 1.390340e-08 1.452122e-08 1.168979e-08 1.166649e-08 1.288747e-08 1.117914e-08 1.187830e-08
1.251717e-08 1.008184e-08 1.101537e-08 1.034727e-08 9.648339e-09 9.509184e-09 9.941567e-09 9.589225e-09 1.063520e-08 9.297337e-09
9.262304e-09 8.988209e-09 9.126410e-09 9.153593e-09 8.278595e-09 9.343418e-09 6.622628e-09 8.199761e-09 7.180015e-09 3.834307e-09
6.724008e-09 4.992503e-09 4.394337e-09 4.789567e-09 3.339735e-09 4.672041e-09 1.809496e-09 2.944520e-09 4.397990e-09 1.992519e-09
3.500604e-09 2.220293e-09 2.935629e-09 4.093650e-09 2.672935e-09 2.871398e-09 1.438424e-09 1.975289e-09 5.911999e-10 6.025004e-10
-2.707475e-10 -2.183144e-09 -2.350822e-10 -1.639937e-09 -2.064225e-09 -1.657665e-09 -2.124753e-09 -5.160814e-10 -6.121051e-10 -2.079692e-09
-1.918602e-09 -3.168624e-09 -2.693914e-09 -3.423837e-09 -4.490688e-09 -5.906765e-09 -5.851062e-09 -3.400129e-09 -6.359900e-09 -7.287594e-09
-6.726721e-09 -7.475853e-09 -5.554400e-09 -6.587113e-09 -8.281062e-09 -6.125382e-09 -6.756895e-09 -7.254126e-09 -8.833722e-09 -7.991861e-09
-8.341298e-09 -1.156951e-08 -8.970517e-09 -1.098766e-08 -1.059627e-08 -9.022529e-09 -9.712388e-09 -1.262088e-08 -1.110221e-08 -1.121719e-08
-1.310053e-08 -1.089921e-08 -1.218450e-08 -1.269100e-08 -1.351790e-08 -1.349380e-08 -1.407054e-08 -1.385444e-08 -1.520519e-08 -1.313109e-08
-1.441632e-08 -1.466471e-08 -1.561473e-08 -1.523229e-08 -1.540177e-08 -1.514655e-08 -1.587986e-08 -1.628012e-08 -1.596886e-08 -1.564535e-08
-1.634919e-08 -1.684043e-08 -1.760272e-08 -1.758119e-08 -1.688819e-08 -1.708205e-08 -1.723610e-08 -1.714317e-08 -1.772621e-08 -1.768492e-08
-1.731688e-08 -1.664166e-08 -1.799044e-08 -1.632386e-08 -1.635089e-08 -1.670926e-08 -1.751241e-08 -1.648083e-08 -1.800538e-08 -1.689581e-08
-1.655611e-08 -1.747645e-08 -1.922814e-08 -1.757497e-08 -1.723195e-08 -1.639602e-08 -1.607032e-08 -1.720097e-08 -1.671122e-08 -1.731450e-08
-1.634774e-08 -1.649591e-08 -1.725175e-08 -1.678742e-08 -1.673874e-08 -1.697095e-08 -1.802636e-08 -1.646519e-08 -1.626720e-08 -1.727591e-08
-1.849677e-08 -1.862474e-08 -1.677974e-08 -1.737359e-08 -1.742621e-08 -1.764064e-08 -1.784880e-08 -1.788469e-08 -1.691570e-08 -1.784372e-08
-1.742222e-08 -1.630151e-08 -1.673093e-08 -1.807240e-08 -1.718893e-08 -1.687921e-08 -1.677209e-08 -1.654003e-08 -1.707355e-08 -1.790227e-08
-1.630811e-08 -1.679591e-08 -1.568611e-08 -1.581354e-08 -1.537690e-08 -1.565547e-08 -1.556505e-08 -1.451727e-08 -1.364206e-08 -1.550000e-08
-1.404932e-08 -1.425355e-08 -1.483395e-08 -1.336569e-08 -1.401882e-08 -1.389077e-08 -1.365790e-08 -1.335462e-08 -1.264557e-08 -1.146854e-08
-1.346355e-08 -1.121627e-08 -1.125046e-08 -1.156116e-08 -1.155238e-08 -1.062868e-08 -9.743783e-09 -9.448050e-09 -1.038566e-08 -7.483417e-09
-1.004978e-08 -8.709824e-09 -7.350478e-09 -8.916470e-09 -7.638600e-09 -7.212567e-09 -7.868148e-09 -4.458359e-09 -7.588841e-09 -5.906936e-09
-4.575213e-09 -5.685831e-09 -5.421059e-09 -5.385630e-09 -3.421422e-09 -4.185954e-09 -1.622693e-09 -4.123623e-09 -3.244650e-09 -2.923646e-09
-2.133166e-09 -3.445664e-09 -2.450361e-09 -2.507053e-09 -4.380556e-09 6.718281e-10 -5.872854e-10 -2.161239e-09 7.280678e-11 -1.098733e-09
8.003638e-10
-1.941897e-10 -2.478758e-10 1.505044e-09 2.615066e-09 1.597645e-09 9.132388e-10 2.287956e-09 1.502388e-09 3.149953e-09 4.004104e-09
3.854293e-09 2.861110e-09 4.170832e-09 3.218509e-09 3.508610e-09 3.580836e-09 4.847335e-09 6.793077e-09 6.180920e-09 6.407102e-09
5.808899e-09 6.494747e-09 4.791799e-09 7.693828e-09 6.537329e-09 6.594497e-09 8.856713e-09 9.720289e-09 1.042966e-08 7.779087e-09
8.940135e-09 9.605738e-09 1.017863e-08 1.194031e-08 1.131287e-08 1.018478e-08 1.080581e-08 9.819313e-09 1.216393e-08 1.031307e-08
1.177851e-08 1.225771e-08 1.183412e-08 1.339793e-08 1.331319e-08 1.345699e-08 1.368848e-08 1.315504e-08 1.240558e-08 1.449338e-08
1.467031e-08 1.510326e-08 1.406417e-08 1.574482e-08 1.659264e-08 1.630540e-08 1.550772e-08 1.574229e-08 1.513530e-08 1.775243e-08
1.614670e-08 1.713107e-08 1.701359e-08 1.771332e-08 1.545625e-08 1.557033e-08 1.595601e-08 1.637915e-08 1.720227e-08 1.679130e-08
1.578115e-08 1.846477e-08 1.652626e-08 1.608686e-08 1.818679e-08 1.619084e-08 1.670004e-08 1.653515e-08 1.703823e-08 1.686388e-08
1.629609e-08 1.740861e-08 1.717485e-08 1.666342e-08 1.635635e-08 1.695656e-08 1.671439e-08 1.607474e-08 1.670371e-08 1.700438e-08
1.604466e-08 1.659733e-08 1.770777e-08 1.571164e-08 1.795527e-08 1.693024e-08 1.715567e-08 1.746916e-08 1.627089e-08 1.813863e-08
1.669685e-08 1.858688e-08 1.652813e-08 1.753821e-08 1.671010e-08 1.757046e-08 1.684892e-08 1.754847e-08 1.800074e-08 1.669515e-08
1.737798e-08 1.751467e-08 1.724652e-08 1.625041e-08 1.679536e-08 1.726712e-08 1.646331e-08 1.660260e-08 1.664412e-08 1.572569e-08
1.666417e-08 1.721517e-08 1.567966e-08 1.555224e-08 1.789081e-08 1.412539e-08 1.517232e-08 1.589856e-08 1.519007e-08 1.429077e-08
1.425757e-08 1.503831e-08 1.414013e-08 1.304478e-08 1.332624e-08 1.241455e-08 1.288272e-08 1.121104e-08 1.173890e-08 9.957486e-09
1.049188e-08 1.107892e-08 1.219153e-08 1.239647e-08 1.074574e-08 1.069164e-08 8.479883e-09 8.926432e-09 8.882861e-09 8.407328e-09
1.033005e-08 8.116618e-09 7.381986e-09 6.774160e-09 7.946260e-09 6.744853e-09 6.932366e-09 5.275510e-09 6.401967e-09 7.135375e-09
4.134050e-09 4.822283e-09 4.170364e-09 4.497697e-09 3.419263e-09 4.469612e-09 3.549291e-09 2.887414e-09 2.025483e-09 2.465959e-09
2.272880e-09 2.440442e-09 4.797220e-09 3.296355e-09 -1.154851e-10 9.358793e-10 1.148173e-09 1.789677e-09 -3.235718e-10 -1.015742e-10
-1.003021e-09 -3.104064e-10 -7.392164e-10 -1.290831e-09 -2.284125e-09 -5.718594e-10 -3.930475e-10 -1.653737e-09 -2.296497e-09 -2.721540e-09
-3.334150e-09 -3.775179e-09 -2.675831e-09 -5.166511e-09 -3.263127e-09 -3.540266e-09 -3.629854e-09 -6.483501e-09 -6.717228e-09 -6.530616e-09
-5.128479e-09 -4.894071e-09 -6.771623e-09 -8.055819e-09 -6.427546e-09 -8.683043e-09 -8.197637e-09 -8.619035e-09 -8.721018e-09 -9.024848e-09
-8.625684e-09 -8.096539e-09 -8.357350e-09 -8.039410e-09 -1.266316e-08 -1.202645e-08 -1.040737e-08 -1.106438e-08 -1.002468e-08 -1.028125e-08
-1.243745e-08 -1.275800e-08 -1.284335e-08 -1.302926e-08 -1.138185e-08 -1.241627e-08 -1.362954e-08 -1.348321e-08 -1.326233e-08 -1.476070e-08
-1.397366e-08 -1.517862e-08 -1.469325e-08 -1.408957e-08 -1.478708e-08 -1.608433e-08 -1.528660e-08 -1.601219e-08 -1.478376e-08 -1.563366e-08
-1.612810e-08 -1.613624e-08 -1.694972e-08 -1.696480e-08 -1.747814e-08 -1.687030e-08 -1.701179e-08 -1.621143e-08 -1.608884e-08 -1.742676e-08
-1.720255e-08 -1.765280e-08 -1.641108e-08 -1.650659e-08 -1.778314e-08 -1.641740e-08 -1.659018e-08 -1.708944e-08 -1.738488e-08 -1.690597e-08
-1.551843e-08 -1.714683e-08 -1.542248e-08 -1.656407e-08 -1.586505e-08 -1.688751e-08 -1.787560e-08 -1.837562e-08 -1.695530e-08 -1.654169e-08
-1.717628e-08 -1.686601e-08 -1.656257e-08 -1.716886e-08 -1.820142e-08 -1.635238e-08 -1.620146e-08 -1.771495e-08 -1.625985e-08 -1.668424e-08
-1.769848e-08 -1.665028e-08 -1.611613e-08 -1.684662e-08 -1.789959e-08 -1.708362e-08 -1.757670e-08 -1.768731e-08 -1.712799e-08 -1.668176e-08
-1.818433e-08 -1.657374e-08 -1.700644e-08 -1.708295e-08 -1.623158e-08 -1.633728e-08 -1.670325e-08 -1.665238e-08 -1.735254e-08 -1.560682e-08
-1.613854e-08 -1.654597e-08 -1.631839e-08 -1.568523e-08 -1.516075e-08 -1.434884e-08 -1.552247e-08 -1.622041e-08 -1.466411e-08 -1.373567e-08
-1.481498e-08 -1.327912e-08 -1.301683e-08 -1.412626e-08 -1.384394e-08 -1.433272e-08 -1.276196e-08 -1.258504e-08 -1.374425e-08 -1.129523e-08
-1.303925e-08 -1.168492e-08 -1.212951e-08 -1.068614e-08 -1.156013e-08 -9.329657e-09 -9.402059e-09 -8.065401e-09 -8.932553e-09 -9.902698e-09
-8.376240e-09 -1.017329e-08 -8.491480e-09 -7.726922e-09 -6.563925e-09 -7.748561e-09 -7.643316e-09 -8.645043e-09 -5.969731e-09 -6.551384e-09
-5.393075e-09 -7.737905e-09 -7.021321e-09 -4.634344e-09 -3.317269e-09 -4.441793e-09 -4.849870e-09 -4.226631e-09 -2.837574e-09 -2.226914e-09
-2.420849e-09 -1.696452e-09 -1.573559e-09 -1.646183e-09 -2.336116e-09 -1.365110e-09 -2.644682e-09 -1.980897e-09 -1.089764e-09 -9.623367e-11
-1.941897e-10
-1.454866e-10 -5.550522e-10 2.159307e-09 -1.079407e-10 9.179487e-10 1.089139e-09 1.215824e-09 2.787009e-09 3.516680e-09 2.163911e-09
3.497452e-09 3.555504e-09 5.101722e-09 3.939397e-09 3.539431e-09 4.849550e-09 4.827894e-09 4.658208e-09 4.020869e-09 7.541125e-09
5.365083e-09 6.202725e-09 5.643007e-09 7.928322e-09 5.874905e-09 7.558964e-09 7.644906e-09 8.696130e-09 1.031374e-08 9.453218e-09
8.904308e-09 8.792095e-09 9.442647e-09 8.632425e-09 9.071299e-09 1.008400e-08 9.271001e-09 1.007501e-08 1.079644e-08 1.090186e-08
1.266334e-08 1.260667e-08 1.426791e-08 1.346061e-08 1.282590e-08 1.363994e-08 1.545556e-08 1.265938e-08 1.328382e-08 1.321369e-08
1.396817e-08 1.469867e-08 1.500720e-08 1.410607e-08 1.544501e-08 1.710114e-08 1.517041e-08 1.418469e-08 1.530459e-08 1.586550e-08
1.615864e-08 1.593820e-08 1.520061e-08 1.609091e-08 1.741722e-08 1.608017e-08 1.532239e-08 1.668275e-08 1.747475e-08 1.782022e-08
1.811179e-08 1.659834e-08 1.709843e-08 1.578850e-08 1.556022e-08 1.782720e-08 1.797881e-08 1.597778e-08 1.644663e-08 1.653911e-08
1.699316e-08 1.662879e-08 1.585182e-08 1.659254e-08 1.616450e-08 1.723533e-08 1.671013e-08 1.597505e-08 1.693743e-08 1.780115e-08
1.641318e-08 1.808347e-08 1.669417e-08 1.670383e-08 1.703302e-08 1.698787e-08 1.602250e-08 1.650456e-08 1.593614e-08 1.615196e-08
1.649853e-08 1.676676e-08 1.742660e-08 1.741940e-08 1.645476e-08 1.686382e-08 1.657566e-08 1.689144e-08 1.701181e-08 1.719652e-08
1.554317e-08 1.697734e-08 1.603977e-08 1.606934e-08 1.654979e-08 1.699295e-08 1.604466e-08 1.588843e-08 1.537317e-08 1.599962e-08
1.502785e-08 1.635722e-08 1.491452e-08 1.505413e-08 1.468665e-08 1.577802e-08 1.406410e-08 1.359594e-08 1.488723e-08 1.331568e-08
1.442191e-08 1.461785e-08 1.275302e-08 1.404128e-08 1.284965e-08 1.350689e-08 1.239404e-08 1.292522e-08 1.073455e-08 1.265742e-08
1.065942e-08 1.181490e-08 1.069364e-08 1.101575e-08 1.006945e-08 1.057964e-08 9.787951e-09 1.012891e-08 9.650534e-09 6.863745e-09
9.692319e-09 7.928093e-09 7.617468e-09 9.154608e-09 5.543097e-09 7.017440e-09 6.627882e-09 7.224993e-09 6.846334e-09 6.549524e-09
6.390238e-09 5.504090e-09 3.995940e-09 5.657006e-09 4.342594e-09 2.507040e-09 4.014605e-09 3.060676e-09 2.204413e-09 3.876721e-09
2.386661e-09 2.481930e-09 1.193922e-09 1.284292e-09 2.309095e-09 1.376738e-09 -6.717571e-10 1.951959e-09 1.127919e-09 9.793046e-10
-9.720734e-10 1.745545e-09 -6.725667e-10 -8.140205e-10 -2.506153e-09 -2.044219e-09 -2.408458e-09 -2.834962e-09 -1.217971e-09 -1.374762e-09
-2.087157e-09 -2.648911e-09 -5.156892e-09 -3.971140e-09 -2.900163e-09 -3.486024e-09 -4.726469e-09 -2.130929e-09 -4.514170e-09 -4.346672e-09
-6.810968e-09 -6.080755e-09 -7.113874e-09 -9.439383e-09 -6.936875e-09 -8.626809e-09 -7.572264e-09 -8.993664e-09 -8.403846e-09 -9.378869e-09
-1.037876e-08 -8.117282e-09 -1.015513e-08 -9.283632e-09 -9.822405e-09 -8.526135e-09 -1.071853e-08 -1.250455e-08 -1.045756e-08 -1.119489e-08
-1.220599e-08 -1.147031e-08 -1.267428e-08 -1.169098e-08 -1.286340e-08 -1.300920e-08 -1.269311e-08 -1.327820e-08 -1.400216e-08 -1.324006e-08
-1.379776e-08 -1.323664e-08 -1.467842e-08 -1.464173e-08 -1.485225e-08 -1.495787e-08 -1.442397e-08 -1.509071e-08 -1.527657e-08 -1.478247e-08
-1.567309e-08 -1.649540e-08 -1.655529e-08 -1.754926e-08 -1.661333e-08 -1.595099e-08 -1.626350e-08 -1.613894e-08 -1.638035e-08 -1.794569e-08
-1.582151e-08 -1.675614e-08 -1.686487e-08 -1.695425e-08 -1.659696e-08 -1.627673e-08 -1.792347e-08 -1.735127e-08 -1.649730e-08 -1.657474e-08
-1.562641e-08 -1.602850e-08 -1.606817e-08 -1.550265e-08 -1.825271e-08 -1.659350e-08 -1.720328e-08 -1.657546e-08 -1.700220e-08 -1.714596e-08
-1.688653e-08 -1.617996e-08 -1.760686e-08 -1.664227e-08 -1.681865e-08 -1.697915e-08 -1.731964e-08 -1.645185e-08 -1.565677e-08 -1.697369e-08
-1.819831e-08 -1.731751e-08 -1.773603e-08 -1.666291e-08 -1.599933e-08 -1.801361e-08 -1.731200e-08 -1.637524e-08 -1.741128e-08 -1.755646e-08
-1.657337e-08 -1.661792e-08 -1.736147e-08 -1.638816e-08 -1.665637e-08 -1.764928e-08 -1.563123e-08 -1.562243e-08 -1.667340e-08 -1.526622e-08
-1.729554e-08 -1.524583e-08 -1.464357e-08 -1.489770e-08 -1.428832e-08 -1.463573e-08 -1.488755e-08 -1.495370e-08 -1.404671e-08 -1.505361e-08
-1.371928e-08 -1.411912e-08 -1.617000e-08 -1.191346e-08 -1.297454e-08 -1.261575e-08 -1.311456e-08 -1.104911e-08 -1.166700e-08 -1.175088e-08
-1.131116e-08 -1.203321e-08 -1.310724e-08 -1.024596e-08 -9.554811e-09 -9.420727e-09 -9.373108e-09 -9.582476e-09 -1.094820e-08 -8.750136e-09
-8.825089e-09 -8.497987e-09 -8.056787e-09 -8.200559e-09 -7.776944e-09 -7.139602e-09 -7.014462e-09 -7.331744e-09 -5.867577e-09 -6.633533e-09
-6.504285e-09 -4.971168e-09 -5.193447e-09 -3.937529e-09 -4.973286e-09 -1.946203e-09 -4.157009e-09 -5.061192e-09 -3.584595e-09 -3.305668e-09
-1.031316e-09 -3.235429e-09 -3.665685e-09 -9.134026e-10 -7.631124e-10 -1.068499e-09 -2.482220e-09 -1.085113e-09 8.203502e-10 -6.002988e-10
-1.454866e-10
-2.261702e-09 2.138629e-09 2.269503e-09 2.474679e-09 3.395477e-10 2.985488e-09 3.355043e-09 2.614192e-09 2.701299e-09 1.817094e-09
1.982574e-09 2.665294e-09 4.714987e-09 3.835859e-09 3.511230e-09 3.735203e-09 4.403496e-09 5.508521e-09 5.841903e-09 6.919798e-09
5.730495e-09 5.404531e-09 6.811718e-09 6.455597e-09 7.009433e-09 7.366051e-09 6.653047e-09 8.510333e-09 1.003611e-08 8.396678e-09
7.910042e-09 9.305072e-09 7.604219e-09 9.675166e-09 1.011534e-08 9.932099e-09 1.078620e-08 1.096426e-08 1.213359e-08 1.134354e-08
1.058570e-08 1.195424e-08 1.125672e-08 1.235991e-08 1.234459e-08 1.260395e-08 1.236579e-08 1.257503e-08 1.359913e-08 1.362203e-08
1.402176e-08 1.386504e-08 1.478055e-08 1.613345e-08 1.524093e-08 1.456306e-08 1.585151e-08 1.477418e-08 1.414323e-08 1.629471e-08
1.544083e-08 1.511329e-08 1.556492e-08 1.584924e-08 1.610097e-08 1.541770e-08 1.615585e-08 1.582867e-08 1.566245e-08 1.634041e-08
1.654270e-08 1.581853e-08 1.654079e-08 1.612168e-08 1.659282e-08 1.738067e-08 1.815294e-08 1.596993e-08 1.783667e-08 1.699590e-08
1.677818e-08 1.652049e-08 1.592057e-08 1.650978e-08 1.811878e-08 1.759026e-08 1.621364e-08 1.528429e-08 1.638409e-08 1.640243e-08
1.626799e-08 1.646564e-08 1.776018e-08 1.686936e-08 1.713539e-08 1.755712e-08 1.684817e-08 1.643677e-08 1.595624e-08 1.546016e-08
1.679600e-08 1.630952e-08 1.574803e-08 1.684782e-08 1.717334e-08 1.634168e-08 1.601033e-08 1.693162e-08 1.598344e-08 1.591349e-08
1.616057e-08 1.528218e-08 1.533497e-08 1.648098e-08 1.789942e-08 1.577634e-08 1.638084e-08 1.539661e-08 1.653255e-08 1.458322e-08
1.563113e-08 1.586458e-08 1.440743e-08 1.594235e-08 1.489247e-08 1.422700e-08 1.409409e-08 1.402958e-08 1.371979e-08 1.411454e-08
1.295528e-08 1.413801e-08 1.354652e-08 1.419703e-08 1.251292e-08 1.212129e-08 1.210125e-08 1.172211e-08 1.008407e-08 1.126092e-08
1.264579e-08 1.049556e-08 1.063124e-08 8.906205e-09 9.528093e-09 1.003086e-08 9.581755e-09 8.504384e-09 8.912117e-09 9.105617e-09
1.043873e-08 8.895057e-09 8.851880e-09 7.618961e-09 7.405594e-09 7.238413e-09 7.798323e-09 6.075583e-09 6.459304e-09 6.337155e-09
7.368344e-09 3.503832e-09 5.177477e-09 3.604358e-09 3.800629e-09 4.906544e-09 4.243870e-09 2.169777e-09 1.618927e-09 2.422032e-09
3.453413e-09 1.600070e-09 7.992051e-10 1.661421e-09 7.624064e-10 1.313442e-09 1.276318e-10 -4.674823e-11 5.973333e-10 -1.062501e-09
6.783299e-10 5.788210e-10 1.209183e-09 -1.420908e-09 3.203312e-10 7.721727e-10 -1.037100e-09 -2.108293e-09 -2.128863e-09 -2.649433e-09
-3.343707e-09 -1.382271e-09 -4.207088e-09 -2.803475e-09 -5.384939e-09 -3.604586e-09 -4.468014e-09 -3.126786e-09 -5.681235e-09 -6.562222e-09
-5.526319e-09 -6.623410e-09 -6.809522e-09 -7.234225e-09 -5.961847e-09 -7.679049e-09 -7.645057e-09 -8.177060e-09 -7.898291e-09 -8.826434e-09
-9.682207e-09 -9.384907e-09 -8.910484e-09 -8.613100e-09 -9.548360e-09 -1.062742e-08 -9.890432e-09 -1.076514e-08 -1.086900e-08 -1.095993e-08
-1.261722e-08 -1.120356e-08 -1.305744e-08 -1.238740e-08 -1.179420e-08 -1.228404e-08 -1.317694e-08 -1.184539e-08 -1.344719e-08 -1.393408e-08
-1.401461e-08 -1.266839e-08 -1.276427e-08 -1.387868e-08 -1.514873e-08 -1.398181e-08 -1.450257e-08 -1.524179e-08 -1.474055e-08 -1.576023e-08
-1.605979e-08 -1.479016e-08 -1.578377e-08 -1.622538e-08 -1.587198e-08 -1.691870e-08 -1.563027e-08 -1.641379e-08 -1.554886e-08 -1.612728e-08
-1.559870e-08 -1.643536e-08 -1.527688e-08 -1.708569e-08 -1.689304e-08 -1.655794e-08 -1.694881e-08 -1.611198e-08 -1.673241e-08 -1.726470e-08
-1.710104e-08 -1.547994e-08 -1.685775e-08 -1.642835e-08 -1.665233e-08 -1.783978e-08 -1.731840e-08 -1.708346e-08 -1.619548e-08 -1.731752e-08
-1.616120e-08 -1.636758e-08 -1.580119e-08 -1.595881e-08 -1.615651e-08 -1.543519e-08 -1.741235e-08 -1.648169e-08 -1.754534e-08 -1.676214e-08
-1.721117e-08 -1.590206e-08 -1.663474e-08 -1.688908e-08 -1.557743e-08 -1.764265e-08 -1.581657e-08 -1.591360e-08 -1.581467e-08 -1.606782e-08
-1.700733e-08 -1.550456e-08 -1.718414e-08 -1.558561e-08 -1.625987e-08 -1.738812e-08 -1.650932e-08 -1.593362e-08 -1.510048e-08 -1.660490e-08
-1.500303e-08 -1.521954e-08 -1.657070e-08 -1.642934e-08 -1.418906e-08 -1.293125e-08 -1.380692e-08 -1.403960e-08 -1.450788e-08 -1.423645e-08
-1.316710e-08 -1.448809e-08 -1.325089e-08 -1.533082e-08 -1.338535e-08 -1.424601e-08 -1.272010e-08 -1.229383e-08 -1.205423e-08 -1.259704e-08
-1.158638e-08 -1.122436e-08 -1.096388e-08 -1.106646e-08 -9.721718e-09 -1.037382e-08 -8.724197e-09 -9.326951e-09 -7.986820e-09 -8.720691e-09
-8.108501e-09 -7.298176e-09 -7.073242e-09 -7.249621e-09 -6.793552e-09 -8.554944e-09 -8.132843e-09 -6.293064e-09 -5.886060e-09 -7.954040e-09
-7.243316e-09 -4.340165e-09 -6.117294e-09 -4.702942e-09 -5.359292e-09 -5.077575e-09 -3.690380e-09 -4.238755e-09 -3.013130e-09 -3.917702e-09
-3.007479e-09 -2.192652e-09 -2.445170e-09 4.251396e-12 -2.131925e-09 -7.123638e-10 -5.597116e-10 4.372400e-10 -1.275218e-10 -5.807594e-10
-2.261702e-09
-7.924064e-10 1.652513e-09 5.130921e-10 9.139263e-10 -4.757060e-10 1.818933e-09 2.706461e-09 1.845766e-09 2.422696e-09 1.574403e-09
3.078759e-09 4.262132e-09 3.595096e-09 4.728593e-09 4.760282e-09 4.582416e-09 3.341077e-09 4.080108e-09 4.042942e-09 4.657748e-09
6.929643e-09 5.367246e-09 6.882614e-09 6.378475e-09 6.712268e-09 7.003906e-09 7.019567e-09 7.000221e-09 6.773627e-09 8.185029e-09
8.191209e-09 9.675134e-09 7.718272e-09 9.819252e-09 1.006140e-08 9.972069e-09 1.056365e-08 9.587093e-09 1.047859e-08 1.001138e-08
1.126349e-08 1.136697e-08 1.210541e-08 1.256991e-08 1.297612e-08 1.275431e-08 1.509476e-08 1.214818e-08 1.448937e-08 1.363502e-08
1.326524e-08 1.320274e-08 1.510795e-08 1.419184e-08 1.457448e-08 1.488029e-08 1.394758e-08 1.526526e-08 1.481233e-08 1.509862e-08
1.545427e-08 1.484973e-08 1.527429e-08 1.630513e-08 1.557485e-08 1.644924e-08 1.530521e-08 1.520409e-08 1.589026e-08 1.542172e-08
1.612914e-08 1.691533e-08 1.592537e-08 1.558484e-08 1.615267e-08 1.787246e-08 1.634963e-08 1.682611e-08 1.653995e-08 1.608912e-08
1.538435e-08 1.680140e-08 1.649163e-08 1.622393e-08 1.721231e-08 1.747605e-08 1.681671e-08 1.661921e-08 1.678745e-08 1.616427e-08
1.616765e-08 1.580204e-08 1.844012e-08 1.559702e-08 1.511995e-08 1.682144e-08 1.658180e-08 1.786545e-08 1.652755e-08 1.667675e-08
1.837593e-08 1.541581e-08 1.570064e-08 1.732088e-08 1.767582e-08 1.684247e-08 1.609874e-08 1.619547e-08 1.547866e-08 1.635946e-08
1.528732e-08 1.589613e-08 1.621541e-08 1.557182e-08 1.528785e-08 1.515475e-08 1.607281e-08 1.634023e-08 1.559297e-08 1.589032e-08
1.528645e-08 1.479719e-08 1.485194e-08 1.434578e-08 1.489461e-08 1.556136e-08 1.382560e-08 1.366355e-08 1.420658e-08 1.332578e-08
1.372317e-08 1.226188e-08 1.246992e-08 1.314771e-08 1.254554e-08 1.298511e-08 1.064811e-08 1.125062e-08 1.171954e-08 1.191564e-08
1.093656e-08 1.128090e-08 1.186054e-08 9.283029e-09 9.248392e-09 9.810609e-09 1.066939e-08 1.006562e-08 1.026358e-08 9.416691e-09
9.454562e-09 6.883520e-09 9.122394e-09 8.609259e-09 7.458484e-09 5.753439e-09 6.245918e-09 8.267704e-09 6.672502e-09 3.546880e-09
6.464330e-09 4.955329e-09 2.553861e-09 3.559913e-09 2.886606e-09 2.940112e-09 3.104625e-09 5.042841e-09 3.285043e-09 1.696271e-09
2.233585e-09 1.471900e-09 2.003697e-09 1.588610e-09 8.773319e-10 2.384387e-09 4.751001e-10 6.743561e-10 -1.385687e-09 1.872261e-09
-7.831165e-10 6.821021e-10 -1.345913e-09 -1.111002e-09 -1.047754e-09 -2.081468e-10 -4.329766e-09 -2.398776e-09 -2.736560e-09 -3.614817e-09
-1.689918e-09 -3.516125e-09 -3.183443e-09 -4.613290e-09 -4.116761e-09 -5.412683e-09 -4.276426e-09 -5.573793e-09 -7.282601e-09 -6.021114e-09
-4.967172e-09 -5.013713e-09 -5.503820e-09 -7.738283e-09 -6.993432e-09 -7.223392e-09 -7.913168e-09 -6.786473e-09 -9.236536e-09 -7.724656e-09
-7.708734e-09 -1.024689e-08 -8.016187e-09 -1.095051e-08 -9.439994e-09 -1.032213e-08 -9.706749e-09 -9.567450e-09 -1.027635e-08 -1.082848e-08
-1.325720e-08 -1.283341e-08 -1.141285e-08 -1.281428e-08 -1.314911e-08 -1.305337e-08 -1.147086e-08 -1.365134e-08 -1.360370e-08 -1.420290e-08
-1.611925e-08 -1.429642e-08 -1.337401e-08 -1.450425e-08 -1.482222e-08 -1.350717e-08 -1.367068e-08 -1.467104e-08 -1.462930e-08 -1.665086e-08
-1.531131e-08 -1.614641e-08 -1.554046e-08 -1.494663e-08 -1.525111e-08 -1.569244e-08 -1.589282e-08 -1.700053e-08 -1.677765e-08 -1.625747e-08
-1.579004e-08 -1.711580e-08 -1.544050e-08 -1.657626e-08 -1.595355e-08 -1.608378e-08 -1.598883e-08 -1.627382e-08 -1.613714e-08 -1.706640e-08
-1.704721e-08 -1.713758e-08 -1.714303e-08 -1.612542e-08 -1.678426e-08 -1.557980e-08 -1.541576e-08 -1.626823e-08 -1.584050e-08 -1.565985e-08
-1.548387e-08 -1.674947e-08 -1.584063e-08 -1.727659e-08 -1.749917e-08 -1.685428e-08 -1.591831e-08 -1.551479e-08 -1.546417e-08 -1.573519e-08
-1.577647e-08 -1.552494e-08 -1.618012e-08 -1.638714e-08 -1.692185e-08 -1.683227e-08 -1.597404e-08 -1.567935e-08 -1.643670e-08 -1.600858e-08
-1.583103e-08 -1.707337e-08 -1.534189e-08 -1.611690e-08 -1.530432e-08 -1.477710e-08 -1.550705e-08 -1.697541e-08 -1.594493e-08 -1.506273e-08
-1.612690e-08 -1.399515e-08 -1.583311e-08 -1.547485e-08 -1.510886e-08 -1.568137e-08 -1.451183e-08 -1.484935e-08 -1.584106e-08 -1.354872e-08
-1.439023e-08 -1.348472e-08 -1.271509e-08 -1.255381e-08 -1.207042e-08 -1.358302e-08 -1.285844e-08 -1.200921e-08 -1.245233e-08 -1.245937e-08
-1.082313e-08 -1.108616e-08 -1.171066e-08 -1.002928e-08 -1.288130e-08 -1.060357e-08 -1.032166e-08 -9.594553e-09 -9.159776e-09 -7.629461e-09
-7.615555e-09 -9.892067e-09 -8.434618e-09 -7.443880e-09 -6.537294e-09 -8.248635e-09 -6.070419e-09 -5.770513e-09 -7.734175e-09 -4.075775e-09
-5.142090e-09 -6.835814e-09 -6.390093e-09 -4.727078e-09 -4.910478e-09 -2.819783e-09 -3.286070e-09 -4.831600e-09 -2.845299e-09 -4.909697e-09
-2.668874e-09 -2.537357e-09 -2.904764e-09 -1.064281e-09 -1.128247e-09 -3.238497e-09 -1.642518e-10 -2.031881e-09 -4.502139e-13 -2.016464e-10
-7.924064e-10
-8.675023e-10 9.166498e-10 -1.413625e-10 9.993802e-10 1.884805e-09 1.770327e-09 4.725002e-10 1.526055e-09 2.276803e-09 2.749813e-09
7.119936e-10 1.004894e-09 2.624443e-09 4.489651e-09 3.579100e-09 4.939786e-09 2.754736e-09 5.137781e-09 6.283598e-09 6.250489e-09
5.704595e-09 4.032619e-09 4.903068e-09 4.960516e-09 7.560182e-09 7.374159e-09 8.533868e-09 6.939459e-09 8.788644e-09 9.515960e-09
9.262128e-09 1.041211e-08 9.900687e-09 9.564014e-09 8.686005e-09 9.797088e-09 1.108896e-08 1.094191e-08 1.037503e-08 1.168801e-08
1.196112e-08 1.097133e-08 1.091483e-08 1.113809e-08 1.318332e-08 1.368555e-08 1.193197e-08 1.318775e-08 1.254789e-08 1.282406e-08
1.488401e-08 1.312174e-08 1.329145e-08 1.453092e-08 1.452201e-08 1.531660e-08 1.404590e-08 1.472459e-08 1.496002e-08 1.407682e-08
1.590879e-08 1.439726e-08 1.491648e-08 1.505038e-08 1.564436e-08 1.545178e-08 1.516005e-08 1.823270e-08 1.551635e-08 1.538642e-08
1.633869e-08 1.485730e-08 1.621242e-08 1.622936e-08 1.546633e-08 1.618042e-08 1.545584e-08 1.522860e-08 1.626421e-08 1.552127e-08
1.583446e-08 1.511664e-08 1.551841e-08 1.517305e-08 1.581148e-08 1.611235e-08 1.775542e-08 1.537864e-08 1.634164e-08 1.607248e-08
1.691170e-08 1.693733e-08 1.627962e-08 1.598624e-08 1.593853e-08 1.619938e-08 1.787515e-08 1.718821e-08 1.559132e-08 1.515042e-08
1.681443e-08 1.760652e-08 1.523719e-08 1.527356e-08 1.652127e-08 1.570184e-08 1.634099e-08 1.770223e-08 1.580407e-08 1.661265e-08
1.582435e-08 1.669530e-08 1.608548e-08 1.664050e-08 1.615511e-08 1.533513e-08 1.444012e-08 1.527350e-08 1.550598e-08 1.567795e-08
1.528639e-08 1.411748e-08 1.475901e-08 1.493129e-08 1.386913e-08 1.406393e-08 1.435161e-08 1.281226e-08 1.324905e-08 1.351945e-08
1.288598e-08 1.401757e-08 1.268916e-08 1.197638e-08 1.410378e-08 1.264360e-08 1.220497e-08 1.215338e-08 1.083945e-08 1.030433e-08
1.217847e-08 1.012966e-08 9.876232e-09 1.130338e-08 9.442065e-09 9.921282e-09 8.114660e-09 9.575214e-09 8.332434e-09 9.340348e-09
9.600654e-09 7.636216e-09 7.486933e-09 5.913558e-09 4.774409e-09 7.318427e-09 6.334588e-09 6.206864e-09 6.307457e-09 4.799622e-09
7.190716e-09 5.058105e-09 4.077252e-09 4.442384e-09 4.229763e-09 1.833278e-09 4.677473e-09 3.330867e-09 4.075697e-09 2.755095e-09
1.127776e-09 3.433596e-09 6.496979e-10 -8.971623e-10 8.326960e-10 1.252128e-09 1.193676e-09 -6.293610e-10 -3.605103e-10 -9.770807e-10
1.325813e-09 2.704298e-10 -5.397859e-10 -3.569354e-10 -2.142003e-09 -1.837581e-09 -1.936060e-09 -1.902386e-09 -2.597375e-09 -4.348042e-09
-2.467828e-09 -6.311426e-09 -3.358129e-09 -4.173565e-09 -2.586917e-09 -5.648705e-09 -4.333101e-09 -4.209960e-09 -6.248488e-09 -2.941052e-09
-5.195182e-09 -5.858260e-09 -3.945277e-09 -6.456140e-09 -7.640302e-09 -8.040235e-09 -7.049236e-09 -8.725547e-09 -8.160918e-09 -8.653983e-09
-1.185160e-08 -9.169643e-09 -7.406032e-09 -9.286627e-09 -9.039933e-09 -7.357978e-09 -1.047020e-08 -9.386891e-09 -9.922275e-09 -9.391608e-09
-1.000138e-08 -1.012660e-08 -1.118495e-08 -1.145515e-08 -1.125458e-08 -1.337013e-08 -1.371978e-08 -1.503216e-08 -1.301462e-08 -1.571143e-08
-1.262285e-08 -1.221203e-08 -1.194311e-08 -1.292310e-08 -1.486235e-08 -1.320104e-08 -1.351942e-08 -1.503941e-08 -1.483158e-08 -1.412966e-08
-1.558935e-08 -1.595388e-08 -1.429485e-08 -1.449056e-08 -1.539673e-08 -1.630744e-08 -1.664488e-08 -1.489607e-08 -1.474876e-08 -1.667498e-08
-1.557233e-08 -1.638742e-08 -1.753988e-08 -1.566604e-08 -1.496745e-08 -1.563700e-08 -1.561138e-08 -1.670538e-08 -1.614983e-08 -1.520207e-08
-1.486824e-08 -1.503035e-08 -1.551042e-08 -1.570461e-08 -1.621578e-08 -1.716647e-08 -1.475971e-08 -1.594583e-08 -1.710939e-08 -1.721943e-08
-1.540814e-08 -1.496848e-08 -1.548340e-08 -1.524315e-08 -1.783292e-08 -1.703977e-08 -1.729145e-08 -1.583064e-08 -1.580997e-08 -1.542224e-08
-1.685326e-08 -1.779339e-08 -1.639025e-08 -1.577688e-08 -1.533058e-08 -1.654417e-08 -1.541417e-08 -1.602187e-08 -1.593856e-08 -1.663760e-08
-1.650086e-08 -1.538142e-08 -1.600464e-08 -1.518115e-08 -1.513659e-08 -1.496908e-08 -1.642639e-08 -1.468281e-08 -1.710964e-08 -1.508573e-08
-1.572742e-08 -1.516450e-08 -1.571584e-08 -1.592800e-08 -1.435374e-08 -1.386889e-08 -1.529615e-08 -1.349101e-08 -1.358724e-08 -1.346671e-08
-1.409083e-08 -1.381631e-08 -1.301026e-08 -1.252957e-08 -1.213779e-08 -1.261491e-08 -1.169754e-08 -1.113833e-08 -1.216363e-08 -1.158352e-08
-1.045678e-08 -1.004963e-08 -9.924889e-09 -9.768133e-09 -1.079087e-08 -9.757443e-09 -1.069316e-08 -9.678852e-09 -1.042156e-08 -1.061233e-08
-9.262301e-09 -9.785462e-09 -8.581140e-09 -8.384000e-09 -8.417482e-09 -6.780173e-09 -6.381757e-09 -4.843819e-09 -5.160226e-09 -7.919289e-09
-5.580166e-09 -5.939097e-09 -6.990557e-09 -4.569237e-09 -3.945955e-09 -4.590754e-09 -3.390823e-09 -3.609648e-09 -4.674670e-09 -2.528995e-09
-2.157283e-09 -3.237957e-09 -2.295343e-09 -1.037216e-10 -1.285676e-09 -2.813681e-09 1.586570e-09 -7.160688e-10 -3.732085e-10 7.738056e-10
-8.675023e-10
2.166545e-09 6.128372e-10 2.779229e-09 2.434863e-10 7.571706e-10 5.773080e-10 1.756831e-09 1.429448e-09 3.506514e-09 1.899839e-09
4.374472e-09 3.223191e-09 3.684058e-09 2.987972e-09 1.754124e-09 5.262538e-09 4.811347e-09 5.977748e-09 5.775288e-09 4.347220e-09
5.815838e-09 6.627870e-09 6.999194e-09 7.552206e-09 6.176975e-09 8.470455e-09 6.719494e-09 7.005694e-09 7.732326e-09 8.591340e-09
8.663045e-09 8.290750e-09 8.944092e-09 9.784134e-09 9.747050e-09 1.126451e-08 9.835543e-09 1.015945e-08 1.061495e-08 1.241898e-08
1.106810e-08 1.095776e-08 1.134298e-08 1.043189e-08 1.110384e-08 1.328663e-08 1.361215e-08 1.296766e-08 1.351533e-08 1.435276e-08
1.400845e-08 1.428678e-08 1.480150e-08 1.412394e-08 1.423375e-08 1.386693e-08 1.466014e-08 1.402918e-08 1.426792e-08 1.486329e-08
1.452870e-08 1.672233e-08 1.388181e-08 1.583587e-08 1.438752e-08 1.591898e-08 1.600367e-08 1.505012e-08 1.702861e-08 1.563411e-08
1.562081e-08 1.601395e-08 1.572751e-08 1.549983e-08 1.542361e-08 1.530869e-08 1.537015e-08 1.471538e-08 1.532939e-08 1.610622e-08
1.524180e-08 1.532749e-08 1.553696e-08 1.538050e-08 1.638942e-08 1.492487e-08 1.541282e-08 1.549868e-08 1.513972e-08 1.586729e-08
1.610143e-08 1.607355e-08 1.675790e-08 1.518800e-08 1.723596e-08 1.737937e-08 1.643014e-08 1.501817e-08 1.650392e-08 1.523266e-08
1.589516e-08 1.607265e-08 1.744385e-08 1.587925e-08 1.789019e-08 1.466914e-08 1.633319e-08 1.510446e-08 1.723957e-08 1.522871e-08
1.644849e-08 1.528412e-08 1.626731e-08 1.594916e-08 1.541235e-08 1.671053e-08 1.547046e-08 1.536114e-08 1.657214e-08 1.543317e-08
1.404344e-08 1.492624e-08 1.513751e-08 1.426378e-08 1.512150e-08 1.380700e-08 1.407477e-08 1.312918e-08 1.287724e-08 1.233262e-08
1.253212e-08 1.288517e-08 1.264196e-08 1.196313e-08 1.162717e-08 1.138121e-08 1.185545e-08 1.147685e-08 1.261068e-08 1.197887e-08
1.157314e-08 1.139972e-08 9.790319e-09 1.049754e-08 9.680060e-09 9.234746e-09 8.138058e-09 9.204732e-09 9.325618e-09 7.805338e-09
8.436813e-09 8.490234e-09 7.991180e-09 6.981208e-09 4.539623e-09 7.839732e-09 6.863284e-09 7.428274e-09 5.005016e-09 7.591792e-09
5.182468e-09 5.406681e-09 7.779044e-09 3.492527e-09 3.501073e-09 3.682199e-09 3.629331e-09 2.972681e-09 3.799273e-09 2.073606e-09
3.345233e-09 3.698315e-09 1.271277e-09 1.877884e-09 1.855237e-09 2.331765e-09 1.391925e-09 -1.015082e-09 2.044194e-09 -1.475970e-09
9.990016e-11 -3.701547e-10 1.218856e-09 1.971071e-10 -1.968081e-09 -2.637858e-10 -9.266652e-10 -4.687104e-09 -3.263669e-09 -4.106430e-09
-4.651876e-10 -2.387076e-09 -2.859921e-09 -1.811798e-09 -4.104128e-09 -4.143454e-09 -6.199249e-09 -5.467026e-09 -2.403638e-09 -5.578800e-09
-4.333513e-09 -6.209993e-09 -7.737033e-09 -6.338154e-09 -4.905833e-09 -7.603371e-09 -6.158662e-09 -6.527189e-09 -8.504797e-09 -9.345865e-09
-7.192600e-09 -9.295313e-09 -8.127038e-09 -7.357130e-09 -9.430774e-09 -1.056926e-08 -1.019732e-08 -8.870166e-09 -1.100499e-08 -1.120416e-08
-1.076261e-08 -1.137310e-08 -1.067809e-08 -1.226858e-08 -1.183570e-08 -1.177197e-08 -1.255966e-08 -1.222031e-08 -1.349255e-08 -1.367942e-08
-1.439762e-08 -1.427828e-08 -1.327496e-08 -1.175463e-08 -1.377007e-08 -1.275721e-08 -1.370405e-08 -1.529522e-08 -1.420492e-08 -1.535945e-08
-1.387975e-08 -1.383150e-08 -1.409217e-08 -1.456867e-08 -1.467406e-08 -1.522848e-08 -1.538334e-08 -1.472260e-08 -1.569441e-08 -1.533836e-08
-1.516131e-08 -1.553382e-08 -1.609055e-08 -1.620119e-08 -1.538148e-08 -1.556280e-08 -1.556261e-08 -1.574681e-08 -1.496863e-08 -1.517708e-08
-1.522691e-08 -1.564113e-08 -1.640410e-08 -1.632596e-08 -1.591315e-08 -1.635901e-08 -1.659803e-08 -1.712170e-08 -1.556459e-08 -1.714366e-08
-1.479559e-08 -1.632841e-08 -1.562513e-08 -1.570077e-08 -1.531704e-08 -1.682626e-08 -1.539573e-08 -1.618724e-08 -1.494333e-08 -1.572527e-08
-1.692215e-08 -1.676628e-08 -1.589602e-08 -1.571443e-08 -1.701804e-08 -1.555338e-08 -1.514241e-08 -1.472458e-08 -1.500186e-08 -1.665151e-08
-1.566119e-08 -1.542633e-08 -1.518968e-08 -1.541237e-08 -1.468660e-08 -1.576614e-08 -1.514581e-08 -1.518454e-08 -1.505718e-08 -1.483993e-08
-1.399421e-08 -1.483931e-08 -1.433952e-08 -1.423359e-08 -1.417636e-08 -1.365524e-08 -1.462479e-08 -1.585603e-08 -1.438783e-08 -1.380264e-08
-1.380588e-08 -1.465333e-08 -1.316394e-08 -1.319293e-08 -1.414096e-08 -1.105863e-08 -1.166733e-08 -1.257630e-08 -1.040014e-08 -1.302218e-08
-1.206628e-08 -1.151052e-08 -1.100926e-08 -9.326789e-09 -1.006069e-08 -1.044379e-08 -8.404954e-09 -8.949407e-09 -1.063593e-08 -7.768526e-09
-9.455859e-09 -9.012429e-09 -8.651191e-09 -6.725580e-09 -7.411663e-09 -5.841460e-09 -8.027553e-09 -7.934650e-09 -5.609128e-09 -5.801240e-09
-6.337301e-09 -6.743672e-09 -4.908339e-09 -4.913149e-09 -4.105607e-09 -3.256151e-09 -2.906129e-09 -3.535957e-09 -3.629421e-09 -4.154945e-09
-2.149996e-09 -1.731901e-09 -2.424817e-09 -1.258250e-09 -1.588356e-10 -1.232460e-09 -6.390073e-10 1.030731e-09 -2.488772e-10 -1.697351e-09
2.166545e-09
-1.705982e-09 -1.070608e-09 -5.986251e-10 1.547379e-09 6.726246e-10 1.289728e-09 3.716237e-09 1.799301e-09 1.719275e-09 1.104363e-09
3.922955e-09 3.016460e-09 4.063241e-09 3.338289e-09 4.244657e-09 3.967937e-09 6.253645e-09 4.899859e-09 5.701335e-09 4.727480e-09
5.774103e-09 7.412808e-09 5.007752e-09 5.203848e-09 5.739022e-09 7.634987e-09 7.519280e-09 8.062734e-09 7.799962e-09 7.515957e-09
7.266176e-09 7.726645e-09 9.156853e-09 8.773678e-09 8.179351e-09 8.535046e-09 9.067040e-09 1.106465e-08 8.096129e-09 1.119399e-08
1.051826e-08 1.130646e-08 1.205119e-08 1.099705e-08 1.195495e-08 1.148059e-08 1.204979e-08 1.188619e-08 1.352249e-08 1.296843e-08
1.189561e-08 1.279945e-08 1.311662e-08 1.330379e-08 1.315259e-08 1.484473e-08 1.535429e-08 1.427300e-08 1.475479e-08 1.436211e-08
1.561970e-08 1.430945e-08 1.384602e-08 1.577551e-08 1.567685e-08 1.430112e-08 1.525145e-08 1.545163e-08 1.627724e-08 1.531766e-08
1.490552e-08 1.570573e-08 1.603491e-08 1.540989e-08 1.619573e-08 1.450909e-08 1.459762e-08 1.465265e-08 1.529902e-08 1.569286e-08
1.633930e-08 1.498891e-08 1.500837e-08 1.597368e-08 1.488674e-08 1.540551e-08 1.573657e-08 1.598067e-08 1.483834e-08 1.635013e-08
1.470917e-08 1.428862e-08 1.654635e-08 1.445840e-08 1.486674e-08 1.463386e-08 1.525557e-08 1.607326e-08 1.604733e-08 1.550164e-08
1.738963e-08 1.457659e-08 1.591732e-08 1.562285e-08 1.663020e-08 1.481877e-08 1.535635e-08 1.653292e-08 1.492262e-08 1.550064e-08
1.561090e-08 1.558241e-08 1.414348e-08 1.648807e-08 1.474820e-08 1.482459e-08 1.560254e-08 1.369063e-08 1.421229e-08 1.574712e-08
1.495910e-08 1.540770e-08 1.313834e-08 1.491403e-08 1.527751e-08 1.292167e-08 1.339103e-08 1.350640e-08 1.215857e-08 1.312964e-08
1.218658e-08 1.255463e-08 1.208000e-08 1.173926e-08 1.310991e-08 1.250599e-08 1.181696e-08 1.175850e-08 1.169088e-08 9.733335e-09
1.002301e-08 1.090699e-08 1.029343e-08 9.382094e-09 8.616802e-09 7.465593e-09 8.589020e-09 7.704585e-09 8.848089e-09 7.075843e-09
8.615308e-09 8.241078e-09 7.342680e-09 6.024910e-09 6.731712e-09 6.654629e-09 5.845337e-09 7.033996e-09 5.388233e-09 5.769457e-09
5.022838e-09 4.087343e-09 5.597433e-09 4.392108e-09 2.201219e-09 4.905574e-09 3.316825e-09 3.712692e-09 2.280355e-09 3.620000e-09
1.100933e-09 1.641362e-09 2.986569e-09 2.287152e-09 1.716330e-09 2.091318e-09 3.933184e-10 5.380679e-10 -6.683437e-10 -3.034465e-10
-1.807731e-09 -1.230201e-09 3.432529e-10 -1.450228e-09 4.726384e-10 -1.295809e-09 -1.974763e-09 -1.327057e-09 -2.798632e-09 -1.046150e-09
-1.723090e-09 -2.980017e-09 -4.858069e-09 -3.412890e-09 -4.085474e-09 -4.072155e-09 -5.883781e-09 -3.680860e-09 -4.190426e-09 -4.622430e-09
-4.718522e-09 -4.823372e-09 -5.477717e-09 -9.502485e-09 -7.068575e-09 -6.693385e-09 -8.267055e-09 -6.853887e-09 -8.724840e-09 -7.112213e-09
-7.075049e-09 -8.149610e-09 -9.106188e-09 -9.423840e-09 -1.002060e-08 -8.722159e-09 -1.039596e-08 -1.074831e-08 -1.121247e-08 -1.089300e-08
-9.744122e-09 -1.033746e-08 -1.198192e-08 -1.093967e-08 -1.251556e-08 -1.202386e-08 -1.260085e-08 -1.316159e-08 -1.293408e-08 -1.210950e-08
-1.294173e-08 -1.305988e-08 -1.215487e-08 -1.274721e-08 -1.373079e-08 -1.358647e-08 -1.432054e-08 -1.506094e-08 -1.395431e-08 -1.312014e-08
-1.478329e-08 -1.439346e-08 -1.380764e-08 -1.428374e-08 -1.504609e-08 -1.491321e-08 -1.486332e-08 -1.603612e-08 -1.533461e-08 -1.493759e-08
-1.530907e-08 -1.700640e-08 -1.637044e-08 -1.580730e-08 -1.489319e-08 -1.652504e-08 -1.684150e-08 -1.543512e-08 -1.592614e-08 -1.532971e-08
-1.425777e-08 -1.596641e-08 -1.491799e-08 -1.630218e-08 -1.470888e-08 -1.558937e-08 -1.504044e-08 -1.531745e-08 -1.541953e-08 -1.505144e-08
-1.496887e-08 -1.663611e-08 -1.484415e-08 -1.518760e-08 -1.639967e-08 -1.702300e-08 -1.574202e-08 -1.501145e-08 -1.432205e-08 -1.721259e-08
-1.509562e-08 -1.620765e-08 -1.464829e-08 -1.469906e-08 -1.700081e-08 -1.554290e-08 -1.507782e-08 -1.534167e-08 -1.432407e-08 -1.590323e-08
-1.710486e-08 -1.507829e-08 -1.610225e-08 -1.518852e-08 -1.671137e-08 -1.458398e-08 -1.445032e-08 -1.571615e-08 -1.648158e-08 -1.473481e-08
-1.337539e-08 -1.472676e-08 -1.471526e-08 -1.491973e-08 -1.517572e-08 -1.298910e-08 -1.430318e-08 -1.336554e-08 -1.414716e-08 -1.291226e-08
-1.271814e-08 -1.380309e-08 -1.237867e-08 -1.348010e-08 -1.124803e-08 -1.288187e-08 -1.241652e-08 -1.238396e-08 -1.223841e-08 -1.187391e-08
-1.074359e-08 -9.325449e-09 -1.052413e-08 -1.125362e-08 -8.293642e-09 -8.279593e-09 -8.325249e-09 -1.056785e-08 -8.182320e-09 -7.336501e-09
-8.830127e-09 -7.015957e-09 -9.419651e-09 -6.230117e-09 -5.789117e-09 -6.788499e-09 -5.547850e-09 -4.448979e-09 -4.619061e-09 -6.024135e-09
-6.523366e-09 -5.119723e-09 -7.017542e-09 -5.394263e-09 -3.816292e-09 -4.958875e-09 -3.266015e-09 -3.947531e-09 -2.977941e-09 -2.868379e-09
-1.509165e-09 -2.339714e-11 -1.023480e-09 -1.182966e-09 -1.716746e-09 -1.387490e-09 5.152139e-10 -5.356491e-10 9.647488e-11 -1.430863e-09
-1.705982e-09
9.054453e-10 2.003695e-09 -1.576886e-09 1.536871e-09 2.159441e-09 1.363970e-09 4.090744e-09 2.254890e-09 3.753670e-09 2.490483e-09
1.077230e-09 4.963670e-09 2.908754e-09 2.801273e-09 4.751570e-09 4.112351e-09 4.995581e-09 4.013220e-09 3.825995e-09 6.096535e-09
3.993541e-09 5.444593e-09 6.269729e-09 7.652400e-09 8.168381e-09 5.725262e-09 6.613798e-09 7.137905e-09 9.020668e-09 5.155383e-09
7.447073e-09 7.952418e-09 9.413784e-09 9.820460e-09 8.913532e-09 9.888327e-09 8.982114e-09 9.651461e-09 1.146325e-08 1.035904e-08
1.053178e-08 1.071413e-08 1.127048e-08 1.076706e-08 1.150883e-08 1.247396e-08 1.318052e-08 1.072988e-08 1.146922e-08 1.201357e-08
1.379293e-08 1.335089e-08 1.333737e-08 1.217530e-08 1.339220e-08 1.364808e-08 1.491807e-08 1.484543e-08 1.325443e-08 1.396671e-08
1.337715e-08 1.475907e-08 1.304500e-08 1.380514e-08 1.547280e-08 1.462489e-08 1.515169e-08 1.422082e-08 1.572843e-08 1.399156e-08
1.466481e-08 1.452103e-08 1.567337e-08 1.642403e-08 1.604895e-08 1.580440e-08 1.500292e-08 1.498697e-08 1.571576e-08 1.615163e-08
1.543767e-08 1.510944e-08 1.510120e-08 1.597643e-08 1.455079e-08 1.442346e-08 1.518880e-08 1.461757e-08 1.714081e-08 1.535289e-08
1.578239e-08 1.555795e-08 1.497766e-08 1.630926e-08 1.411856e-08 1.474091e-08 1.535807e-08 1.512398e-08 1.740593e-08 1.433484e-08
1.687135e-08 1.650687e-08 1.523994e-08 1.551963e-08 1.432580e-08 1.573121e-08 1.530377e-08 1.463780e-08 1.619311e-08 1.390287e-08
1.499837e-08 1.513530e-08 1.374539e-08 1.381524e-08 1.598003e-08 1.387852e-08 1.452900e-08 1.358569e-08 1.346596e-08 1.425983e-08
1.404647e-08 1.365260e-08 1.383763e-08 1.524111e-08 1.490340e-08 1.366852e-08 1.256949e-08 1.394627e-08 1.258489e-08 1.185364e-08
1.396534e-08 1.244321e-08 1.277742e-08 1.423687e-08 1.220999e-08 1.283503e-08 1.102654e-08 1.056609e-08 1.154221e-08 9.968282e-09
1.161768e-08 1.111822e-08 9.342242e-09 9.518240e-09 9.508382e-09 7.967920e-09 1.082374e-08 1.060462e-08 8.312589e-09 8.774905e-09
8.400057e-09 8.223259e-09 7.776038e-09 8.205995e-09 5.725709e-09 4.415140e-09 7.680402e-09 5.002259e-09 5.978524e-09 5.855878e-09
5.421299e-09 5.704611e-09 4.450434e-09 5.643822e-09 5.214444e-09 2.990992e-09 3.174683e-09 2.368991e-09 3.573980e-09 4.871300e-09
8.768991e-10 3.191940e-09 3.754356e-09 6.348111e-10 7.657455e-10 1.742228e-09 3.335277e-10 8.115513e-10 -1.441787e-09 2.644237e-09
-1.143560e-09 -6.196885e-10 1.186005e-10 -1.795978e-09 -1.046161e-09 -3.399456e-09 -1.630796e-09 -2.076047e-09 -4.520722e-10 -1.769642e-09
-4.587354e-09 -1.081303e-09 -4.090726e-09 -3.514518e-09 -5.484791e-09 -4.027476e-09 -1.644207e-09 -4.398491e-09 -4.311451e-09 -4.522828e-09
-4.980711e-09 -3.455279e-09 -4.923636e-09 -7.146161e-09 -5.416805e-09 -5.937844e-09 -7.138920e-09 -7.076826e-09 -7.188464e-09 -7.752068e-09
-7.096167e-09 -8.140215e-09 -9.752462e-09 -8.006250e-09 -9.864342e-09 -9.864369e-09 -8.391694e-09 -1.086023e-08 -9.645621e-09 -1.189955e-08
-1.163831e-08 -1.003019e-08 -1.019187e-08 -1.050621e-08 -1.291603e-08 -1.045812e-08 -1.154615e-08 -1.175770e-08 -1.224265e-08 -1.265747e-08
-1.367168e-08 -1.465812e-08 -1.252313e-08 -1.377133e-08 -1.296976e-08 -1.332575e-08 -1.351419e-08 -1.310098e-08 -1.388792e-08 -1.441770e-08
-1.379501e-08 -1.580154e-08 -1.521871e-08 -1.465136e-08 -1.419838e-08 -1.486002e-08 -1.477772e-08 -1.422244e-08 -1.453951e-08 -1.438349e-08
-1.461868e-08 -1.511922e-08 -1.521375e-08 -1.565232e-08 -1.625725e-08 -1.531811e-08 -1.669203e-08 -1.424032e-08 -1.635601e-08 -1.585001e-08
-1.529811e-08 -1.647224e-08 -1.422304e-08 -1.534338e-08 -1.666952e-08 -1.390847e-08 -1.588159e-08 -1.473547e-08 -1.610185e-08 -1.675530e-08
-1.411608e-08 -1.553487e-08 -1.539111e-08 -1.604691e-08 -1.436171e-08 -1.538628e-08 -1.430710e-08 -1.608596e-08 -1.555548e-08 -1.394501e-08
-1.542728e-08 -1.588453e-08 -1.409990e-08 -1.438291e-08 -1.496201e-08 -1.535925e-08 -1.457671e-08 -1.423852e-08 -1.531014e-08 -1.588638e-08
-1.542623e-08 -1.599539e-08 -1.504545e-08 -1.438925e-08 -1.517471e-08 -1.395250e-08 -1.497266e-08 -1.550242e-08 -1.373526e-08 -1.328940e-08
-1.445111e-08 -1.387568e-08 -1.306675e-08 -1.299499e-08 -1.299092e-08 -1.472977e-08 -1.411208e-08 -1.234780e-08 -1.311256e-08 -1.271093e-08
-1.297537e-08 -1.279582e-08 -1.333730e-08 -1.258335e-08 -1.194629e-08 -1.070527e-08 -1.258558e-08 -1.258473e-08 -1.125164e-08 -1.074175e-08
-1.056044e-08 -1.082887e-08 -1.078340e-08 -9.526876e-09 -9.209741e-09 -9.193095e-09 -8.167252e-09 -1.034530e-08 -8.349933e-09 -8.738189e-09
-8.462725e-09 -7.794944e-09 -7.685162e-09 -6.864898e-09 -7.250044e-09 -6.445996e-09 -6.080207e-09 -5.050646e-09 -7.198121e-09 -5.610320e-09
-5.574829e-09 -4.613970e-09 -5.027432e-09 -4.542576e-09 -5.372387e-09 -5.161005e-09 -3.219405e-09 -3.275365e-09 -3.406588e-09 -4.359781e-09
-2.947724e-09 -1.627937e-09 -2.242851e-09 -2.957660e-09 -1.154660e-10 -3.566210e-09 -8.884443e-10 -1.137855e-09 -3.723800e-10 -9.902892e-10
9.054453e-10
1.839863e-09 -1.994490e-10 8.694578e-10 8.611473e-10 1.076003e-09 1.201590e-09 2.128479e-09 2.701016e-09 2.098884e-09 2.632683e-09
4.053276e-09 4.567623e-09 3.567481e-09 5.038482e-09 4.167610e-09 2.045115e-09 4.530363e-09 5.511346e-09 4.400019e-09 7.935772e-09
6.045437e-09 4.679236e-09 5.588768e-09 5.837519e-09 6.791880e-09 7.817290e-09 8.563318e-09 6.463774e-09 7.831930e-09 6.508718e-09
7.196991e-09 9.037517e-09 8.447244e-09 9.541810e-09 7.203567e-09 8.970241e-09 8.863426e-09 1.051986e-08 1.006468e-08 1.094374e-08
9.642185e-09 1.115338e-08 1.079601e-08 1.104349e-08 1.271976e-08 1.133651e-08 1.071674e-08 1.051427e-08 1.196397e-08 1.328662e-08
1.173327e-08 1.330273e-08 1.335682e-08 1.243323e-08 1.425161e-08 1.269526e-08 1.305492e-08 1.391523e-08 1.288811e-08 1.302635e-08
1.298396e-08 1.532995e-08 1.381500e-08 1.339169e-08 1.470884e-08 1.387090e-08 1.410494e-08 1.454915e-08 1.494506e-08 1.353151e-08
1.675131e-08 1.517037e-08 1.420326e-08 1.417132e-08 1.581839e-08 1.563551e-08 1.594708e-08 1.402567e-08 1.527951e-08 1.390905e-08
1.508417e-08 1.393665e-08 1.518185e-08 1.502070e-08 1.463853e-08 1.628721e-08 1.457022e-08 1.438110e-08 1.490069e-08 1.638385e-08
1.512447e-08 1.535200e-08 1.481853e-08 1.457728e-08 1.424064e-08 1.526633e-08 1.538384e-08 1.581467e-08 1.504524e-08 1.500140e-08
1.430693e-08 1.487157e-08 1.525449e-08 1.522075e-08 1.535246e-08 1.393094e-08 1.522983e-08 1.427709e-08 1.553124e-08 1.438709e-08
1.443285e-08 1.482127e-08 1.508245e-08 1.387046e-08 1.466222e-08 1.597016e-08 1.401260e-08 1.345184e-08 1.578825e-08 1.509521e-08
1.395456e-08 1.358441e-08 1.441420e-08 1.326627e-08 1.437789e-08 1.376557e-08 1.365924e-08 1.270740e-08 1.401674e-08 1.226602e-08
1.409915e-08 1.206840e-08 1.164439e-08 1.358000e-08 1.034624e-08 1.057882e-08 1.055704e-08 1.235044e-08 9.522670e-09 9.410544e-09
9.356139e-09 1.043609e-08 9.634320e-09 8.483130e-09 8.443391e-09 8.187317e-09 8.747959e-09 7.828956e-09 8.286081e-09 9.536831e-09
9.122608e-09 6.957722e-09 6.810245e-09 6.564976e-09 4.789236e-09 5.702208e-09 5.683321e-09 6.470923e-09 5.359377e-09 4.819749e-09
5.655055e-09 4.010015e-09 4.831939e-09 3.406769e-09 4.270783e-09 4.476015e-09 3.881001e-09 4.537402e-09 3.077947e-09 1.439443e-09
4.291948e-10 1.735483e-09 2.312624e-09 2.343447e-09 1.352832e-09 7.085304e-10 2.267732e-09 1.530358e-09 2.182120e-09 3.134356e-10
-9.866161e-10 2.312631e-09 1.013264e-09 -1.102948e-09 1.533974e-09 4.084851e-11 -2.075643e-09 -2.018486e-09 -1.141636e-09 -2.038180e-09
-1.558552e-09 -1.982430e-09 -5.026067e-09 -4.407366e-09 -3.174174e-09 -3.858545e-09 -4.142862e-09 -4.044949e-09 -5.355953e-09 -5.008889e-09
-6.607307e-09 -5.571913e-09 -5.726412e-09 -5.950027e-09 -5.957520e-09 -6.635231e-09 -7.346210e-09 -7.491968e-09 -6.735193e-09 -7.628056e-09
-7.319125e-09 -6.372835e-09 -7.567505e-09 -7.276029e-09 -9.615562e-09 -1.012595e-08 -8.809450e-09 -9.768104e-09 -9.442108e-09 -9.676302e-09
-9.131383e-09 -1.033765e-08 -1.099341e-08 -1.266381e-08 -9.975490e-09 -1.012629e-08 -1.226618e-08 -1.195832e-08 -1.143947e-08 -1.232368e-08
-1.309995e-08 -1.214413e-08 -1.554808e-08 -1.325217e-08 -1.281204e-08 -1.450440e-08 -1.327414e-08 -1.467473e-08 -1.381880e-08 -1.338754e-08
-1.326060e-08 -1.529211e-08 -1.403849e-08 -1.518748e-08 -1.329199e-08 -1.424839e-08 -1.524525e-08 -1.552179e-08 -1.527984e-08 -1.441909e-08
-1.402238e-08 -1.412486e-08 -1.451631e-08 -1.365493e-08 -1.415528e-08 -1.445618e-08 -1.491513e-08 -1.617813e-08 -1.491630e-08 -1.603678e-08
-1.433911e-08 -1.525350e-08 -1.566147e-08 -1.548649e-08 -1.534376e-08 -1.504371e-08 -1.499398e-08 -1.515849e-08 -1.473289e-08 -1.368302e-08
-1.417758e-08 -1.504118e-08 -1.539886e-08 -1.664242e-08 -1.505288e-08 -1.451484e-08 -1.559170e-08 -1.395075e-08 -1.481667e-08 -1.511445e-08
-1.463914e-08 -1.545475e-08 -1.402293e-08 -1.391995e-08 -1.509985e-08 -1.467418e-08 -1.440033e-08 -1.418716e-08 -1.433057e-08 -1.427641e-08
-1.443583e-08 -1.418341e-08 -1.429111e-08 -1.459938e-08 -1.594586e-08 -1.401510e-08 -1.442672e-08 -1.422094e-08 -1.497893e-08 -1.344428e-08
-1.465960e-08 -1.549037e-08 -1.435344e-08 -1.408281e-08 -1.305622e-08 -1.560333e-08 -1.536784e-08 -1.242185e-08 -1.122873e-08 -1.295261e-08
-1.394266e-08 -1.245777e-08 -1.201782e-08 -1.240750e-08 -1.358169e-08 -1.221976e-08 -1.162590e-08 -1.036690e-08 -8.764251e-09 -1.126260e-08
-9.504681e-09 -1.145368e-08 -1.045198e-08 -1.137133e-08 -7.636424e-09 -1.071630e-08 -9.744244e-09 -9.279507e-09 -8.711836e-09 -8.633464e-09
-8.249948e-09 -7.353043e-09 -6.129957e-09 -7.069175e-09 -5.649692e-09 -6.068260e-09 -4.661204e-09 -7.019483e-09 -7.640684e-09 -3.433660e-09
-5.574905e-09 -4.918399e-09 -4.920266e-09 -3.845475e-09 -4.265213e-09 -5.492250e-09 -3.278815e-09 -2.511688e-09 -3.333106e-09 -1.571752e-09
-2.248795e-09 -1.296207e-09 -2.098732e-09 -1.441036e-09 1.008877e-09 4.468061e-10 -9.950150e-10 -1.115849e-10 -1.032983e-09 -2.042211e-09
1.839863e-09
1.104168e-09 1.682269e-09 3.081217e-09 1.709679e-09 1.220290e-09 1.360768e-09 2.633840e-09 3.440346e-09 2.456848e-09 2.140108e-09
4.359038e-09 2.633157e-09 2.118651e-09 4.935403e-09 6.127997e-09 5.622029e-09 3.342948e-09 5.186244e-09 5.969356e-09 7.783916e-09
4.470199e-09 5.944040e-09 6.234522e-09 6.421159e-09 5.275243e-09 7.390684e-09 7.838879e-09 5.907549e-09 7.595524e-09 7.528713e-09
9.129881e-09 8.419252e-09 6.718655e-09 8.409636e-09 8.861009e-09 8.467314e-09 8.170257e-09 8.876667e-09 9.123082e-09 9.361680e-09
1.079787e-08 1.237056e-08 9.935730e-09 1.167080e-08 1.167638e-08 1.149417e-08 1.139708e-08 1.303657e-08 1.224942e-08 1.236200e-08
1.217850e-08 1.314145e-08 1.179708e-08 1.276073e-08 1.285796e-08 1.376446e-08 1.381823e-08 1.286638e-08 1.350544e-08 1.247643e-08
1.347154e-08 1.268660e-08 1.435446e-08 1.343294e-08 1.386590e-08 1.481413e-08 1.427480e-08 1.320844e-08 1.307367e-08 1.542735e-08
1.315261e-08 1.586296e-08 1.443282e-08 1.452138e-08 1.428337e-08 1.613918e-08 1.457436e-08 1.537404e-08 1.393044e-08 1.367151e-08
1.407353e-08 1.479217e-08 1.583841e-08 1.351401e-08 1.444546e-08 1.378284e-08 1.403506e-08 1.525253e-08 1.580424e-08 1.327431e-08
1.478147e-08 1.397195e-08 1.508316e-08 1.478776e-08 1.672720e-08 1.387041e-08 1.502150e-08 1.435653e-08 1.413353e-08 1.349095e-08
1.516971e-08 1.357758e-08 1.598383e-08 1.448208e-08 1.438417e-08 1.411645e-08 1.515269e-08 1.525633e-08 1.380342e-08 1.377413e-08
1.431990e-08 1.501925e-08 1.481455e-08 1.623060e-08 1.414236e-08 1.404937e-08 1.502739e-08 1.360971e-08 1.412402e-08 1.418324e-08
1.301803e-08 1.468827e-08 1.385473e-08 1.246948e-08 1.437616e-08 1.273644e-08 1.333797e-08 1.298216e-08 1.332126e-08 1.206272e-08
1.286131e-08 1.278831e-08 1.269225e-08 1.077919e-08 1.092029e-08 1.046721e-08 9.889273e-09 1.030537e-08 1.162125e-08 1.058593e-08
8.374591e-09 1.023812e-08 1.100851e-08 8.860541e-09 8.682574e-09 1.011421e-08 9.643089e-09 9.064796e-09 8.158878e-09 6.148988e-09
6.350154e-09 8.995488e-09 4.595706e-09 7.272636e-09 5.812348e-09 6.459202e-09 6.097614e-09 5.790934e-09 5.047696e-09 5.541766e-09
4.058471e-09 4.968002e-09 3.795197e-09 3.400321e-09 3.314057e-09 3.569546e-09 2.065100e-09 2.902095e-09 4.143558e-09 2.223257e-09
3.582357e-09 1.877261e-09 1.548234e-09 6.658303e-10 1.454648e-09 1.254662e-09 2.005777e-09 -9.933935e-10 -7.031016e-10 2.057153e-10
-7.263432e-11 -1.814961e-09 7.226472e-11 -1.975116e-09 -1.133950e-09 1.234779e-09 -2.202681e-09 -1.541298e-09 -1.875723e-09 -1.553363e-09
-2.127911e-09 -8.618249e-10 -2.464468e-09 -3.072168e-09 -4.599911e-09 -3.438219e-09 -4.915160e-09 -3.672727e-09 -3.733594e-09 -4.597711e-09
-5.469543e-09 -6.788343e-09 -5.242083e-09 -7.209059e-09 -5.298335e-09 -7.336890e-09 -7.644204e-09 -6.684671e-09 -7.446785e-09 -7.832230e-09
-6.366344e-09 -9.869548e-09 -8.582428e-09 -9.704469e-09 -7.791630e-09 -9.140343e-09 -1.055439e-08 -9.806949e-09 -9.351314e-09 -9.906572e-09
-1.133017e-08 -1.074060e-08 -1.017306e-08 -1.062592e-08 -9.892563e-09 -1.134640e-08 -1.177378e-08 -1.171994e-08 -1.197885e-08 -1.212059e-08
-1.171255e-08 -1.340854e-08 -1.222316e-08 -1.445355e-08 -1.286848e-08 -1.250820e-08 -1.304587e-08 -1.204896e-08 -1.388796e-08 -1.332387e-08
-1.486163e-08 -1.324750e-08 -1.297014e-08 -1.350782e-08 -1.452987e-08 -1.412160e-08 -1.374825e-08 -1.479339e-08 -1.424086e-08 -1.367392e-08
-1.507430e-08 -1.393327e-08 -1.448401e-08 -1.345407e-08 -1.518051e-08 -1.596419e-08 -1.503278e-08 -1.494166e-08 -1.545131e-08 -1.564832e-08
-1.383719e-08 -1.634547e-08 -1.330855e-08 -1.386239e-08 -1.577811e-08 -1.588404e-08 -1.472764e-08 -1.492498e-08 -1.502081e-08 -1.473070e-08
-1.416806e-08 -1.479432e-08 -1.469143e-08 -1.525567e-08 -1.419962e-08 -1.456711e-08 -1.507984e-08 -1.397693e-08 -1.492508e-08 -1.557317e-08
-1.457258e-08 -1.533517e-08 -1.571099e-08 -1.479615e-08 -1.382715e-08 -1.544710e-08 -1.520450e-08 -1.544501e-08 -1.407315e-08 -1.370750e-08
-1.409679e-08 -1.497683e-08 -1.276878e-08 -1.452833e-08 -1.529012e-08 -1.341325e-08 -1.490547e-08 -1.356642e-08 -1.457243e-08 -1.350235e-08
-1.219771e-08 -1.369724e-08 -1.345306e-08 -1.515127e-08 -1.301433e-08 -1.295378e-08 -1.336609e-08 -1.304987e-08 -1.241578e-08 -1.325886e-08
-1.266617e-08 -1.112284e-08 -1.269751e-08 -1.194061e-08 -1.130641e-08 -1.258717e-08 -1.099232e-08 -1.196069e-08 -1.177097e-08 -1.178503e-08
-1.055811e-08 -8.749942e-09 -8.216253e-09 -1.131607e-08 -9.029246e-09 -1.003518e-08 -8.568667e-09 -8.230518e-09 -1.114028e-08 -9.495040e-09
-9.672570e-09 -8.617115e-09 -6.299956e-09 -6.002468e-09 -8.978488e-09 -5.779783e-09 -5.206088e-09 -4.226573e-09 -5.120498e-09 -6.974657e-09
-5.132684e-09 -3.453065e-09 -5.216739e-09 -3.016660e-09 -4.929970e-09 -3.902244e-09 -3.818932e-09 -1.446646e-09 -3.633056e-09 -1.615859e-09
-1.949672e-09 -2.501963e-09 -3.038771e-10 -1.846132e-09 -1.664508e-09 -3.916579e-10 3.559319e-10 -5.207249e-10 4.842120e-10 -4.746942e-10
1.104168e-09
2.818702e-09 -7.141734e-10 -3.405403e-10 4.550278e-10 1.754496e-09 1.613644e-09 2.096388e-09 2.698884e-09 7.139461e-10 2.261721e-09
2.292816e-09 3.053673e-09 7.555412e-10 3.489958e-09 3.751076e-09 2.402087e-09 3.936281e-09 3.652025e-09 3.257442e-09 5.399399e-09
4.201359e-09 4.829015e-09 5.344475e-09 6.249863e-09 5.520671e-09 5.524666e-09 8.789629e-09 6.005228e-09 6.810639e-09 5.905963e-09
7.364440e-09 6.533615e-09 7.781995e-09 7.766996e-09 9.417382e-09 9.641806e-09 9.981708e-09 9.724991e-09 9.205682e-09 8.197599e-09
1.157634e-08 1.039812e-08 9.475046e-09 1.074154e-08 1.121057e-08 1.218929e-08 1.121507e-08 1.104729e-08 1.227922e-08 1.145293e-08
1.165676e-08 1.248455e-08 1.134641e-08 1.159913e-08 1.136649e-08 1.443924e-08 1.345210e-08 1.164736e-08 1.264601e-08 1.225173e-08
1.227125e-08 1.373122e-08 1.523766e-08 1.312042e-08 1.297282e-08 1.348011e-08 1.341034e-08 1.361416e-08 1.363752e-08 1.282294e-08
1.509453e-08 1.310758e-08 1.440689e-08 1.506089e-08 1.363386e-08 1.439610e-08 1.495735e-08 1.417987e-08 1.501154e-08 1.494558e-08
1.601883e-08 1.362172e-08 1.533732e-08 1.361690e-08 1.425906e-08 1.338951e-08 1.403384e-08 1.595074e-08 1.386451e-08 1.425910e-08
1.331796e-08 1.507166e-08 1.536824e-08 1.409796e-08 1.579546e-08 1.454945e-08 1.403690e-08 1.480877e-08 1.343214e-08 1.482200e-08
1.510541e-08 1.383554e-08 1.320151e-08 1.507152e-08 1.441223e-08 1.530697e-08 1.486405e-08 1.351280e-08 1.453851e-08 1.458266e-08
1.487486e-08 1.432758e-08 1.507159e-08 1.421576e-08 1.371786e-08 1.414572e-08 1.534521e-08 1.329599e-08 1.283268e-08 1.471768e-08
1.260648e-08 1.169961e-08 1.375214e-08 1.408212e-08 1.147255e-08 1.249428e-08 1.476193e-08 1.323389e-08 1.240386e-08 1.183505e-08
1.209532e-08 1.198359e-08 1.196670e-08 1.157094e-08 1.110218e-08 1.041489e-08 1.086802e-08 1.091867e-08 1.125895e-08 9.875413e-09
1.130545e-08 9.803243e-09 9.021854e-09 1.042628e-08 9.500593e-09 9.409349e-09 7.952442e-09 8.448453e-09 7.442512e-09 8.093846e-09
7.375146e-09 7.914640e-09 5.547381e-09 7.742316e-09 5.961208e-09 6.579270e-09 5.361365e-09 4.762696e-09 3.824471e-09 5.474047e-09
4.251763e-09 5.062837e-09 4.749475e-09 3.847379e-09 4.360217e-09 2.473066e-09 2.434422e-09 3.389018e-09 3.147721e-09 3.283182e-09
1.941716e-09 -1.160545e-10 1.488698e-09 6.370249e-10 9.629059e-10 8.929568e-10 -2.251734e-10 7.363161e-10 -1.201998e-09 2.835301e-10
-2.931621e-10 -8.319752e-10 -9.423010e-10 8.249345e-10 -1.028712e-09 -6.609171e-10 -2.569446e-09 -3.009567e-09 -2.059593e-09 -8.576760e-10
-2.081748e-09 -3.938013e-09 -4.657023e-09 -2.287260e-09 -3.383891e-09 -3.393647e-09 -4.135607e-09 -4.381270e-09 -3.036111e-09 -5.254937e-09
-4.866263e-09 -6.128904e-09 -5.425204e-09 -5.197709e-09 -7.151451e-09 -5.862855e-09 -5.777588e-09 -8.212303e-09 -6.930848e-09 -8.195641e-09
-5.657514e-09 -7.404571e-09 -8.726885e-09 -7.680182e-09 -6.953914e-09 -8.689942e-09 -8.453974e-09 -1.029420e-08 -1.011679e-08 -9.935374e-09
-1.087161e-08 -1.008411e-08 -9.975563e-09 -9.746848e-09 -1.090956e-08 -1.125380e-08 -1.079328e-08 -1.073474e-08 -1.166913e-08 -1.188375e-08
-1.327742e-08 -1.276965e-08 -1.241214e-08 -1.103068e-08 -1.151219e-08 -1.206350e-08 -1.250329e-08 -1.373079e-08 -1.378161e-08 -1.241312e-08
-1.407956e-08 -1.375086e-08 -1.475267e-08 -1.368372e-08 -1.378840e-08 -1.315783e-08 -1.283777e-08 -1.439852e-08 -1.373432e-08 -1.393936e-08
-1.382325e-08 -1.458581e-08 -1.311403e-08 -1.489852e-08 -1.472899e-08 -1.437381e-08 -1.329272e-08 -1.514175e-08 -1.418994e-08 -1.476548e-08
-1.437772e-08 -1.577857e-08 -1.382461e-08 -1.340317e-08 -1.496844e-08 -1.373777e-08 -1.476844e-08 -1.543472e-08 -1.386638e-08 -1.550902e-08
-1.402411e-08 -1.323898e-08 -1.358298e-08 -1.434416e-08 -1.328909e-08 -1.576260e-08 -1.379103e-08 -1.473376e-08 -1.493455e-08 -1.364559e-08
-1.295855e-08 -1.367165e-08 -1.313909e-08 -1.484696e-08 -1.585066e-08 -1.427080e-08 -1.302171e-08 -1.517679e-08 -1.391509e-08 -1.463027e-08
-1.518967e-08 -1.332927e-08 -1.383104e-08 -1.426037e-08 -1.316234e-08 -1.212816e-08 -1.327033e-08 -1.335874e-08 -1.345093e-08 -1.429890e-08
-1.335088e-08 -1.301831e-08 -1.113095e-08 -1.295005e-08 -1.251235e-08 -1.437180e-08 -1.280414e-08 -1.320817e-08 -1.105564e-08 -1.053180e-08
-1.185670e-08 -1.278741e-08 -1.265368e-08 -1.206590e-08 -1.382567e-08 -1.213827e-08 -1.096462e-08 -1.021243e-08 -1.077038e-08 -8.773239e-09
-8.417502e-09 -9.909050e-09 -8.707738e-09 -9.759333e-09 -7.960745e-09 -8.961688e-09 -9.655667e-09 -8.626067e-09 -8.723791e-09 -7.586197e-09
-8.373513e-09 -7.246045e-09 -4.803413e-09 -6.726514e-09 -6.947216e-09 -7.471900e-09 -5.377097e-09 -6.407289e-09 -6.114501e-09 -5.815538e-09
-5.981603e-09 -3.972858e-09 -2.814129e-09 -4.857578e-09 -3.473015e-09 -2.867344e-09 -1.379956e-09 -3.719529e-09 -9.687297e-10 -2.952974e-09
-2.275486e-09 -2.893607e-09 -1.210254e-09 -1.586980e-09 -1.491285e-09 -1.062002e-10 -7.356414e-10 1.030486e-09 -4.636365e-10 1.421296e-09
2.818702e-09
1.440988e-09 9.075252e-11 6.386067e-10 1.696475e-09 2.301022e-09 2.074640e-09 2.187619e-09 3.584524e-09 1.705663e-09 3.780166e-09
4.611034e-09 2.750325e-09 2.925847e-09 3.852197e-09 4.744159e-09 4.457022e-09 3.718786e-09 5.005507e-09 4.713443e-09 5.000580e-09
5.398530e-09 6.012966e-09 4.592954e-09 5.891942e-09 5.886372e-09 6.804491e-09 7.111556e-09 7.143591e-09 5.997575e-09 6.047557e-09
6.646358e-09 7.761717e-09 7.666688e-09 7.462268e-09 7.941098e-09 7.874678e-09 9.059154e-09 8.581504e-09 1.042072e-08 9.264785e-09
9.931955e-09 8.952898e-09 1.027644e-08 1.221705e-08 1.006532e-08 9.917946e-09 9.993130e-09 1.096184e-08 1.213358e-08 1.032944e-08
1.277246e-08 1.228969e-08 1.196048e-08 1.365144e-08 1.172860e-08 1.202186e-08 1.224384e-08 1.254832e-08 1.161428e-08 1.259811e-08
1.474614e-08 1.551340e-08 1.316923e-08 1.264795e-08 1.394209e-08 1.381081e-08 1.474679e-08 1.392641e-08 1.262651e-08 1.418584e-08
1.265192e-08 1.520806e-08 1.358277e-08 1.336263e-08 1.307418e-08 1.371067e-08 1.436242e-08 1.322328e-08 1.392359e-08 1.341147e-08
1.342434e-08 1.402797e-08 1.404932e-08 1.462403e-08 1.381666e-08 1.352300e-08 1.403042e-08 1.382791e-08 1.574480e-08 1.555583e-08
1.403102e-08 1.480096e-08 1.339778e-08 1.557550e-08 1.351687e-08 1.300477e-08 1.340407e-08 1.403666e-08 1.303157e-08 1.298025e-08
1.463008e-08 1.354498e-08 1.389362e-08 1.366261e-08 1.425734e-08 1.516753e-08 1.512568e-08 1.411664e-08 1.340644e-08 1.468296e-08
1.441210e-08 1.280584e-08 1.343924e-08 1.309894e-08 1.294106e-08 1.482274e-08 1.324828e-08 1.459890e-08 1.439175e-08 1.267005e-08
1.165449e-08 1.324397e-08 1.248722e-08 1.217902e-08 1.371464e-08 1.169327e-08 1.241556e-08 1.092284e-08 1.124705e-08 1.216048e-08
1.102832e-08 1.166918e-08 1.124536e-08 1.025904e-08 1.219003e-08 1.090531e-08 9.900798e-09 1.004640e-08 9.289181e-09 9.725318e-09
8.645844e-09 7.961140e-09 8.712084e-09 7.569508e-09 7.835883e-09 6.399466e-09 8.622685e-09 7.798461e-09 7.777470e-09 7.406792e-09
6.394003e-09 7.489850e-09 5.840362e-09 4.583931e-09 7.379561e-09 6.867785e-09 4.747824e-09 5.307311e-09 4.482712e-09 3.485105e-09
4.495699e-09 5.209888e-09 4.398910e-09 3.749474e-09 3.167722e-09 3.667039e-09 2.391618e-09 3.279014e-09 7.062171e-10 2.774641e-09
4.257821e-09 3.405991e-09 1.704284e-09 1.512517e-09 -1.257463e-09 2.267318e-09 1.147703e-09 2.404245e-09 -1.929176e-09 1.245147e-09
3.874552e-10 -5.375526e-10 -1.025665e-09 -1.423327e-09 -8.264189e-10 6.757372e-10 -2.525527e-09 4.786436e-10 -1.431847e-09 -1.673674e-09
-4.580841e-09 -4.367315e-09 -3.211643e-09 -3.377447e-09 -2.983092e-09 -3.937003e-09 -3.867115e-09 -4.708582e-09 -2.709051e-09 -4.850154e-09
-4.936229e-09 -5.582708e-09 -5.444563e-09 -6.393964e-09 -6.165299e-09 -6.145845e-09 -6.538919e-09 -6.159065e-09 -6.904401e-09 -5.621013e-09
-8.155898e-09 -7.578514e-09 -8.969565e-09 -8.843557e-09 -7.776138e-09 -6.345259e-09 -8.075548e-09 -1.115463e-08 -9.131509e-09 -8.713158e-09
-9.440410e-09 -9.747108e-09 -8.720726e-09 -1.000381e-08 -1.035433e-08 -1.146084e-08 -1.308003e-08 -1.062141e-08 -1.079826e-08 -1.104261e-08
-1.199198e-08 -1.133452e-08 -1.216159e-08 -1.239209e-08 -1.174824e-08 -1.063322e-08 -1.186271e-08 -1.234062e-08 -1.343260e-08 -1.187807e-08
-1.231968e-08 -1.272344e-08 -1.291527e-08 -1.313482e-08 -1.408148e-08 -1.350833e-08 -1.311775e-08 -1.332952e-08 -1.316597e-08 -1.379866e-08
-1.438090e-08 -1.345286e-08 -1.311412e-08 -1.389155e-08 -1.343392e-08 -1.462848e-08 -1.443572e-08 -1.414278e-08 -1.358356e-08 -1.263287e-08
-1.457795e-08 -1.494347e-08 -1.515369e-08 -1.481076e-08 -1.340119e-08 -1.524822e-08 -1.377359e-08 -1.550062e-08 -1.545314e-08 -1.627604e-08
-1.429071e-08 -1.386513e-08 -1.480564e-08 -1.486473e-08 -1.460652e-08 -1.471112e-08 -1.422917e-08 -1.476686e-08 -1.469443e-08 -1.453700e-08
-1.324520e-08 -1.417023e-08 -1.349553e-08 -1.375771e-08 -1.536727e-08 -1.469283e-08 -1.358738e-08 -1.656036e-08 -1.390942e-08 -1.299687e-08
-1.446034e-08 -1.411441e-08 -1.416153e-08 -1.336554e-08 -1.386640e-08 -1.356480e-08 -1.228499e-08 -1.591937e-08 -1.222783e-08 -1.410957e-08
-1.371048e-08 -1.229010e-08 -1.155956e-08 -1.306908e-08 -1.132268e-08 -1.123999e-08 -1.155955e-08 -1.131505e-08 -1.234453e-08 -1.108344e-08
-1.078310e-08 -1.117900e-08 -1.182519e-08 -1.118301e-08 -1.112252e-08 -1.188917e-08 -1.123761e-08 -1.089856e-08 -9.642686e-09 -9.414154e-09
-1.018481e-08 -9.502487e-09 -1.114263e-08 -8.195716e-09 -9.359461e-09 -9.206313e-09 -8.910165e-09 -6.905800e-09 -7.752266e-09 -9.217804e-09
-7.141769e-09 -8.612268e-09 -6.231279e-09 -7.737366e-09 -7.479071e-09 -5.405570e-09 -6.023676e-09 -6.698055e-09 -5.094362e-09 -5.890739e-09
-4.291863e-09 -6.287144e-09 -4.877788e-09 -3.718222e-09 -6.588213e-09 -3.187213e-09 -4.023197e-09 -2.829602e-09 -4.644467e-09 -1.550276e-09
-1.951688e-09 -2.563709e-09 -2.665801e-09 -2.210027e-09 -2.472325e-09 -1.303471e-09 -2.257002e-09 -7.804431e-10 -5.336521e-10 2.473664e-11
1.440988e-09
1.750011e-09 6.311658e-10 5.183279e-10 9.754869e-10 1.508677e-10 -7.108591e-10 1.713317e-09 3.332097e-09 9.493109e-10 -7.959053e-10
6.999137e-10 3.244850e-09 2.649270e-09 3.656493e-09 2.817311e-09 3.218931e-09 3.119164e-09 2.491995e-09 2.617876e-09 1.551749e-09
5.544543e-09 5.512868e-09 6.728166e-09 4.487783e-09 6.789117e-09 6.354462e-09 6.249165e-09 8.176626e-09 7.487936e-09 6.044127e-09
7.695463e-09 6.559990e-09 8.646693e-09 7.478900e-09 1.132827e-08 7.791728e-09 8.399138e-09 1.125395e-08 7.041782e-09 9.632401e-09
9.407181e-09 9.233042e-09 1.069839e-08 1.066431e-08 9.963309e-09 9.539092e-09 1.175821e-08 1.088870e-08 1.126407e-08 1.152217e-08
1.084602e-08 1.123221e-08 1.103394e-08 1.133885e-08 1.124425e-08 1.144455e-08 1.099300e-08 1.149776e-08 1.278868e-08 1.175739e-08
1.301162e-08 1.344897e-08 1.297993e-08 1.400715e-08 1.261043e-08 1.278476e-08 1.241915e-08 1.311114e-08 1.413131e-08 1.339352e-08
1.357485e-08 1.512470e-08 1.194781e-08 1.402082e-08 1.473513e-08 1.384464e-08 1.277963e-08 1.345418e-08 1.295150e-08 1.282841e-08
1.307775e-08 1.296891e-08 1.421254e-08 1.600848e-08 1.436959e-08 1.334449e-08 1.357186e-08 1.392665e-08 1.352427e-08 1.498775e-08
1.317149e-08 1.318207e-08 1.291356e-08 1.387201e-08 1.296643e-08 1.397337e-08 1.390138e-08 1.323516e-08 1.457205e-08 1.550232e-08
1.276423e-08 1.336274e-08 1.406863e-08 1.347824e-08 1.336031e-08 1.449369e-08 1.403931e-08 1.346065e-08 1.462570e-08 1.445465e-08
1.365063e-08 1.289374e-08 1.279840e-08 1.302235e-08 1.311944e-08 1.238659e-08 1.313025e-08 1.322389e-08 1.285872e-08 1.233242e-08
1.288668e-08 1.328008e-08 1.146834e-08 1.339644e-08 1.215565e-08 1.210292e-08 1.255338e-08 1.432311e-08 1.114029e-08 1.278585e-08
1.128279e-08 1.127045e-08 1.130157e-08 1.107832e-08 1.235023e-08 1.004448e-08 9.945384e-09 1.136948e-08 9.782323e-09 1.079290e-08
9.436828e-09 9.572878e-09 7.756246e-09 9.097669e-09 8.044823e-09 8.418804e-09 1.046104e-08 7.840064e-09 9.141322e-09 5.844631e-09
5.868591e-09 7.334041e-09 7.637657e-09 5.839166e-09 5.638071e-09 6.182278e-09 5.492945e-09 3.352469e-09 5.464113e-09 4.135844e-09
3.167825e-09 3.974266e-09 2.081332e-09 3.837349e-09 2.326104e-09 4.979393e-09 4.294788e-09 2.153810e-09 2.456051e-09 1.220820e-09
5.853250e-10 1.528429e-09 4.642667e-09 3.048519e-09 -9.625115e-11 3.078558e-09 2.036394e-09 -1.057494e-09 -7.647127e-10 1.099802e-10
9.547158e-10 -3.079940e-09 -1.769824e-09 -1.317790e-09 -1.166788e-09 -2.973750e-09 5.889245e-10 -8.820498e-10 -5.137084e-10 -2.718106e-09
-2.023838e-09 -3.435147e-09 -3.510288e-09 -3.567984e-09 -4.445267e-09 -4.219190e-09 -5.913119e-09 -4.646294e-09 -3.863482e-09 -4.832824e-09
-4.079371e-09 -4.574555e-09 -6.445044e-09 -6.293048e-09 -6.638654e-09 -6.548849e-09 -7.413686e-09 -5.950165e-09 -5.728198e-09 -6.381923e-09
-6.843279e-09 -9.054506e-09 -7.192729e-09 -7.644401e-09 -6.676186e-09 -8.165158e-09 -9.336695e-09 -8.795762e-09 -8.496097e-09 -1.039376e-08
-9.957343e-09 -9.250054e-09 -8.384879e-09 -9.338513e-09 -1.132009e-08 -9.384177e-09 -1.155808e-08 -1.138162e-08 -1.110135e-08 -1.171804e-08
-1.106929e-08 -1.082889e-08 -1.122726e-08 -1.128509e-08 -1.196770e-08 -1.137347e-08 -1.272226e-08 -1.276506e-08 -1.334188e-08 -1.257753e-08
-1.217319e-08 -1.401001e-08 -1.327883e-08 -1.126248e-08 -1.155087e-08 -1.405590e-08 -1.277318e-08 -1.334950e-08 -1.374595e-08 -1.276422e-08
-1.358074e-08 -1.307866e-08 -1.254656e-08 -1.451091e-08 -1.288698e-08 -1.327596e-08 -1.290403e-08 -1.289113e-08 -1.396438e-08 -1.289251e-08
-1.371581e-08 -1.363192e-08 -1.441087e-08 -1.406258e-08 -1.369340e-08 -1.271863e-08 -1.396099e-08 -1.440005e-08 -1.346854e-08 -1.318956e-08
-1.280853e-08 -1.326559e-08 -1.546793e-08 -1.324108e-08 -1.316804e-08 -1.427203e-08 -1.246310e-08 -1.272525e-08 -1.343086e-08 -1.524283e-08
-1.450976e-08 -1.386008e-08 -1.475478e-08 -1.452628e-08 -1.452976e-08 -1.276369e-08 -1.444644e-08 -1.257934e-08 -1.278501e-08 -1.278493e-08
-1.211095e-08 -1.314873e-08 -1.285747e-08 -1.270583e-08 -1.372090e-08 -1.313200e-08 -1.276326e-08 -1.326788e-08 -1.294546e-08 -1.431087e-08
-1.369396e-08 -1.245858e-08 -1.240544e-08 -1.346268e-08 -1.215527e-08 -1.346039e-08 -1.118288e-08 -1.244369e-08 -1.262090e-08 -1.193249e-08
-1.136726e-08 -1.036805e-08 -9.919285e-09 -1.140800e-08 -1.037655e-08 -9.861620e-09 -8.861730e-09 -9.417701e-09 -9.831888e-09 -9.897364e-09
-8.227777e-09 -8.685512e-09 -9.554940e-09 -7.671287e-09 -7.580301e-09 -7.842480e-09 -8.284339e-09 -8.168677e-09 -9.793855e-09 -7.305482e-09
-6.275123e-09 -5.244402e-09 -6.267451e-09 -6.272410e-09 -5.431545e-09 -6.327055e-09 -5.381288e-09 -5.389936e-09 -5.618537e-09 -4.457292e-09
-7.291209e-09 -4.306282e-09 -5.061244e-09 -2.455796e-09 -4.616867e-09 -4.040999e-09 -4.025137e-09 -2.936918e-09 -4.162341e-09 -2.735950e-09
-2.964543e-09 -2.109598e-09 -4.458864e-09 -1.625355e-09 -1.281792e-09 -8.215357e-10 -1.920365e-09 -3.079454e-10 -7.708773e-10 4.693194e-11
1.750011e-09
-6.120511e-10 3.118986e-10 -3.484157e-10 1.846832e-09 8.137417e-10 9.681024e-10 1.565317e-09 1.927351e-09 4.111349e-09 1.063143e-09
3.395003e-09 3.101244e-09 3.877495e-09 3.947665e-09 2.627621e-09 5.077663e-09 3.899931e-09 4.407994e-09 3.152486e-09 2.332132e-09
3.930287e-09 3.871967e-09 5.715044e-09 4.876263e-09 5.377420e-09 5.100020e-09 7.548039e-09 5.734543e-09 7.896703e-09 6.822553e-09
5.431107e-09 7.963756e-09 6.694473e-09 7.342027e-09 7.454058e-09 6.552272e-09 7.304477e-09 7.570722e-09 1.076328e-08 8.117649e-09
8.467264e-09 9.964380e-09 1.172414e-08 8.536469e-09 9.947644e-09 1.109795e-08 1.048872e-08 9.974428e-09 1.137463e-08 1.136981e-08
1.128523e-08 1.131432e-08 1.094167e-08 1.129613e-08 1.328658e-08 1.217249e-08 1.176160e-08 1.117094e-08 1.168603e-08 1.249366e-08
1.187446e-08 1.262061e-08 1.219110e-08 1.376558e-08 1.327204e-08 1.305350e-08 1.302722e-08 1.313318e-08 1.185296e-08 1.212513e-08
1.266644e-08 1.244349e-08 1.406600e-08 1.329393e-08 1.314156e-08 1.272743e-08 1.241534e-08 1.475889e-08 1.345199e-08 1.265630e-08
1.352538e-08 1.399220e-08 1.481450e-08 1.265222e-08 1.386455e-08 1.309984e-08 1.376863e-08 1.370491e-08 1.333276e-08 1.339413e-08
1.393539e-08 1.362043e-08 1.428458e-08 1.276434e-08 1.309356e-08 1.469366e-08 1.295154e-08 1.360632e-08 1.228491e-08 1.273420e-08
1.330712e-08 1.428211e-08 1.307165e-08 1.501390e-08 1.251858e-08 1.269670e-08 1.311611e-08 1.240657e-08 1.311087e-08 1.274731e-08
1.282896e-08 1.442471e-08 1.228772e-08 1.294655e-08 1.255726e-08 1.357251e-08 1.269477e-08 1.121412e-08 1.141028e-08 1.297450e-08
1.235535e-08 1.176359e-08 1.190445e-08 1.274466e-08 1.088309e-08 1.333147e-08 1.136873e-08 1.132459e-08 1.189129e-08 1.067108e-08
1.207524e-08 1.223508e-08 9.931120e-09 1.037258e-08 1.043898e-08 9.955387e-09 9.352362e-09 1.084313e-08 1.004097e-08 1.109027e-08
7.249930e-09 1.048260e-08 8.893818e-09 8.879166e-09 8.986152e-09 8.548937e-09 8.001856e-09 7.687617e-09 7.641842e-09 7.768915e-09
7.155451e-09 4.671389e-09 5.978396e-09 4.645841e-09 8.615136e-09 5.415847e-09 6.454057e-09 6.136862e-09 3.201483e-09 4.304267e-09
5.321050e-09 6.344250e-09 3.709925e-09 3.424865e-09 3.058690e-09 6.183098e-09 4.418582e-09 3.076796e-09 3.984837e-09 2.415997e-09
-1.002840e-09 1.897595e-09 2.677354e-09 1.127885e-09 1.692381e-09 6.252556e-10 -6.950023e-10 3.812584e-10 6.793253e-10 -7.609463e-10
6.841730e-10 -6.259305e-10 -7.826476e-10 -5.515041e-10 -1.850740e-09 -1.813854e-09 -2.620016e-09 -1.193821e-09 -2.540098e-09 -1.961161e-09
-4.423995e-09 -2.223149e-09 -2.401174e-09 -4.358020e-09 -2.460850e-09 -3.396540e-09 -1.508148e-09 -5.727767e-09 -3.369614e-09 -5.864252e-09
-3.424636e-09 -4.161938e-09 -4.269786e-09 -4.438409e-09 -6.554324e-09 -7.476173e-09 -7.510541e-09 -6.036462e-09 -6.412735e-09 -7.571201e-09
-4.973971e-09 -6.861961e-09 -7.655914e-09 -6.307941e-09 -9.358319e-09 -8.045583e-09 -8.449381e-09 -9.778176e-09 -8.139208e-09 -1.004270e-08
-9.860865e-09 -8.370040e-09 -8.076491e-09 -9.961945e-09 -1.097464e-08 -1.101317e-08 -1.014657e-08 -9.996701e-09 -1.194992e-08 -1.287070e-08
-1.045611e-08 -1.149860e-08 -1.100482e-08 -1.103792e-08 -1.141145e-08 -1.014119e-08 -1.126312e-08 -1.256679e-08 -1.121571e-08 -1.241516e-08
-1.221029e-08 -1.345437e-08 -1.281791e-08 -1.381765e-08 -1.307064e-08 -1.267288e-08 -1.263081e-08 -1.296548e-08 -1.400700e-08 -1.210055e-08
-1.312356e-08 -1.312029e-08 -1.439972e-08 -1.372815e-08 -1.225757e-08 -1.273823e-08 -1.287927e-08 -1.366495e-08 -1.457826e-08 -1.235766e-08
-1.491497e-08 -1.398454e-08 -1.335813e-08 -1.360337e-08 -1.382547e-08 -1.298652e-08 -1.522621e-08 -1.299904e-08 -1.426316e-08 -1.330402e-08
-1.324076e-08 -1.216222e-08 -1.353527e-08 -1.234357e-08 -1.527854e-08 -1.289023e-08 -1.349901e-08 -1.359987e-08 -1.414123e-08 -1.502966e-08
-1.403410e-08 -1.399650e-08 -1.438631e-08 -1.390553e-08 -1.437151e-08 -1.397157e-08 -1.422383e-08 -1.351193e-08 -1.258238e-08 -1.298635e-08
-1.243823e-08 -1.214018e-08 -1.194361e-08 -1.198869e-08 -1.298390e-08 -1.390459e-08 -1.277141e-08 -1.319640e-08 -1.414485e-08 -1.290084e-08
-1.430453e-08 -1.097332e-08 -1.249906e-08 -1.265113e-08 -1.195346e-08 -1.134993e-08 -1.114400e-08 -1.197082e-08 -1.052692e-08 -1.163056e-08
-1.105148e-08 -1.026363e-08 -1.099937e-08 -1.084462e-08 -1.067799e-08 -9.737772e-09 -1.101855e-08 -1.077884e-08 -9.166271e-09 -9.048466e-09
-1.140749e-08 -1.039876e-08 -9.692674e-09 -8.133887e-09 -8.529881e-09 -8.048158e-09 -8.967381e-09 -5.902811e-09 -7.304484e-09 -1.059679e-08
-6.979937e-09 -8.802132e-09 -6.621506e-09 -6.248907e-09 -6.435979e-09 -5.411113e-09 -6.411642e-09 -5.183630e-09 -4.076488e-09 -5.787911e-09
-4.896257e-09 -5.084459e-09 -2.326604e-09 -3.295479e-09 -1.455713e-09 -2.384152e-09 -3.395961e-09 -2.449086e-09 -2.198381e-09 -2.630012e-09
-2.637900e-09 -2.324219e-09 -2.075095e-09 -1.785969e-09 -2.756403e-09 2.115395e-10 -1.955714e-09 -5.324004e-10 -1.601096e-09 -2.008868e-09
-6.120511e-10
3.105799e-10 -5.956727e-10 2.074933e-09 4.735417e-10 4.293843e-10 1.934746e-09 6.319944e-10 2.039751e-09 2.376217e-09 2.703569e-09
1.117861e-09 4.566597e-09 4.893970e-09 4.939559e-09 1.675663e-09 4.403883e-09 3.989452e-09 4.752781e-09 3.675769e-09 3.512829e-09
5.524396e-09 5.641139e-09 5.716900e-09 3.567078e-09 5.846633e-09 5.851444e-09 6.388760e-09 7.158125e-09 6.738962e-09 6.860426e-09
6.560885e-09 7.004382e-09 8.595371e-09 8.093111e-09 6.183823e-09 7.556776e-09 7.427384e-09 1.071286e-08 7.618472e-09 9.520639e-09
1.060316e-08 8.485243e-09 8.442941e-09 9.303259e-09 8.968416e-09 1.107231e-08 8.728651e-09 1.044909e-08 1.150750e-08 1.051683e-08
1.118275e-08 1.108959e-08 1.299222e-08 9.945283e-09 1.022281e-08 1.126399e-08 1.194091e-08 1.136248e-08 1.165340e-08 1.187802e-08
1.205809e-08 1.233172e-08 1.223482e-08 1.122350e-08 1.256402e-08 1.158801e-08 1.202654e-08 1.290194e-08 1.267085e-08 1.148031e-08
1.217305e-08 1.329744e-08 1.316976e-08 1.271039e-08 1.274689e-08 1.324146e-08 1.229627e-08 1.206523e-08 1.250686e-08 1.405371e-08
1.347047e-08 1.414444e-08 1.323899e-08 1.189379e-08 1.363721e-08 1.287092e-08 1.332896e-08 1.235092e-08 1.425039e-08 1.303258e-08
1.389995e-08 1.389854e-08 1.492923e-08 1.218714e-08 1.253305e-08 1.347042e-08 1.380283e-08 1.230234e-08 1.278799e-08 1.292574e-08
1.345574e-08 1.450265e-08 1.428994e-08 1.445907e-08 1.261712e-08 1.312647e-08 1.182505e-08 1.270153e-08 1.331412e-08 1.293852e-08
1.268646e-08 1.331521e-08 1.227842e-08 1.218708e-08 1.269054e-08 1.331644e-08 1.135660e-08 1.090160e-08 1.330216e-08 1.282153e-08
1.228350e-08 1.141259e-08 1.265920e-08 1.177624e-08 1.160402e-08 1.209315e-08 1.048595e-08 1.031690e-08 1.128161e-08 1.246589e-08
9.480400e-09 1.040940e-08 1.173901e-08 1.041272e-08 9.397662e-09 9.846691e-09 9.006651e-09 1.104208e-08 1.237362e-08 9.927446e-09
9.113989e-09 9.207231e-09 8.206121e-09 8.856605e-09 7.051617e-09 6.339504e-09 7.388828e-09 8.008936e-09 7.123823e-09 6.090104e-09
4.521414e-09 6.845760e-09 5.422482e-09 6.841559e-09 5.536062e-09 5.928637e-09 5.607361e-09 5.494743e-09 8.313545e-09 5.252626e-09
3.947139e-09 5.279276e-09 3.862203e-09 4.687037e-09 3.179952e-09 2.305920e-09 2.877707e-09 1.192077e-09 2.867768e-09 5.070991e-09
1.198407e-09 1.728945e-09 2.819063e-09 2.718573e-09 7.586478e-10 2.903891e-09 2.468658e-09 -5.641419e-11 -8.234181e-10 6.833245e-11
-3.519288e-10 2.178991e-10 6.570287e-10 -5.877728e-11 -8.572156e-10 1.775750e-09 -2.485646e-09 -2.086125e-09 -2.284647e-09 -2.527455e-10
-5.192125e-10 -1.659603e-09 -2.542485e-09 -2.681218e-09 -4.266745e-09 -3.844137e-09 -4.813925e-09 -2.406833e-09 -4.940259e-09 -4.145104e-09
-5.495242e-09 -5.374169e-09 -3.612991e-09 -3.865849e-09 -6.376168e-09 -6.946566e-09 -6.330886e-09 -5.880496e-09 -4.975788e-09 -6.267670e-09
-8.291337e-09 -6.598840e-09 -5.445402e-09 -8.235919e-09 -7.563646e-09 -7.840383e-09 -8.409404e-09 -8.212165e-09 -8.329718e-09 -9.015029e-09
-8.355982e-09 -7.570766e-09 -9.469729e-09 -9.562828e-09 -1.081611e-08 -9.503123e-09 -9.030004e-09 -1.125401e-08 -9.735204e-09 -9.722061e-09
-9.842316e-09 -1.205178e-08 -1.270272e-08 -1.059818e-08 -1.128310e-08 -1.059703e-08 -1.023568e-08 -1.218610e-08 -1.190693e-08 -1.170614e-08
-1.281513e-08 -1.120185e-08 -1.303920e-08 -1.175546e-08 -1.260855e-08 -1.374808e-08 -1.159642e-08 -1.263636e-08 -1.418947e-08 -1.256346e-08
-1.286526e-08 -1.487099e-08 -1.254537e-08 -1.233413e-08 -1.339617e-08 -1.201007e-08 -1.218033e-08 -1.268484e-08 -1.265202e-08 -1.311892e-08
-1.219943e-08 -1.361826e-08 -1.498985e-08 -1.399522e-08 -1.378575e-08 -1.281399e-08 -1.263013e-08 -1.303770e-08 -1.268472e-08 -1.239136e-08
-1.191772e-08 -1.355231e-08 -1.334752e-08 -1.335422e-08 -1.260902e-08 -1.341830e-08 -1.393938e-08 -1.383141e-08 -1.375464e-08 -1.174346e-08
-1.391800e-08 -1.230546e-08 -1.270574e-08 -1.287744e-08 -1.352039e-08 -1.191229e-08 -1.287981e-08 -1.304723e-08 -1.253750e-08 -1.254028e-08
-1.299583e-08 -1.210022e-08 -1.171178e-08 -1.434011e-08 -1.259612e-08 -1.379456e-08 -1.255557e-08 -1.336040e-08 -1.169531e-08 -1.179438e-08
-1.211920e-08 -1.169018e-08 -1.183390e-08 -1.307168e-08 -1.189144e-08 -9.686286e-09 -1.170743e-08 -1.137987e-08 -1.127580e-08 -1.161849e-08
-9.723451e-09 -1.236760e-08 -8.604643e-09 -1.024076e-08 -8.291026e-09 -1.034250e-08 -1.000654e-08 -9.185885e-09 -1.029413e-08 -1.100593e-08
-9.797581e-09 -1.132361e-08 -8.785178e-09 -6.224502e-09 -9.081140e-09 -8.449734e-09 -7.918666e-09 -8.613163e-09 -7.164641e-09 -7.134157e-09
-6.536213e-09 -8.297881e-09 -6.957113e-09 -7.204294e-09 -7.029573e-09 -7.556200e-09 -4.238433e-09 -7.079755e-09 -4.344917e-09 -2.802301e-09
-2.692157e-09 -3.709332e-09 -5.148312e-09 -3.231262e-09 -3.587020e-09 -3.197471e-09 -5.089133e-09 -3.037087e-09 -2.185540e-09 -3.311731e-09
-2.162582e-09 -8.855522e-10 -2.114202e-09 -1.779335e-09 -2.350399e-09 -1.947797e-09 1.299913e-09 -2.962032e-10 -1.112049e-09 3.402475e-10
3.105799e-10
-1.238320e-09 -6.825782e-10 -4.071322e-10 1.350916e-09 2.530729e-09 1.804836e-09 2.616228e-09 1.447532e-10 1.428136e-09 3.321877e-09
1.906141e-09 3.906643e-09 1.575282e-09 3.343508e-09 5.008218e-09 4.515309e-09 4.348200e-09 5.162047e-09 6.887217e-09 4.699863e-09
4.767045e-09 6.854382e-09 4.764351e-09 6.964479e-09 5.334254e-09 5.324001e-09 4.651717e-09 7.910605e-09 6.336900e-09 6.441847e-09
6.314644e-09 7.014142e-09 5.838097e-09 5.989153e-09 9.072828e-09 7.699870e-09 7.960633e-09 6.641429e-09 8.936952e-09 9.186742e-09
8.777643e-09 8.821796e-09 9.143132e-09 9.535775e-09 8.743174e-09 9.425209e-09 1.044403e-08 9.662434e-09 8.560365e-09 1.044954e-08
1.186541e-08 1.068563e-08 1.042720e-08 1.005590e-08 1.037108e-08 1.139351e-08 1.039663e-08 9.996588e-09 1.160007e-08 1.314405e-08
1.176485e-08 1.081820e-08 1.191769e-08 1.262746e-08 1.223789e-08 1.206296e-08 1.277982e-08 1.217340e-08 1.268734e-08 1.183129e-08
1.233557e-08 1.264734e-08 1.276568e-08 1.343707e-08 1.170547e-08 1.275443e-08 1.230316e-08 1.223756e-08 1.336564e-08 1.282183e-08
1.323697e-08 1.393821e-08 1.308047e-08 1.219942e-08 1.284145e-08 1.158234e-08 1.215289e-08 1.384565e-08 1.345993e-08 1.236153e-08
1.453982e-08 1.333589e-08 1.341966e-08 1.256312e-08 1.273171e-08 1.259182e-08 1.149704e-08 1.244622e-08 1.388380e-08 1.360134e-08
1.381022e-08 1.438527e-08 1.321830e-08 1.294056e-08 1.218642e-08 1.176067e-08 1.371707e-08 1.340635e-08 1.195840e-08 1.243227e-08
1.329628e-08 1.177738e-08 1.284534e-08 1.169256e-08 1.267495e-08 1.284712e-08 1.339335e-08 1.166807e-08 1.106943e-08 1.217786e-08
1.124288e-08 1.096293e-08 1.166721e-08 1.094561e-08 1.069038e-08 1.107801e-08 1.347184e-08 1.314362e-08 1.225197e-08 1.084551e-08
1.112043e-08 1.006720e-08 1.190706e-08 9.456926e-09 9.872205e-09 9.276165e-09 9.784270e-09 8.759337e-09 8.757255e-09 7.840715e-09
9.446537e-09 7.685315e-09 7.626314e-09 8.129115e-09 9.841453e-09 8.952956e-09 7.451206e-09 8.017565e-09 7.098608e-09 7.839976e-09
7.115283e-09 7.649795e-09 6.739562e-09 8.155951e-09 4.205045e-09 6.550646e-09 3.479626e-09 5.720754e-09 5.687889e-09 6.502903e-09
4.730741e-09 3.693720e-09 2.071114e-09 2.178236e-09 3.214751e-09 3.125683e-09 1.409367e-09 1.492536e-09 4.319906e-09 3.005444e-09
1.258953e-09 2.097844e-09 1.370507e-09 1.725804e-09 1.427246e-09 1.835845e-10 2.339372e-09 -4.349066e-10 2.211050e-09 -1.641430e-09
-5.564065e-10 3.547782e-10 -1.197313e-10 -2.616552e-09 -5.416281e-10 6.014795e-10 -3.379412e-09 8.570754e-10 -2.467390e-09 -2.142510e-09
-3.091954e-09 -1.996564e-09 -9.424971e-10 -1.825412e-09 -3.277837e-09 -4.012677e-09 -3.717451e-09 -1.927562e-09 -5.613082e-09 -4.394248e-09
-4.829718e-09 -5.896554e-09 -5.086253e-09 -4.207397e-09 -3.874343e-09 -4.884179e-09 -5.266301e-09 -5.914836e-09 -5.141833e-09 -6.998266e-09
-6.803983e-09 -5.599322e-09 -7.864235e-09 -8.152451e-09 -7.555232e-09 -7.414453e-09 -8.802778e-09 -7.876975e-09 -9.676184e-09 -8.502181e-09
-7.419832e-09 -7.071938e-09 -8.243869e-09 -9.873901e-09 -8.661854e-09 -7.690725e-09 -1.284816e-08 -1.021306e-08 -1.160905e-08 -1.002460e-08
-1.174466e-08 -9.734145e-09 -9.962438e-09 -1.183854e-08 -1.150789e-08 -1.089448e-08 -9.805048e-09 -1.239597e-08 -1.169095e-08 -1.188594e-08
-1.216187e-08 -1.134944e-08 -1.209679e-08 -1.236237e-08 -1.201786e-08 -1.189547e-08 -1.211150e-08 -1.081338e-08 -1.101208e-08 -1.173712e-08
-1.293734e-08 -1.204225e-08 -1.146743e-08 -1.151001e-08 -1.244613e-08 -1.195729e-08 -1.272133e-08 -1.318138e-08 -1.336044e-08 -1.338755e-08
-1.162011e-08 -1.244774e-08 -1.173702e-08 -1.234908e-08 -1.261471e-08 -1.312020e-08 -1.263118e-08 -1.228529e-08 -1.234978e-08 -1.347269e-08
-1.267019e-08 -1.310849e-08 -1.362456e-08 -1.367197e-08 -1.334793e-08 -1.325009e-08 -1.337363e-08 -1.281000e-08 -1.114414e-08 -1.327820e-08
-1.165978e-08 -1.333930e-08 -1.291626e-08 -1.172096e-08 -1.257624e-08 -1.212616e-08 -1.194233e-08 -1.265173e-08 -1.142516e-08 -1.304073e-08
-1.388473e-08 -1.215265e-08 -1.164860e-08 -1.080785e-08 -1.237644e-08 -1.138158e-08 -1.220016e-08 -1.312189e-08 -1.165363e-08 -1.179237e-08
-1.276714e-08 -1.095379e-08 -1.189392e-08 -1.174314e-08 -1.106989e-08 -1.107662e-08 -1.136332e-08 -1.128575e-08 -1.184369e-08 -1.131825e-08
-9.774496e-09 -1.105620e-08 -9.644155e-09 -1.007108e-08 -1.026671e-08 -1.002639e-08 -1.003430e-08 -9.653682e-09 -6.953278e-09 -8.608716e-09
-8.113388e-09 -7.456117e-09 -9.134059e-09 -8.878954e-09 -7.349472e-09 -7.649851e-09 -6.057847e-09 -8.822848e-09 -7.656467e-09 -5.731715e-09
-5.677948e-09 -6.132614e-09 -4.943039e-09 -5.689709e-09 -5.187383e-09 -5.897505e-09 -5.184846e-09 -4.500333e-09 -4.551024e-09 -5.927038e-09
-3.866564e-09 -2.044162e-09 -4.415892e-09 -2.464024e-09 -5.380002e-09 -2.063609e-09 -4.753593e-09 -3.690696e-09 -3.549262e-09 -2.825080e-09
-8.864092e-10 -2.393431e-09 -8.832373e-10 -2.524055e-09 -1.350220e-09 -1.019532e-09 -1.180068e-09 1.331425e-09 2.039058e-11 7.841722e-11
-1.238320e-09
4.476110e-11 -6.901961e-10 4.871074e-10 2.502021e-09 -1.560976e-10 4.125469e-11 2.522108e-09 1.046576e-09 1.747284e-09 2.764402e-09
4.074995e-09 2.293501e-09 3.813827e-09 2.494494e-09 3.910339e-09 2.532419e-09 3.707386e-09 5.063193e-09 4.275071e-09 2.768763e-09
3.936373e-09 5.054049e-09 6.897732e-09 7.010019e-09 5.678499e-09 4.985530e-09 6.466619e-09 5.361041e-09 7.447861e-09 6.933560e-09
7.145488e-09 5.374163e-09 8.635006e-09 9.464396e-09 7.178004e-09 7.082203e-09 8.303321e-09 8.369025e-09 9.284817e-09 8.588582e-09
1.036461e-08 9.614207e-09 9.727234e-09 9.185283e-09 9.287181e-09 9.081848e-09 8.963863e-09 1.051956e-08 1.138707e-08 8.933351e-09
1.049789e-08 1.065110e-08 1.177373e-08 1.096519e-08 1.021698e-08 1.096934e-08 9.637599e-09 1.022647e-08 1.064366e-08 1.161502e-08
1.038919e-08 1.195344e-08 1.227948e-08 1.121677e-08 1.056521e-08 1.149802e-08 1.130034e-08 1.093910e-08 1.094475e-08 1.271001e-08
1.191462e-08 1.225895e-08 1.308111e-08 1.261715e-08 1.138865e-08 1.181248e-08 1.232900e-08 1.132099e-08 1.209546e-08 1.256589e-08
1.222323e-08 1.080120e-08 1.189955e-08 1.214493e-08 1.123691e-08 1.245959e-08 1.211809e-08 1.346392e-08 1.319284e-08 1.346195e-08
1.179487e-08 1.383527e-08 1.279214e-08 1.234171e-08 1.411064e-08 1.393702e-08 1.171392e-08 1.413304e-08 1.285534e-08 1.182943e-08
1.163299e-08 1.400329e-08 1.328428e-08 1.263961e-08 1.280196e-08 1.186509e-08 1.157726e-08 1.235453e-08 1.415929e-08 1.392606e-08
1.322334e-08 1.246867e-08 1.289926e-08 1.188548e-08 1.131747e-08 1.108274e-08 1.250489e-08 1.241898e-08 1.129633e-08 1.210744e-08
1.011908e-08 1.098988e-08 1.073912e-08 9.918248e-09 9.626176e-09 1.172303e-08 1.072699e-08 9.591391e-09 9.322291e-09 1.050574e-08
1.012029e-08 9.602261e-09 9.951115e-09 1.100668e-08 9.422553e-09 1.055406e-08 7.513997e-09 7.182919e-09 1.028879e-08 9.858497e-09
7.699097e-09 9.156626e-09 7.937424e-09 7.810850e-09 5.329465e-09 8.132989e-09 7.222527e-09 5.538029e-09 8.357058e-09 6.567864e-09
7.437690e-09 6.852099e-09 4.990524e-09 7.984658e-09 3.970620e-09 3.092394e-09 3.924062e-09 5.790574e-09 7.054929e-09 3.701932e-09
1.604784e-09 5.661986e-09 3.140389e-09 3.609400e-09 7.213377e-10 4.904130e-09 1.904805e-09 3.542308e-09 2.420747e-09 3.139190e-09
1.763815e-09 2.403155e-09 9.525585e-10 1.203659e-10 2.896750e-10 -1.130340e-09 -4.043102e-10 1.103520e-09 5.742130e-10 6.924190e-11
-3.044149e-10 -6.882186e-10 -1.068486e-09 -1.698540e-09 -1.695393e-09 -8.463335e-10 2.504508e-10 -1.592475e-09 -1.397245e-09 -2.533782e-10
-1.156809e-09 -3.129630e-09 -3.084216e-09 -3.933051e-09 -2.408937e-09 -4.446297e-09 -4.025213e-09 -2.788435e-09 -4.254888e-09 -3.022044e-09
-5.219217e-09 -2.767748e-09 -6.117859e-09 -5.600850e-09 -5.114692e-09 -6.948247e-09 -6.092120e-09 -5.169213e-09 -5.446019e-09 -7.061820e-09
-6.328623e-09 -7.517805e-09 -8.444328e-09 -7.814813e-09 -6.473528e-09 -7.035899e-09 -6.588870e-09 -8.839232e-09 -8.907233e-09 -9.177056e-09
-7.779440e-09 -8.291160e-09 -9.234767e-09 -9.917082e-09 -8.898127e-09 -7.968747e-09 -9.909074e-09 -9.047177e-09 -9.800847e-09 -1.118193e-08
-9.937025e-09 -9.254907e-09 -1.234750e-08 -9.866955e-09 -1.128712e-08 -1.109295e-08 -1.275048e-08 -1.056229e-08 -1.045557e-08 -1.278154e-08
-1.207819e-08 -1.118916e-08 -1.085826e-08 -1.190649e-08 -1.286915e-08 -1.095446e-08 -1.063057e-08 -1.408389e-08 -1.304175e-08 -1.273177e-08
-1.279298e-08 -1.361228e-08 -1.220570e-08 -1.174825e-08 -1.352881e-08 -1.188069e-08 -1.281713e-08 -1.158814e-08 -1.244277e-08 -1.157765e-08
-1.396840e-08 -1.285162e-08 -1.206072e-08 -1.333605e-08 -1.400298e-08 -1.301889e-08 -1.233207e-08 -1.230369e-08 -1.081919e-08 -1.131936e-08
-1.209442e-08 -1.128004e-08 -1.272535e-08 -1.329729e-08 -1.252481e-08 -1.422631e-08 -1.257532e-08 -1.196342e-08 -1.258663e-08 -1.209631e-08
-1.194011e-08 -1.156113e-08 -1.264141e-08 -1.171873e-08 -1.233684e-08 -1.137342e-08 -1.210935e-08 -1.297317e-08 -1.248239e-08 -1.093879e-08
-1.185138e-08 -1.183019e-08 -1.267618e-08 -1.136666e-08 -1.103118e-08 -1.120133e-08 -1.087377e-08 -1.199192e-08 -1.145073e-08 -1.152340e-08
-1.258431e-08 -1.171016e-08 -1.127281e-08 -1.107314e-08 -1.087019e-08 -1.124454e-08 -1.086943e-08 -1.071406e-08 -1.102844e-08 -1.138011e-08
-1.130894e-08 -9.240906e-09 -1.026683e-08 -8.557442e-09 -9.628093e-09 -1.076306e-08 -1.231653e-08 -1.096618e-08 -9.900746e-09 -8.547918e-09
-1.045654e-08 -6.643415e-09 -7.728585e-09 -7.953279e-09 -5.902776e-09 -6.823172e-09 -9.167580e-09 -7.335684e-09 -9.059574e-09 -7.438226e-09
-7.862364e-09 -8.285274e-09 -5.625071e-09 -5.563979e-09 -5.690505e-09 -6.400344e-09 -5.407458e-09 -3.886269e-09 -6.965350e-09 -4.075728e-09
-4.350522e-09 -3.250362e-09 -4.268708e-09 -4.139628e-09 -4.323626e-09 -3.929914e-09 -2.184973e-09 -2.732921e-09 -2.983642e-09 2.472941e-10
-3.841548e-10 -2.916876e-09 1.190518e-09 6.225050e-11 -3.602449e-09 -9.023903e-10 -5.372352e-10 1.537016e-09 5.499907e-10 -8.956154e-10
4.476110e-11
5.684199e-10 9.117084e-10 -8.175700e-10 4.980127e-11 5.825959e-10 4.890379e-10 1.957116e-09 -2.276876e-10 2.647369e-09 1.225361e-09
2.408276e-09 3.519991e-09 2.568282e-09 1.399004e-09 5.257371e-10 2.899361e-09 3.414259e-09 2.808369e-09 3.169863e-09 3.721010e-09
4.020259e-09 4.138529e-09 4.767438e-09 3.645533e-09 4.944313e-09 7.098818e-09 5.266262e-09 5.527992e-09 6.455221e-09 5.314396e-09
6.254741e-09 6.723909e-09 7.117116e-09 6.563642e-09 8.138017e-09 8.576351e-09 6.268991e-09 6.983419e-09 8.448918e-09 7.874411e-09
9.884485e-09 9.437834e-09 1.052654e-08 9.317824e-09 8.642506e-09 1.012431e-08 9.485682e-09 8.161398e-09 8.513263e-09 9.444634e-09
9.762149e-09 9.738815e-09 9.277074e-09 1.074548e-08 1.041315e-08 9.796849e-09 1.088641e-08 9.646981e-09 1.019481e-08 1.206888e-08
1.204287e-08 1.047415e-08 9.973015e-09 1.011511e-08 1.291708e-08 1.142111e-08 1.189105e-08 1.069057e-08 1.471198e-08 1.267579e-08
1.166431e-08 1.252940e-08 1.201085e-08 1.247511e-08 1.245099e-08 1.111235e-08 1.207571e-08 1.260123e-08 1.322042e-08 1.171878e-08
1.251889e-08 1.201871e-08 1.100940e-08 1.228530e-08 1.113014e-08 1.243358e-08 1.278351e-08 1.244732e-08 1.348608e-08 1.214340e-08
1.288565e-08 1.199503e-08 1.240810e-08 1.174106e-08 1.128114e-08 1.293476e-08 1.150585e-08 1.284007e-08 1.225120e-08 1.133938e-08
1.118928e-08 1.295583e-08 1.262709e-08 1.210905e-08 1.048755e-08 1.233417e-08 1.167977e-08 1.196214e-08 1.258691e-08 1.279720e-08
1.116111e-08 1.170914e-08 1.111777e-08 1.125623e-08 1.053221e-08 1.061885e-08 1.091057e-08 1.072519e-08 1.108230e-08 1.269360e-08
9.129480e-09 1.023895e-08 1.158034e-08 1.077121e-08 9.701765e-09 1.118405e-08 1.022381e-08 1.057422e-08 1.100891e-08 8.483476e-09
1.044747e-08 1.020270e-08 9.954583e-09 7.732013e-09 7.858690e-09 7.876348e-09 9.333102e-09 9.269680e-09 7.724076e-09 7.762974e-09
7.885358e-09 8.847256e-09 6.826420e-09 8.479263e-09 9.102551e-09 7.771313e-09 6.057833e-09 8.145186e-09 7.661875e-09 6.548655e-09
5.479187e-09 4.293577e-09 5.535322e-09 5.576896e-09 5.084853e-09 5.875595e-09 5.183440e-09 3.937059e-09 5.305498e-09 1.869945e-09
4.403231e-09 2.689405e-09 1.349875e-09 2.921436e-09 2.731854e-09 3.184075e-09 2.111557e-09 3.210225e-09 2.115186e-09 1.428706e-09
1.913887e-09 3.844405e-09 3.608218e-10 1.961225e-09 -1.231474e-09 1.302678e-09 2.423062e-09 1.090622e-10 -5.629421e-10 1.158322e-09
3.941111e-10 -1.163325e-09 2.768378e-12 -1.871375e-10 8.668150e-10 8.529393e-10 -9.382800e-10 -8.240413e-10 -1.899996e-09 -1.503545e-09
-3.448167e-10 -2.560256e-09 -2.405214e-09 -1.572888e-09 -4.018637e-09 -3.623218e-09 -4.072186e-09 -2.983825e-09 -3.247117e-09 -6.072939e-09
-4.313433e-09 -2.726053e-09 -5.754230e-09 -6.081545e-09 -5.875048e-09 -7.324356e-09 -5.707314e-09 -6.691587e-09 -5.693467e-09 -8.447899e-09
-6.859751e-09 -7.162478e-09 -7.192616e-09 -6.493624e-09 -6.535763e-09 -7.447243e-09 -6.845386e-09 -7.264279e-09 -6.487533e-09 -7.482883e-09
-7.939018e-09 -7.219890e-09 -8.609264e-09 -9.610556e-09 -7.677218e-09 -8.359057e-09 -8.471218e-09 -8.372417e-09 -1.108064e-08 -1.084685e-08
-9.793999e-09 -1.037422e-08 -1.217929e-08 -1.142618e-08 -1.176399e-08 -1.235167e-08 -1.168988e-08 -1.094971e-08 -9.574393e-09 -1.120402e-08
-1.169396e-08 -1.252562e-08 -9.849940e-09 -1.013447e-08 -1.209390e-08 -1.039440e-08 -1.106867e-08 -1.110238e-08 -1.165143e-08 -1.154295e-08
-1.244774e-08 -1.101296e-08 -1.103699e-08 -1.073333e-08 -1.124412e-08 -1.217410e-08 -1.327570e-08 -1.275464e-08 -1.325380e-08 -1.088781e-08
-1.126077e-08 -1.220070e-08 -1.172793e-08 -1.120324e-08 -1.321521e-08 -1.218825e-08 -1.294483e-08 -1.212189e-08 -1.222958e-08 -1.152190e-08
-1.226952e-08 -1.164199e-08 -1.182709e-08 -1.188976e-08 -1.206479e-08 -1.176741e-08 -1.395596e-08 -1.358001e-08 -1.161961e-08 -1.256328e-08
-1.250857e-08 -1.099035e-08 -1.221934e-08 -1.107123e-08 -1.090062e-08 -1.110465e-08 -1.068762e-08 -1.113980e-08 -1.268878e-08 -1.233892e-08
-1.195820e-08 -1.053820e-08 -1.170482e-08 -1.262839e-08 -1.238533e-08 -1.168977e-08 -1.249554e-08 -1.181220e-08 -1.250509e-08 -1.064739e-08
-1.254039e-08 -1.058234e-08 -1.166823e-08 -1.285460e-08 -1.078271e-08 -1.106567e-08 -1.108667e-08 -1.109491e-08 -9.019810e-09 -9.275074e-09
-9.174185e-09 -9.137277e-09 -9.763338e-09 -9.789561e-09 -9.590448e-09 -1.004770e-08 -6.732554e-09 -1.093629e-08 -9.059763e-09 -8.057868e-09
-7.563234e-09 -9.018095e-09 -7.158840e-09 -8.107145e-09 -5.873588e-09 -7.670384e-09 -5.970350e-09 -6.514395e-09 -7.871763e-09 -6.366143e-09
-5.457048e-09 -6.814201e-09 -6.396073e-09 -5.022807e-09 -3.655956e-09 -7.896208e-09 -4.703279e-09 -4.736154e-09 -4.027770e-09 -2.672049e-09
-2.957227e-09 -3.271766e-09 -2.426637e-09 -1.375479e-09 -2.646224e-09 -3.073609e-09 -3.051460e-09 -1.434107e-09 -3.301897e-09 -4.522057e-09
-2.992974e-09 -2.349656e-09 -2.144082e-09 2.267082e-10 -1.033006e-09 -4.782424e-09 -1.055117e-09 6.144220e-10 -2.404874e-10 1.157227e-09
5.684199e-10
-2.596731e-10 -1.032844e-10 5.808493e-10 9.938782e-10 5.802673e-10 -1.845004e-11 8.506347e-10 1.337394e-09 8.300972e-10 2.190505e-09
2.721340e-09 2.491882e-09 2.799097e-09 2.375096e-09 3.623338e-09 4.524746e-09 3.632143e-09 5.823096e-09 5.109810e-09 6.740512e-09
2.363817e-09 5.738681e-09 4.319613e-09 4.568350e-09 4.217474e-09 2.909671e-09 5.585919e-09 6.966449e-09 4.577797e-09 5.477842e-09
4.788999e-09 5.627205e-09 7.314558e-09 6.921638e-09 9.710519e-09 8.982076e-09 7.511455e-09 7.468668e-09 7.986663e-09 7.790191e-09
8.432821e-09 8.771621e-09 6.990783e-09 8.179732e-09 8.477613e-09 9.059637e-09 9.730241e-09 9.719505e-09 8.798257e-09 9.674245e-09
8.739911e-09 1.074745e-08 9.822727e-09 8.751893e-09 9.095580e-09 9.719546e-09 9.992896e-09 1.139944e-08 1.176391e-08 1.100256e-08
1.279847e-08 1.125043e-08 9.771804e-09 1.089117e-08 1.056476e-08 1.079320e-08 1.038635e-08 1.067852e-08 1.226402e-08 1.133754e-08
1.101939e-08 1.093283e-08 1.112902e-08 1.221777e-08 1.184025e-08 1.178327e-08 1.052048e-08 1.062309e-08 1.229281e-08 1.208892e-08
1.089966e-08 1.178740e-08 1.248117e-08 1.224055e-08 1.276348e-08 1.047683e-08 1.138628e-08 1.136227e-08 1.187728e-08 1.117149e-08
1.273941e-08 1.092647e-08 1.296632e-08 1.173770e-08 1.205309e-08 1.193785e-08 1.202675e-08 1.237694e-08 1.253557e-08 1.155758e-08
1.044599e-08 1.096388e-08 1.236522e-08 1.227747e-08 1.194318e-08 1.102399e-08 1.074386e-08 1.341246e-08 1.213795e-08 1.221424e-08
1.122311e-08 1.049041e-08 1.151526e-08 1.079228e-08 1.106192e-08 1.048800e-08 1.361645e-08 1.007098e-08 1.137033e-08 1.170909e-08
1.020243e-08 1.090349e-08 1.209127e-08 1.073047e-08 9.106655e-09 8.944108e-09 8.452466e-09 8.601254e-09 1.138357e-08 8.826837e-09
9.331626e-09 1.025859e-08 7.349952e-09 7.619378e-09 8.521337e-09 9.130249e-09 7.122211e-09 8.451886e-09 7.685876e-09 9.747644e-09
8.333693e-09 9.806231e-09 6.289727e-09 8.318356e-09 6.153458e-09 5.051156e-09 8.622535e-09 6.648225e-09 7.289786e-09 5.717613e-09
6.252413e-09 3.430883e-09 5.625784e-09 4.402624e-09 6.732925e-09 6.046577e-09 6.227556e-09 7.135621e-09 3.035415e-09 3.456336e-09
4.386239e-09 3.823099e-09 3.561813e-09 3.348748e-09 3.943645e-09 2.469469e-09 3.164470e-09 1.133203e-09 2.468280e-09 2.796699e-09
1.318136e-09 1.031119e-09 1.717185e-09 9.987928e-10 2.178626e-09 3.357088e-09 1.765734e-10 3.558087e-11 6.767835e-10 -1.226169e-10
-9.529978e-10 -2.452899e-09 -3.419425e-09 4.413737e-10 -8.697434e-10 -1.794226e-09 -3.187363e-09 -1.504465e-09 -2.992815e-09 -3.902178e-09
-1.114531e-09 -1.821061e-09 -6.910270e-10 -3.291640e-09 -2.969746e-09 -3.435666e-09 -1.290860e-09 -3.128732e-09 -5.141176e-09 -3.118881e-09
-4.421905e-09 -5.354200e-09 -5.191888e-09 -4.222942e-09 -4.326943e-09 -4.261653e-09 -3.092856e-09 -6.906274e-09 -5.811066e-09 -6.813055e-09
-7.414396e-09 -6.223849e-09 -6.013975e-09 -6.339737e-09 -5.977218e-09 -8.168871e-09 -7.220029e-09 -8.035578e-09 -6.446540e-09 -7.755500e-09
-7.914674e-09 -8.215739e-09 -8.606828e-09 -8.930092e-09 -9.661055e-09 -7.663921e-09 -9.986219e-09 -6.382381e-09 -9.358135e-09 -9.187513e-09
-8.671357e-09 -1.085207e-08 -8.520969e-09 -1.044169e-08 -1.012252e-08 -1.098328e-08 -9.570189e-09 -9.953862e-09 -9.196389e-09 -9.668596e-09
-1.008155e-08 -1.072868e-08 -1.150721e-08 -9.759330e-09 -1.077446e-08 -1.178657e-08 -1.047050e-08 -1.105507e-08 -1.181569e-08 -1.060255e-08
-1.064795e-08 -1.043577e-08 -1.130573e-08 -1.096645e-08 -1.242161e-08 -1.315170e-08 -1.256304e-08 -1.129553e-08 -1.118504e-08 -9.779268e-09
-1.311060e-08 -1.178995e-08 -1.080161e-08 -1.101911e-08 -1.300706e-08 -1.171146e-08 -1.218360e-08 -1.386896e-08 -1.101683e-08 -1.242385e-08
-1.195842e-08 -1.146497e-08 -1.234012e-08 -1.277332e-08 -1.085237e-08 -1.297323e-08 -1.324737e-08 -1.175535e-08 -1.143096e-08 -1.241574e-08
-1.250003e-08 -1.215241e-08 -1.223456e-08 -1.259072e-08 -1.113087e-08 -1.209007e-08 -1.328967e-08 -1.119948e-08 -9.996465e-09 -1.132492e-08
-1.106714e-08 -1.154818e-08 -9.898987e-09 -1.173726e-08 -1.021472e-08 -1.052629e-08 -1.161381e-08 -1.150273e-08 -1.064366e-08 -1.161954e-08
-1.106665e-08 -1.143651e-08 -9.624181e-09 -1.060904e-08 -1.002908e-08 -1.039308e-08 -8.815671e-09 -1.110458e-08 -9.808191e-09 -9.992004e-09
-9.736489e-09 -9.525038e-09 -9.015751e-09 -8.308731e-09 -8.406013e-09 -8.069592e-09 -7.608612e-09 -9.078412e-09 -7.563639e-09 -8.686609e-09
-8.578727e-09 -7.897474e-09 -7.449113e-09 -9.597703e-09 -8.493790e-09 -9.499453e-09 -7.479053e-09 -6.803805e-09 -6.217585e-09 -5.677143e-09
-8.021516e-09 -5.570984e-09 -6.965141e-09 -6.964456e-09 -4.254703e-09 -6.421230e-09 -5.824223e-09 -2.932574e-09 -3.253520e-09 -5.355276e-09
-2.963315e-09 -2.964748e-09 -3.136057e-09 -1.782159e-09 -4.304179e-09 -2.185086e-09 -3.032370e-09 -2.402009e-09 3.790264e-10 -2.778878e-09
-1.758489e-09 -3.220378e-09 -2.141791e-09 5.737522e-10 -6.782980e-10 -9.839510e-10 -2.050486e-09 -1.569097e-09 -9.114626e-10 -1.459486e-09
-2.596731e-10
1.343104e-09 1.051750e-09 -1.598913e-10 1.219743e-09 1.214456e-09 2.894099e-09 1.176362e-09 1.090248e-09 2.528408e-09 2.112049e-09
4.898687e-09 2.545484e-09 1.677733e-09 2.111460e-10 2.639294e-09 1.740093e-09 4.796312e-09 1.239314e-09 3.339859e-09 2.685640e-09
4.030563e-09 5.571043e-09 1.906436e-09 6.138944e-09 3.465591e-09 5.359194e-09 4.903725e-09 6.941594e-09 3.951428e-09 5.272802e-09
6.417068e-09 8.133420e-09 6.942420e-09 6.873710e-09 5.777341e-09 6.018928e-09 6.941374e-09 8.188345e-09 7.217835e-09 7.902884e-09
8.331093e-09 8.941885e-09 9.812740e-09 7.433991e-09 8.243698e-09 8.907407e-09 1.025008e-08 8.835756e-09 1.024713e-08 1.027461e-08
7.746475e-09 9.674416e-09 8.708425e-09 1.107016e-08 1.028106e-08 1.119803e-08 9.879039e-09 9.225353e-09 1.277133e-08 8.949473e-09
1.006696e-08 1.059448e-08 1.144831e-08 1.005350e-08 9.593047e-09 1.044307e-08 1.126173e-08 1.197412e-08 9.363146e-09 1.037534e-08
1.140937e-08 1.028854e-08 1.098944e-08 1.203313e-08 1.279006e-08 1.183879e-08 1.089633e-08 1.052429e-08 9.523482e-09 1.135287e-08
1.199726e-08 1.192780e-08 1.028920e-08 1.179897e-08 1.061028e-08 1.077875e-08 1.207151e-08 1.197373e-08 1.224447e-08 1.062752e-08
1.144971e-08 1.160617e-08 1.081427e-08 1.199011e-08 1.002325e-08 1.065618e-08 1.093831e-08 1.270099e-08 1.076306e-08 1.132959e-08
1.246575e-08 1.154462e-08 1.099991e-08 1.062005e-08 1.154560e-08 1.217049e-08 1.082358e-08 1.123049e-08 9.962171e-09 1.028311e-08
1.109168e-08 1.096183e-08 9.942810e-09 1.192182e-08 1.074357e-08 1.079216e-08 1.214445e-08 1.077976e-08 1.038231e-08 1.057760e-08
1.014591e-08 8.991065e-09 9.498119e-09 8.935820e-09 9.551171e-09 9.860599e-09 9.494864e-09 9.225746e-09 8.679769e-09 7.812568e-09
9.024975e-09 9.740319e-09 9.621293e-09 9.462883e-09 8.434029e-09 8.821046e-09 9.603738e-09 7.572712e-09 7.896404e-09 7.685938e-09
7.958703e-09 5.189612e-09 8.457458e-09 8.004967e-09 6.329493e-09 6.380843e-09 8.098310e-09 7.373780e-09 6.775287e-09 8.133516e-09
6.963352e-09 4.775096e-09 4.090679e-09 4.844294e-09 4.765915e-09 4.630634e-09 4.230130e-09 3.492848e-09 5.382360e-09 2.392545e-09
4.062995e-09 3.828931e-09 2.669460e-09 4.058502e-09 2.409891e-09 3.732461e-09 3.775877e-09 3.392058e-09 2.761706e-09 1.056420e-09
3.001377e-09 2.221285e-09 9.830846e-10 2.024185e-09 1.003740e-09 9.586157e-10 -1.921347e-09 -5.696688e-11 9.521864e-10 5.681541e-10
1.391399e-09 -2.231698e-09 4.236111e-10 -2.846685e-09 -6.177109e-10 -8.118118e-10 -1.549441e-09 -2.733962e-09 -1.807103e-09 -1.733008e-09
-1.616163e-09 -3.352746e-09 -1.546236e-09 -4.234908e-09 -2.994267e-09 -2.274714e-09 -1.364357e-09 -2.905785e-09 -4.325951e-09 -4.132267e-09
-2.965599e-09 -4.626882e-09 -1.891036e-09 -4.366110e-09 -6.412419e-09 -4.787285e-09 -6.529166e-09 -5.662387e-09 -5.634631e-09 -6.069941e-09
-5.578657e-09 -4.996088e-09 -5.741386e-09 -5.662545e-09 -7.448592e-09 -7.351635e-09 -8.115346e-09 -7.825779e-09 -8.016482e-09 -6.431998e-09
-9.765048e-09 -8.508437e-09 -8.327885e-09 -7.530334e-09 -8.936666e-09 -9.212879e-09 -9.393218e-09 -1.031621e-08 -8.086779e-09 -9.063593e-09
-8.477876e-09 -1.031996e-08 -9.153672e-09 -1.018111e-08 -1.138837e-08 -9.492370e-09 -1.057067e-08 -8.940126e-09 -1.179976e-08 -1.031508e-08
-9.205606e-09 -1.135417e-08 -1.049877e-08 -1.073020e-08 -9.879849e-09 -1.084096e-08 -1.350486e-08 -1.021839e-08 -1.172487e-08 -1.267729e-08
-1.027017e-08 -1.038959e-08 -9.712489e-09 -1.289481e-08 -1.251859e-08 -1.167877e-08 -1.365364e-08 -1.224589e-08 -1.256836e-08 -1.100335e-08
-1.142451e-08 -1.126552e-08 -1.182877e-08 -1.238495e-08 -1.263371e-08 -1.193931e-08 -1.239886e-08 -1.224868e-08 -1.121345e-08 -9.872992e-09
-1.124076e-08 -1.146922e-08 -1.024251e-08 -1.084804e-08 -1.104540e-08 -1.168730e-08 -1.284702e-08 -1.333633e-08 -1.034582e-08 -1.096702e-08
-1.143187e-08 -1.222560e-08 -1.072288e-08 -1.210650e-08 -1.223067e-08 -1.216752e-08 -1.149318e-08 -1.249618e-08 -1.035592e-08 -1.133079e-08
-1.200785e-08 -1.009873e-08 -1.185596e-08 -1.046679e-08 -1.130623e-08 -1.175252e-08 -1.175291e-08 -1.069814e-08 -1.141916e-08 -1.096008e-08
-1.158859e-08 -1.061158e-08 -1.163623e-08 -1.075729e-08 -9.059367e-09 -1.113199e-08 -1.064546e-08 -9.570174e-09 -1.033721e-08 -1.029090e-08
-9.044693e-09 -9.617519e-09 -9.971984e-09 -9.545005e-09 -9.101651e-09 -6.465843e-09 -7.690112e-09 -8.083645e-09 -8.871187e-09 -7.134159e-09
-7.279051e-09 -8.823155e-09 -8.433557e-09 -6.761626e-09 -7.088739e-09 -5.611378e-09 -5.418714e-09 -6.614522e-09 -7.314700e-09 -5.289198e-09
-5.567131e-09 -6.896894e-09 -2.776717e-09 -5.297302e-09 -3.779422e-09 -6.159831e-09 -3.401418e-09 -6.013740e-09 -4.418498e-09 -2.112221e-09
-2.654363e-09 -4.227292e-09 -3.829859e-09 -3.539425e-09 -3.459692e-09 -1.794353e-09 -2.654948e-09 -4.496984e-09 -1.524346e-09 -2.944774e-09
-2.780942e-09 -1.966957e-09 -1.495108e-09 -1.268115e-09 -1.121121e-09 -1.218807e-09 7.926999e-10 -2.025377e-09 -1.722494e-09 -2.076962e-09
1.343104e-09
1.351093e-09 1.783922e-09 5.068468e-10 1.409181e-09 -4.682235e-10 2.526046e-09 3.188913e-09 1.452410e-09 3.009177e-09 -7.314635e-10
3.327049e-09 2.811883e-09 4.068932e-09 3.624682e-09 4.974586e-09 2.923942e-09 4.884558e-09 5.316423e-09 1.928533e-09 4.370503e-09
4.613483e-09 4.947952e-09 2.401557e-09 3.600628e-09 4.409217e-09 5.571585e-09 5.510424e-09 5.496164e-09 5.381711e-09 4.294544e-09
4.872133e-09 5.724687e-09 6.928820e-09 6.037671e-09 6.149117e-09 6.029131e-09 6.626716e-09 7.494187e-09 6.693785e-09 8.021508e-09
6.868713e-09 8.351191e-09 8.364927e-09 6.752003e-09 8.524529e-09 8.179302e-09 8.916920e-09 1.074942e-08 1.011061e-08 8.674861e-09
7.814568e-09 8.768471e-09 9.320215e-09 8.993276e-09 9.426029e-09 9.446226e-09 8.521348e-09 9.011802e-09 8.662465e-09 9.938037e-09
1.296807e-08 9.737213e-09 9.462510e-09 1.073341e-08 9.429264e-09 9.467994e-09 1.059847e-08 1.051723e-08 1.308671e-08 9.641940e-09
9.802199e-09 1.128707e-08 1.156052e-08 1.137010e-08 9.746571e-09 1.132622e-08 1.029950e-08 9.922468e-09 1.087276e-08 1.220466e-08
1.141208e-08 1.111675e-08 1.072500e-08 1.109437e-08 1.166010e-08 1.154194e-08 1.227395e-08 1.126999e-08 1.300772e-08 1.121838e-08
1.167241e-08 1.023049e-08 1.113015e-08 1.065313e-08 1.057479e-08 1.208030e-08 1.108606e-08 1.209674e-08 1.120130e-08 1.037927e-08
1.178054e-08 1.144775e-08 1.028194e-08 1.171530e-08 1.091766e-08 1.027861e-08 1.107426e-08 1.127569e-08 1.075756e-08 1.391047e-08
1.125773e-08 1.013518e-08 1.072566e-08 1.131148e-08 9.928047e-09 1.062633e-08 1.135981e-08 1.054840e-08 9.155174e-09 1.084843e-08
9.936489e-09 9.877396e-09 9.860535e-09 9.223968e-09 9.359574e-09 9.652619e-09 9.153230e-09 8.421186e-09 7.966976e-09 8.159172e-09
8.555483e-09 6.288367e-09 6.909568e-09 6.977247e-09 8.429442e-09 8.029770e-09 8.720025e-09 1.018452e-08 7.790735e-09 9.712701e-09
8.265292e-09 8.635261e-09 8.101530e-09 6.300735e-09 6.340219e-09 8.096145e-09 5.398254e-09 6.030898e-09 4.540964e-09 7.631421e-09
5.214800e-09 5.192920e-09 6.565385e-09 6.080666e-09 4.799787e-09 4.888582e-09 3.622726e-09 5.490598e-09 3.154178e-09 3.369082e-09
3.548747e-09 1.452794e-09 3.012758e-09 3.402626e-09 4.015131e-09 8.337007e-10 -7.363188e-11 2.563264e-09 2.257899e-09 2.412366e-09
2.133597e-09 2.296906e-09 1.821455e-09 1.304333e-09 7.340419e-10 7.528949e-10 3.417045e-10 1.166260e-09 5.115073e-10 -6.548579e-10
-7.489072e-10 -4.782721e-10 -1.567047e-09 -1.975105e-09 -6.267837e-10 -1.281228e-09 -1.586283e-09 -2.063868e-09 -7.571457e-10 -1.400104e-09
-2.723936e-09 -6.790856e-10 -3.132367e-09 -2.928241e-09 -9.808567e-10 -4.673244e-09 -2.464878e-09 -2.972207e-09 -4.354769e-09 -3.044750e-09
-5.044923e-09 -3.092226e-09 -4.836805e-09 -3.889754e-09 -5.330685e-09 -2.873868e-09 -7.689088e-09 -4.608241e-09 -4.452636e-09 -4.490517e-09
-3.650540e-09 -6.371376e-09 -7.596212e-09 -6.474953e-09 -5.501731e-09 -5.635073e-09 -5.025667e-09 -7.003326e-09 -8.556888e-09 -6.953756e-09
-9.265135e-09 -7.955302e-09 -7.085904e-09 -8.028869e-09 -8.440346e-09 -7.694569e-09 -9.548544e-09 -5.785649e-09 -7.949851e-09 -9.350475e-09
-8.845468e-09 -8.578461e-09 -8.416253e-09 -9.911160e-09 -8.425084e-09 -1.096282e-08 -9.822467e-09 -9.567898e-09 -9.633285e-09 -8.735227e-09
-9.086162e-09 -9.432863e-09 -9.690585e-09 -9.568043e-09 -1.086604e-08 -9.799279e-09 -1.192074e-08 -1.048886e-08 -9.264491e-09 -8.406400e-09
-9.498687e-09 -9.536829e-09 -9.994030e-09 -1.217118e-08 -1.012719e-08 -1.328631e-08 -1.161303e-08 -1.002106e-08 -9.635492e-09 -9.794801e-09
-1.060424e-08 -1.118289e-08 -1.102811e-08 -1.048946e-08 -1.148263e-08 -1.101503e-08 -1.219611e-08 -1.069967e-08 -1.097849e-08 -1.302002e-08
-1.194769e-08 -1.065884e-08 -1.026620e-08 -1.098802e-08 -1.062084e-08 -1.035855e-08 -1.047588e-08 -1.114903e-08 -1.120643e-08 -1.089645e-08
-1.208273e-08 -1.131559e-08 -1.194877e-08 -1.279617e-08 -1.182720e-08 -1.066973e-08 -1.268594e-08 -1.039212e-08 -1.093844e-08 -9.916326e-09
-9.555914e-09 -1.092041e-08 -1.345830e-08 -1.141758e-08 -1.031071e-08 -1.012051e-08 -9.503418e-09 -8.828408e-09 -1.108033e-08 -1.019287e-08
-1.095395e-08 -1.090449e-08 -9.289296e-09 -1.051080e-08 -9.476501e-09 -8.227507e-09 -9.286509e-09 -1.191154e-08 -1.000384e-08 -9.545441e-09
-7.764259e-09 -8.023696e-09 -7.055778e-09 -8.862515e-09 -8.766857e-09 -9.463036e-09 -1.042937e-08 -6.092475e-09 -8.281204e-09 -7.936024e-09
-5.941364e-09 -7.923935e-09 -6.719004e-09 -5.841061e-09 -5.687278e-09 -8.094716e-09 -6.920023e-09 -4.646279e-09 -7.642138e-09 -6.870973e-09
-6.114931e-09 -6.091918e-09 -5.537356e-09 -4.630272e-09 -4.663594e-09 -4.496679e-09 -2.971033e-09 -2.292375e-09 -5.328594e-09 -3.834868e-09
-3.699782e-09 -2.269576e-09 -3.552028e-09 -2.434506e-09 -3.773431e-09 -1.584168e-09 -3.928031e-09 -4.358091e-09 -2.635642e-09 -3.371569e-09
-2.629800e-09 -3.471091e-10 -1.448173e-09 -2.826755e-09 1.589480e-10 1.971030e-10 -1.090915e-09 2.296799e-09 -1.217724e-09 -1.110971e-09
1.351093e-09
3.075108e-10 4.731447e-10 -1.848510e-09 -1.524102e-10 1.824527e-09 1.335876e-09 2.817291e-09 1.291727e-09 8.545734e-11 2.617786e-09
1.358310e-09 1.929030e-09 2.500931e-09 2.305053e-09 2.645580e-09 3.465946e-09 2.687545e-09 3.767200e-09 2.091301e-09 3.882008e-09
1.678843e-09 1.633729e-09 2.306244e-09 4.501041e-09 4.413053e-09 3.898455e-09 3.512608e-09 6.707721e-09 5.837538e-09 5.069511e-09
7.511840e-09 5.775231e-09 7.000964e-09 7.098569e-09 6.143190e-09 7.674213e-09 8.377892e-09 7.599539e-09 6.752586e-09 7.573258e-09
8.536955e-09 6.478096e-09 6.382452e-09 8.326317e-09 6.425492e-09 9.053820e-09 6.904217e-09 8.898220e-09 8.614337e-09 9.016499e-09
8.147840e-09 8.636487e-09 9.114845e-09 8.799829e-09 7.847715e-09 7.978135e-09 8.692839e-09 8.431935e-09 1.044820e-08 1.001763e-08
9.445667e-09 9.150995e-09 1.054530e-08 9.718039e-09 1.045584e-08 9.644765e-09 1.081958e-08 8.719556e-09 9.531323e-09 1.098557e-08
9.812855e-09 1.086636e-08 1.113894e-08 1.033332e-08 1.030833e-08 1.113289e-08 9.434227e-09 1.023113e-08 1.138249e-08 1.240449e-08
1.226908e-08 9.759983e-09 1.046313e-08 1.072104e-08 1.024971e-08 9.552139e-09 1.076585e-08 1.053190e-08 1.133058e-08 1.116920e-08
1.228576e-08 1.051245e-08 1.108181e-08 9.960540e-09 1.113588e-08 1.101333e-08 1.026538e-08 9.991543e-09 1.142075e-08 1.153828e-08
1.074284e-08 1.080960e-08 1.230369e-08 1.029188e-08 9.692848e-09 9.379129e-09 1.093816e-08 1.092771e-08 1.039787e-08 1.196169e-08
1.280362e-08 1.120018e-08 1.071925e-08 9.775007e-09 9.864928e-09 9.104165e-09 1.000417e-08 8.731686e-09 8.990603e-09 9.385384e-09
9.749136e-09 9.241281e-09 9.191582e-09 1.124107e-08 8.821388e-09 8.126848e-09 1.011499e-08 1.072117e-08 9.313641e-09 7.483616e-09
8.835393e-09 8.448631e-09 7.538989e-09 7.765697e-09 7.749321e-09 6.982439e-09 7.380319e-09 6.067383e-09 8.434225e-09 7.947293e-09
7.161162e-09 5.518272e-09 7.028573e-09 4.943471e-09 6.096475e-09 5.336744e-09 7.246330e-09 6.683327e-09 5.457174e-09 7.220831e-09
6.142137e-09 4.961873e-09 4.489906e-09 4.113097e-09 4.642191e-09 5.462541e-09 4.366493e-09 4.613498e-09 4.538992e-09 4.126960e-09
4.391507e-09 2.948579e-09 6.513179e-09 3.643026e-09 3.060036e-09 3.158609e-09 2.968575e-09 1.774372e-09 1.379820e-09 4.769738e-09
4.423559e-09 1.740420e-09 2.623716e-09 2.224191e-09 4.164267e-10 8.002727e-10 -1.336648e-09 -1.813669e-10 -1.817389e-09 1.265824e-09
2.241380e-09 -8.140475e-10 -1.038837e-09 -1.914003e-10 1.164088e-09 -4.189555e-10 -1.523085e-09 -1.916137e-09 -2.037987e-09 2.289526e-10
-2.939051e-09 -5.964388e-10 -3.123908e-09 -3.047190e-09 -1.074910e-09 -2.071533e-09 -3.407896e-09 -1.710807e-09 -3.323517e-09 -1.895788e-09
-3.633395e-09 -3.045513e-09 -6.377936e-09 -6.089555e-09 -5.195870e-09 -4.982695e-09 -6.198151e-09 -2.484912e-09 -6.216479e-09 -7.256566e-09
-5.263934e-09 -5.042871e-09 -6.344047e-09 -7.285562e-09 -6.232188e-09 -7.172344e-09 -6.787703e-09 -7.289008e-09 -5.986388e-09 -5.664075e-09
-6.792714e-09 -7.790335e-09 -6.702150e-09 -8.035598e-09 -7.685799e-09 -8.388205e-09 -8.548066e-09 -8.369581e-09 -9.008575e-09 -8.376809e-09
-9.962626e-09 -8.636622e-09 -8.997528e-09 -8.933061e-09 -9.120972e-09 -8.897952e-09 -1.238410e-08 -1.012120e-08 -9.690394e-09 -7.958591e-09
-9.794362e-09 -1.079289e-08 -8.361475e-09 -1.068403e-08 -1.016884e-08 -9.580332e-09 -9.216071e-09 -1.119495e-08 -1.181401e-08 -9.476865e-09
-9.341554e-09 -1.059883e-08 -1.181709e-08 -1.032707e-08 -1.131026e-08 -8.994052e-09 -1.160646e-08 -9.646811e-09 -9.451520e-09 -9.269289e-09
-1.110040e-08 -1.185906e-08 -1.204939e-08 -1.077878e-08 -9.862745e-09 -1.216232e-08 -1.047476e-08 -1.047165e-08 -1.030426e-08 -1.071425e-08
-9.939018e-09 -1.000716e-08 -1.205071e-08 -1.114605e-08 -1.087570e-08 -1.123665e-08 -1.044179e-08 -9.896929e-09 -1.078142e-08 -1.003963e-08
-9.627914e-09 -1.034138e-08 -1.077885e-08 -1.045587e-08 -1.095462e-08 -9.555425e-09 -8.943421e-09 -1.097813e-08 -1.090505e-08 -8.764720e-09
-1.037270e-08 -9.125473e-09 -1.193836e-08 -9.814949e-09 -1.137159e-08 -1.009521e-08 -1.018726e-08 -9.637408e-09 -8.781740e-09 -1.024832e-08
-9.591024e-09 -1.092299e-08 -1.086710e-08 -8.537445e-09 -8.517065e-09 -9.898836e-09 -8.315563e-09 -8.229533e-09 -1.031429e-08 -1.020849e-08
-1.038129e-08 -6.689424e-09 -1.032539e-08 -9.320867e-09 -8.787343e-09 -8.355276e-09 -8.430717e-09 -8.469455e-09 -7.191998e-09 -7.839444e-09
-7.331276e-09 -8.808157e-09 -6.521625e-09 -5.105926e-09 -7.185968e-09 -6.695867e-09 -5.722469e-09 -6.101645e-09 -3.941962e-09 -6.094519e-09
-6.657292e-09 -2.236750e-09 -4.626763e-09 -5.355463e-09 -3.856969e-09 -4.946073e-09 -4.157304e-09 -5.710630e-09 -2.829733e-09 -5.380822e-09
-4.918491e-09 -2.724585e-09 -4.768678e-09 -2.472372e-09 -3.236975e-11 -2.849358e-09 -1.815141e-09 -2.809343e-09 -3.351347e-09 -2.397064e-09
-4.181910e-09 -3.296592e-09 -7.388454e-10 -1.627710e-09 -9.865843e-10 -2.698390e-10 3.437476e-10 8.160976e-10 -2.360518e-10 -1.275403e-09
3.075108e-10
1.418271e-09 8.215877e-10 1.115391e-09 8.219760e-10 9.750297e-10 -3.662077e-10 1.198253e-10 1.445531e-09 2.127728e-09 1.148235e-09
7.816353e-10 9.205867e-10 2.578487e-09 2.389016e-09 3.739550e-09 6.786312e-10 3.068157e-09 2.869315e-09 3.318814e-09 3.277573e-09
2.812760e-09 3.760811e-09 4.960352e-09 5.588492e-09 5.326823e-09 6.369049e-09 4.200625e-09 6.252504e-09 6.767971e-09 5.638361e-09
4.964716e-09 4.187915e-09 8.111084e-09 5.760986e-09 7.052944e-09 5.340001e-09 5.518377e-09 6.359366e-09 5.941037e-09 7.069039e-09
7.495916e-09 7.844084e-09 6.662984e-09 6.078565e-09 7.367541e-09 7.891660e-09 9.484192e-09 9.530257e-09 9.984298e-09 8.734371e-09
7.602563e-09 9.682161e-09 9.849844e-09 7.422788e-09 9.205697e-09 1.031381e-08 9.191548e-09 9.078181e-09 1.024106e-08 9.649259e-09
1.005976e-08 1.076448e-08 9.180552e-09 9.665798e-09 9.225808e-09 9.818296e-09 9.355531e-09 1.085911e-08 1.055785e-08 1.181913e-08
1.065304e-08 1.004025e-08 1.012486e-08 9.305946e-09 1.019570e-08 9.140288e-09 1.210154e-08 1.145481e-08 1.090891e-08 1.053448e-08
1.008513e-08 1.018643e-08 1.030475e-08 9.723172e-09 9.107509e-09 1.033492e-08 1.038857e-08 1.172673e-08 1.022669e-08 1.020054e-08
1.062278e-08 1.106244e-08 1.116498e-08 1.021447e-08 1.027509e-08 1.103160e-08 1.068765e-08 1.018697e-08 1.070902e-08 1.154283e-08
1.129966e-08 1.115077e-08 9.618526e-09 1.102911e-08 1.034564e-08 1.013313e-08 1.022662e-08 9.795555e-09 8.742229e-09 9.443490e-09
8.761297e-09 9.591255e-09 1.130550e-08 1.016484e-08 1.001571e-08 8.897897e-09 9.749315e-09 8.931104e-09 9.680810e-09 1.018311e-08
1.072623e-08 1.093489e-08 7.635357e-09 8.850567e-09 9.775964e-09 8.504204e-09 9.538899e-09 7.747729e-09 8.390082e-09 8.847882e-09
8.764338e-09 9.164407e-09 8.233003e-09 7.693099e-09 8.144853e-09 9.228288e-09 6.806559e-09 8.500491e-09 6.979532e-09 8.091223e-09
5.425413e-09 6.449510e-09 6.423126e-09 6.276329e-09 5.498924e-09 5.834694e-09 5.498508e-09 6.006939e-09 3.976158e-09 4.064609e-09
5.249376e-09 8.551535e-09 6.174241e-09 4.964826e-09 4.797165e-09 5.115533e-09 2.963118e-09 3.908903e-09 3.235890e-09 2.509837e-09
2.286066e-09 4.611539e-09 2.873111e-09 2.109275e-09 3.379333e-09 4.843849e-10 2.739737e-09 1.413338e-09 1.405680e-09 1.022655e-09
1.207404e-09 1.775254e-09 1.765790e-09 1.820510e-09 7.956828e-11 2.332967e-09 6.372049e-10 -1.607792e-10 -3.860180e-10 2.569730e-09
1.609792e-09 3.171996e-11 2.384674e-09 -7.644563e-10 -1.744581e-09 -1.703992e-09 1.427665e-10 4.353817e-10 -1.758786e-09 -1.362761e-09
-4.031822e-10 -1.861077e-09 -3.320549e-09 -2.355186e-09 -1.846367e-09 -3.224132e-09 -2.823075e-09 -1.955147e-09 -1.810480e-09 -5.119689e-09
-1.739028e-09 -3.636467e-09 -2.821935e-09 -4.371473e-09 -5.870665e-09 -5.853725e-09 -3.016430e-09 -4.669044e-09 -3.680950e-09 -3.476043e-09
-4.100472e-09 -4.741569e-09 -4.942969e-09 -6.418391e-09 -5.856366e-09 -6.027848e-09 -6.823166e-09 -5.654481e-09 -6.056119e-09 -6.518972e-09
-6.650927e-09 -6.474190e-09 -6.839567e-09 -7.863073e-09 -8.160728e-09 -8.339918e-09 -7.829536e-09 -7.643561e-09 -7.822011e-09 -8.724832e-09
-8.756524e-09 -7.095274e-09 -7.105426e-09 -8.820300e-09 -8.455957e-09 -8.430870e-09 -7.821858e-09 -8.936397e-09 -1.003428e-08 -1.000297e-08
-8.520286e-09 -9.284350e-09 -8.436416e-09 -1.278182e-08 -9.187935e-09 -9.380720e-09 -1.055359e-08 -9.373519e-09 -1.118855e-08 -1.148391e-08
-9.380074e-09 -1.101834e-08 -9.765007e-09 -1.130857e-08 -1.061154e-08 -1.092903e-08 -1.127185e-08 -1.101140e-08 -1.014973e-08 -9.427382e-09
-9.557142e-09 -1.008447e-08 -1.059844e-08 -1.061862e-08 -9.349834e-09 -1.026095e-08 -9.977993e-09 -1.108303e-08 -1.086025e-08 -1.192283e-08
-9.913801e-09 -9.256017e-09 -1.014910e-08 -9.769743e-09 -1.121538e-08 -9.014966e-09 -1.139268e-08 -1.029716e-08 -1.019590e-08 -8.768879e-09
-9.864860e-09 -9.979122e-09 -9.710559e-09 -1.001427e-08 -9.878696e-09 -1.117890e-08 -1.010481e-08 -1.115497e-08 -9.294155e-09 -9.307992e-09
-1.023164e-08 -1.007487e-08 -8.723161e-09 -8.842377e-09 -8.346086e-09 -1.044853e-08 -9.173958e-09 -9.508122e-09 -8.692536e-09 -9.901690e-09
-9.908853e-09 -8.441845e-09 -7.762435e-09 -7.846260e-09 -8.977534e-09 -8.618884e-09 -8.251202e-09 -9.528659e-09 -7.186258e-09 -6.916538e-09
-7.657312e-09 -8.268810e-09 -9.105715e-09 -8.212921e-09 -8.117422e-09 -9.168089e-09 -8.224592e-09 -8.204682e-09 -6.084771e-09 -4.658417e-09
-6.926701e-09 -6.804253e-09 -5.783062e-09 -7.900900e-09 -5.666033e-09 -4.410667e-09 -6.260806e-09 -7.675768e-09 -7.422956e-09 -3.094277e-09
-5.618642e-09 -5.390648e-09 -5.002493e-09 -6.580122e-09 -5.451016e-09 -5.018298e-09 -4.973022e-09 -3.636762e-09 -4.861369e-09 -2.659372e-09
-4.151762e-09 -1.928255e-09 -4.949992e-09 -3.629634e-09 -2.567223e-09 -1.745474e-09 -2.652383e-09 -8.058789e-10 -3.062998e-09 -1.080027e-09
-2.898712e-09 -2.779501e-09 -2.860240e-09 -3.075654e-09 4.314760e-10 -1.903360e-09 2.231181e-10 2.793815e-09 -7.099716e-11 -5.555482e-10
1.418271e-09
1.328516e-09 1.288018e-10 -7.579032e-10 1.055680e-09 -5.105413e-10 5.100058e-10 9.625921e-10 1.668339e-09 8.607411e-11 2.815933e-09
2.050622e-09 2.265518e-09 3.624444e-09 1.642188e-09 3.637592e-09 4.117561e-09 1.967367e-09 4.067964e-09 3.468179e-09 2.334144e-09
5.800960e-09 3.425645e-09 1.686881e-09 2.527826e-09 5.110156e-09 6.437819e-09 6.231938e-09 3.728250e-09 6.683641e-09 4.230293e-09
4.322962e-09 5.112874e-09 6.279263e-09 4.893060e-09 7.404056e-09 5.928197e-09 8.030915e-09 5.924747e-09 7.629014e-09 6.402878e-09
5.055467e-09 8.416475e-09 6.970891e-09 8.155214e-09 6.448679e-09 9.686818e-09 8.277489e-09 6.291135e-09 9.161115e-09 7.247331e-09
8.863934e-09 7.761759e-09 6.949401e-09 9.594075e-09 9.097907e-09 7.600788e-09 9.007812e-09 8.293910e-09 9.073960e-09 8.252310e-09
7.573143e-09 9.226089e-09 9.947833e-09 8.971623e-09 8.471651e-09 9.526318e-09 9.030161e-09 9.039412e-09 1.032778e-08 8.883731e-09
8.454514e-09 7.917245e-09 1.044981e-08 8.113486e-09 9.125931e-09 8.868631e-09 9.616957e-09 1.026227e-08 1.035762e-08 1.047918e-08
9.875097e-09 1.010638e-08 1.029120e-08 9.769406e-09 1.244787e-08 1.061950e-08 1.029691e-08 1.127110e-08 1.031488e-08 1.074775e-08
1.113473e-08 1.228908e-08 1.039668e-08 1.098299e-08 1.008408e-08 1.040243e-08 1.008717e-08 9.509325e-09 9.664132e-09 9.703379e-09
9.542975e-09 9.768127e-09 1.040724e-08 1.096169e-08 1.018247e-08 1.047842e-08 9.586569e-09 9.604831e-09 9.754217e-09 1.147262e-08
1.005227e-08 9.275724e-09 8.611254e-09 9.591901e-09 8.135530e-09 8.225722e-09 9.516336e-09 8.617717e-09 1.008470e-08 1.040424e-08
1.013094e-08 8.445877e-09 9.036111e-09 8.641122e-09 8.536596e-09 8.958055e-09 7.040390e-09 8.186882e-09 8.297373e-09 6.336881e-09
7.732748e-09 8.510742e-09 8.173903e-09 7.434346e-09 7.152774e-09 5.402210e-09 9.031592e-09 8.249429e-09 7.935783e-09 7.436720e-09
5.156507e-09 5.378178e-09 5.236567e-09 7.806729e-09 4.498669e-09 5.165633e-09 6.492729e-09 4.904994e-09 5.758391e-09 5.091500e-09
5.183377e-09 4.143470e-09 3.967655e-09 4.061941e-09 4.683070e-09 5.617178e-09 2.372427e-09 5.052798e-09 3.797433e-09 2.948574e-09
4.261797e-09 2.357095e-09 4.337729e-09 2.786844e-09 3.432598e-09 3.805160e-09 5.397366e-09 2.782131e-09 -3.712425e-10 7.704259e-10
1.553973e-09 1.869557e-09 1.298451e-09 -6.116829e-10 1.302107e-10 1.544575e-09 -1.010294e-10 2.985499e-10 -2.305279e-09 -9.025771e-10
-1.275861e-09 -3.325164e-10 -8.164245e-10 1.279755e-09 -1.589918e-09 -2.006246e-09 -2.132079e-09 -9.076800e-10 -2.398786e-09 -3.432392e-09
-1.785276e-09 -2.531803e-09 -1.251767e-09 -4.331606e-09 -2.786941e-09 -4.115262e-09 -1.737320e-09 -3.106811e-09 -3.704711e-09 -1.798334e-09
-2.664050e-09 -3.594434e-09 -3.556341e-09 -4.019180e-09 -3.512518e-09 -4.675107e-09 -1.954803e-09 -3.363540e-09 -3.770120e-09 -4.489383e-09
-5.255776e-09 -4.753409e-09 -6.533642e-09 -6.694585e-09 -4.841797e-09 -8.421064e-09 -5.919390e-09 -6.563104e-09 -8.172517e-09 -6.558084e-09
-4.908643e-09 -6.723874e-09 -6.014564e-09 -9.785412e-09 -5.065848e-09 -7.773685e-09 -9.078928e-09 -7.670486e-09 -8.091103e-09 -9.330280e-09
-7.865331e-09 -7.330705e-09 -9.605746e-09 -8.002552e-09 -8.225814e-09 -7.564879e-09 -6.799894e-09 -1.052632e-08 -6.599573e-09 -8.910405e-09
-7.297996e-09 -7.738404e-09 -1.050541e-08 -8.515823e-09 -9.258860e-09 -1.036067e-08 -9.333001e-09 -9.648804e-09 -1.119762e-08 -1.020089e-08
-9.194263e-09 -9.428260e-09 -1.005973e-08 -9.472196e-09 -9.058606e-09 -1.339427e-08 -1.007986e-08 -8.556551e-09 -9.287060e-09 -9.030122e-09
-9.447426e-09 -1.021441e-08 -1.058545e-08 -9.802357e-09 -1.017257e-08 -9.787640e-09 -1.060997e-08 -1.116185e-08 -1.106167e-08 -1.054652e-08
-1.183906e-08 -1.101732e-08 -1.001710e-08 -9.410132e-09 -1.034874e-08 -1.068230e-08 -8.509205e-09 -9.839845e-09 -1.041340e-08 -9.422814e-09
-8.583272e-09 -1.099044e-08 -8.678808e-09 -1.096339e-08 -1.179135e-08 -9.953831e-09 -1.006977e-08 -8.410274e-09 -1.046602e-08 -1.128893e-08
-9.759128e-09 -9.286548e-09 -9.876412e-09 -1.010801e-08 -9.906228e-09 -9.093973e-09 -9.078001e-09 -9.284082e-09 -8.516322e-09 -8.650059e-09
-8.161289e-09 -7.775346e-09 -8.803672e-09 -1.003873e-08 -8.259591e-09 -9.217365e-09 -8.776780e-09 -7.633502e-09 -8.007386e-09 -9.821171e-09
-8.537889e-09 -8.388127e-09 -7.101168e-09 -6.863728e-09 -8.774684e-09 -7.273202e-09 -6.499565e-09 -8.548901e-09 -6.936652e-09 -7.326133e-09
-6.564957e-09 -5.682975e-09 -6.445370e-09 -6.014280e-09 -6.467101e-09 -6.438972e-09 -4.799160e-09 -5.365163e-09 -5.454011e-09 -4.052912e-09
-4.995945e-09 -4.879855e-09 -3.338053e-09 -7.079944e-09 -3.985336e-09 -3.960745e-09 -3.996401e-09 -4.788717e-09 -3.381047e-09 -3.588964e-09
-3.935691e-09 -3.519717e-09 -3.248550e-09 -1.961906e-09 -2.786497e-09 -4.014161e-09 -2.698454e-09 -2.746820e-09 -2.204759e-09 -1.842687e-09
-1.876369e-09 -2.655401e-09 -9.196233e-10 -2.067058e-09 -2.439952e-09 6.895434e-10 -1.663161e-09 3.825905e-10 -1.225120e-09 1.140250e-09
1.328516e-09
1.918031e-10 -1.413685e-10 1.975325e-09 1.435590e-09 1.330274e-09 1.468704e-10 2.596741e-09 6.589367e-10 3.913353e-10 1.616268e-09
2.783544e-09 8.811025e-10 -1.419567e-10 1.697352e-09 2.205343e-09 2.334364e-09 4.070256e-09 2.536324e-09 4.475874e-09 2.540793e-09
1.169376e-09 4.429475e-09 2.061917e-09 4.903677e-09 5.157423e-09 4.281996e-09 3.483816e-09 4.201420e-09 6.267611e-09 4.802622e-09
4.947398e-09 5.371408e-09 5.635632e-09 5.405693e-09 7.142459e-09 5.862171e-09 6.418750e-09 6.139777e-09 6.163712e-09 7.389578e-09
8.262330e-09 7.111145e-09 7.387142e-09 7.204525e-09 8.926559e-09 6.595447e-09 6.170680e-09 8.049441e-09 6.750816e-09 8.410002e-09
7.658334e-09 7.222891e-09 7.194458e-09 7.625677e-09 8.622597e-09 9.659234e-09 8.967009e-09 8.490473e-09 9.398135e-09 9.077294e-09
8.814081e-09 8.799173e-09 1.058359e-08 9.533310e-09 9.374697e-09 8.147617e-09 8.290375e-09 9.756634e-09 9.475584e-09 8.393860e-09
7.934040e-09 9.620083e-09 8.445376e-09 1.007606e-08 9.465739e-09 7.747375e-09 1.034319e-08 8.541076e-09 9.804819e-09 1.046051e-08
8.568868e-09 1.011868e-08 9.137803e-09 9.649129e-09 1.091090e-08 9.121483e-09 1.013160e-08 8.674000e-09 9.531127e-09 1.065319e-08
9.353497e-09 9.170626e-09 1.031022e-08 9.114584e-09 1.056408e-08 1.024063e-08 8.764262e-09 9.976589e-09 9.410438e-09 9.595627e-09
9.338893e-09 9.047431e-09 9.038163e-09 1.049246e-08 1.046805e-08 8.548173e-09 1.058866e-08 1.059295e-08 8.138339e-09 9.098902e-09
8.787410e-09 9.012318e-09 9.208954e-09 1.010190e-08 1.024033e-08 9.012592e-09 7.766766e-09 1.145131e-08 7.564249e-09 8.700964e-09
8.216041e-09 8.964053e-09 7.620875e-09 8.166020e-09 7.238194e-09 7.168374e-09 9.119723e-09 1.019898e-08 9.379021e-09 8.637197e-09
7.869279e-09 8.338763e-09 7.566309e-09 8.734218e-09 6.552791e-09 1.000033e-08 7.080860e-09 7.768722e-09 6.706633e-09 6.631956e-09
7.380353e-09 4.903834e-09 7.361864e-09 5.606559e-09 6.119718e-09 6.996796e-09 4.403733e-09 5.607136e-09 5.377974e-09 4.058528e-09
4.061617e-09 3.473610e-09 5.540150e-09 4.277910e-09 3.229796e-09 4.018018e-09 3.553730e-09 1.719129e-09 2.111162e-09 5.753094e-09
1.686614e-09 3.339791e-09 2.086329e-09 3.461507e-10 8.135967e-10 3.571949e-09 2.750411e-09 9.441375e-10 1.560569e-09 2.785822e-09
1.681927e-09 1.727015e-09 1.274366e-09 2.230545e-09 5.188118e-10 4.195491e-10 -1.233478e-09 5.577283e-10 9.590235e-11 2.965909e-10
1.807666e-09 -8.650597e-10 -2.090593e-10 -4.880701e-10 5.944409e-10 -3.910451e-10 -5.238713e-10 -1.646741e-09 -5.725956e-10 -1.889640e-09
-1.384300e-09 -1.667633e-09 -1.779214e-09 -1.881228e-09 -2.195060e-09 -2.028281e-09 -3.124653e-09 -3.565569e-09 -2.950134e-09 -2.548403e-09
-3.299164e-09 -1.958856e-09 -5.172060e-09 -5.504150e-09 -4.667597e-09 -4.000976e-09 -4.439032e-09 -4.256495e-09 -5.184789e-09 -5.305897e-09
-4.671027e-09 -5.629237e-09 -7.017510e-09 -4.649129e-09 -4.487521e-09 -7.261038e-09 -6.215542e-09 -7.654333e-09 -6.424193e-09 -7.526925e-09
-5.224834e-09 -7.823385e-09 -6.733965e-09 -6.374826e-09 -6.294006e-09 -8.144750e-09 -5.504841e-09 -8.544685e-09 -8.337897e-09 -8.524136e-09
-8.741136e-09 -8.646370e-09 -6.218043e-09 -9.017818e-09 -8.574743e-09 -8.129805e-09 -7.483481e-09 -6.241959e-09 -8.148212e-09 -9.164816e-09
-9.843729e-09 -8.436591e-09 -7.494903e-09 -9.953389e-09 -1.018577e-08 -7.444147e-09 -8.633504e-09 -1.129558e-08 -6.962873e-09 -8.289205e-09
-8.704426e-09 -1.059156e-08 -9.599027e-09 -8.915761e-09 -9.177378e-09 -8.941777e-09 -8.426544e-09 -8.967626e-09 -8.925601e-09 -1.049759e-08
-1.021926e-08 -9.924602e-09 -9.833989e-09 -8.517890e-09 -8.557920e-09 -9.576299e-09 -1.052919e-08 -1.015025e-08 -9.211935e-09 -1.046203e-08
-8.925367e-09 -1.039309e-08 -8.616644e-09 -1.009373e-08 -1.011048e-08 -8.815817e-09 -9.685561e-09 -8.699211e-09 -1.018051e-08 -9.595209e-09
-8.891331e-09 -1.058960e-08 -1.033918e-08 -9.428644e-09 -8.742387e-09 -9.925013e-09 -8.805311e-09 -1.089099e-08 -8.653239e-09 -9.245869e-09
-9.330273e-09 -9.683711e-09 -1.068708e-08 -1.074382e-08 -9.154527e-09 -9.216713e-09 -8.781597e-09 -6.901194e-09 -8.613600e-09 -8.315967e-09
-9.781405e-09 -7.265295e-09 -7.104977e-09 -8.897480e-09 -9.628057e-09 -7.915506e-09 -7.077014e-09 -8.666921e-09 -8.657234e-09 -7.516818e-09
-7.850349e-09 -7.475539e-09 -6.977112e-09 -7.562311e-09 -7.782365e-09 -7.031497e-09 -6.949351e-09 -5.926748e-09 -7.614791e-09 -5.973065e-09
-8.668921e-09 -6.437686e-09 -6.817618e-09 -7.043045e-09 -4.510549e-09 -6.349229e-09 -4.903817e-09 -7.166022e-09 -6.822360e-09 -5.537827e-09
-5.775823e-09 -5.490941e-09 -5.266759e-09 -3.270890e-09 -3.308706e-09 -2.993486e-09 -4.454229e-09 -2.660366e-09 -4.302905e-09 -2.981074e-09
-4.773697e-09 -3.896029e-09 -3.457214e-09 -2.643948e-09 -3.976149e-09 -3.328505e-09 -1.044343e-09 -3.284724e-09 -2.423901e-09 -3.214970e-09
-1.365461e-09 -1.739808e-09 -2.546088e-09 -2.206398e-11 4.192983e-10 -5.606677e-10 -9.338816e-10 -4.994939e-10 1.384040e-09 1.711049e-09
1.918031e-10
2.327563e-10 -1.524619e-10 -1.386200e-09 -1.174677e-09 -3.870822e-11 -1.754516e-09 -6.213365e-10 3.841745e-09 1.511948e-09 -7.846418e-11
1.259346e-09 9.030570e-10 9.644711e-11 8.344913e-10 2.462381e-09 1.128329e-09 3.088079e-09 2.396121e-09 3.731184e-09 1.812143e-09
3.361022e-09 3.805729e-09 1.961506e-09 4.438987e-09 2.931282e-09 4.543560e-09 2.795682e-09 5.749490e-09 4.557182e-09 4.107116e-09
4.232336e-09 5.331790e-09 3.256041e-09 4.741215e-09 5.472295e-09 5.896483e-09 7.140905e-09 6.777830e-09 3.629791e-09 5.469998e-09
4.973670e-09 7.444070e-09 5.574424e-09 6.310890e-09 4.301149e-09 8.793726e-09 6.598087e-09 5.387494e-09 6.273680e-09 7.638175e-09
6.284802e-09 8.642956e-09 7.021837e-09 7.083956e-09 7.644992e-09 7.651473e-09 8.334333e-09 8.328129e-09 7.655481e-09 7.357270e-09
7.360347e-09 8.206775e-09 7.740674e-09 7.364006e-09 1.002973e-08 8.050546e-09 8.690646e-09 9.182796e-09 9.542346e-09 9.594232e-09
9.178295e-09 9.694632e-09 8.661060e-09 9.799535e-09 8.867527e-09 7.456124e-09 8.156388e-09 9.087283e-09 8.529980e-09 9.524086e-09
8.516038e-09 8.465768e-09 1.009887e-08 1.103935e-08 1.105329e-08 8.585747e-09 9.579124e-09 1.119708e-08 9.955685e-09 1.014211e-08
1.058003e-08 9.424531e-09 7.909659e-09 1.022730e-08 8.164309e-09 9.346814e-09 1.118539e-08 9.768438e-09 7.743580e-09 1.005051e-08
1.120816e-08 8.083100e-09 8.309165e-09 9.838837e-09 1.114890e-08 8.850879e-09 9.322499e-09 9.459543e-09 1.039330e-08 1.028276e-08
8.835941e-09 8.004505e-09 8.102557e-09 7.796097e-09 8.250113e-09 9.991607e-09 7.752800e-09 8.297160e-09 6.348924e-09 6.854690e-09
8.507270e-09 9.077183e-09 8.074815e-09 8.462901e-09 8.524046e-09 7.569358e-09 8.321483e-09 7.813374e-09 8.392548e-09 6.185511e-09
6.850995e-09 9.315200e-09 6.962014e-09 6.155595e-09 6.367622e-09 8.444276e-09 5.583397e-09 6.097223e-09 8.287356e-09 6.576804e-09
4.947633e-09 8.542386e-09 6.614632e-09 7.279953e-09 6.008690e-09 5.084892e-09 5.030611e-09 4.833300e-09 4.932839e-09 4.671525e-09
5.001763e-09 4.079415e-09 4.495300e-09 3.523359e-09 5.397300e-09 3.876199e-09 2.671096e-09 3.779119e-09 2.177818e-10 4.114681e-09
4.876519e-09 1.724789e-09 2.938637e-09 1.657962e-09 2.535312e-09 4.468121e-09 4.336240e-09 7.633589e-10 4.402304e-10 2.154649e-09
2.562719e-09 2.306086e-09 4.466435e-10 6.287293e-10 1.696927e-09 1.344011e-09 -7.622772e-10 9.664888e-10 -1.092687e-09 3.065194e-10
-5.076333e-10 1.747253e-10 2.535970e-10 -1.204935e-09 -1.766761e-09 -1.378426e-10 -2.619924e-09 4.654983e-10 -1.564835e-09 -1.464485e-09
-1.950401e-09 -7.709517e-10 -2.247350e-09 -1.456052e-09 -2.560574e-09 -1.673146e-09 -2.502268e-09 -1.160645e-09 -6.052020e-09 -3.680612e-09
-2.083905e-09 -2.066068e-09 -4.835182e-09 -1.151330e-09 -3.339463e-09 -4.212370e-09 -4.890683e-09 -3.254815e-09 -3.110714e-09 -6.096998e-09
-7.176164e-09 -5.956099e-09 -5.094257e-09 -2.573719e-09 -5.431233e-09 -5.752002e-09 -5.453046e-09 -8.403577e-09 -5.426934e-09 -5.103523e-09
-7.426355e-09 -4.696747e-09 -5.362819e-09 -6.085082e-09 -7.559600e-09 -7.685113e-09 -7.641856e-09 -6.648786e-09 -7.593637e-09 -6.578255e-09
-8.401384e-09 -7.090686e-09 -8.426404e-09 -6.586756e-09 -6.806724e-09 -8.977842e-09 -9.148571e-09 -6.786872e-09 -6.860402e-09 -8.424343e-09
-1.039462e-08 -8.859346e-09 -8.596412e-09 -9.911821e-09 -9.154732e-09 -9.673582e-09 -7.823491e-09 -8.232347e-09 -1.038585e-08 -9.651395e-09
-9.093957e-09 -8.634700e-09 -8.585814e-09 -9.383182e-09 -9.392436e-09 -9.176730e-09 -7.842364e-09 -8.003387e-09 -9.123928e-09 -9.000620e-09
-8.890408e-09 -1.033812e-08 -9.500416e-09 -8.908638e-09 -9.307972e-09 -9.449665e-09 -1.029505e-08 -1.057742e-08 -1.062050e-08 -9.125854e-09
-1.050680e-08 -1.048327e-08 -1.058576e-08 -1.115834e-08 -8.731871e-09 -8.762369e-09 -9.819366e-09 -9.997732e-09 -7.974349e-09 -9.152777e-09
-9.049938e-09 -8.444407e-09 -1.158368e-08 -1.012539e-08 -8.401713e-09 -7.725977e-09 -9.143622e-09 -8.494497e-09 -8.921005e-09 -9.055849e-09
-7.446115e-09 -9.344729e-09 -8.531694e-09 -8.148960e-09 -7.862133e-09 -6.865096e-09 -9.723350e-09 -7.320050e-09 -7.353566e-09 -7.874152e-09
-1.043841e-08 -8.164441e-09 -7.902431e-09 -7.254636e-09 -8.266312e-09 -7.121523e-09 -7.301462e-09 -7.926930e-09 -9.644591e-09 -7.492011e-09
-7.490959e-09 -6.235070e-09 -1.036809e-08 -5.190954e-09 -6.678097e-09 -7.084834e-09 -5.325438e-09 -6.410378e-09 -7.295153e-09 -7.204374e-09
-6.766093e-09 -5.974364e-09 -7.429600e-09 -3.906143e-09 -3.647076e-09 -5.619759e-09 -5.748552e-09 -6.456497e-09 -5.375842e-09 -4.994014e-09
-6.578055e-09 -4.408146e-09 -5.639996e-09 -5.846869e-09 -3.616502e-09 -4.611944e-09 -3.592031e-09 -2.763535e-09 -3.366503e-09 -4.344811e-09
-2.746940e-09 -2.957442e-09 -3.574860e-09 -1.911501e-09 -2.846090e-09 -2.477527e-09 -1.088836e-09 -8.065781e-10 -3.048154e-09 -1.589764e-09
-1.936316e-09 4.794498e-10 -1.192327e-09 -3.252295e-09 1.334753e-09 -1.402650e-09 -4.780665e-10 4.005542e-10 -1.420479e-09 6.462578e-11
2.327563e-10
9.583289e-10 1.879111e-09 4.333517e-10 1.670140e-10 1.165522e-09 1.233919e-09 2.371641e-10 2.790091e-09 6.145113e-10 1.132814e-09
1.294696e-09 8.810117e-10 1.146883e-09 3.410598e-09 1.646448e-09 1.390623e-09 2.552143e-10 3.719959e-09 1.752115e-09 2.886106e-09
4.270306e-09 5.357002e-09 5.598936e-09 5.026263e-09 4.800950e-09 5.511776e-09 3.391472e-09 3.268118e-09 3.347215e-09 4.362490e-09
3.229948e-09 5.004949e-09 5.607879e-09 3.356379e-09 4.729401e-09 6.066834e-09 6.338416e-09 6.037646e-09 7.327666e-09 5.008404e-09
5.907018e-09 7.325891e-09 8.370027e-09 7.572602e-09 6.569233e-09 6.349961e-09 9.199334e-09 5.688641e-09 8.183940e-09 6.944099e-09
7.508356e-09 8.371829e-09 7.956175e-09 7.874881e-09 6.692074e-09 8.456479e-09 7.913318e-09 6.420604e-09 7.407733e-09 1.008435e-08
9.536935e-09 7.932178e-09 8.505814e-09 7.775722e-09 8.925872e-09 9.134315e-09 6.061514e-09 7.627836e-09 8.089407e-09 8.772630e-09
8.856849e-09 7.829679e-09 8.607966e-09 9.549515e-09 1.006158e-08 7.815488e-09 8.285183e-09 9.227796e-09 9.509777e-09 1.044391e-08
8.945107e-09 9.015218e-09 8.564823e-09 8.586762e-09 7.857830e-09 7.670656e-09 8.425569e-09 8.520480e-09 8.573154e-09 8.434900e-09
7.837663e-09 9.493033e-09 9.347448e-09 8.596227e-09 9.345744e-09 9.337916e-09 8.581030e-09 8.319863e-09 9.609253e-09 7.635812e-09
8.992786e-09 9.015657e-09 1.021203e-08 8.764195e-09 9.053463e-09 8.348024e-09 7.708437e-09 8.944286e-09 7.755271e-09 8.187278e-09
7.448917e-09 8.309635e-09 9.581083e-09 8.942405e-09 9.546119e-09 8.864348e-09 8.577494e-09 9.188178e-09 8.800016e-09 9.300476e-09
8.235389e-09 6.939853e-09 7.604276e-09 7.776863e-09 6.731638e-09 6.431902e-09 8.060539e-09 6.292394e-09 7.740291e-09 8.807871e-09
6.459254e-09 5.522917e-09 6.501807e-09 7.930802e-09 8.277759e-09 6.196633e-09 7.837994e-09 6.032628e-09 5.798961e-09 6.509723e-09
6.302785e-09 5.531732e-09 5.823872e-09 4.556386e-09 6.216400e-09 5.879135e-09 5.280027e-09 4.850239e-09 4.506604e-09 4.618566e-09
4.811940e-09 4.104258e-09 6.399753e-09 3.677729e-09 3.809578e-09 4.731735e-09 6.406527e-09 2.589871e-09 2.856308e-09 4.654181e-09
4.435039e-09 2.091763e-09 1.588523e-09 2.715714e-09 1.979441e-09 3.651807e-09 9.204638e-10 7.852137e-10 2.982199e-09 1.627205e-09
1.388814e-09 4.784350e-10 -3.459390e-10 -1.870795e-09 5.841772e-10 2.529119e-09 2.803422e-09 -2.052782e-10 -5.159309e-10 -6.308698e-10
-1.242904e-10 -1.668944e-09 7.080096e-10 -7.833196e-10 -1.207479e-09 -3.344951e-09 -8.829540e-10 1.883326e-10 -2.502169e-09 -1.329562e-09
-1.967203e-09 -2.645034e-09 1.419489e-09 -2.010265e-09 -1.673653e-09 -1.868138e-09 -2.027679e-09 -2.452038e-09 -2.844805e-09 -3.585076e-09
-2.756927e-09 -3.557448e-09 -2.966453e-09 -3.370688e-09 -2.615304e-09 -4.459120e-09 -2.718408e-09 -3.561374e-09 -5.103340e-09 -5.144599e-09
-3.841540e-09 -4.489929e-09 -5.927614e-09 -8.653932e-09 -4.679105e-09 -5.738418e-09 -4.861805e-09 -5.293092e-09 -5.590751e-09 -6.470767e-09
-6.851142e-09 -6.504590e-09 -6.556776e-09 -4.119714e-09 -6.620077e-09 -7.341004e-09 -5.539007e-09 -7.684391e-09 -7.364752e-09 -6.813525e-09
-8.316352e-09 -5.892636e-09 -8.149014e-09 -7.541447e-09 -7.021919e-09 -9.492885e-09 -7.959435e-09 -7.517907e-09 -7.716586e-09 -8.025682e-09
-7.000840e-09 -9.473484e-09 -9.336929e-09 -7.036834e-09 -7.099277e-09 -8.162612e-09 -6.371396e-09 -8.250091e-09 -7.707760e-09 -9.436202e-09
-7.902593e-09 -7.876301e-09 -9.335445e-09 -9.516923e-09 -7.457646e-09 -9.445630e-09 -7.688334e-09 -8.766292e-09 -8.740348e-09 -7.551963e-09
-8.666427e-09 -8.013199e-09 -9.428279e-09 -8.370407e-09 -8.880941e-09 -9.413060e-09 -8.979751e-09 -9.322972e-09 -1.169984e-08 -8.728549e-09
-9.461200e-09 -8.153010e-09 -8.032333e-09 -8.306785e-09 -9.480526e-09 -1.010127e-08 -7.033189e-09 -8.745857e-09 -9.950578e-09 -8.573653e-09
-1.067019e-08 -9.020590e-09 -8.940424e-09 -8.413795e-09 -8.738410e-09 -8.584363e-09 -8.461317e-09 -1.019601e-08 -7.864311e-09 -8.187943e-09
-8.855007e-09 -8.155394e-09 -8.264121e-09 -8.218206e-09 -8.307050e-09 -8.578376e-09 -9.234722e-09 -6.684390e-09 -8.443454e-09 -7.342513e-09
-7.180118e-09 -7.703979e-09 -7.506622e-09 -6.656828e-09 -7.458907e-09 -5.900920e-09 -7.349944e-09 -6.294762e-09 -9.348653e-09 -6.467445e-09
-9.271441e-09 -6.300642e-09 -6.076089e-09 -5.992252e-09 -5.636013e-09 -7.096019e-09 -5.660080e-09 -5.210355e-09 -6.258069e-09 -5.612089e-09
-6.338967e-09 -5.643905e-09 -4.355666e-09 -5.412954e-09 -5.453867e-09 -6.654837e-09 -5.159915e-09 -5.846768e-09 -4.168601e-09 -6.040372e-09
-4.692969e-09 -3.591940e-09 -5.597755e-09 -7.038517e-09 -3.733804e-09 -4.756579e-09 -4.870224e-09 -3.957477e-09 -4.798232e-09 -5.413760e-09
-8.876083e-10 -9.495625e-10 -2.822871e-09 -3.696038e-09 -1.992885e-09 -1.395016e-09 -1.608339e-09 -1.984781e-09 -1.498006e-09 -1.005552e-10
-3.894775e-10 -1.272521e-09 -1.927708e-09 1.175009e-09 -1.415802e-09 -1.509649e-09 8.940984e-10 -1.831566e-09 -5.887876e-10 -2.459751e-09
9.583289e-10
1.423829e-09 7.436838e-11 1.440450e-09 -7.444223e-10 1.495652e-09 1.293548e-09 8.136209e-10 1.938921e-09 1.922323e-09 1.546960e-09
4.285419e-10 2.666262e-09 2.820137e-09 1.549233e-09 2.270047e-09 2.822329e-09 3.820310e-09 2.629899e-09 3.002172e-09 2.934937e-09
2.958419e-09 2.180923e-09 2.465742e-09 5.497579e-09 4.487847e-09 3.998522e-09 5.566352e-09 3.705804e-09 5.444071e-09 7.046580e-09
4.542444e-09 3.558895e-09 3.308118e-09 5.007581e-09 2.438873e-09 7.041602e-09 3.684506e-09 6.047227e-09 5.929660e-09 6.730530e-09
6.724880e-09 6.488498e-09 5.054116e-09 7.371790e-09 4.557551e-09 6.396308e-09 6.251518e-09 5.360194e-09 6.326494e-09 7.745250e-09
8.153806e-09 6.629380e-09 7.131474e-09 7.405859e-09 8.197024e-09 6.624952e-09 6.946271e-09 7.628535e-09 8.102789e-09 7.339739e-09
7.144813e-09 7.463110e-09 8.207944e-09 8.649178e-09 9.505624e-09 7.342795e-09 8.325705e-09 7.562853e-09 6.843825e-09 8.010023e-09
7.699183e-09 8.505257e-09 7.562392e-09 7.307446e-09 9.474696e-09 8.645643e-09 7.957176e-09 1.043092e-08 8.862760e-09 8.272353e-09
7.569050e-09 9.329296e-09 8.162549e-09 8.638891e-09 8.468309e-09 8.873266e-09 8.783544e-09 8.724713e-09 9.316980e-09 9.802926e-09
1.030248e-08 9.385739e-09 7.511900e-09 9.399598e-09 1.075776e-08 7.290762e-09 7.442731e-09 7.923934e-09 8.480752e-09 9.113143e-09
1.032025e-08 8.173683e-09 7.668301e-09 9.178110e-09 7.990292e-09 7.540939e-09 7.052698e-09 8.074442e-09 8.736985e-09 8.002462e-09
6.848415e-09 7.824817e-09 7.967412e-09 8.399430e-09 9.165501e-09 7.039018e-09 9.169713e-09 7.203631e-09 8.602806e-09 9.164336e-09
8.049814e-09 7.433385e-09 5.044473e-09 6.875381e-09 6.656660e-09 8.096713e-09 6.743784e-09 7.232259e-09 6.972263e-09 8.003473e-09
6.908417e-09 5.813110e-09 6.418057e-09 6.344211e-09 6.754318e-09 6.500186e-09 5.321928e-09 6.820874e-09 4.819920e-09 4.402034e-09
6.346369e-09 4.977772e-09 8.087621e-09 7.211632e-09 5.087095e-09 4.500017e-09 4.975710e-09 4.848180e-09 3.873707e-09 4.272456e-09
5.126881e-09 2.961863e-09 4.531034e-09 2.101169e-09 4.747345e-09 3.217182e-09 5.234659e-09 2.774397e-09 1.942118e-09 4.190837e-09
3.832298e-09 2.247236e-09 2.489795e-09 2.112253e-09 3.022460e-09 2.926368e-09 9.447445e-10 4.382985e-09 2.255474e-09 -2.909302e-12
1.601322e-09 2.691680e-09 -1.892843e-09 2.366704e-09 9.494322e-10 8.291812e-10 3.434447e-10 2.940274e-10 2.773826e-10 -4.948005e-10
3.600215e-10 -1.417550e-09 -1.023768e-09 -9.426208e-10 -7.841470e-10 -1.227056e-09 -2.053946e-09 -1.042840e-09 -1.505681e-09 -1.130688e-09
-1.889604e-09 -6.084371e-10 -2.691859e-09 -1.305460e-09 -2.379714e-09 -1.827067e-09 -2.751968e-09 -1.926187e-09 -1.848989e-09 -1.808025e-09
-7.391068e-10 -2.682902e-09 -3.381776e-09 -4.163918e-09 -3.323716e-09 -4.891816e-09 -4.746105e-09 -3.589782e-09 -3.680271e-09 -6.205866e-09
-6.081386e-09 -5.780221e-09 -4.499026e-09 -3.133958e-09 -4.851300e-09 -4.117280e-09 -5.089297e-09 -5.458566e-09 -5.690096e-09 -5.370362e-09
-5.977516e-09 -5.612353e-09 -5.086304e-09 -7.611774e-09 -4.335936e-09 -6.178356e-09 -5.414011e-09 -7.091766e-09 -7.200948e-09 -6.651157e-09
-7.230943e-09 -8.277448e-09 -7.444831e-09 -6.737598e-09 -7.264784e-09 -9.980760e-09 -8.845459e-09 -8.537121e-09 -7.574469e-09 -8.051603e-09
-9.599699e-09 -8.757806e-09 -8.402343e-09 -8.629933e-09 -9.050727e-09 -7.661931e-09 -8.591042e-09 -8.132317e-09 -6.269428e-09 -9.045483e-09
-7.561503e-09 -8.849923e-09 -8.933693e-09 -9.560702e-09 -8.588231e-09 -8.276523e-09 -7.979914e-09 -8.445366e-09 -8.225123e-09 -9.242314e-09
-7.303619e-09 -8.117207e-09 -1.039877e-08 -7.710702e-09 -7.664131e-09 -8.068127e-09 -9.436675e-09 -8.266516e-09 -6.085399e-09 -7.732276e-09
-7.512955e-09 -8.530112e-09 -9.789012e-09 -7.796310e-09 -9.728564e-09 -8.380802e-09 -8.517099e-09 -8.306108e-09 -7.238907e-09 -9.809681e-09
-8.534368e-09 -9.803690e-09 -8.494417e-09 -8.904093e-09 -8.700439e-09 -8.224615e-09 -8.494411e-09 -7.696769e-09 -8.117849e-09 -8.383572e-09
-8.652594e-09 -9.058948e-09 -8.761289e-09 -9.991861e-09 -5.982128e-09 -7.934140e-09 -9.134486e-09 -7.665307e-09 -8.116982e-09 -6.890973e-09
-7.137024e-09 -6.903097e-09 -7.510871e-09 -8.600376e-09 -6.842349e-09 -7.840439e-09 -5.906980e-09 -7.459120e-09 -7.593463e-09 -6.453348e-09
-7.410738e-09 -7.342779e-09 -8.593083e-09 -6.751705e-09 -4.969358e-09 -8.034676e-09 -5.831408e-09 -5.688244e-09 -5.626928e-09 -6.844701e-09
-3.309798e-09 -6.051433e-09 -4.964196e-09 -6.175731e-09 -4.421539e-09 -5.294536e-09 -6.018970e-09 -4.206195e-09 -4.718204e-09 -4.129142e-09
-6.910053e-09 -3.407182e-09 -4.053670e-09 -4.882148e-09 -2.981140e-09 -3.300921e-09 -1.897534e-09 -2.542311e-09 -3.846481e-09 -3.551485e-09
-2.535744e-09 -1.439256e-09 -2.210381e-09 -2.823152e-09 -1.869874e-09 -1.366911e-09 -1.751245e-09 -2.444771e-10 -2.020473e-09 -3.080324e-09
-2.838704e-09 -2.022933e-10 -1.154691e-09 -1.278273e-09 3.407507e-11 -1.719629e-09 4.301952e-10 2.989516e-09 -5.124078e-10 1.115777e-10
1.423829e-09
-4.559995e-10 -1.361985e-09 1.598654e-09 -2.372419e-10 1.971456e-09 -8.351351e-10 5.727638e-10 9.110192e-10 6.872996e-10 9.626141e-10
1.732592e-09 3.307111e-09 4.357362e-09 1.524654e-09 3.649197e-09 2.649540e-09 2.249654e-09 2.516217e-09 2.971867e-09 4.313535e-09
2.920319e-09 4.165436e-09 5.209949e-09 3.997540e-09 3.129074e-09 3.706853e-09 3.336386e-09 4.031362e-09 2.446468e-09 4.412829e-09
4.209279e-09 4.731851e-09 4.736161e-09 4.041690e-09 4.801977e-09 4.511722e-09 3.490080e-09 4.987749e-09 3.098114e-09 6.295031e-09
4.128213e-09 4.307141e-09 6.581706e-09 4.416187e-09 3.901815e-09 6.658092e-09 8.045689e-09 3.896385e-09 7.192510e-09 7.379224e-09
5.557664e-09 6.606275e-09 7.411237e-09 5.284535e-09 7.365775e-09 7.091293e-09 7.088252e-09 4.738933e-09 8.721233e-09 7.501641e-09
8.936285e-09 6.996688e-09 6.934515e-09 7.103721e-09 8.073187e-09 7.120262e-09 8.770822e-09 8.477847e-09 7.676387e-09 8.567727e-09
7.992880e-09 9.148128e-09 1.062940e-08 8.893976e-09 6.339859e-09 7.861739e-09 8.032920e-09 7.248128e-09 9.529744e-09 7.245658e-09
8.337125e-09 8.356970e-09 8.757347e-09 7.050414e-09 8.939210e-09 1.043008e-08 9.077536e-09 8.056972e-09 6.935993e-09 7.620226e-09
9.723075e-09 7.241223e-09 9.923864e-09 7.181228e-09 7.810653e-09 6.657447e-09 8.827562e-09 5.345318e-09 7.656080e-09 7.628871e-09
7.652729e-09 7.846157e-09 6.946716e-09 7.221986e-09 7.796491e-09 8.770691e-09 7.423184e-09 1.019332e-08 9.546638e-09 7.571447e-09
6.593071e-09 5.566808e-09 8.541684e-09 9.261259e-09 8.423656e-09 5.663580e-09 5.932527e-09 7.614075e-09 6.187166e-09 8.280896e-09
5.880473e-09 6.965729e-09 7.498273e-09 7.122218e-09 6.627625e-09 6.177661e-09 5.574646e-09 7.344413e-09 6.915500e-09 5.726703e-09
8.135757e-09 5.640709e-09 7.636246e-09 5.739062e-09 6.169102e-09 5.288930e-09 5.194976e-09 4.831889e-09 6.144278e-09 6.367690e-09
3.507438e-09 5.167501e-09 4.159291e-09 6.618393e-09 5.865353e-09 4.011781e-09 2.929428e-09 5.470612e-09 4.584064e-09 2.914541e-09
2.385033e-09 2.045612e-09 3.648863e-09 4.020787e-10 9.103773e-10 2.084137e-09 2.950892e-09 2.901262e-09 2.333377e-09 3.081392e-09
3.780011e-09 2.982975e-09 3.585509e-09 1.201173e-09 2.914762e-09 1.821882e-09 1.086617e-09 3.305304e-09 1.767963e-09 2.761340e-09
2.590173e-09 1.975531e-09 -4.606050e-10 8.631669e-10 -8.027631e-10 6.557914e-10 -2.542564e-09 -5.235932e-10 -1.115493e-09 2.708590e-10
-1.352040e-09 4.942884e-10 -4.728825e-11 -7.192305e-10 5.874201e-10 -2.019276e-09 -1.640066e-09 -1.799275e-09 -1.484779e-09 -2.442267e-09
1.029203e-09 -2.046712e-09 -3.857291e-10 -1.988069e-09 -1.896214e-09 -1.886377e-09 -1.729260e-09 -9.407373e-10 -3.358842e-09 -3.942998e-09
-3.450524e-09 -4.593687e-09 -1.753508e-09 -3.582239e-09 -3.735124e-09 -3.673424e-09 -2.964188e-09 -4.059297e-09 -4.490614e-09 -4.743325e-09
-5.465808e-09 -4.548218e-09 -3.292461e-09 -5.929834e-09 -5.549584e-09 -3.661429e-09 -4.910648e-09 -5.130661e-09 -5.775688e-09 -7.126762e-09
-5.727442e-09 -4.514208e-09 -3.539097e-09 -6.524652e-09 -7.418306e-09 -5.351124e-09 -5.278738e-09 -6.313416e-09 -7.169357e-09 -6.577659e-09
-5.259987e-09 -6.806702e-09 -8.201400e-09 -8.462661e-09 -4.753580e-09 -8.122572e-09 -6.522050e-09 -7.817937e-09 -7.432428e-09 -8.260542e-09
-8.620134e-09 -5.869166e-09 -8.169086e-09 -7.712583e-09 -6.877001e-09 -8.291797e-09 -9.067563e-09 -7.323088e-09 -6.582360e-09 -8.013865e-09
-9.800378e-09 -7.187371e-09 -8.069916e-09 -6.475783e-09 -7.514664e-09 -8.018329e-09 -6.861912e-09 -1.012531e-08 -9.284476e-09 -6.722744e-09
-9.985354e-09 -7.531925e-09 -6.983933e-09 -8.460983e-09 -8.751263e-09 -8.513866e-09 -6.992307e-09 -8.752573e-09 -9.262703e-09 -8.117449e-09
-9.914463e-09 -9.304833e-09 -9.430282e-09 -8.646739e-09 -5.947058e-09 -1.001442e-08 -8.412202e-09 -7.908782e-09 -8.077275e-09 -7.062191e-09
-7.689945e-09 -7.855230e-09 -7.991078e-09 -8.259186e-09 -8.854735e-09 -8.362057e-09 -6.775224e-09 -6.462736e-09 -7.937248e-09 -7.705685e-09
-8.001099e-09 -7.670649e-09 -5.674805e-09 -8.131924e-09 -6.523374e-09 -6.915446e-09 -7.366193e-09 -9.012171e-09 -6.869261e-09 -6.925622e-09
-8.705766e-09 -5.861904e-09 -7.232048e-09 -8.046222e-09 -6.218312e-09 -4.712371e-09 -5.755652e-09 -6.652192e-09 -6.725796e-09 -7.856136e-09
-7.452726e-09 -5.872792e-09 -4.718541e-09 -6.733206e-09 -5.248272e-09 -6.398733e-09 -5.147422e-09 -6.506584e-09 -5.946025e-09 -6.743516e-09
-4.914145e-09 -5.031981e-09 -6.213960e-09 -5.611447e-09 -3.284311e-09 -6.158878e-09 -3.542889e-09 -3.418326e-09 -3.949005e-09 -4.953997e-09
-4.811648e-09 -3.210904e-09 -2.491367e-09 -1.611724e-09 -4.653356e-09 -4.129894e-09 -2.941410e-09 -3.271785e-09 -2.134086e-09 -2.375419e-09
-4.127672e-09 -2.326664e-09 -1.311179e-09 -1.931807e-09 -2.231119e-09 -4.888027e-10 -2.548994e-09 -1.780739e-09 -2.732830e-09 -2.179229e-09
-5.427008e-10 -4.275483e-10 -6.732577e-13 -1.082717e-09 4.668584e-10 3.080684e-10 5.901831e-10 5.769992e-10 -2.439661e-10 -2.368542e-10
-4.559995e-10
9.231756e-11 -5.504235e-10 2.159780e-10 8.501467e-10 1.855301e-09 -1.633275e-10 1.724885e-09 -1.878141e-10 2.859018e-09 2.033129e-09
-6.492459e-11 2.645579e-09 2.534964e-09 3.278288e-09 4.834791e-09 2.692077e-09 3.683577e-09 3.788252e-09 3.999195e-09 4.749039e-09
2.677414e-09 2.682898e-09 3.069536e-09 2.366189e-09 2.306458e-09 1.822837e-09 3.600602e-09 4.130351e-09 3.230900e-09 5.172598e-09
3.901980e-09 5.194024e-09 4.475371e-09 4.059740e-09 4.365995e-09 5.168468e-09 2.912869e-09 5.944429e-09 4.257965e-09 5.480139e-09
5.619594e-09 6.886712e-09 4.041750e-09 5.586545e-09 5.750299e-09 6.074000e-09 5.042794e-09 8.087832e-09 4.612666e-09 4.634442e-09
6.467047e-09 6.881814e-09 6.219183e-09 6.271501e-09 6.439629e-09 5.910009e-09 8.096317e-09 7.211710e-09 6.596962e-09 7.265820e-09
6.046382e-09 7.189245e-09 8.256145e-09 7.035979e-09 6.913011e-09 7.986659e-09 4.856956e-09 8.898099e-09 5.926756e-09 6.798682e-09
7.579221e-09 8.090454e-09 8.223772e-09 8.918255e-09 8.426816e-09 5.447905e-09 8.284792e-09 7.932158e-09 7.873642e-09 7.524338e-09
8.144553e-09 7.515452e-09 9.987339e-09 7.695223e-09 8.413873e-09 8.974887e-09 7.580453e-09 8.396211e-09 9.617517e-09 7.731614e-09
6.757320e-09 8.544531e-09 8.086390e-09 7.839486e-09 8.933597e-09 9.291014e-09 5.272429e-09 7.365877e-09 7.994616e-09 7.551459e-09
9.396373e-09 6.994773e-09 7.308675e-09 7.802119e-09 6.568938e-09 8.038127e-09 7.705421e-09 7.826450e-09 9.304940e-09 6.108339e-09
8.775223e-09 7.539421e-09 8.164230e-09 7.908547e-09 7.944385e-09 4.716256e-09 6.063502e-09 5.365285e-09 5.942548e-09 6.690813e-09
6.205414e-09 8.064327e-09 7.653580e-09 5.835744e-09 5.074020e-09 5.837384e-09 5.958006e-09 5.834219e-09 6.423466e-09 5.563711e-09
6.398861e-09 6.332868e-09 7.297238e-09 7.768336e-09 7.528783e-09 4.911222e-09 5.664809e-09 6.534579e-09 6.063021e-09 4.258071e-09
5.067430e-09 4.279943e-09 3.984139e-09 5.068232e-09 6.493674e-09 4.559364e-09 1.775294e-09 4.691233e-09 2.602598e-09 3.446558e-09
3.481623e-09 5.046165e-09 3.183618e-09 4.018526e-09 4.065808e-09 5.043147e-09 3.882996e-09 4.035496e-09 4.424686e-09 1.390801e-09
3.711407e-09 3.430747e-09 1.746890e-09 2.426123e-09 3.412106e-09 2.754529e-09 2.078249e-09 6.830421e-10 -1.182771e-10 3.806680e-10
3.478425e-09 2.778283e-10 4.825108e-10 -1.140757e-09 5.725179e-10 -1.367614e-10 3.210303e-10 -1.007275e-09 -6.515150e-10 -1.077990e-09
-1.797599e-11 5.806062e-10 5.172672e-11 -2.199714e-09 -1.110970e-09 -2.346719e-09 -6.906133e-10 5.020626e-10 8.888494e-10 -1.172639e-09
-4.484433e-10 -3.607845e-09 -7.920486e-11 -2.332839e-09 -3.125481e-09 -1.544970e-09 -1.631549e-09 -2.205082e-09 -3.343773e-09 -1.850176e-09
-3.537673e-09 -4.010542e-09 -2.631880e-09 -1.655550e-09 -2.205372e-09 -5.462095e-09 -2.560188e-09 -5.067686e-09 -3.626739e-09 -5.562561e-09
-5.086618e-09 -3.737755e-09 -3.465119e-09 -3.406654e-09 -3.292692e-09 -4.165773e-09 -6.242473e-09 -4.040214e-09 -3.297257e-09 -4.785980e-09
-3.335897e-09 -5.071398e-09 -4.419681e-09 -4.630899e-09 -5.191042e-09 -7.521599e-09 -5.231653e-09 -7.214648e-09 -7.119711e-09 -6.108881e-09
-6.693397e-09 -7.183961e-09 -5.423280e-09 -8.478978e-09 -6.597885e-09 -5.243651e-09 -5.574087e-09 -6.202244e-09 -8.803471e-09 -5.804892e-09
-8.251315e-09 -6.654731e-09 -6.859222e-09 -8.273073e-09 -7.543286e-09 -5.815603e-09 -6.815688e-09 -6.310586e-09 -8.714482e-09 -6.328406e-09
-8.073738e-09 -7.116274e-09 -9.060023e-09 -7.660375e-09 -6.878638e-09 -9.720963e-09 -9.247510e-09 -7.809284e-09 -8.857306e-09 -9.990393e-09
-8.641089e-09 -7.987054e-09 -8.710705e-09 -8.427167e-09 -6.432603e-09 -6.757686e-09 -8.321828e-09 -8.015058e-09 -8.125548e-09 -8.273166e-09
-7.608474e-09 -7.186703e-09 -7.140871e-09 -7.383612e-09 -9.268835e-09 -8.759149e-09 -8.079680e-09 -7.741438e-09 -7.806922e-09 -7.796584e-09
-8.638964e-09 -6.711678e-09 -7.648707e-09 -8.296793e-09 -7.734097e-09 -6.668348e-09 -8.086197e-09 -6.681250e-09 -8.568982e-09 -6.762629e-09
-6.603580e-09 -8.269544e-09 -9.591194e-09 -6.650611e-09 -6.261329e-09 -7.914346e-09 -6.139420e-09 -8.568300e-09 -5.744779e-09 -6.783492e-09
-6.212779e-09 -7.291261e-09 -7.728867e-09 -6.776371e-09 -7.406115e-09 -6.132602e-09 -6.531591e-09 -6.294380e-09 -5.926884e-09 -5.627786e-09
-5.362534e-09 -7.844517e-09 -5.988377e-09 -5.895189e-09 -4.687247e-09 -5.709639e-09 -6.863539e-09 -5.940342e-09 -6.714689e-09 -4.794303e-09
-4.980236e-09 -3.797282e-09 -7.749218e-09 -5.488252e-09 -4.522945e-09 -3.766843e-09 -4.033662e-09 -2.659355e-09 -2.444654e-09 -2.305892e-09
-2.884019e-09 -3.527938e-09 -4.466440e-09 -3.311218e-09 -2.518272e-09 -2.419694e-09 -4.220077e-09 -2.543467e-09 -4.695699e-09 -1.970311e-09
-3.585438e-09 -1.431903e-09 -1.421483e-09 -3.456138e-09 -1.801483e-09 -2.389184e-09 -8.788714e-10 -2.674227e-09 -3.884771e-09 -2.077121e-09
-2.481705e-09 -1.396635e-09 -1.822504e-09 -2.096695e-09 3.368462e-10 -1.449585e-09 -3.938413e-10 -8.264884e-10 3.777367e-10 -1.074906e-09
9.231756e-11
1.872659e-09 1.821482e-09 9.816271e-10 1.585348e-09 6.191632e-10 3.687743e-10 1.417059e-09 -8.797005e-10 1.802620e-09 2.056625e-09
1.979751e-09 3.464837e-09 2.830417e-09 2.835190e-09 -8.929069e-11 -6.596203e-10 2.206591e-09 2.980105e-09 3.821780e-10 1.917231e-09
1.417200e-09 2.448094e-09 3.448558e-09 1.155845e-09 3.623571e-09 2.133155e-09 4.574018e-09 2.829846e-09 3.511088e-09 4.924746e-09
5.433629e-09 3.869388e-09 5.891760e-09 3.707964e-09 3.321599e-09 4.284979e-09 4.036673e-09 3.520314e-09 4.305331e-09 4.624922e-09
4.951878e-09 3.504845e-09 6.187905e-09 6.142950e-09 4.017366e-09 7.613134e-09 4.373576e-09 5.930888e-09 5.639377e-09 4.384033e-09
7.201621e-09 6.672453e-09 7.628490e-09 6.202061e-09 7.488517e-09 6.550259e-09 6.206041e-09 7.545577e-09 6.405390e-09 5.565072e-09
7.179166e-09 6.083636e-09 7.002615e-09 4.245627e-09 5.104690e-09 8.220696e-09 5.452248e-09 7.607309e-09 6.701613e-09 6.852051e-09
6.439205e-09 8.786387e-09 7.024637e-09 8.333484e-09 7.772882e-09 7.206244e-09 8.169536e-09 8.899597e-09 8.821907e-09 8.952621e-09
6.932420e-09 6.185104e-09 8.126931e-09 6.784386e-09 7.923695e-09 9.516943e-09 8.782195e-09 7.866340e-09 5.956091e-09 8.113351e-09
7.219904e-09 7.664737e-09 6.607114e-09 8.087228e-09 7.311051e-09 7.740032e-09 8.232363e-09 6.918197e-09 7.855903e-09 7.028919e-09
6.536285e-09 7.017362e-09 7.566880e-09 7.890849e-09 9.460138e-09 5.761724e-09 6.683067e-09 7.309171e-09 6.651696e-09 7.658145e-09
6.984619e-09 7.800243e-09 7.722251e-09 8.190148e-09 5.699248e-09 5.198141e-09 7.689902e-09 8.492353e-09 8.178985e-09 4.667937e-09
6.465617e-09 6.979326e-09 6.336434e-09 5.477703e-09 4.501460e-09 5.458041e-09 8.626176e-09 6.651115e-09 6.589600e-09 5.591208e-09
5.026642e-09 4.899241e-09 6.412961e-09 5.326323e-09 5.677316e-09 6.106525e-09 6.215211e-09 5.547391e-09 5.257435e-09 4.254840e-09
3.692126e-09 3.745146e-09 5.261686e-09 5.656163e-09 3.175222e-09 3.556767e-09 5.752604e-09 4.801634e-09 2.439562e-09 3.159084e-09
4.781217e-09 1.465254e-09 5.195382e-09 4.559537e-09 3.468873e-09 3.549091e-09 3.334058e-09 3.735826e-09 2.717670e-09 5.558578e-09
2.274905e-09 3.164408e-09 3.622760e-09 2.899438e-09 2.328203e-09 2.404251e-09 1.701034e-09 2.019821e-09 2.273983e-10 2.636013e-09
1.542119e-09 1.993017e-09 -1.282401e-09 2.080820e-09 2.493798e-09 1.744593e-10 3.173557e-10 6.266470e-10 1.593783e-09 -3.448026e-09
1.560715e-09 -1.410150e-09 -3.318344e-09 -6.848349e-10 6.283677e-11 3.337546e-09 1.995108e-10 -1.261886e-09 -2.464127e-10 -8.062284e-10
-1.639656e-09 -2.787466e-09 -8.800060e-10 -2.055534e-09 -1.725250e-09 -1.069056e-09 -1.313262e-09 -2.502458e-09 -7.545768e-10 -3.020391e-09
-4.023067e-09 -1.003835e-09 -2.456053e-09 -4.454408e-09 -2.048979e-09 -2.436378e-09 -3.097354e-09 -4.378344e-09 -4.489678e-09 -4.636127e-09
-5.386403e-09 -2.944407e-09 -2.936786e-09 -4.124340e-09 -4.676686e-09 -4.091513e-09 -5.033530e-09 -4.305333e-09 -3.684037e-09 -3.240253e-09
-6.785148e-09 -6.726577e-09 -5.358616e-09 -5.004141e-09 -7.039084e-09 -4.757273e-09 -5.680527e-09 -6.102660e-09 -5.479083e-09 -5.166116e-09
-5.753876e-09 -5.286964e-09 -4.815796e-09 -5.118460e-09 -6.079466e-09 -6.779902e-09 -5.119795e-09 -5.683463e-09 -6.347638e-09 -5.121363e-09
-6.385330e-09 -6.812848e-09 -8.236103e-09 -6.009789e-09 -5.714703e-09 -7.006831e-09 -6.414525e-09 -8.231833e-09 -6.231234e-09 -8.269527e-09
-8.651218e-09 -7.916637e-09 -6.871801e-09 -8.352257e-09 -6.582782e-09 -6.560164e-09 -7.616169e-09 -7.202257e-09 -9.698122e-09 -8.743083e-09
-9.753532e-09 -7.050479e-09 -5.972386e-09 -6.736049e-09 -8.136534e-09 -8.601561e-09 -9.473683e-09 -6.872173e-09 -9.050541e-09 -6.588609e-09
-7.679731e-09 -6.611631e-09 -7.508227e-09 -5.414085e-09 -6.206279e-09 -7.561385e-09 -7.569692e-09 -8.310875e-09 -5.168820e-09 -7.751653e-09
-6.733841e-09 -7.258239e-09 -6.932739e-09 -8.141808e-09 -6.831375e-09 -6.286780e-09 -6.824868e-09 -7.902398e-09 -8.852465e-09 -6.134523e-09
-7.435057e-09 -5.742779e-09 -6.582049e-09 -7.389604e-09 -6.572341e-09 -6.706955e-09 -5.233721e-09 -6.315938e-09 -6.713031e-09 -6.263823e-09
-5.639758e-09 -5.871806e-09 -5.844013e-09 -4.728212e-09 -6.684036e-09 -8.118611e-09 -4.371011e-09 -8.411752e-09 -7.944148e-09 -5.504090e-09
-7.509830e-09 -4.766311e-09 -5.699885e-09 -5.142834e-09 -5.292637e-09 -4.421079e-09 -7.344044e-09 -6.357288e-09 -4.229811e-09 -4.240382e-09
-5.673128e-09 -5.982235e-09 -5.324696e-09 -5.331990e-09 -3.006092e-09 -5.636391e-09 -6.035544e-09 -4.185758e-09 -3.875534e-09 -4.752275e-09
-3.096182e-09 -2.847335e-09 -4.243245e-09 -4.601272e-09 -2.062363e-09 -3.638553e-09 -5.989120e-09 -3.458534e-09 -3.045396e-09 -1.592772e-09
-3.302378e-09 -4.100682e-09 -2.550715e-09 -3.732478e-09 -9.196976e-10 -9.748632e-10 -1.817979e-09 -3.570147e-09 -2.930615e-09 -7.791670e-10
-2.609750e-09 -2.260039e-09 -1.600639e-09 8.471239e-10 -1.406418e-09 6.445572e-10 2.389045e-09 -1.498209e-09 -1.069927e-09 1.322605e-09
1.872659e-09
-5.249847e-10 -1.578360e-09 -1.410161e-09 4.716300e-10 -6.406085e-10 -8.033403e-10 1.996217e-09 -1.818317e-10 8.952126e-10 1.406711e-09
6.486365e-10 1.051631e-09 3.767703e-10 5.361687e-09 1.235619e-09 1.581226e-09 1.535798e-09 1.537994e-09 3.194272e-09 3.240174e-09
2.104720e-09 3.578982e-10 2.081305e-09 2.400712e-09 2.503010e-09 3.285360e-09 2.571234e-09 1.070522e-09 4.584358e-09 3.453900e-09
5.408754e-09 3.899296e-09 5.230576e-09 4.452803e-09 3.526372e-09 2.933794e-09 4.090814e-09 4.234372e-09 4.890200e-09 2.989083e-09
4.834522e-09 3.949679e-09 5.113744e-09 4.292888e-09 4.732146e-09 5.124720e-09 6.489161e-09 4.159358e-09 5.235381e-09 6.353746e-09
6.480338e-09 4.547360e-09 3.591104e-09 6.017856e-09 4.738374e-09 5.015604e-09 6.352824e-09 7.378213e-09 6.070558e-09 5.943295e-09
6.465914e-09 5.953738e-09 5.705182e-09 6.959036e-09 8.346575e-09 5.936609e-09 6.269608e-09 7.197028e-09 7.373686e-09 5.686026e-09
6.005171e-09 6.158947e-09 4.785561e-09 7.858574e-09 6.129572e-09 8.154090e-09 7.669276e-09 6.372110e-09 7.154657e-09 6.623476e-09
7.135443e-09 6.252483e-09 6.358073e-09 6.964686e-09 6.541656e-09 5.280766e-09 8.018336e-09 7.572286e-09 5.456125e-09 8.471690e-09
7.482973e-09 7.991294e-09 8.851639e-09 6.612966e-09 7.180573e-09 8.001847e-09 8.359723e-09 6.267669e-09 6.653538e-09 7.085707e-09
5.995310e-09 5.234585e-09 8.496478e-09 6.246129e-09 7.024037e-09 7.561863e-09 8.162583e-09 5.982099e-09 7.679756e-09 5.760681e-09
5.988670e-09 5.440592e-09 7.047612e-09 5.961745e-09 5.312540e-09 6.209803e-09 5.858649e-09 7.222621e-09 7.015448e-09 7.197798e-09
6.336342e-09 4.982974e-09 5.451684e-09 7.734881e-09 4.359380e-09 5.654949e-09 5.767377e-09 6.454335e-09 6.078544e-09 8.565947e-09
4.112267e-09 5.867868e-09 4.410504e-09 5.957532e-09 5.554242e-09 6.673627e-09 5.708367e-09 3.199890e-09 4.021853e-09 5.564782e-09
4.217477e-09 4.640038e-09 4.391522e-09 5.891273e-09 3.120443e-09 3.806052e-09 3.975498e-09 5.481648e-09 4.846338e-09 1.862960e-09
4.943356e-09 3.474505e-09 3.239858e-09 2.711201e-09 4.762809e-09 1.712612e-09 3.267473e-09 5.487304e-09 2.466641e-09 1.355284e-09
2.253802e-09 3.686211e-09 3.588767e-09 2.352711e-09 2.541851e-09 -6.250556e-12 1.612483e-09 1.895513e-09 -3.404951e-10 1.717691e-10
8.458882e-10 7.541310e-10 -3.318098e-10 1.750284e-09 3.106242e-10 1.437238e-09 5.785935e-10 -2.646728e-09 -2.354869e-10 1.593496e-10
2.555093e-10 2.468860e-10 -5.200063e-11 1.614547e-10 -1.772667e-09 -1.089937e-09 1.364892e-09 1.012490e-11 -3.324225e-09 3.081238e-10
-3.392779e-09 -2.734934e-09 -1.326288e-09 -2.527547e-09 -5.158060e-10 -3.181201e-09 -2.652338e-09 -6.839489e-10 -4.317272e-09 -4.056430e-09
-2.185780e-09 -4.363954e-09 -4.177673e-09 -3.113463e-09 -2.658876e-09 -2.496659e-09 -3.867348e-09 -2.180197e-09 -4.591899e-09 -4.156672e-09
-2.962671e-09 -4.691952e-09 -4.459666e-09 -3.670238e-09 -4.955974e-09 -4.158947e-09 -4.825246e-09 -3.071715e-09 -3.999971e-09 -3.217507e-09
-3.126209e-09 -3.870698e-09 -4.615276e-09 -6.582296e-09 -2.461261e-09 -5.185150e-09 -6.266258e-09 -6.014180e-09 -4.240646e-09 -6.615870e-09
-5.410447e-09 -5.287652e-09 -4.339986e-09 -7.147926e-09 -6.716733e-09 -6.136462e-09 -5.149383e-09 -5.669362e-09 -6.873992e-09 -4.998649e-09
-5.329362e-09 -5.279616e-09 -4.760499e-09 -6.765978e-09 -6.620709e-09 -6.441557e-09 -4.813194e-09 -7.525111e-09 -8.187869e-09 -5.858453e-09
-5.646613e-09 -7.461529e-09 -7.827283e-09 -7.185046e-09 -7.989975e-09 -6.663421e-09 -8.256804e-09 -6.214832e-09 -8.541126e-09 -7.152265e-09
-8.400294e-09 -7.740177e-09 -7.238853e-09 -6.064805e-09 -7.495724e-09 -7.611153e-09 -7.446033e-09 -6.619773e-09 -7.507922e-09 -6.095264e-09
-6.624193e-09 -9.005599e-09 -7.745075e-09 -7.503972e-09 -6.831499e-09 -5.637197e-09 -7.190544e-09 -7.787320e-09 -6.159731e-09 -6.335975e-09
-6.649608e-09 -5.923238e-09 -6.942182e-09 -7.403318e-09 -7.939964e-09 -8.644329e-09 -6.460494e-09 -6.660610e-09 -6.553741e-09 -6.993288e-09
-6.309053e-09 -8.137563e-09 -6.475692e-09 -6.138555e-09 -5.732101e-09 -7.842564e-09 -5.040363e-09 -6.198333e-09 -6.156981e-09 -5.917839e-09
-6.366220e-09 -6.394355e-09 -7.184131e-09 -6.115857e-09 -5.932247e-09 -5.253336e-09 -5.644130e-09 -7.487098e-09 -6.078521e-09 -4.223409e-09
-6.741983e-09 -5.229622e-09 -6.208858e-09 -4.516837e-09 -4.915430e-09 -3.922356e-09 -4.525015e-09 -3.702339e-09 -3.977409e-09 -2.835500e-09
-6.531337e-09 -3.175819e-09 -5.027013e-09 -4.269054e-09 -3.382826e-09 -3.663571e-09 -4.316875e-09 -3.493797e-09 -4.584700e-09 -2.124623e-09
-4.133530e-09 -5.311554e-09 -3.444417e-09 -4.018513e-09 -1.641323e-09 -1.843038e-09 -3.196134e-09 -1.323996e-09 -6.979128e-10 -3.477513e-09
-3.042175e-09 -2.508366e-09 -7.936078e-10 -2.169137e-09 -1.215848e-09 1.336290e-11 -1.490738e-09 -1.975839e-09 -3.035996e-09 1.008037e-09
-1.361922e-10 -1.806265e-09 -1.731582e-09 1.465468e-09 -5.089890e-11 2.218359e-09 2.944839e-10 3.327424e-10 2.404567e-10 1.477641e-09
-5.249847e-10
1.376709e-10 1.020125e-10 3.516809e-10 -5.460853e-10 1.222845e-09 6.550318e-10 1.514014e-09 4.472422e-10 2.231193e-10 2.832869e-09
1.683173e-09 8.253710e-10 9.018066e-10 1.014571e-09 2.404382e-09 1.859673e-09 4.012325e-09 1.433178e-09 3.637379e-09 3.730690e-09
2.805472e-09 1.719056e-09 2.281072e-09 2.716736e-09 2.783027e-09 2.806749e-09 2.729295e-09 4.043566e-09 3.420859e-09 2.626933e-09
2.895253e-09 4.113715e-09 3.732935e-09 6.358275e-09 2.546250e-09 3.549648e-09 5.717010e-09 3.440202e-09 3.414545e-09 3.757773e-09
3.047655e-09 2.921301e-09 3.266769e-09 5.742653e-09 4.385138e-09 4.583639e-09 7.277935e-09 6.775602e-09 5.674405e-09 4.637376e-09
5.873573e-09 6.870371e-09 7.452722e-09 5.867204e-09 4.413190e-09 4.696276e-09 5.930004e-09 5.672115e-09 5.561711e-09 5.465845e-09
6.279276e-09 4.793989e-09 6.181976e-09 5.251884e-09 6.515711e-09 7.376970e-09 8.141222e-09 5.982754e-09 6.095990e-09 6.618524e-09
6.270032e-09 6.554131e-09 7.320057e-09 6.793656e-09 4.864953e-09 6.007188e-09 6.020163e-09 8.565590e-09 5.852650e-09 7.619142e-09
5.993846e-09 7.178248e-09 6.890284e-09 7.583977e-09 8.030704e-09 7.068328e-09 4.925183e-09 6.772090e-09 6.375183e-09 7.248776e-09
6.264974e-09 8.082203e-09 7.014253e-09 6.787895e-09 7.190117e-09 8.573146e-09 7.225909e-09 6.029072e-09 5.409341e-09 6.719019e-09
7.128712e-09 5.932749e-09 7.350392e-09 6.862658e-09 8.126708e-09 6.802649e-09 9.752785e-09 7.169961e-09 5.267780e-09 6.105867e-09
7.122751e-09 6.477496e-09 4.603720e-09 5.756516e-09 5.624051e-09 4.723930e-09 7.175345e-09 8.264615e-09 6.863777e-09 6.561178e-09
6.937806e-09 5.877039e-09 7.179615e-09 6.279232e-09 6.014537e-09 3.949606e-09 5.701472e-09 4.572850e-09 5.357562e-09 6.430554e-09
5.258194e-09 5.244721e-09 6.356547e-09 5.335000e-09 6.400326e-09 4.646745e-09 2.044322e-09 5.530393e-09 4.148854e-09 5.478725e-09
3.203331e-09 4.020323e-09 4.990422e-09 2.194616e-09 3.790065e-09 3.222617e-09 4.210840e-09 3.433861e-09 3.526465e-09 3.588291e-09
4.039435e-09 4.919896e-09 3.299536e-09 2.744072e-09 2.932198e-09 2.559350e-09 1.378332e-09 2.175927e-09 2.550301e-09 3.193940e-09
2.253718e-09 1.339700e-09 9.668867e-10 9.809673e-10 1.634042e-09 3.495545e-09 2.734704e-09 2.534484e-09 2.308989e-09 1.159098e-09
3.453010e-09 2.488027e-10 1.023442e-09 6.638761e-10 -1.562578e-09 1.476278e-09 1.440309e-09 1.005460e-09 -2.761582e-10 6.860105e-12
-8.537843e-10 -1.499619e-09 -1.609636e-10 2.257131e-09 1.436403e-09 -5.997612e-10 -4.093971e-10 -7.752408e-10 -1.778758e-09 -2.425461e-09
-2.079536e-09 -1.730905e-09 -3.025826e-09 -1.012552e-09 -1.960043e-09 -1.304408e-10 -8.852827e-10 -2.496991e-09 -3.458813e-09 -1.866422e-09
-2.969621e-09 -3.179029e-09 -3.497626e-09 -3.409666e-09 -1.803184e-09 -3.589690e-09 -2.655512e-09 -3.416984e-09 -2.866363e-09 -4.368822e-09
-3.688737e-09 -3.278806e-09 -1.991240e-09 -3.347691e-09 -6.118588e-09 -1.892565e-09 -3.898938e-09 -3.756514e-09 -5.669254e-09 -3.117540e-09
-4.114372e-09 -3.894511e-09 -4.581959e-09 -5.103209e-09 -5.016001e-09 -1.850619e-09 -4.896505e-09 -3.614077e-09 -6.606760e-09 -3.934525e-09
-5.314586e-09 -4.582323e-09 -4.236838e-09 -4.836471e-09 -7.057082e-09 -5.003943e-09 -5.751192e-09 -4.934573e-09 -3.486781e-09 -7.622924e-09
-7.413085e-09 -5.947147e-09 -7.910448e-09 -5.070170e-09 -5.221759e-09 -5.932879e-09 -5.755949e-09 -6.800347e-09 -6.807930e-09 -4.100638e-09
-5.354687e-09 -8.611341e-09 -6.970514e-09 -8.288375e-09 -7.777578e-09 -5.543875e-09 -7.757889e-09 -6.783750e-09 -6.953209e-09 -6.901010e-09
-7.147962e-09 -7.962888e-09 -6.967829e-09 -6.132874e-09 -4.946021e-09 -8.440122e-09 -7.539636e-09 -8.081426e-09 -8.934083e-09 -5.941598e-09
-6.171284e-09 -7.679385e-09 -8.193828e-09 -7.164111e-09 -7.406594e-09 -7.573881e-09 -6.663198e-09 -7.457996e-09 -6.324555e-09 -7.498421e-09
-6.590392e-09 -5.948083e-09 -7.008479e-09 -7.852428e-09 -7.274421e-09 -5.241355e-09 -6.387934e-09 -6.410521e-09 -6.441319e-09 -6.386668e-09
-5.413811e-09 -4.653005e-09 -5.519883e-09 -6.566623e-09 -6.150511e-09 -5.959610e-09 -7.873671e-09 -5.367221e-09 -4.945675e-09 -3.311258e-09
-6.216145e-09 -7.263582e-09 -4.338414e-09 -6.356639e-09 -4.728076e-09 -7.255249e-09 -5.614373e-09 -6.812869e-09 -6.378108e-09 -4.257081e-09
-4.607282e-09 -6.129119e-09 -4.361146e-09 -5.089183e-09 -4.410829e-09 -4.369220e-09 -6.542579e-09 -4.211410e-09 -3.580635e-09 -4.810069e-09
-6.196800e-09 -5.900965e-09 -4.556067e-09 -3.713414e-09 -4.730230e-09 -2.980830e-09 -3.861095e-09 -3.565358e-09 -3.928354e-09 -4.289064e-09
-3.806306e-09 -4.491159e-09 -3.986046e-09 -4.395165e-09 -1.872959e-09 -3.213947e-09 -4.490615e-09 -2.789849e-09 -1.460086e-09 -4.129538e-09
-2.649539e-09 -1.075160e-09 -7.574327e-10 -7.216256e-10 -6.983811e-10 -3.028853e-09 -5.613915e-09 7.762162e-12 -1.688713e-09 -1.960512e-09
-5.667254e-10 1.117330e-10 -7.896908e-10 -9.074119e-10 -6.157541e-10 -1.196106e-10 5.523422e-10 1.623078e-09 1.083691e-09 -2.450747e-09
1.376709e-10
9.349956e-10 1.277648e-09 -3.012451e-10 7.594645e-10 6.615525e-10 1.199045e-09 2.800674e-09 1.828766e-09 1.252666e-09 7.290732e-10
5.743687e-10 -3.017851e-10 2.569287e-09 5.717030e-10 3.465774e-09 2.853372e-09 5.373844e-10 2.721638e-09 3.653795e-09 4.516313e-09
2.504922e-09 2.074920e-09 2.770204e-09 4.598460e-09 2.353626e-09 1.299780e-09 1.264360e-09 2.615066e-09 3.067565e-09 3.625904e-09
5.143416e-09 9.483635e-10 3.938792e-09 5.516931e-09 5.814080e-09 4.492688e-09 3.057562e-09 3.585528e-09 2.774538e-09 2.124700e-09
2.953734e-09 3.572977e-09 2.944988e-09 4.079106e-09 3.843820e-09 3.206900e-09 4.094550e-09 4.662307e-09 4.817548e-09 4.744693e-09
4.221369e-09 3.528698e-09 5.012181e-09 4.791081e-09 4.489144e-09 4.646300e-09 5.452742e-09 5.691023e-09 4.725751e-09 5.218489e-09
5.714641e-09 5.707061e-09 6.684230e-09 4.518689e-09 5.251660e-09 5.111172e-09 4.063769e-09 6.047926e-09 5.707998e-09 5.272540e-09
7.287154e-09 6.154087e-09 7.777497e-09 6.251761e-09 6.945648e-09 7.685498e-09 7.047067e-09 6.876631e-09 5.669553e-09 5.825247e-09
5.538824e-09 5.614561e-09 5.389332e-09 5.626280e-09 7.434545e-09 6.596938e-09 5.828925e-09 6.239347e-09 5.691358e-09 6.844703e-09
3.752165e-09 6.590291e-09 6.154182e-09 4.624918e-09 7.737069e-09 6.223118e-09 5.413219e-09 6.129447e-09 5.964957e-09 7.674621e-09
6.586190e-09 7.181333e-09 7.989048e-09 5.447566e-09 5.886884e-09 5.698750e-09 6.695718e-09 7.687190e-09 6.111201e-09 6.945503e-09
5.282056e-09 5.746403e-09 5.735778e-09 5.094370e-09 4.547621e-09 7.371433e-09 6.282311e-09 4.498097e-09 3.648124e-09 5.753842e-09
4.045754e-09 5.163967e-09 4.069497e-09 6.113759e-09 5.197787e-09 3.312959e-09 5.941409e-09 4.972497e-09 5.198365e-09 5.391280e-09
4.553359e-09 4.900275e-09 4.545735e-09 3.940059e-09 4.978485e-09 3.921547e-09 3.960486e-09 4.939463e-09 4.921799e-09 5.596757e-09
3.708515e-09 4.753542e-09 4.111324e-09 2.881454e-09 2.738871e-09 1.954903e-09 4.296727e-09 2.579429e-09 3.103591e-09 3.798650e-09
2.086544e-09 3.857566e-09 3.289047e-09 3.534944e-09 3.674664e-09 2.283757e-09 4.879946e-09 2.033159e-09 1.744065e-10 2.832136e-09
2.566126e-09 3.622537e-09 1.518905e-09 3.763082e-09 6.966249e-10 2.336804e-09 2.076846e-09 9.672604e-10 -2.004274e-10 5.033758e-10
1.090440e-09 1.347911e-09 1.335963e-09 -3.004256e-09 1.752947e-11 1.734877e-09 1.816870e-09 2.058128e-09 1.096397e-09 -2.224044e-09
-1.496118e-09 1.463861e-10 -1.759033e-09 5.141180e-10 -9.138483e-10 2.863327e-10 -1.892675e-11 -7.077975e-10 -3.371796e-10 -2.610503e-09
5.759669e-10 6.818313e-10 4.255555e-10 -2.815080e-10 -3.530999e-09 -3.151250e-09 -2.780576e-09 -2.116766e-09 -1.845144e-09 -2.008698e-10
-2.417307e-09 -2.590997e-09 -2.929530e-09 -2.983575e-09 -2.516410e-09 -2.755560e-09 -3.611120e-09 -2.942866e-09 -2.351365e-09 -2.139736e-09
-3.856032e-09 -3.953949e-09 -5.546122e-09 -3.855211e-09 -5.194003e-09 -5.627655e-09 -2.708283e-09 -4.627166e-09 -4.112497e-09 -3.679220e-09
-6.389353e-09 -3.872533e-09 -3.344495e-09 -3.747541e-09 -5.901136e-09 -7.074165e-09 -4.372219e-09 -4.512704e-09 -3.617599e-09 -6.520062e-09
-4.686168e-09 -4.324935e-09 -7.222187e-09 -7.675051e-09 -2.813643e-09 -5.154826e-09 -5.304488e-09 -3.364878e-09 -7.452798e-09 -5.205320e-09
-7.189843e-09 -5.220285e-09 -6.618890e-09 -5.081228e-09 -7.301451e-09 -5.299032e-09 -7.333214e-09 -5.699482e-09 -5.466506e-09 -4.295734e-09
-4.921240e-09 -8.243421e-09 -5.157918e-09 -5.520088e-09 -6.590637e-09 -6.868547e-09 -6.041837e-09 -6.070923e-09 -7.108707e-09 -4.389207e-09
-6.128214e-09 -4.942567e-09 -7.175233e-09 -5.400413e-09 -6.713588e-09 -7.549749e-09 -7.154300e-09 -4.627755e-09 -4.960000e-09 -6.968072e-09
-6.937888e-09 -6.442824e-09 -5.900775e-09 -6.638620e-09 -7.501693e-09 -8.093178e-09 -6.232963e-09 -7.461895e-09 -7.782655e-09 -5.711131e-09
-5.418226e-09 -5.087748e-09 -6.249424e-09 -6.373925e-09 -5.362634e-09 -5.579818e-09 -8.168705e-09 -6.329790e-09 -5.296886e-09 -7.051245e-09
-5.119650e-09 -6.230355e-09 -4.752997e-09 -5.834412e-09 -4.780608e-09 -7.811116e-09 -7.492438e-09 -6.209881e-09 -4.926981e-09 -4.289684e-09
-5.766462e-09 -4.583018e-09 -6.583717e-09 -5.309686e-09 -5.533057e-09 -3.950694e-09 -3.668763e-09 -4.476794e-09 -4.825055e-09 -3.268512e-09
-2.809952e-09 -6.944862e-09 -4.909204e-09 -3.295406e-09 -4.113396e-09 -5.721203e-09 -4.236292e-09 -2.924397e-09 -2.569396e-09 -6.130045e-09
-4.233867e-09 -5.660254e-09 -3.637069e-09 -3.834713e-09 -3.748785e-09 -3.454642e-09 -3.457028e-09 -3.811393e-09 -2.396072e-09 -1.771790e-09
-4.798296e-09 -2.443766e-09 -5.406015e-09 -2.255212e-09 -4.085483e-09 -3.391121e-09 -1.390885e-09 -3.588915e-09 -1.555142e-09 -1.303216e-09
-3.294275e-09 -8.945876e-10 -5.821733e-10 -5.013825e-10 -2.168607e-09 -1.712772e-09 -1.678581e-09 8.195559e-10 -4.113216e-09 -1.744626e-09
4.386770e-10 -2.109502e-09 6.007316e-10 -1.143590e-09 -2.293917e-09 -1.466352e-09 -3.760570e-10 1.238807e-09 3.436851e-10 -1.422481e-09
9.349956e-10
-4.242444e-11 -8.936944e-10 1.817759e-10 1.969960e-09 1.452954e-09 1.430229e-09 7.763853e-10 2.444239e-09 -6.081534e-10 6.305463e-10
1.651916e-09 2.942143e-10 -1.890327e-10 1.659661e-09 5.633958e-10 1.544704e-09 1.346456e-09 -2.530477e-10 1.127652e-09 -5.644110e-10
1.455708e-09 3.419447e-09 2.702841e-09 4.067729e-09 3.870708e-09 1.390855e-10 2.657191e-09 4.279459e-09 1.759474e-09 2.093804e-09
3.205164e-09 2.729900e-09 3.500370e-09 4.290717e-09 5.034902e-09 4.069994e-09 6.055118e-09 3.056844e-09 4.774979e-09 2.779459e-09
4.565157e-09 2.532111e-09 3.425867e-09 3.129841e-09 3.750948e-09 5.253662e-09 4.908794e-09 3.049455e-09 3.768418e-09 4.247793e-09
3.755097e-09 4.791225e-09 5.278912e-09 5.221332e-09 4.924874e-09 3.266625e-09 4.699560e-09 7.558270e-09 4.571746e-09 2.396383e-09
4.376887e-09 7.139377e-09 4.802066e-09 3.516236e-09 4.635982e-09 4.999679e-09 6.175122e-09 6.226536e-09 5.983729e-09 5.683063e-09
4.357217e-09 4.651813e-09 6.132707e-09 6.241130e-09 5.493461e-09 5.207058e-09 5.864310e-09 3.413993e-09 5.715952e-09 5.283109e-09
5.902212e-09 5.852490e-09 5.148642e-09 5.424214e-09 7.450690e-09 6.740743e-09 7.545415e-09 5.649302e-09 6.479151e-09 6.403555e-09
5.542582e-09 5.254863e-09 5.873958e-09 5.502043e-09 6.772009e-09 5.426136e-09 5.374815e-09 6.130897e-09 4.637168e-09 5.519972e-09
6.238764e-09 7.918175e-09 5.873182e-09 5.733698e-09 7.288001e-09 7.641706e-09 4.527981e-09 6.107094e-09 5.256471e-09 5.357075e-09
4.736957e-09 5.976997e-09 4.302715e-09 4.268066e-09 7.026266e-09 4.019214e-09 4.122942e-09 5.299090e-09 7.211212e-09 5.401684e-09
5.245848e-09 5.409211e-09 3.978026e-09 5.267130e-09 2.826226e-09 5.408697e-09 4.444517e-09 5.109765e-09 4.888751e-09 6.324639e-09
3.271250e-09 4.312747e-09 4.943360e-09 3.168057e-09 2.675803e-09 3.552027e-09 3.639795e-09 6.329717e-09 4.361633e-09 5.173912e-09
4.426373e-09 4.944994e-09 3.000151e-09 3.849019e-09 4.322824e-09 5.394543e-09 7.776901e-10 2.084743e-09 4.352167e-09 2.967060e-09
3.227811e-09 2.044802e-09 2.002191e-09 2.415107e-09 4.386384e-09 1.095170e-09 2.732495e-09 2.454604e-09 3.234904e-09 1.542624e-09
2.044106e-09 3.055155e-09 1.634718e-09 4.634458e-10 5.643963e-10 2.897225e-09 2.007772e-09 1.043693e-09 1.393226e-09 3.631032e-10
1.700249e-09 1.558407e-09 5.126876e-10 5.810473e-10 -1.154277e-09 -1.234518e-09 2.887261e-11 1.336231e-09 2.748950e-10 -1.405890e-09
-1.199840e-09 -8.935983e-11 -1.953522e-09 1.805096e-09 3.498033e-10 -1.486699e-10 -3.516548e-10 -1.681481e-09 1.419888e-09 -1.244948e-10
-1.843912e-11 -1.817521e-09 -1.482341e-09 -1.680596e-09 -3.115778e-09 -3.171364e-09 -6.097603e-10 -1.304175e-10 1.027138e-10 -2.008770e-09
-2.285464e-09 -5.496015e-10 -4.108504e-09 -2.324226e-09 -2.091648e-09 -3.239619e-09 -3.240934e-09 -3.371498e-09 -3.092662e-09 -1.806180e-09
-3.337571e-09 -1.414142e-09 -5.133612e-09 -4.630754e-09 -3.450191e-09 -3.126052e-09 -3.586994e-09 -5.191639e-09 -5.135781e-09 -3.502008e-09
-4.434271e-09 -4.358907e-09 -5.645157e-09 -5.745221e-09 -5.936955e-09 -4.195031e-09 -5.079106e-09 -3.142484e-09 -4.348974e-09 -2.394071e-09
-5.485159e-09 -4.805524e-09 -6.841160e-09 -5.605786e-09 -5.142997e-09 -5.172322e-09 -3.016022e-09 -4.996948e-09 -5.238096e-09 -6.582315e-09
-4.002919e-09 -5.810184e-09 -5.913334e-09 -6.171065e-09 -5.748221e-09 -4.375362e-09 -6.774135e-09 -5.503544e-09 -6.385529e-09 -5.726817e-09
-6.254867e-09 -6.457734e-09 -7.973123e-09 -3.999494e-09 -7.415268e-09 -6.198213e-09 -6.031279e-09 -4.375168e-09 -5.326938e-09 -8.717538e-09
-4.652514e-09 -6.562222e-09 -7.821691e-09 -4.757903e-09 -5.385372e-09 -6.787567e-09 -5.790189e-09 -6.400420e-09 -8.333101e-09 -6.837291e-09
-5.807454e-09 -4.564145e-09 -6.611312e-09 -6.953737e-09 -7.649903e-09 -6.635238e-09 -5.616697e-09 -6.950231e-09 -5.891744e-09 -7.669850e-09
-6.124500e-09 -6.512240e-09 -5.991889e-09 -6.126987e-09 -7.681023e-09 -5.984256e-09 -5.488420e-09 -4.401182e-09 -4.917188e-09 -6.177633e-09
-5.086547e-09 -5.314130e-09 -4.409714e-09 -5.887517e-09 -8.162444e-09 -6.478081e-09 -4.622638e-09 -3.610044e-09 -5.970671e-09 -4.211252e-09
-5.542570e-09 -5.417009e-09 -5.801242e-09 -4.443327e-09 -4.386212e-09 -3.196756e-09 -3.734577e-09 -3.479191e-09 -5.089207e-09 -4.422406e-09
-3.297091e-09 -6.179071e-09 -4.120031e-09 -4.035905e-09 -4.329247e-09 -5.612222e-09 -3.522397e-09 -2.710722e-09 -3.288006e-09 -2.729741e-09
-2.355949e-09 -3.050316e-09 -2.099874e-09 -2.844367e-09 -3.248309e-09 -1.970080e-09 -2.257600e-09 -3.703713e-09 -4.814345e-09 -3.366921e-09
-4.688444e-09 -2.561810e-09 -4.987470e-10 -3.138950e-09 -6.249214e-10 1.061843e-11 -3.261544e-09 -3.144087e-09 -1.834914e-09 -2.770072e-09
-1.223818e-09 -1.065030e-09 -2.176860e-09 -1.306084e-09 -8.794145e-10 -1.205641e-09 -2.468784e-09 -6.844316e-10 -1.467268e-09 3.610123e-10
-5.139896e-11 -1.799001e-09 -2.446938e-09 -7.019765e-10 -1.469443e-09 -2.440845e-09 -2.799524e-09 -8.258898e-10 -1.802857e-09 4.847724e-10
-4.242444e-11
8.814691e-10 -8.091005e-10 2.012559e-09 1.686034e-09 1.270057e-09 -3.617536e-11 -1.077699e-09 5.772529e-10 1.123655e-09 1.376352e-09
4.903409e-10 1.135465e-09 5.511739e-10 1.938381e-09 1.263925e-09 2.074920e-09 1.915581e-09 2.679371e-09 1.051252e-09 -4.501891e-10
2.847298e-09 2.218209e-09 2.673789e-09 4.422636e-09 2.592155e-09 2.297558e-09 1.914744e-09 3.096213e-09 1.066630e-09 4.410702e-09
2.204298e-09 3.673977e-09 2.914152e-09 3.683822e-09 2.323540e-09 1.802242e-09 3.268256e-09 3.655731e-09 4.025367e-09 1.855931e-09
3.273618e-09 3.041139e-09 5.522062e-09 2.441940e-09 1.687112e-09 2.967212e-09 5.540028e-09 3.436041e-09 4.190563e-09 6.369731e-09
3.130244e-09 5.380754e-09 3.764594e-09 4.772817e-09 4.112076e-09 5.351449e-09 4.265849e-09 5.795576e-09 4.998963e-09 6.188541e-09
4.973208e-09 6.191638e-09 4.208609e-09 4.061177e-09 3.639800e-09 7.222023e-09 3.352084e-09 5.372227e-09 4.902144e-09 3.655267e-09
5.108395e-09 7.796058e-09 4.054979e-09 7.175475e-09 4.581469e-09 5.761177e-09 6.044274e-09 5.820597e-09 5.293023e-09 6.225058e-09
6.256899e-09 6.389365e-09 6.434911e-09 5.865636e-09 4.948886e-09 5.241449e-09 7.469081e-09 6.418221e-09 6.370739e-09 5.927522e-09
4.991078e-09 4.498188e-09 5.491561e-09 7.936147e-09 4.420146e-09 4.409539e-09 7.134368e-09 4.534248e-09 8.301956e-09 4.775815e-09
4.843693e-09 6.029768e-09 4.387517e-09 5.756097e-09 5.627353e-09 5.931490e-09 5.777203e-09 6.415603e-09 4.533204e-09 7.264614e-09
6.057098e-09 5.280491e-09 4.581075e-09 6.867219e-09 4.049387e-09 4.669248e-09 5.256389e-09 7.465952e-09 5.936094e-09 5.302491e-09
2.998701e-09 7.057364e-09 5.869415e-09 5.089793e-09 5.617592e-09 5.264385e-09 4.309176e-09 5.327266e-09 5.102775e-09 6.376240e-09
4.595214e-09 3.999940e-09 5.534872e-09 4.649743e-09 4.032432e-09 4.365942e-09 3.655998e-09 3.088637e-09 4.989254e-09 3.131871e-09
1.602640e-09 4.402505e-09 4.554198e-09 3.737832e-09 2.007704e-09 3.311042e-09 1.673017e-09 3.287593e-09 1.930979e-09 3.614217e-09
2.847990e-09 1.538666e-09 1.250060e-09 2.193390e-09 2.600979e-09 4.267244e-09 1.235420e-09 2.655320e-09 2.173428e-09 3.952517e-09
2.813274e-09 1.762590e-09 3.341633e-09 2.896071e-09 2.782014e-09 1.344792e-10 2.923837e-09 2.296823e-09 9.789265e-10 3.628634e-09
2.128785e-10 1.222789e-09 2.371576e-09 2.493211e-10 -7.273288e-11 -1.657174e-10 -2.940926e-10 6.805010e-10 2.353586e-09 -9.690289e-10
-3.813261e-10 -1.077116e-09 -7.672787e-10 -1.177793e-09 1.586534e-09 -5.924486e-10 4.607421e-10 -1.511316e-09 -1.591861e-10 -1.117894e-09
-1.313179e-09 1.005293e-09 6.329872e-12 -2.689167e-10 -1.067854e-10 4.467195e-10 -2.953466e-09 -5.356727e-10 -1.079372e-09 -2.511719e-09
-1.882505e-09 -3.522491e-09 -9.179832e-10 -3.021154e-09 -1.836532e-09 -3.731171e-09 -3.737495e-09 -2.085301e-09 -1.583577e-09 -2.452136e-09
-5.930325e-09 -4.110881e-09 -2.219146e-09 -4.421114e-09 -3.108733e-09 -2.725743e-09 -4.025982e-09 -3.773417e-09 -4.325619e-09 -4.116779e-09
-1.409513e-09 -4.892212e-09 -4.043897e-09 -2.727849e-09 -4.690515e-09 -4.484323e-09 -5.614043e-09 -4.134507e-09 -4.746637e-09 -3.910685e-09
-4.598453e-09 -6.022200e-09 -5.432633e-09 -4.047827e-09 -3.222390e-09 -5.483281e-09 -4.172794e-09 -4.711188e-09 -5.509220e-09 -5.939322e-09
-5.267276e-09 -5.129375e-09 -3.601462e-09 -4.327993e-09 -6.473647e-09 -3.135200e-09 -4.972405e-09 -7.292589e-09 -4.171328e-09 -4.358967e-09
-6.365037e-09 -4.677184e-09 -4.361603e-09 -5.539109e-09 -5.538825e-09 -6.362708e-09 -5.175928e-09 -5.634625e-09 -6.703631e-09 -7.086902e-09
-5.630448e-09 -6.410104e-09 -6.207557e-09 -4.820901e-09 -4.380022e-09 -6.578688e-09 -6.991593e-09 -5.804913e-09 -5.812297e-09 -2.977341e-09
-4.782982e-09 -6.494474e-09 -7.641851e-09 -6.099758e-09 -6.201236e-09 -6.024309e-09 -4.201409e-09 -5.377737e-09 -5.075155e-09 -4.468186e-09
-5.624063e-09 -6.462280e-09 -4.947484e-09 -5.749783e-09 -3.464222e-09 -7.207453e-09 -6.249796e-09 -5.563427e-09 -6.214846e-09 -3.953069e-09
-3.748484e-09 -5.363221e-09 -5.533266e-09 -6.336305e-09 -5.902379e-09 -4.891478e-09 -5.947212e-09 -7.881121e-09 -3.925566e-09 -6.562223e-09
-6.002269e-09 -5.728959e-09 -5.340687e-09 -4.596787e-09 -5.261424e-09 -6.152687e-09 -4.477279e-09 -5.611625e-09 -5.380860e-09 -3.884806e-09
-5.293527e-09 -3.884864e-09 -2.058739e-09 -5.475421e-09 -5.746343e-09 -3.144021e-09 -2.989573e-09 -2.011617e-09 -3.813901e-09 -4.015522e-09
-3.943239e-09 -2.576783e-09 -4.133721e-09 -3.654285e-09 -3.237400e-09 -3.288123e-09 -3.090856e-10 -2.963306e-09 -3.428029e-09 -3.043096e-09
-2.966867e-09 -3.291731e-09 -2.434712e-09 -2.625687e-09 -1.974996e-09 -7.730656e-10 -1.545997e-09 -2.475889e-09 -1.631930e-09 -3.674289e-09
-3.563480e-09 -1.198601e-09 -1.484475e-09 -2.559918e-09 -1.052119e-09 5.468742e-10 -1.003079e-09 -1.338771e-09 -1.876197e-09 -2.249186e-09
1.906170e-10 -3.660594e-09 -3.292977e-09 -9.741093e-10 2.433817e-09 -2.671684e-09 -1.071935e-09 1.659475e-09 -1.080079e-09 4.859310e-10
8.814691e-10
8.762464e-10 -1.855356e-09 -2.823303e-10 4.260209e-10 1.186866e-09 1.854366e-09 7.537005e-10 9.015632e-10 1.631951e-09 2.859304e-09
2.323511e-09 1.012932e-09 1.136098e-09 2.931098e-10 1.258107e-09 2.023941e-10 -3.570098e-10 1.309047e-09 2.566935e-09 4.789187e-09
3.903121e-09 1.132761e-09 1.501865e-09 2.607475e-09 2.707143e-09 2.108723e-09 2.690112e-09 5.183312e-10 5.058997e-09 1.586953e-09
1.457352e-09 3.374409e-09 4.365933e-09 3.399487e-09 1.473420e-09 2.420363e-09 3.493719e-09 6.888412e-10 1.227628e-09 3.822431e-09
4.751813e-09 4.546418e-09 3.790161e-09 4.901559e-09 3.342483e-09 2.790850e-09 3.557123e-09 5.216366e-09 2.223423e-09 4.135774e-09
3.699607e-09 7.293718e-09 4.354473e-09 2.051558e-09 3.777711e-09 5.365568e-09 5.016289e-09 6.407463e-09 4.200721e-09 2.932900e-09
3.728310e-09 4.890036e-09 4.760988e-09 5.554308e-09 3.551181e-09 4.106786e-09 5.213020e-09 5.222692e-09 6.724550e-09 4.238483e-09
4.208797e-09 7.594868e-09 3.894807e-09 6.314853e-09 4.683389e-09 5.106873e-09 4.326328e-09 4.529885e-09 7.846925e-09 5.539656e-09
4.438440e-09 3.311301e-09 6.243782e-09 3.915606e-09 4.820654e-09 7.470382e-09 5.010476e-09 5.406406e-09 5.893247e-09 3.832654e-09
4.344633e-09 6.484582e-09 4.419095e-09 4.762243e-09 6.580530e-09 5.910656e-09 3.088117e-09 4.137729e-09 5.151167e-09 5.134840e-09
4.224082e-09 2.679650e-09 3.550515e-09 6.582349e-09 4.803106e-09 4.494152e-09 5.513220e-09 5.212748e-09 4.238244e-09 3.953468e-09
5.553809e-09 6.427502e-09 4.209612e-09 7.361341e-09 6.782958e-09 5.239853e-09 4.671580e-09 7.004879e-09 7.111956e-09 3.898831e-09
2.149245e-09 4.850049e-09 3.599514e-09 4.017076e-09 3.870066e-09 4.171135e-09 4.786182e-09 4.626346e-09 5.230749e-09 6.135114e-09
6.651117e-09 5.691847e-09 2.975130e-09 2.904288e-09 4.925627e-09 4.456195e-09 5.879206e-09 4.302990e-09 2.495204e-09 2.806778e-09
2.144560e-09 2.709455e-09 3.501884e-09 1.176867e-09 1.936573e-09 3.144663e-09 3.286633e-09 6.066771e-09 3.792098e-09 1.726245e-09
4.976557e-10 1.140073e-09 6.258459e-10 1.979929e-09 2.596192e-09 1.881969e-09 7.702977e-10 1.087298e-09 3.252800e-09 1.839664e-09
2.740749e-09 2.644266e-10 7.528245e-10 2.449477e-09 2.126294e-09 1.160269e-09 3.082373e-09 9.104962e-10 4.132347e-10 3.687747e-09
1.414837e-09 2.426725e-09 1.037438e-09 -6.993666e-10 1.183182e-09 -3.602987e-10 -2.234863e-10 2.491822e-09 -9.593172e-10 -6.333599e-10
-1.343958e-10 2.114837e-09 9.564959e-10 1.120091e-09 2.406874e-10 -1.660060e-09 7.300938e-11 -1.719401e-09 1.452588e-10 -2.852401e-09
-1.247494e-09 -5.627585e-10 -3.135434e-09 1.174558e-09 -1.906986e-09 -2.870787e-09 5.513692e-10 -2.175402e-09 -2.895433e-10 -2.302510e-09
-1.120560e-09 -2.186341e-09 -3.779652e-09 -1.174813e-09 -6.754722e-10 -2.766365e-09 -5.359125e-09 -9.086307e-10 -3.288605e-09 -2.346572e-09
-1.119642e-09 -3.258434e-09 -2.357526e-09 -3.402678e-09 -2.730037e-09 -4.387421e-09 -4.201389e-09 -4.301333e-09 -3.370893e-09 -2.451036e-09
-2.571108e-09 -2.203477e-09 -2.159066e-09 -2.725257e-09 -5.550758e-09 -4.121913e-09 -2.659786e-09 -5.357762e-09 -2.769803e-09 -2.627017e-09
-5.134055e-09 -3.810622e-09 -3.430664e-09 -4.869088e-09 -3.347635e-09 -4.519527e-09 -4.990038e-09 -5.265805e-09 -7.271596e-09 -3.951667e-09
-4.664240e-09 -4.001067e-09 -5.558620e-09 -5.107187e-09 -3.397082e-09 -4.371819e-09 -5.389336e-09 -3.066091e-09 -6.141487e-09 -2.920675e-09
-5.357581e-09 -5.211135e-09 -5.721797e-09 -3.870147e-09 -3.720622e-09 -3.492679e-09 -4.402763e-09 -3.168348e-09 -3.328657e-09 -7.225813e-09
-4.162255e-09 -6.071881e-09 -6.898079e-09 -5.826417e-09 -3.598690e-09 -6.510084e-09 -4.324307e-09 -3.376644e-09 -5.029919e-09 -5.301200e-09
-6.199901e-09 -4.962050e-09 -4.522863e-09 -6.056879e-09 -6.871486e-09 -6.490792e-09 -7.908812e-09 -4.776324e-09 -5.410867e-09 -4.463580e-09
-4.106136e-09 -5.930435e-09 -5.730543e-09 -4.866409e-09 -4.134254e-09 -7.416309e-09 -5.822479e-09 -4.614311e-09 -4.550913e-09 -3.745771e-09
-5.476343e-09 -2.834927e-09 -5.086999e-09 -3.909513e-09 -6.897371e-09 -4.572623e-09 -6.503585e-09 -5.901376e-09 -2.684149e-09 -3.702263e-09
-4.725330e-09 -4.134482e-09 -3.460550e-09 -5.403237e-09 -4.080566e-09 -4.047635e-09 -3.749968e-09 -4.934530e-09 -3.856182e-09 -3.672552e-09
-2.470904e-09 -5.533979e-09 -5.232916e-09 -6.309719e-09 -4.703264e-09 -3.330242e-09 -3.615370e-09 -5.591247e-09 -4.242374e-09 -1.616931e-09
-3.696777e-09 -2.824069e-09 -3.157999e-09 -4.268383e-09 -2.111122e-09 -2.895757e-09 -2.674366e-09 -4.847092e-09 -1.468107e-09 -3.998002e-09
-1.539142e-10 -2.724615e-09 -2.492653e-09 -3.082530e-09 -1.584745e-09 -1.139892e-09 -1.145914e-09 -1.655170e-09 -1.524222e-09 -2.177369e-09
-1.539716e-09 -1.644765e-09 -1.326548e-09 -3.141381e-09 -5.746494e-10 -1.297450e-09 -9.018841e-10 -1.730836e-09 -2.104794e-09 -1.939360e-09
4.473742e-10 -1.195931e-09 6.488758e-10 -9.072056e-10 1.383375e-09 -1.304187e-10 3.533485e-10 -2.000666e-09 5.921268e-10 1.191765e-09
8.762464e-10
1.462136e-10 1.222075e-09 7.437956e-11 -6.542427e-10 3.563130e-10 -7.620860e-10 1.505677e-09 1.966597e-09 8.565968e-10 -2.449591e-11
-3.667053e-10 4.551344e-10 5.289949e-10 2.950009e-09 1.991524e-09 1.308655e-09 4.025544e-10 2.247379e-09 7.900887e-10 1.583835e-09
1.010185e-09 1.456254e-09 8.739920e-10 4.133709e-09 2.076986e-09 4.212421e-09 2.942018e-09 3.011535e-09 2.711185e-09 2.570214e-09
2.890724e-09 5.095731e-09 3.978997e-09 3.756333e-09 2.245602e-09 1.998827e-09 2.224406e-09 2.362133e-09 4.311854e-09 2.947108e-09
2.964422e-09 3.742791e-09 3.534235e-09 4.105058e-09 3.508147e-09 3.125838e-09 3.428190e-09 4.238241e-09 3.701176e-09 4.458850e-09
3.637530e-09 2.356412e-09 4.191927e-09 3.134767e-09 5.145303e-09 3.699408e-09 7.004844e-09 5.187451e-09 5.082916e-09 3.191690e-09
4.499480e-09 5.590527e-09 4.352223e-09 3.304638e-09 3.620057e-09 5.425385e-09 2.935036e-09 5.366152e-09 4.321741e-09 2.601332e-09
5.927859e-09 4.084659e-09 5.131984e-09 5.617113e-09 5.160176e-09 5.245039e-09 5.799166e-09 4.597544e-09 1.932512e-09 4.941056e-09
5.469612e-09 5.658138e-09 5.691202e-09 6.025639e-09 3.570443e-09 5.415409e-09 5.900162e-09 6.257551e-09 4.150333e-09 4.789750e-09
4.687513e-09 5.912028e-09 6.635155e-09 4.218215e-09 4.578947e-09 3.803315e-09 5.023237e-09 4.929207e-09 7.099722e-09 4.509216e-09
5.887368e-09 7.564293e-09 6.384528e-09 4.734276e-09 4.745972e-09 5.126527e-09 3.978959e-09 3.082010e-09 5.128325e-09 3.498978e-09
5.076305e-09 4.728816e-09 4.544063e-09 6.115856e-09 1.229925e-09 5.632200e-09 4.541038e-09 5.622797e-09 3.557912e-09 2.458075e-09
5.519089e-09 4.580178e-09 2.682817e-09 4.381334e-09 4.087520e-09 1.370083e-09 2.988054e-09 3.616940e-09 2.508693e-09 3.032906e-09
4.064396e-09 3.649215e-09 2.196306e-09 5.313501e-09 3.429558e-09 2.207099e-09 3.167530e-09 4.284527e-09 2.378661e-09 2.063912e-09
4.493447e-09 3.869898e-09 4.067792e-09 8.855651e-10 1.156239e-09 1.558107e-09 4.386831e-09 3.720105e-09 1.979476e-09 2.497091e-09
-5.356440e-10 2.242203e-09 1.189473e-09 3.216782e-09 2.346318e-09 8.253915e-10 2.445745e-09 1.835111e-09 1.701759e-09 -3.842945e-10
2.368545e-09 1.817425e-09 2.360792e-09 1.783868e-09 1.390430e-09 4.587838e-09 3.231424e-10 1.614772e-09 1.892685e-09 8.346106e-10
3.010732e-09 -2.580105e-09 7.047667e-10 2.410770e-09 -2.823347e-10 8.645642e-10 1.326191e-09 -3.405356e-10 5.934013e-10 -1.248416e-09
-7.928036e-11 -4.200936e-10 6.962830e-11 3.319672e-10 -1.080374e-09 2.370887e-10 -5.323710e-10 7.414943e-10 -2.950966e-09 -5.223884e-10
-1.208419e-10 -7.081056e-10 -1.668919e-09 -5.380363e-10 3.350323e-10 -1.095706e-09 -1.330486e-09 -2.016360e-09 -1.465927e-09 -1.713751e-09
-1.948939e-09 -4.150439e-10 -2.581870e-09 -3.837843e-09 -2.403452e-09 -2.410563e-09 -2.992728e-09 -9.439863e-10 -3.801386e-09 -3.406177e-09
-3.429364e-09 -5.371092e-09 -1.958531e-09 -8.892678e-10 -5.154895e-09 -3.565974e-09 -4.663057e-09 -4.870368e-09 -2.250357e-09 -1.929335e-09
-2.357816e-09 -5.678033e-09 -5.422731e-09 -2.054651e-09 -4.469319e-09 -4.187911e-09 -5.416451e-09 -4.503148e-09 -1.979605e-09 -5.027378e-09
-4.954775e-09 -5.330416e-09 -2.865769e-09 -3.280153e-09 -4.447598e-09 -2.868596e-09 -3.009354e-09 -3.003717e-09 -2.912962e-09 -4.081486e-09
-5.389460e-09 -2.634500e-09 -3.531597e-09 -4.573805e-09 -5.367719e-09 -8.052100e-09 -3.319553e-09 -6.119347e-09 -3.470507e-09 -3.600489e-09
-5.598055e-09 -3.552150e-09 -4.229269e-09 -3.443770e-09 -5.121628e-09 -4.452374e-09 -3.215217e-09 -7.826276e-09 -6.355891e-09 -5.334873e-09
-4.655586e-09 -5.012515e-09 -6.480899e-09 -5.156032e-09 -6.239689e-09 -4.660594e-09 -4.725539e-09 -5.023912e-09 -6.076927e-09 -4.586959e-09
-4.970082e-09 -5.753563e-09 -4.784509e-09 -4.741047e-09 -3.052572e-09 -6.497105e-09 -6.413589e-09 -4.039531e-09 -4.102544e-09 -3.810240e-09
-6.621742e-09 -6.765700e-09 -4.412018e-09 -4.092181e-09 -4.494312e-09 -5.343302e-09 -7.857647e-09 -6.750993e-09 -4.203768e-09 -3.765869e-09
-4.659716e-09 -4.374420e-09 -4.252469e-09 -3.477133e-09 -5.447518e-09 -2.887760e-09 -4.148256e-09 -3.627277e-09 -3.695991e-09 -3.947237e-09
-4.053115e-09 -3.548992e-09 -5.604288e-09 -4.339514e-09 -2.235683e-09 -4.381253e-09 -3.465545e-09 -1.920257e-09 -3.690641e-09 -2.084160e-09
-5.044761e-09 -4.286014e-09 -2.677078e-09 -3.861384e-09 -4.792605e-09 -3.149630e-09 -2.881509e-09 -2.657586e-09 -3.429746e-09 -1.719980e-09
-4.191117e-09 -1.893691e-09 -1.819616e-09 -3.030505e-09 -1.563218e-09 -3.872617e-09 -2.460552e-09 -3.374566e-09 -2.609342e-09 -2.844573e-09
-2.738517e-09 -1.713836e-09 -1.422800e-09 -3.733419e-09 -3.243268e-09 -2.059154e-09 -2.323855e-09 -2.966905e-09 -3.607055e-09 -1.695184e-09
-2.593399e-09 -2.736585e-09 -3.363996e-09 -9.231682e-10 -3.159406e-09 1.064443e-09 -2.354425e-09 -6.125545e-11 -1.423827e-09 -8.042880e-10
-2.939783e-09 -1.127329e-09 -1.875980e-09 -1.215209e-09 -7.827967e-10 -1.352568e-09 -2.829977e-11 6.307375e-10 4.969554e-10 1.645146e-09
1.462136e-10
-9.530594e-10 1.709520e-09 2.726741e-10 1.239599e-09 -9.407144e-10 -2.942925e-10 -1.894721e-09 7.234162e-10 1.839481e-09 3.667693e-10
1.202170e-09 1.536250e-09 2.591198e-09 3.448718e-09 7.118555e-10 1.648889e-09 2.108801e-09 5.491310e-10 1.702148e-09 2.556927e-09
1.756362e-09 3.618786e-10 1.506100e-09 -3.456722e-10 1.150533e-09 2.268282e-09 2.004305e-09 2.234063e-09 6.946572e-10 1.779351e-09
1.006878e-09 2.059563e-09 4.279550e-10 2.679438e-09 3.273706e-09 3.399720e-09 3.249221e-09 2.716022e-09 4.288180e-09 2.461370e-09
4.627661e-09 1.430246e-09 2.549841e-09 2.576538e-09 4.181625e-09 5.882264e-09 4.065004e-09 4.085561e-09 2.842714e-09 3.078362e-09
4.590144e-09 1.811951e-09 2.874763e-09 2.031138e-09 2.506259e-09 3.014057e-09 4.623601e-09 3.718724e-09 2.483165e-09 4.530924e-09
1.075321e-09 5.599274e-09 1.451990e-09 4.948821e-09 5.137777e-09 3.779964e-09 4.559125e-09 3.640150e-09 3.816721e-09 4.370698e-09
4.233689e-09 3.786217e-09 4.219851e-09 5.212572e-09 3.407352e-09 3.374528e-09 5.313357e-09 7.700398e-09 5.185962e-09 4.459713e-09
4.805775e-09 4.646651e-09 5.942114e-09 4.655885e-09 6.749598e-09 5.680445e-09 5.889808e-09 5.265449e-09 3.810683e-09 4.136308e-09
4.771215e-09 5.774214e-09 5.053110e-09 5.054358e-09 3.608046e-09 3.164775e-09 5.031993e-09 3.602164e-09 3.841266e-09 4.034196e-09
5.079147e-09 3.971121e-09 5.019990e-09 7.005042e-09 5.103166e-09 6.172648e-09 5.541634e-09 3.387695e-09 5.588134e-09 4.962914e-09
5.240002e-09 5.053533e-09 5.369957e-09 5.417645e-09 5.125545e-09 4.143965e-09 3.968756e-09 3.539965e-09 4.255291e-09 3.042452e-09
3.823703e-09 4.812026e-09 7.277029e-09 4.345994e-09 3.647373e-09 3.252860e-09 3.033991e-09 1.292351e-09 3.678004e-09 2.305796e-09
3.657182e-09 3.423169e-09 4.608128e-09 2.212613e-09 4.326587e-09 3.108890e-09 1.190839e-09 1.741805e-09 4.057486e-09 2.225552e-09
2.851312e-09 4.807994e-09 2.334164e-09 1.225168e-09 2.811628e-09 1.965577e-09 3.330502e-09 1.644272e-09 2.833679e-09 4.414729e-09
8.569341e-10 3.104065e-09 2.622670e-09 3.091764e-09 3.663828e-09 1.759506e-09 -2.492460e-10 2.154334e-09 7.764393e-11 2.434125e-09
1.434666e-09 6.481466e-10 1.047210e-09 4.257204e-10 1.655325e-09 1.136040e-09 -1.852117e-10 4.521389e-09 4.427578e-10 6.562371e-10
1.065790e-09 -1.192427e-09 6.700435e-10 1.966375e-11 2.182879e-09 -2.031200e-09 -3.444747e-10 7.951785e-10 -2.517587e-09 -4.645343e-10
-9.644539e-10 -1.296008e-09 -1.753547e-09 6.699416e-10 1.326961e-09 9.201861e-10 -1.770642e-10 -2.229408e-10 -1.187655e-09 -5.403718e-10
5.639442e-10 -1.009268e-09 -1.083304e-09 -1.578644e-09 -8.289467e-10 -5.444715e-10 -1.485058e-09 -2.804473e-09 -2.380947e-09 -1.664590e-10
-2.699057e-09 -3.704554e-10 -1.987311e-09 -2.359987e-09 -5.246792e-10 -8.668355e-10 -7.568339e-10 -3.699052e-09 -5.340526e-10 -7.312157e-10
-2.564573e-09 -1.846101e-09 -2.500990e-09 -2.470688e-09 -6.444132e-10 -2.925185e-09 -1.922971e-09 -3.177846e-09 -4.003009e-09 -4.273497e-09
-2.189074e-09 -2.768408e-09 -4.590603e-09 -4.744480e-09 -5.357772e-09 -1.470760e-09 -3.473535e-09 -3.034732e-09 -4.622212e-09 -2.134058e-09
-3.006115e-09 -3.411232e-09 -5.676905e-09 -3.270427e-09 -2.863749e-09 -3.663594e-09 -4.346509e-09 -2.758065e-09 -4.680770e-09 -2.099258e-09
-3.606106e-09 -5.148622e-09 -3.661541e-09 -3.989696e-09 -5.927149e-09 -4.482773e-09 -3.361112e-09 -4.219197e-09 -4.701563e-09 -5.103276e-09
-3.503262e-09 -5.474561e-09 -4.636444e-09 -4.825816e-09 -5.572137e-09 -3.494055e-09 -5.819722e-09 -5.201283e-09 -3.782455e-09 -4.597929e-09
-5.355315e-09 -4.269627e-09 -2.895822e-09 -6.288755e-09 -5.550285e-09 -2.570321e-09 -4.054497e-09 -4.757927e-09 -4.290043e-09 -5.205875e-09
-4.939512e-09 -4.346866e-09 -5.806523e-09 -5.643921e-09 -5.216267e-09 -7.326134e-09 -5.725751e-09 -5.337481e-09 -4.373308e-09 -6.411623e-09
-3.525870e-09 -3.260480e-09 -4.726778e-09 -4.143490e-09 -2.991662e-09 -4.866512e-09 -4.075518e-09 -3.338329e-09 -3.003510e-09 -5.213596e-09
-5.089834e-09 -3.408073e-09 -3.802559e-09 -4.468642e-09 -4.681655e-09 -6.328776e-09 -4.491596e-09 -5.077119e-09 -4.166229e-09 -2.938949e-09
-4.612422e-09 -4.233761e-09 -3.023458e-09 -4.364917e-09 -3.231343e-09 -6.447090e-09 -4.763304e-09 -5.400068e-09 -1.426484e-09 -3.730470e-09
-3.300998e-09 -3.176569e-09 -5.927169e-09 -2.898700e-09 -1.896378e-09 -5.340960e-09 -2.002801e-09 -3.521088e-09 -1.832359e-09 -3.279922e-09
-1.598274e-09 -2.602401e-09 -8.464447e-10 -2.539146e-09 -3.047950e-09 -3.136456e-09 -1.914990e-09 -2.710259e-09 -2.725874e-09 -3.783223e-09
-1.798488e-09 -1.540991e-09 -1.397288e-09 -2.104624e-09 -2.584449e-09 -3.954714e-09 -2.697488e-09 4.115117e-10 -4.482873e-10 -1.641363e-09
-1.622604e-09 2.163636e-10 -2.268846e-09 -3.773454e-10 -4.467848e-10 5.371361e-10 -6.059949e-10 -1.131183e-09 -3.507730e-10 1.474632e-09
-1.505467e-09 -7.451314e-11 -4.102277e-10 -7.407139e-10 -3.049068e-10 4.593048e-10 -2.339517e-10 -3.265207e-10 -2.209004e-10 1.838087e-09
-9.530594e-10
-8.263201e-10 1.141750e-09 -1.022526e-09 9.350012e-10 1.632841e-09 1.705677e-09 5.982541e-10 -1.244690e-09 1.626161e-09 1.040701e-10
3.244829e-10 1.397402e-10 -4.410313e-10 1.632156e-09 1.640149e-09 1.579206e-10 1.093500e-09 2.934820e-09 6.867707e-10 3.381363e-09
-1.577671e-09 8.523198e-10 1.761314e-09 3.031482e-09 2.455550e-09 9.704982e-10 1.593630e-09 5.513722e-10 8.733741e-10 1.516321e-09
3.094115e-09 3.034723e-09 4.090760e-09 3.120136e-09 1.238941e-09 5.058521e-09 9.333766e-10 3.289754e-09 3.903262e-09 2.713593e-09
8.951987e-10 1.748805e-09 2.392508e-09 6.129053e-09 4.329105e-09 2.231163e-09 1.787922e-09 6.071336e-09 4.785047e-09 2.117479e-09
4.526654e-09 3.479316e-09 6.033576e-09 1.730409e-09 3.597042e-09 4.630619e-09 3.665720e-09 4.113856e-09 5.395548e-09 2.484252e-09
3.473948e-09 2.043904e-09 2.973356e-09 3.837299e-09 2.442883e-09 5.249635e-09 2.886327e-09 5.013073e-09 3.756836e-09 4.454433e-09
3.559941e-09 4.573169e-09 4.677336e-09 3.216538e-09 6.735866e-09 6.195874e-09 4.080946e-09 3.285640e-09 3.648606e-09 5.478336e-09
4.573072e-09 4.093928e-09 4.714988e-09 3.502066e-09 2.384655e-09 3.667772e-09 4.920201e-09 2.238692e-09 5.771183e-09 3.956697e-09
5.397557e-09 4.969000e-09 4.154966e-09 7.091419e-09 2.715877e-09 6.875157e-09 4.687139e-09 4.357841e-09 6.030927e-09 4.021407e-09
3.342762e-09 2.615069e-09 3.886935e-09 3.162329e-09 5.461501e-09 3.183438e-09 4.984265e-09 4.872926e-09 3.767381e-09 3.565959e-09
2.067398e-09 5.641893e-09 4.688526e-09 3.709071e-09 4.338279e-09 3.399769e-09 5.139087e-09 3.089734e-09 1.317993e-09 3.351036e-09
3.013796e-09 4.059860e-09 2.376239e-09 4.389678e-09 2.627902e-09 3.229742e-09 3.425426e-09 3.067559e-09 2.212484e-09 5.341791e-09
3.416207e-09 4.251959e-10 4.349105e-09 3.430207e-09 2.569199e-09 2.537542e-09 3.336562e-09 1.495331e-09 3.912980e-09 1.921751e-09
3.320498e-09 2.964551e-09 2.906819e-09 3.289859e-09 2.099790e-09 6.337759e-10 2.294423e-09 2.853826e-09 2.626243e-09 4.335819e-09
1.963665e-09 1.501781e-09 -1.140417e-09 1.927385e-09 -2.401024e-10 1.900109e-09 3.276195e-09 2.800249e-09 1.706105e-09 2.238817e-09
4.569944e-10 1.690241e-09 8.998819e-10 -1.010676e-09 2.109763e-09 1.701130e-09 -1.499128e-09 -7.365497e-10 -9.458542e-10 5.736652e-10
1.552891e-11 -1.239181e-09 -1.232974e-10 7.804573e-10 -5.994193e-10 1.507349e-09 1.787266e-09 1.074364e-09 -4.055810e-10 9.042476e-11
2.502098e-10 1.964577e-09 -1.131767e-09 1.918178e-09 9.417400e-10 -1.833044e-09 -5.871585e-10 -2.993128e-09 7.372623e-10 5.371302e-10
1.457546e-09 -6.913012e-10 -1.491546e-09 -2.802640e-10 -1.888699e-09 -7.425680e-10 -8.562317e-10 -7.016327e-10 -1.050003e-09 -2.494078e-09
-1.491989e-09 -8.545666e-10 -2.006523e-09 -1.504705e-09 -2.272917e-09 -2.125540e-09 -1.593556e-09 -6.917014e-10 -1.433394e-09 -1.579056e-09
-1.096466e-09 -3.094150e-09 -2.205076e-09 -1.561202e-09 -2.835711e-09 -1.927827e-09 -1.200213e-09 -8.027203e-10 -4.811955e-09 -2.000569e-09
-4.273444e-09 -1.510126e-09 -2.832111e-09 -3.509667e-09 -3.290638e-09 -2.042946e-09 -2.710449e-09 -1.590595e-09 -3.795625e-09 -4.172120e-09
-3.021682e-09 -1.154626e-09 -2.935803e-09 -3.813304e-09 -4.126246e-09 -3.648132e-09 -2.540101e-09 -4.472732e-09 -2.410430e-09 -3.046727e-09
-2.064480e-09 -3.789093e-09 -3.448067e-09 -4.603625e-09 -4.061755e-09 -3.072338e-09 -4.605272e-09 -5.793427e-09 -5.369452e-09 -3.061258e-09
-3.454080e-09 -3.740225e-09 -3.073575e-09 -4.125131e-09 -2.293795e-09 -3.979892e-09 -4.551493e-09 -6.149002e-09 -4.815307e-09 -6.388316e-09
-3.887028e-09 -5.453818e-09 -3.967356e-09 -3.960589e-09 -4.704848e-09 -4.275903e-09 -2.833670e-09 -4.767701e-09 -2.901677e-09 -5.038898e-09
-3.242081e-09 -4.092328e-09 -6.246608e-09 -3.514996e-09 -3.971039e-09 -5.052860e-09 -4.864458e-09 -2.139871e-09 -4.772166e-09 -3.927946e-09
-2.689381e-09 -2.442151e-09 -5.013726e-09 -6.225848e-09 -4.045309e-09 -4.939930e-09 -5.493895e-09 -3.233045e-09 -4.566814e-09 -3.771441e-09
-5.375972e-09 -4.008658e-09 -4.487875e-09 -4.269646e-09 -3.590158e-09 -3.834951e-09 -4.181139e-09 -2.869299e-09 -5.416940e-09 -4.864539e-09
-3.730155e-09 -4.581346e-09 -2.456669e-09 -2.531879e-09 -2.994650e-09 -3.667957e-09 -3.266068e-09 -3.787660e-09 -4.099234e-09 -3.530497e-09
-4.171879e-09 -3.223196e-09 -3.960843e-09 -4.256136e-09 -4.589008e-09 -1.704282e-09 -3.323121e-09 -2.145310e-09 -2.302930e-09 -2.936331e-09
-2.320446e-09 -1.635138e-09 -1.279546e-09 -1.845872e-09 -2.012970e-09 -2.875012e-09 -2.880322e-09 -1.555646e-09 -1.249810e-09 -4.738063e-09
-1.715600e-09 -1.834614e-09 -9.895800e-10 -1.566298e-09 -2.501323e-10 -1.501695e-09 1.945035e-10 -1.440825e-09 -1.784566e-09 -7.679183e-10
-3.075962e-09 -2.252429e-09 -2.403759e-09 -1.740725e-09 -2.353300e-09 -2.071506e-09 -3.021009e-09 -2.527772e-09 -1.316466e-09 -8.571577e-10
1.271458e-10 2.791992e-10 7.001455e-12 1.306423e-10 -1.268758e-09 1.797980e-09 -8.830860e-10 -1.155610e-09 -5.068479e-10 -6.398017e-10
-8.263201e-10
7.760663e-10 -6.574612e-10 2.622918e-10 -2.580109e-10 2.105086e-10 5.689122e-10 3.711445e-10 -6.034713e-10 1.567951e-09 1.930910e-09
9.697819e-10 -6.494383e-10 2.206073e-09 1.228650e-09 1.739713e-09 1.450474e-09 1.311955e-09 2.076336e-09 2.210538e-09 2.604049e-10
1.387080e-09 2.770672e-10 -1.039042e-09 3.629561e-09 1.851865e-09 2.255999e-09 2.426488e-09 3.351449e-10 1.898276e-09 9.331330e-10
2.440171e-10 2.888848e-09 2.856371e-09 -3.401489e-10 2.900984e-09 1.752473e-09 2.298576e-09 2.285854e-09 3.032161e-09 6.491214e-09
1.998972e-09 2.608838e-09 2.830205e-09 4.957469e-09 3.170033e-09 1.497490e-09 4.267603e-09 3.214713e-09 3.139022e-09 1.853051e-09
3.446708e-09 2.088991e-09 3.308780e-09 3.042238e-09 1.651602e-09 3.813672e-09 3.748289e-09 1.223489e-09 4.109470e-09 3.336520e-09
2.042222e-09 1.462863e-09 4.942244e-09 3.571417e-09 3.818037e-09 5.004441e-09 3.362241e-09 6.394516e-09 2.505157e-09 3.658551e-09
3.676276e-09 5.236010e-09 4.610328e-09 3.543994e-09 5.137259e-09 3.136611e-09 2.826247e-09 4.538602e-09 3.376083e-09 3.715422e-09
3.881050e-09 3.079657e-09 3.186879e-09 1.765974e-09 4.331292e-09 5.593203e-09 4.610926e-09 3.653392e-09 4.084840e-09 4.417906e-09
3.507721e-09 5.742196e-09 2.682976e-09 1.573658e-09 3.608320e-09 4.720250e-09 3.800448e-09 4.662210e-09 3.000397e-09 1.607718e-09
4.062542e-09 4.932111e-09 3.146285e-09 2.243653e-09 1.740688e-09 4.703399e-09 2.124682e-09 4.988518e-09 2.052713e-09 3.513306e-09
2.974276e-09 2.754012e-09 1.643627e-09 2.364971e-09 2.656965e-09 4.327864e-09 3.720621e-09 3.120387e-09 4.039870e-09 5.546200e-09
1.723496e-09 3.241392e-09 3.553842e-09 3.662554e-09 5.582851e-09 2.478567e-09 2.021446e-09 4.116275e-09 6.362182e-09 3.189523e-09
3.827564e-09 3.847391e-09 2.987568e-09 2.704956e-09 3.949995e-09 1.568386e-09 3.083674e-09 8.761546e-10 2.278920e-09 8.624630e-10
7.135370e-10 1.290745e-09 4.046104e-09 3.590023e-09 3.901704e-09 6.661084e-10 1.228277e-09 2.355851e-09 2.930249e-10 1.012492e-09
2.241074e-09 4.828115e-09 3.150494e-09 9.662112e-10 2.341848e-09 2.145924e-09 1.319751e-09 5.260554e-10 8.036272e-10 5.798214e-10
1.885098e-09 -1.589371e-09 2.788366e-09 2.077587e-09 5.689524e-10 2.240929e-09 8.410458e-10 -2.639781e-11 1.891947e-09 -1.403677e-10
3.625819e-10 -2.772800e-09 2.943926e-10 -1.065164e-09 4.335704e-10 1.301676e-09 3.233454e-09 -4.651892e-10 -6.454948e-10 1.129686e-09
-6.873582e-11 6.174968e-10 -2.438039e-10 -1.364147e-09 -4.374519e-10 -1.104240e-09 -5.943274e-10 2.923214e-09 -1.201723e-09 -1.482571e-09
-3.460115e-10 -1.899472e-09 -2.309831e-09 -2.838582e-10 -1.497600e-09 6.125291e-10 -7.108634e-10 -2.616466e-09 -2.794133e-09 3.299353e-10
-1.570942e-09 -1.643581e-09 -4.925574e-10 -1.865234e-09 -1.676733e-09 -1.681260e-09 -7.793033e-10 -1.096675e-09 -3.469135e-09 -1.354763e-09
-2.755112e-09 -3.791083e-09 -3.101398e-09 -4.606307e-10 -2.180199e-09 -6.794194e-10 -1.339451e-09 -4.079615e-09 -2.770900e-09 -1.881824e-09
-3.175269e-09 -1.909934e-09 -9.696722e-10 -1.326485e-09 -1.313533e-09 -2.127458e-09 -2.495700e-09 -2.376267e-09 -3.064839e-09 -2.748190e-09
-2.658940e-09 -3.396610e-09 -3.781158e-09 -4.016462e-09 -3.368692e-09 -3.750503e-09 -2.310050e-09 -2.899861e-09 -3.249087e-09 -3.289109e-09
-3.041190e-09 -3.479809e-09 -1.784106e-09 -3.179585e-09 -5.272186e-09 -4.659801e-09 -3.880095e-09 -3.349597e-09 -3.330919e-09 -3.396166e-09
-3.807336e-09 -2.288405e-09 -3.273222e-09 -5.587195e-09 -4.934035e-09 -3.912827e-09 -3.067609e-09 -3.287950e-09 -3.807351e-09 -5.507836e-09
-1.951582e-09 -3.280083e-09 -6.245363e-09 -3.957751e-09 -3.555771e-09 -5.046223e-09 -3.626351e-09 -3.889937e-09 -2.987878e-09 -3.207735e-09
-4.462183e-09 -2.876990e-09 -4.785266e-09 -5.081379e-09 -3.837569e-09 -3.829687e-09 -2.415952e-09 -3.743848e-09 -3.736545e-09 -4.183775e-09
-3.123046e-09 -4.088518e-09 -4.360089e-09 -3.717964e-09 -3.725364e-09 -7.046131e-09 -4.458722e-09 -2.778549e-09 -3.907827e-09 -2.944498e-09
-3.903219e-09 -4.467926e-09 -3.428990e-09 -2.070941e-09 -2.949900e-09 -7.296426e-10 -2.946170e-09 -2.039609e-09 -3.839053e-09 -3.106853e-09
-2.497689e-09 -3.973662e-09 -5.604720e-09 -5.074558e-09 -3.677433e-09 -4.695798e-09 -3.891160e-09 -2.146828e-09 -1.181289e-09 -2.243001e-09
-4.697327e-09 -3.838737e-09 -2.577219e-09 -4.286318e-09 -8.050617e-10 -1.338456e-09 -5.374906e-09 -2.681944e-09 -1.735132e-09 -3.113567e-09
-2.186796e-09 -1.667469e-09 -3.592867e-09 -1.906903e-09 -2.951491e-09 -2.738485e-10 -2.667134e-09 -8.046668e-10 5.005463e-11 -4.505488e-10
-2.573336e-09 -1.152213e-09 -1.027004e-09 -3.071470e-09 -1.970067e-09 -1.141025e-09 6.344282e-10 -8.903815e-10 -2.016873e-09 -1.627444e-09
-1.382558e-09 -1.653973e-09 2.145724e-10 -1.989629e-09 -2.127564e-09 -7.167223e-10 -2.563593e-09 1.953812e-10 1.674153e-09 3.630226e-10
1.346000e-09 4.961824e-10 -2.342420e-09 -8.411749e-10 -3.621027e-10 -1.837379e-09 9.735084e-10 9.186470e-10 -1.297648e-10 -8.919427e-10
7.760663e-10
-2.219944e-09 -1.115103e-09 -1.398881e-09 3.169334e-10 9.533709e-11 1.395669e-09 -7.746894e-10 -3.573458e-10 -3.332157e-10 1.901791e-10
7.522472e-10 1.815457e-09 4.066240e-10 1.466697e-09 1.008034e-09 1.878645e-09 1.523818e-09 3.989440e-09 1.769187e-09 2.385785e-09
3.355634e-09 2.119148e-09 2.748334e-09 4.587808e-09 1.512452e-09 -5.647060e-10 1.012548e-09 3.350662e-11 1.795510e-09 1.041831e-09
2.787597e-09 2.465404e-09 2.483198e-09 2.779390e-09 1.646815e-09 -3.341631e-10 2.648983e-09 3.003783e-09 2.169898e-09 3.619546e-09
2.778309e-09 2.444779e-09 2.274766e-09 1.751487e-09 1.379203e-09 2.332496e-09 1.464750e-09 1.606364e-09 3.908891e-09 1.773576e-09
2.938255e-09 3.671081e-09 3.592032e-09 2.692349e-09 3.748961e-09 4.253342e-09 3.327987e-09 4.492990e-09 4.399990e-09 3.163563e-09
1.931340e-09 1.110220e-09 3.317093e-09 3.934014e-09 1.471778e-09 5.466714e-09 3.626213e-09 3.664720e-09 2.207817e-09 3.523585e-09
3.004725e-10 3.371541e-09 3.047282e-09 2.432689e-09 4.549217e-09 2.384797e-09 3.676661e-09 4.001278e-09 4.075268e-09 3.495967e-09
1.505218e-09 4.056945e-09 3.432349e-09 2.489142e-09 4.173907e-09 3.786568e-09 3.536546e-09 5.407550e-09 3.448039e-09 4.422455e-09
3.553682e-09 3.789360e-09 4.390247e-09 2.682099e-09 1.536875e-09 4.213256e-09 3.773859e-09 4.146013e-09 3.879262e-09 2.843911e-09
3.514795e-09 3.545692e-09 4.260535e-09 4.133414e-09 4.092755e-09 2.969835e-09 2.503985e-09 3.096011e-09 2.558054e-09 3.797374e-09
3.950660e-09 3.113747e-09 3.304530e-09 4.667756e-09 3.054271e-09 4.654804e-09 4.472006e-09 2.856125e-09 2.734883e-09 3.018507e-09
3.187261e-09 1.301638e-09 3.088581e-09 3.464930e-09 2.852151e-09 4.494245e-09 2.501312e-09 2.520377e-09 2.949606e-09 1.410486e-09
3.223498e-09 8.347065e-10 2.404762e-09 1.592815e-09 2.994299e-09 3.358659e-09 2.882455e-09 3.672655e-09 2.069705e-09 3.192040e-09
3.432806e-09 1.739813e-09 2.980516e-09 -2.828705e-10 8.110324e-10 4.762687e-09 1.351110e-09 2.148838e-09 1.748211e-09 -1.079833e-09
1.126343e-09 3.020910e-09 9.768342e-11 4.367180e-10 -1.233150e-09 2.648318e-09 -2.270015e-10 1.437122e-09 1.362835e-09 1.767941e-09
1.527661e-09 -5.809809e-10 9.007908e-10 -1.447552e-10 1.411119e-09 1.847812e-09 1.545780e-09 -3.368713e-11 2.106817e-09 -5.165772e-10
8.904078e-11 1.382458e-09 1.314478e-09 -4.667199e-10 6.308583e-10 1.210673e-09 9.906975e-10 2.926064e-10 -8.657528e-10 1.314454e-09
1.837899e-09 -2.099878e-09 -1.195045e-09 -4.696021e-12 1.800857e-09 5.854084e-10 -7.660625e-10 -1.309857e-09 1.209326e-09 2.357406e-09
1.413440e-10 2.158218e-09 2.119096e-10 -1.168936e-10 -7.423825e-10 -5.985273e-10 -2.818527e-09 4.357844e-11 -6.871136e-10 -1.985400e-09
-1.998479e-09 -1.345715e-09 1.016405e-10 -6.101287e-10 -2.427629e-10 -2.534698e-09 -1.225161e-09 -9.779845e-10 -1.656677e-09 -1.890038e-09
-1.765668e-09 -2.800362e-09 -2.557275e-09 -1.869521e-09 -2.773799e-09 -2.695030e-09 -1.434687e-09 -1.645784e-09 -2.635046e-09 -2.098495e-09
-2.134308e-09 -1.432820e-09 -2.009958e-09 -2.351187e-09 -3.116642e-09 -3.490461e-09 -3.372014e-09 -1.731021e-09 -1.651689e-09 -2.248537e-09
-3.019720e-09 -3.289484e-09 -1.132157e-09 -3.184678e-09 -2.737933e-09 -3.677832e-09 -2.258409e-09 -3.907040e-09 -2.258999e-09 -1.847776e-09
-3.883502e-09 -1.980831e-09 -4.844620e-10 -5.136445e-09 -3.629951e-09 -2.196920e-09 -2.609285e-09 -4.185518e-09 -3.298914e-09 -2.058442e-09
-1.199349e-09 -3.530559e-09 -3.181952e-09 -4.759622e-09 -4.795810e-09 -5.025148e-09 -1.867174e-09 -4.452958e-09 -1.333112e-09 -4.888896e-09
-3.398108e-09 -4.396655e-09 -5.369362e-09 -2.935533e-09 -4.353560e-09 -2.130561e-09 -2.697313e-09 -1.995264e-09 -3.459027e-09 -3.221180e-09
-3.061106e-09 -3.978625e-09 -4.152194e-09 -3.096700e-09 -3.003928e-09 -5.036036e-09 -2.406424e-09 -5.310722e-09 -3.815837e-09 -2.498356e-09
-3.695025e-09 -2.051480e-09 -4.640182e-09 -4.129247e-09 -3.775423e-09 -3.679809e-09 -4.951611e-09 -4.758361e-09 -1.711898e-09 -3.376871e-09
-3.345365e-09 -2.704122e-09 -3.559454e-09 -2.490660e-09 -2.762993e-09 -4.259157e-09 -4.241696e-09 -5.029824e-09 -4.597262e-09 -2.142183e-09
-4.046104e-09 -4.640381e-09 -1.838222e-09 -2.857687e-09 -2.885325e-09 -1.850649e-09 -2.494511e-09 -2.338818e-09 -3.420915e-09 -3.536919e-09
-5.028285e-09 -1.490577e-09 -1.343461e-09 -3.486752e-09 -1.460545e-09 -3.982020e-09 -3.205182e-09 -2.791065e-09 -3.428105e-09 -1.856464e-09
-2.894358e-09 -3.160073e-09 -2.315399e-09 -1.020521e-09 -1.706878e-09 -2.160230e-10 -3.405242e-09 -1.711644e-09 -2.022336e-09 -3.191496e-09
-3.384462e-09 -3.214366e-09 -6.596315e-10 -1.868429e-09 -3.610809e-09 -1.643392e-09 -2.871745e-10 -1.249382e-09 -2.529459e-09 -3.227554e-09
-2.658934e-09 -2.110395e-09 -1.924676e-09 -1.384223e-09 -1.807831e-09 3.883359e-10 -1.736479e-09 9.753406e-10 -1.194673e-09 -1.280584e-09
-1.537403e-09 -1.460746e-09 -1.253529e-10 1.524714e-09 -5.090281e-10 4.362304e-10 -1.692273e-10 -6.226634e-11 7.112858e-10 4.115125e-10
-2.219944e-09
7.773497e-10 6.980472e-12 -1.027836e-09 -1.630666e-10 8.122648e-10 -2.169908e-10 3.712701e-09 1.146876e-09 1.341016e-09 1.276255e-09
1.645909e-09 2.080345e-09 -1.372429e-09 1.375510e-09 4.633360e-11 -4.110132e-10 1.444384e-09 1.692850e-09 2.852948e-10 7.757221e-10
2.703030e-09 3.023750e-09 2.056707e-09 3.897437e-09 1.142821e-09 1.900506e-09 1.503180e-09 -1.221719e-09 1.554055e-09 2.775242e-10
1.770445e-09 2.150198e-09 2.541061e-09 1.020551e-09 1.558691e-09 2.001552e-10 5.528433e-10 2.364780e-09 1.009901e-09 2.470815e-10
2.811220e-10 2.595401e-09 2.579858e-09 3.281539e-09 3.036987e-09 1.372112e-09 4.647059e-09 1.207523e-09 1.892880e-09 2.785887e-10
8.882730e-10 2.872765e-09 2.298725e-09 -3.084695e-11 3.061972e-09 7.679328e-10 3.117612e-09 4.219280e-09 2.042252e-09 4.109526e-09
2.045523e-09 1.807710e-09 2.689418e-09 3.926016e-09 4.126460e-09 1.637435e-09 5.043018e-09 2.597917e-09 4.802282e-09 3.320174e-09
1.855974e-09 3.397500e-09 2.407900e-09 1.126385e-09 3.477505e-09 1.694539e-09 3.383369e-09 1.395922e-09 2.990713e-09 2.246803e-09
2.544929e-09 3.174936e-09 2.596725e-09 2.920359e-09 2.304727e-09 2.909179e-09 1.679112e-09 1.803940e-09 2.283077e-09 3.006149e-09
2.786553e-09 4.647697e-09 2.574008e-09 1.688283e-09 3.155638e-09 4.283416e-09 1.995137e-09 4.109048e-09 2.510274e-09 4.150664e-09
2.902163e-09 2.508890e-09 3.135683e-09 2.560806e-09 3.626290e-09 3.798316e-09 4.290248e-09 2.969347e-09 3.845675e-09 2.076060e-09
1.836579e-09 5.598507e-10 2.937756e-09 2.018151e-09 3.672553e-09 3.456242e-09 3.352112e-09 1.665407e-09 2.604301e-09 3.917238e-09
1.885511e-09 5.026612e-09 1.317387e-09 4.061859e-09 2.901301e-09 2.296493e-09 3.639132e-09 2.584892e-09 1.424262e-09 3.980015e-09
3.639012e-09 1.449836e-09 1.762373e-09 3.880993e-09 1.526528e-09 2.389364e-09 1.121991e-09 3.187682e-09 1.797115e-09 1.341310e-09
3.446855e-09 3.687450e-09 2.631616e-09 1.654010e-09 -1.010019e-09 1.902766e-09 2.081435e-09 2.005413e-09 2.275393e-09 2.671739e-09
1.250244e-09 1.548778e-09 1.745489e-09 1.641674e-09 1.160009e-09 2.105367e-09 8.453458e-10 8.659671e-10 9.911331e-12 4.022331e-10
1.222731e-09 -1.725981e-10 1.925011e-09 1.768906e-09 3.080295e-09 3.581677e-09 6.944154e-10 1.017992e-09 -4.056611e-10 5.013551e-10
1.206538e-09 5.424239e-10 -1.277489e-09 5.480839e-10 -1.997660e-10 2.666719e-12 5.537400e-11 1.674318e-10 -2.613050e-09 -4.870335e-10
-2.433390e-10 -1.393940e-09 6.019460e-10 9.711282e-10 -2.339868e-10 -1.676348e-09 -1.966900e-10 -7.224742e-10 2.016265e-10 1.748929e-09
1.428207e-09 -1.016017e-09 -1.058345e-09 -1.907325e-10 -5.650538e-10 1.279250e-09 -2.228517e-09 -1.721205e-09 -2.386394e-09 -2.452857e-09
-1.733906e-09 -5.135805e-10 -1.868231e-09 -1.968364e-09 -2.344181e-09 -2.949626e-09 -9.010752e-10 -1.945536e-09 -3.462096e-09 3.777138e-10
-1.577219e-09 -1.157222e-09 -1.249080e-09 -1.586555e-10 -2.728350e-09 -7.777204e-10 7.932979e-11 -2.345745e-09 -4.929512e-09 -1.471495e-09
-1.359931e-09 -1.706637e-09 -3.066021e-09 -1.193855e-09 -2.248477e-09 -1.974167e-09 -2.294414e-09 -3.686809e-10 -5.105862e-10 -3.972486e-09
-3.145187e-09 -4.106252e-09 -3.023723e-09 -2.182596e-09 -1.929146e-09 -1.467975e-09 -2.034893e-09 -2.993644e-09 -8.741847e-10 -3.455933e-09
-1.657777e-09 -3.244909e-09 -3.661959e-09 -2.202640e-09 -2.567080e-09 -2.814565e-09 -3.455379e-09 -2.858277e-09 -2.467416e-09 -2.905212e-09
-4.881232e-09 -4.639333e-09 -3.123789e-09 -2.991533e-09 -3.598638e-09 -1.867363e-09 -4.143149e-09 -1.972891e-09 -2.003306e-09 -3.415005e-09
-1.580201e-09 -3.508715e-09 -1.902676e-09 -4.366015e-09 -3.616346e-09 -3.362381e-09 -9.389717e-10 -2.091810e-09 -4.282951e-09 -2.387775e-09
-2.829507e-09 -1.785464e-09 -1.901523e-09 -2.232768e-09 -2.415617e-09 -2.542323e-09 -2.391509e-09 -3.625732e-09 -3.770563e-09 -5.777158e-09
-3.005854e-09 -2.961256e-09 -4.146837e-09 -3.049996e-09 -2.522117e-09 -4.864820e-09 -2.787663e-09 -3.212401e-09 -3.489122e-09 -1.292740e-09
-2.036233e-09 -3.276611e-09 -4.124238e-09 -4.425263e-09 -1.222594e-09 -2.515316e-09 -3.610643e-09 -3.311276e-09 -3.461061e-09 -3.183031e-09
-1.257658e-10 -3.886052e-09 -1.386159e-09 -2.859826e-09 -2.417694e-09 -2.324130e-09 -3.541309e-09 -3.044854e-09 -2.298958e-09 -2.153681e-09
-3.101106e-09 -1.068871e-09 -3.354820e-09 -1.728009e-09 -1.725287e-09 -2.031477e-09 -2.860025e-09 -2.417752e-09 -3.749423e-09 -2.903255e-09
-4.036003e-09 -3.042094e-09 -2.869757e-10 -1.656004e-09 -3.001105e-09 -1.134624e-09 -1.685332e-09 -2.135033e-09 -2.296419e-09 -7.927741e-10
-1.493063e-10 -2.115865e-09 7.505136e-10 -1.638956e-09 -1.316454e-09 -3.465806e-09 -1.301710e-09 -1.809847e-09 1.497820e-10 -1.812851e-09
-2.719603e-09 1.094803e-10 -1.377979e-09 2.921108e-12 -7.457349e-11 7.426220e-10 1.187928e-09 -1.657128e-09 -3.454791e-10 -1.580127e-10
-1.103225e-09 -1.617087e-09 -2.633594e-09 -1.590661e-11 9.750566e-10 -1.750270e-09 -3.672298e-10 -3.978521e-10 -7.353484e-10 -1.638845e-09
7.773497e-10
4.886104e-10 5.649383e-10 4.556111e-10 1.834305e-10 -1.834895e-09 7.088293e-10 -2.407959e-10 -3.874943e-10 1.706945e-09 3.972571e-10
-1.636354e-09 1.098203e-09 -3.503067e-10 1.466468e-09 4.332839e-10 3.883067e-10 1.252229e-09 2.905115e-09 3.274357e-09 1.482893e-09
2.261456e-09 1.091278e-09 1.708412e-09 4.321791e-10 2.557152e-09 3.411337e-09 3.041974e-11 -3.586061e-10 2.373076e-09 1.011330e-09
2.192250e-09 -6.086012e-10 1.205280e-09 1.609896e-09 7.980341e-10 8.910785e-10 7.489780e-10 3.773077e-10 2.377568e-09 2.384321e-09
1.997731e-09 2.127459e-09 2.503349e-09 2.173572e-09 1.037797e-09 3.077977e-09 1.765001e-09 1.037314e-09 3.037578e-09 3.126950e-09
2.085113e-09 1.022607e-09 -3.291277e-10 1.245031e-09 1.439793e-09 1.963539e-09 4.386035e-09 3.380473e-09 3.445967e-09 2.807604e-09
1.895390e-09 1.471828e-09 2.875177e-09 3.776810e-09 2.687833e-09 2.790136e-09 3.608752e-09 2.064462e-09 1.140137e-09 2.930775e-09
4.834530e-09 2.072474e-09 2.406931e-09 3.001482e-09 1.696674e-09 2.241981e-09 4.448435e-09 2.222750e-09 2.604238e-09 8.204779e-10
1.845011e-09 3.513496e-09 4.306365e-09 2.088297e-09 2.903536e-09 3.367244e-09 2.081495e-09 3.395682e-09 2.200690e-09 1.478674e-09
3.668213e-09 1.865262e-09 3.595684e-09 2.602567e-09 3.963914e-09 2.735540e-09 3.167687e-09 3.458354e-09 4.319461e-09 2.629062e-09
3.804798e-09 1.150721e-09 1.829250e-09 2.252148e-09 2.011273e-09 4.626825e-09 4.294466e-09 2.793456e-09 2.261698e-09 3.866531e-09
3.481987e-09 5.345040e-09 2.145016e-09 2.849231e-09 2.353505e-09 1.398797e-09 1.968034e-09 4.140893e-09 2.769322e-09 1.162124e-09
2.471176e-09 1.040459e-09 3.268767e-09 1.989893e-09 1.341440e-09 3.876214e-10 4.826698e-09 1.484950e-09 1.598884e-09 1.662097e-09
2.673388e-09 2.145116e-09 1.085965e-09 3.389733e-09 -1.409215e-10 1.522066e-09 3.843176e-10 4.044280e-10 1.471980e-09 6.077708e-11
1.509486e-09 1.800384e-09 2.206177e-09 3.267270e-10 3.935295e-10 7.955507e-10 1.122400e-09 2.271823e-09 2.656623e-09 2.795048e-09
9.670030e-10 3.273675e-10 1.763553e-09 4.403589e-10 1.397563e-09 -4.510275e-10 1.682792e-09 -2.220234e-09 -5.878139e-10 1.017724e-09
6.650711e-10 1.873689e-10 1.795807e-09 4.225000e-09 8.867684e-10 5.021364e-10 -1.235776e-09 1.708141e-09 -1.311407e-09 1.513453e-09
-2.911290e-10 1.382675e-10 -2.645233e-09 2.376071e-09 3.944215e-10 -2.164246e-10 -4.725068e-10 2.458932e-10 -2.454043e-10 -1.132416e-09
-1.027986e-10 -1.481563e-09 -6.584025e-10 3.252039e-10 -5.048235e-10 -5.738052e-10 -1.167478e-09 -1.760497e-09 -2.063361e-09 -5.981867e-11
-3.191702e-10 -3.528304e-09 -7.733101e-10 -5.199663e-11 -6.864999e-10 -9.527926e-10 3.522903e-10 7.914693e-10 -1.461641e-09 -3.439616e-10
5.147964e-10 -6.870232e-10 -8.196530e-10 -5.047281e-10 -1.294333e-09 -3.186273e-09 8.000072e-10 1.168255e-09 -1.834089e-09 -9.238447e-10
-1.205069e-09 -3.673643e-09 -1.993710e-09 -2.134820e-09 -2.766814e-09 -2.092691e-09 -4.250655e-09 8.067272e-10 -2.792060e-09 -1.577147e-09
-1.635755e-09 -3.546518e-09 -2.838324e-09 -2.426932e-09 -1.663912e-09 -2.642022e-10 -2.519125e-09 -1.607858e-09 -2.218531e-09 -2.606929e-09
-2.704703e-09 -1.730791e-09 -7.124889e-10 -4.187296e-09 -2.020885e-09 -1.780596e-09 -2.302637e-09 -2.554944e-09 -1.863296e-09 -2.471694e-09
-4.075881e-09 -2.818501e-09 -6.810955e-10 -4.539014e-09 -3.089728e-10 -2.106816e-09 -8.893958e-10 -4.569810e-09 -3.150023e-09 -2.503220e-09
-2.861489e-09 -3.325140e-09 -2.290136e-09 -2.125124e-09 -1.905474e-09 -3.394294e-09 -1.324249e-09 -2.130290e-09 -4.370582e-09 -4.073351e-09
-2.888212e-09 -2.124974e-09 -2.977790e-09 -3.324268e-09 -3.794711e-09 -3.016556e-09 -3.541428e-09 -2.954285e-09 -5.711464e-10 -3.490428e-09
-2.759925e-09 -4.633339e-09 -4.477375e-09 -2.341526e-09 -3.645694e-09 -4.127006e-09 -1.015634e-09 -4.310599e-09 -4.959757e-09 -1.306513e-09
-3.078333e-10 -2.614659e-09 -3.803286e-09 -1.403813e-09 -4.653195e-09 -5.286380e-09 -2.053606e-09 -3.034768e-09 -1.970904e-09 -2.469338e-09
-4.113156e-09 -2.153046e-09 -2.334275e-09 -3.242971e-09 -3.037110e-09 -2.531740e-09 -7.990039e-10 -2.239550e-09 -2.163165e-09 -2.659319e-09
-6.940384e-10 -1.166443e-09 -2.034765e-09 -1.571823e-09 -1.329687e-09 -3.736790e-09 -1.471953e-09 -3.067200e-09 -3.029690e-09 -2.944392e-09
-3.198422e-09 -2.939369e-09 -3.411621e-09 -2.352788e-09 -2.200824e-09 -1.367103e-09 -2.432292e-09 -2.948612e-09 7.207469e-10 -5.637935e-10
-4.155088e-09 -2.705638e-09 -1.882003e-09 -2.400545e-09 -2.986924e-10 -2.618197e-09 -2.669530e-09 -1.536340e-09 -2.555858e-10 -8.971786e-10
-2.447093e-09 -1.769400e-09 -2.771850e-09 -7.563781e-10 -2.924729e-10 1.691060e-10 -7.714903e-10 -1.066865e-09 1.189822e-09 -1.061521e-10
-3.370962e-09 -1.715376e-10 1.963206e-10 -1.208983e-09 4.511063e-10 -3.850679e-09 -7.541606e-10 -1.623581e-09 2.480656e-09 -1.888760e-09
-8.997893e-10 -3.879382e-11 7.226379e-10 -1.918818e-09 -7.960431e-10 -1.038127e-10 -5.824710e-10 3.692128e-11 2.811840e-10 1.957234e-09
4.886104e-10
-4.636996e-10 1.290928e-09 -1.416874e-09 -1.470358e-09 5.065538e-11 1.372382e-10 5.635939e-10 1.226319e-10 1.086127e-09 -1.482395e-09
6.764578e-10 3.743349e-10 5.734710e-10 1.854418e-09 2.183219e-09 1.479434e-09 -1.390847e-10 8.840771e-10 4.509044e-09 1.244058e-09
-9.009003e-10 8.539609e-10 -2.972285e-10 8.041462e-10 2.824467e-09 5.606436e-11 1.630061e-09 2.262003e-09 2.660210e-09 2.442433e-09
2.452102e-09 -1.576053e-10 -8.164943e-11 1.036555e-09 6.037261e-10 1.306277e-09 3.029928e-09 1.325820e-09 9.193027e-10 1.688150e-09
-1.332679e-10 3.577837e-10 2.090937e-09 5.919505e-10 7.743652e-10 1.672548e-09 1.628824e-09 2.422559e-09 1.940236e-10 1.235582e-09
1.928415e-10 2.349341e-09 1.613081e-09 2.610315e-09 2.410478e-09 3.242986e-09 2.244503e-09 2.797179e-09 2.788691e-09 5.521818e-09
3.267858e-09 2.031942e-09 7.814683e-10 2.018684e-09 3.365876e-09 1.167863e-09 5.228282e-09 1.521591e-09 1.828241e-09 2.711945e-09
1.431905e-09 2.192471e-09 2.357250e-09 1.551243e-09 2.012575e-09 1.180138e-09 1.506442e-09 2.155452e-09 2.429901e-09 3.870797e-09
3.394508e-09 3.663231e-09 7.952628e-10 3.679107e-09 2.571714e-09 5.708899e-10 2.674541e-09 1.947905e-09 4.510404e-09 2.120546e-09
4.112989e-09 3.522011e-09 5.795669e-10 2.627748e-09 5.803772e-10 3.454637e-09 1.664942e-09 6.398707e-10 2.124185e-09 5.610359e-10
8.335019e-10 3.650618e-09 4.377124e-09 1.852123e-09 1.408773e-09 2.903922e-09 3.408451e-09 1.859909e-09 3.152913e-09 2.567769e-09
1.059709e-09 2.472070e-09 3.642531e-10 2.841002e-09 2.522932e-09 3.475732e-09 2.506018e-09 3.065254e-09 2.235134e-09 2.932713e-09
2.803624e-09 4.026318e-09 1.977964e-09 2.815624e-09 2.803219e-09 2.241394e-09 2.421128e-10 3.877779e-09 2.255268e-09 3.555568e-09
1.316448e-09 2.174100e-10 2.246360e-09 2.745108e-09 2.374135e-10 1.432950e-09 5.799957e-10 1.695433e-09 2.627203e-10 8.306079e-10
2.967304e-10 1.615381e-09 1.347646e-09 4.197703e-09 -1.778622e-09 1.776479e-09 -9.807620e-10 3.002057e-09 1.326317e-09 2.635557e-09
1.535079e-09 1.139537e-09 4.740622e-10 1.593761e-09 7.694036e-10 -1.226564e-09 2.537842e-09 -2.653256e-10 1.681942e-10 1.884977e-09
6.078383e-10 8.044858e-10 -1.568461e-09 1.175523e-09 5.350665e-10 -2.827280e-10 -7.129813e-10 1.679539e-09 1.725279e-09 -3.151715e-10
4.232222e-11 6.149826e-10 -2.056721e-09 4.250020e-10 2.804947e-09 -1.420017e-09 -2.625915e-09 -9.546752e-10 -1.443618e-09 1.098759e-09
1.910948e-09 -6.904565e-10 2.262620e-10 7.268262e-10 -3.326251e-10 2.021116e-09 -5.052680e-10 -1.020951e-09 4.906926e-10 -2.031820e-09
-2.962434e-10 -1.121324e-09 -1.157223e-09 2.270114e-10 7.387608e-11 -1.670993e-10 -1.738866e-10 -2.294887e-09 -5.184844e-10 1.104636e-09
-1.267025e-09 -2.233958e-09 -1.142774e-09 -2.635065e-09 -1.307613e-11 3.489383e-10 -1.041168e-09 -5.299924e-10 -2.088055e-09 -3.147060e-10
-8.843827e-10 6.118491e-10 -1.703155e-09 -1.731373e-09 -2.500553e-09 -1.546077e-09 -1.122344e-09 -6.003569e-10 -1.391479e-09 6.558827e-13
-1.931137e-09 -1.817930e-10 -2.368526e-09 -1.755200e-10 -1.338274e-09 -2.878341e-09 -2.057936e-09 -1.722686e-09 -1.632058e-09 -2.107644e-09
-6.792822e-10 -2.604794e-09 -1.780363e-09 -1.312135e-09 -2.341239e-09 -3.718184e-09 -7.033550e-10 -2.601555e-09 -7.954237e-10 -5.801933e-09
-6.703211e-10 -2.918361e-09 -1.940061e-09 -4.809528e-09 -4.430154e-09 -3.063211e-09 -2.030246e-09 -2.806759e-09 -2.253616e-09 -2.242913e-09
-3.073324e-09 -2.329841e-09 -2.644293e-09 -3.082181e-09 -9.224665e-10 -2.518702e-09 -3.063937e-09 -2.650646e-09 -1.699596e-09 -2.040500e-09
-2.445641e-09 -1.498049e-09 -3.452550e-09 -2.684512e-09 -4.526092e-09 -3.088441e-09 -3.427698e-09 -2.495050e-09 -1.116548e-09 -3.201222e-09
-1.302256e-09 -3.859101e-09 -1.656197e-09 -1.799069e-10 -2.031220e-09 -2.668142e-09 -1.137449e-09 -1.863184e-09 -2.035258e-09 -2.933969e-09
-2.137876e-09 -2.570760e-09 -5.582125e-10 -8.755678e-10 -8.140696e-10 -3.313766e-09 -1.693101e-09 -3.215024e-09 -3.413841e-09 -3.503053e-09
-3.355977e-09 -1.416680e-09 -2.625108e-09 -3.451812e-09 -2.036499e-09 -2.646566e-09 -1.580500e-09 -1.101193e-09 -3.045236e-09 -3.790773e-09
-5.891243e-10 -2.084050e-09 -9.217280e-10 -2.864625e-09 -2.683922e-09 -1.791424e-09 -8.514795e-10 -3.448475e-09 -7.783102e-10 -8.330579e-10
-1.857246e-09 -3.321281e-09 -1.856777e-10 -5.192785e-10 -1.841524e-09 -2.055415e-09 -1.758946e-09 -2.045420e-09 -4.067394e-10 -2.753812e-09
-1.888588e-09 -1.808016e-09 -2.790355e-10 -1.095872e-09 -1.357086e-10 -1.479314e-09 -7.693251e-10 -1.278806e-09 -3.643875e-09 -1.929413e-09
-2.225966e-09 -5.435065e-10 -7.621913e-10 -1.667798e-09 -1.072281e-09 -4.934980e-10 -1.935554e-10 -1.170098e-09 -9.853843e-10 -1.123107e-09
1.023869e-10 -9.364727e-10 -2.317657e-09 -2.132080e-09 -4.686538e-10 -1.092409e-09 1.846773e-10 -1.837765e-09 -1.308050e-09 -6.482123e-10
9.276036e-11 -6.674371e-10 -1.654338e-09 -1.144374e-09 1.364222e-11 -2.001258e-09 -1.698607e-09 1.180496e-09 7.903467e-10 -7.169025e-10
-4.636996e-10
1.655350e-10 -1.552755e-10 2.095117e-11 3.714207e-11 -1.767271e-10 6.349740e-10 2.984129e-10 1.844710e-09 1.044197e-09 1.958494e-09
-3.896844e-10 -1.595306e-09 -2.197049e-10 2.519313e-09 -1.073899e-09 -8.152627e-10 -4.011066e-10 7.622716e-10 2.860738e-09 1.786298e-09
2.973414e-09 1.111757e-09 1.349876e-09 2.727786e-09 3.366311e-09 1.260447e-09 -1.869887e-10 1.675970e-09 3.760609e-09 1.974605e-09
-1.329230e-10 2.728572e-09 1.286069e-09 -1.153997e-10 3.493661e-11 2.171544e-09 -2.507499e-10 5.981384e-10 1.746097e-09 3.254633e-09
1.973982e-09 2.198266e-09 4.459931e-10 7.082995e-10 1.971862e-09 9.610834e-10 2.770369e-09 9.643105e-10 1.572862e-09 2.105901e-09
8.101589e-10 4.006150e-09 1.650150e-09 2.344335e-09 1.070452e-09 3.921477e-09 -9.019513e-10 -6.281872e-11 5.348195e-10 2.570265e-09
1.912306e-09 1.870909e-09 1.638284e-09 1.176352e-09 9.218034e-10 2.111450e-09 1.608462e-10 1.017332e-09 2.082976e-09 2.929085e-09
2.597401e-09 1.196136e-09 1.791676e-09 3.345868e-09 1.621557e-09 9.450895e-10 2.940550e-09 2.904579e-09 3.394649e-09 2.856634e-09
1.511994e-09 4.167143e-09 3.636781e-10 3.511108e-09 2.606916e-09 -9.391192e-12 4.934742e-10 2.330785e-09 -4.091128e-10 3.295946e-09
3.239875e-09 2.470229e-09 1.702061e-09 3.583375e-09 4.374157e-09 1.650335e-09 2.002349e-09 1.891156e-09 2.117271e-09 2.470921e-09
2.630946e-09 2.305132e-09 4.714401e-09 2.294134e-09 2.491236e-09 2.401711e-10 2.871586e-09 2.722966e-09 2.756884e-09 6.188269e-10
3.616307e-10 2.259598e-09 2.626745e-09 3.341446e-09 2.336443e-09 3.364244e-09 1.725163e-09 8.202398e-10 1.346838e-09 5.713748e-10
-4.378993e-10 2.930831e-09 -5.478862e-10 2.665390e-09 2.348865e-09 1.624105e-09 6.810355e-10 1.186519e-09 1.528592e-09 2.610161e-09
1.534474e-09 3.439145e-09 1.834827e-09 -5.481253e-11 -1.447812e-10 9.029808e-10 2.004516e-09 1.766253e-09 1.692265e-09 6.476132e-10
2.663763e-09 2.502459e-09 2.510742e-09 1.253802e-10 1.558131e-09 9.372378e-10 2.609090e-09 3.034449e-09 3.485750e-10 9.250312e-10
-1.484037e-10 3.871770e-10 1.625104e-09 3.691975e-09 2.107734e-09 2.595198e-09 1.769410e-09 2.618747e-10 -7.718450e-10 7.944257e-10
4.506995e-11 9.330733e-10 1.429951e-09 -8.919255e-10 -2.233835e-11 -7.586472e-11 1.396506e-09 -1.023674e-09 -4.408586e-10 -3.232824e-10
5.210306e-10 8.474316e-10 1.511947e-09 -3.880515e-10 6.799631e-11 1.172183e-09 5.801056e-10 -1.822882e-09 -6.630002e-10 5.703724e-10
-5.107338e-10 -9.358588e-10 -9.218973e-10 -2.010151e-09 -4.918068e-10 -7.356344e-10 5.165469e-10 4.834578e-10 7.157896e-10 7.926402e-10
-9.155761e-10 -1.479193e-09 8.903595e-11 1.389141e-10 -7.349543e-10 -2.750772e-10 -7.026796e-10 -1.259858e-09 -9.268633e-10 8.041074e-10
-5.508781e-10 -1.542998e-09 -2.166545e-09 1.072559e-09 -2.266233e-09 -1.582458e-09 -1.829766e-09 -1.124602e-09 -1.408972e-09 6.864647e-10
-1.855109e-09 -2.480155e-09 -1.399403e-09 1.005447e-09 -9.262823e-10 -3.277281e-09 -3.004964e-10 -1.926108e-09 -5.821247e-10 -3.800463e-10
-1.043489e-09 -8.159116e-10 -1.021106e-09 -1.633527e-09 -3.432802e-09 -2.205535e-09 -2.270558e-10 -1.583102e-09 -1.908634e-09 1.858512e-10
-2.961857e-09 -2.436616e-09 -2.058339e-09 -3.544796e-10 -4.727015e-09 -1.312780e-09 -2.692496e-09 -2.450407e-09 -3.830282e-09 -1.838606e-09
-3.269421e-09 -2.494591e-09 -1.499111e-09 -3.543790e-10 -2.205371e-09 -2.366173e-09 -1.258675e-09 -2.279918e-09 -3.141599e-09 -4.688903e-09
-2.514981e-09 -1.588704e-09 -2.747192e-09 -1.859228e-09 -1.894126e-09 -1.719689e-09 -3.759465e-09 -3.758988e-09 -7.933897e-10 -1.235856e-09
-2.421342e-09 -3.043064e-09 -1.773203e-09 -2.092208e-09 -2.310047e-09 -2.472537e-09 -2.498861e-09 -2.963950e-09 -1.259360e-09 -2.585063e-09
-2.695696e-09 -2.211627e-09 -1.284703e-09 -2.120868e-09 -2.133257e-09 -3.441621e-09 -3.601304e-09 -1.800879e-09 -2.955698e-10 -6.741319e-10
-3.733740e-09 -1.513171e-09 -2.117439e-09 -8.791224e-10 -1.680270e-10 -2.566444e-09 -3.705044e-09 -4.096024e-09 -4.223292e-09 -6.170065e-10
-2.677975e-09 -4.220571e-10 -1.546383e-09 -3.031441e-10 -2.364937e-09 -2.862071e-09 -1.483070e-09 7.224119e-10 -1.170584e-09 -6.026434e-10
-8.562082e-10 -3.398180e-09 -2.442225e-09 -7.627619e-10 -2.138956e-09 -6.530996e-10 -1.930644e-09 3.491067e-11 -1.667838e-10 -3.599006e-09
-1.846071e-09 -2.643830e-09 -1.400927e-10 -2.765892e-09 -1.690819e-10 -2.129612e-09 1.409831e-09 5.210529e-10 -2.232084e-09 -2.352211e-09
-3.582986e-10 -4.541700e-10 -2.057853e-09 -3.223124e-09 -1.428740e-09 -2.235964e-09 -6.623553e-10 -9.986137e-10 -3.598328e-09 -4.850742e-11
-1.346406e-09 -1.736507e-09 -2.782296e-09 -2.292901e-09 -1.035399e-09 -2.944096e-09 -1.366833e-09 -1.148304e-09 -1.178142e-09 -1.775949e-09
-5.696939e-10 1.203448e-09 -5.398819e-10 3.853657e-10 -1.858613e-10 -9.321240e-10 -9.756548e-10 4.186459e-10 1.807439e-10 1.262729e-09
4.992844e-10 -3.545757e-10 -4.541750e-10 6.349008e-10 5.780845e-10 -6.835033e-11 1.626312e-09 2.292055e-10 -1.068701e-09 -9.745703e-10
1.655350e-10
-6.725614e-10 1.426286e-09 4.003316e-12 -1.706478e-09 1.771424e-09 -1.346966e-10 8.664774e-10 -7.494672e-10 1.777135e-10 1.136218e-09
4.818431e-10 1.809541e-09 -1.056207e-10 -7.443131e-10 1.236152e-09 3.008685e-09 8.117689e-10 7.697434e-10 9.604801e-10 -5.496014e-10
-1.537665e-09 6.224570e-10 1.033323e-09 1.193399e-10 -4.224837e-10 -1.136311e-09 -1.603959e-09 -6.212253e-10 -3.810749e-10 -8.924688e-10
1.300206e-09 -2.275574e-09 9.132351e-10 5.503083e-10 -5.987665e-10 3.025450e-09 -8.157894e-10 -7.806345e-10 1.322065e-09 8.120165e-10
6.674457e-10 6.316940e-10 2.897244e-09 1.974302e-09 2.272433e-09 9.294976e-10 3.801460e-09 -7.207833e-10 2.403350e-09 7.820186e-10
3.258622e-09 3.308803e-09 1.074842e-09 4.457218e-10 2.212624e-09 4.734603e-09 2.013690e-09 2.993589e-10 4.603495e-10 1.495846e-09
2.391965e-09 1.704935e-09 9.311369e-10 1.876459e-09 -1.025682e-10 7.480906e-10 2.662927e-09 1.751528e-09 1.810560e-09 2.419262e-09
1.847504e-09 9.711093e-10 1.324088e-09 1.858152e-09 -2.513993e-10 3.290836e-09 1.703749e-09 9.198430e-10 1.229318e-09 1.715882e-09
6.674313e-10 2.083177e-09 1.640669e-09 1.671568e-09 2.390824e-10 2.793680e-10 2.967309e-09 1.820935e-09 3.496655e-09 7.731287e-10
2.230212e-09 2.300553e-09 1.488662e-09 5.465593e-10 4.186052e-10 5.629560e-10 1.432593e-09 2.857341e-09 2.368968e-09 2.618519e-09
1.370267e-09 4.880192e-09 1.688084e-09 3.760325e-09 3.369940e-09 3.317705e-09 8.283019e-10 3.309687e-10 1.949177e-09 8.760689e-10
2.322205e-09 2.145844e-09 1.167568e-09 1.254023e-09 3.978432e-09 9.449863e-10 1.068791e-09 2.746923e-09 1.199604e-09 1.676213e-09
8.951668e-10 1.983685e-09 2.715855e-09 1.259053e-09 2.144936e-09 1.423937e-09 9.232025e-10 5.428296e-09 -1.655320e-10 2.545309e-09
1.191042e-09 -1.114956e-09 5.744512e-10 -4.778881e-11 1.413554e-09 1.247902e-09 -7.360630e-10 3.501445e-10 1.877195e-09 -1.793975e-10
2.110487e-09 7.933871e-10 2.013390e-09 6.110337e-10 8.250092e-10 1.045429e-09 -2.176925e-10 1.721626e-09 1.932141e-09 5.556144e-10
-9.942859e-10 1.603765e-09 1.364528e-09 -5.092817e-10 -2.460459e-10 3.298752e-10 3.232000e-10 -5.977038e-10 1.671673e-10 7.698763e-10
2.747350e-09 2.204334e-10 4.907399e-10 -2.650935e-10 -4.528871e-10 -1.618601e-09 8.678520e-10 1.038858e-09 -4.830714e-10 -1.393105e-09
1.623405e-10 3.100855e-09 5.408154e-10 4.262347e-10 -2.957894e-09 1.384466e-09 9.692963e-10 -3.163762e-10 5.769717e-10 -2.224800e-10
-8.307763e-10 -3.723032e-10 -1.386271e-10 1.319024e-09 -7.256169e-10 6.271075e-10 -1.601156e-09 6.837079e-10 5.968882e-10 -7.125212e-10
1.242812e-10 1.760877e-09 5.989753e-10 -7.273409e-10 -7.284199e-11 4.365708e-10 -2.169695e-09 -8.791757e-10 1.909673e-10 -1.918774e-09
7.065973e-10 -3.032560e-10 -7.459003e-10 -1.403405e-09 -1.271917e-09 -1.869364e-09 -2.243232e-09 -1.353892e-09 -2.466632e-09 -4.777783e-10
-4.184431e-10 -1.076239e-09 -6.626508e-10 -1.966820e-09 -7.237359e-10 6.698844e-10 -2.424887e-09 -8.461327e-10 -2.712851e-09 6.723335e-11
-1.057399e-09 -2.426901e-09 -1.733466e-09 -5.153630e-10 1.723307e-09 -1.776399e-09 -1.905924e-09 -1.764110e-09 -3.379587e-09 -1.683666e-09
-7.159184e-10 -2.052290e-09 4.753576e-10 -1.249336e-09 -1.503345e-09 -1.429160e-09 -2.980551e-09 9.310208e-10 -2.812052e-09 -8.218776e-10
-1.558397e-09 -1.477728e-09 -2.483400e-09 -2.370785e-09 -2.929867e-09 1.880899e-10 -1.992351e-09 -2.516538e-09 -1.167272e-09 -2.198720e-09
-1.956944e-09 -2.649322e-09 -2.577356e-09 -2.728839e-09 -3.090748e-09 -1.727811e-09 -1.613272e-09 -1.536623e-09 -1.246943e-09 -1.458086e-09
-1.080981e-09 -2.828002e-09 -2.744604e-09 -1.067971e-09 -2.138371e-09 -1.289588e-09 -1.240687e-09 -8.594916e-10 -1.574397e-09 -1.837880e-09
-3.463549e-09 -2.109106e-09 -5.080070e-09 -2.106205e-09 -1.410006e-09 -1.502144e-09 -4.176148e-09 -1.703535e-09 -2.539545e-09 -3.103461e-10
-3.668799e-10 -2.304975e-09 -2.261654e-09 -1.837276e-09 -2.789565e-09 -2.928948e-09 -2.398166e-09 -6.034678e-10 -5.610812e-10 -1.505733e-09
-1.087323e-09 -3.823851e-09 -1.792459e-09 -6.230730e-10 -5.702727e-10 -4.378629e-09 -2.467477e-09 -2.213834e-09 -2.440642e-09 -1.569771e-09
-1.810141e-09 -2.343245e-09 -2.696628e-09 -1.061643e-10 -1.713019e-09 -3.049351e-09 -2.395129e-09 -1.835458e-09 -2.791195e-09 -4.241244e-09
-2.652137e-09 -3.354331e-09 -1.523512e-09 -2.028210e-09 -3.744486e-09 4.642013e-11 -1.663604e-10 -2.638502e-09 6.678690e-10 -5.785496e-10
-9.897368e-10 -1.382630e-09 -5.901000e-10 2.769419e-10 -1.071042e-09 -1.844662e-09 -7.960954e-10 -1.101331e-10 -1.314143e-09 -8.512863e-10
-1.202332e-09 -6.704222e-10 -2.346806e-09 -1.471742e-09 -1.886203e-09 9.219098e-10 -1.608890e-09 -2.406172e-09 -1.061683e-09 9.798937e-11
-7.556388e-10 -9.254324e-10 1.981811e-10 -6.937695e-11 -1.583809e-10 1.120829e-09 -1.099124e-09 -4.002129e-10 2.111208e-11 8.394201e-10
-4.282888e-10 9.233292e-10 -2.715463e-09 1.954426e-09 3.470278e-10 -8.449684e-10 -1.050011e-09 7.722837e-10 -4.931931e-10 -5.517883e-10
-6.725614e-10
-8.746530e-10 -9.773647e-10 1.807452e-09 2.364946e-09 5.416604e-10 -1.532925e-09 -3.259895e-10 2.229694e-10 -6.741812e-10 2.594517e-10
-3.709113e-10 8.329668e-10 2.799243e-10 -5.287799e-10 9.728592e-10 1.220540e-09 -3.567807e-11 9.587505e-10 -4.720565e-10 1.842270e-10
-3.375918e-10 5.748854e-10 -8.700168e-10 -7.416074e-10 2.254688e-09 -3.125204e-10 7.040358e-10 2.978441e-10 1.923407e-09 1.104346e-09
-1.661488e-09 2.584736e-09 5.629709e-10 2.804614e-09 5.030509e-10 3.469385e-09 2.327857e-09 2.259055e-09 1.587862e-09 -1.366089e-10
1.356831e-09 1.035551e-09 -1.151691e-10 1.134845e-09 1.194491e-09 3.766945e-10 1.580375e-09 1.629285e-09 6.747955e-10 1.125618e-09
1.742352e-09 2.489973e-10 1.892161e-09 2.714521e-10 1.394683e-09 -7.906527e-12 1.593196e-09 8.527990e-10 2.082639e-09 2.671693e-10
5.594338e-10 2.980849e-09 2.258672e-09 1.407229e-09 1.394752e-09 3.088912e-09 9.171647e-10 8.163763e-10 -2.671780e-10 1.809555e-09
2.385730e-09 2.474025e-09 -7.120564e-10 6.794441e-10 1.687610e-09 1.178867e-09 3.045940e-09 1.612083e-09 1.079403e-09 5.781229e-10
4.074127e-10 8.418823e-10 4.238720e-09 2.402691e-09 1.458132e-09 1.935369e-09 1.126967e-09 2.006763e-09 2.769121e-10 3.291405e-09
-7.298695e-10 1.342002e-09 1.698315e-09 1.934272e-09 1.823139e-09 -1.563677e-10 4.025461e-09 2.459926e-09 -5.273526e-11 3.226234e-09
1.418865e-09 3.179463e-09 9.129630e-10 1.932943e-09 1.983713e-09 2.190527e-09 1.316517e-09 8.542571e-10 7.699609e-10 9.296197e-10
2.421885e-09 6.743791e-10 7.281868e-10 8.400207e-10 3.083734e-10 3.067643e-09 3.151466e-09 2.145910e-09 2.675691e-09 1.606391e-09
4.466192e-10 1.274052e-09 1.544384e-09 -5.398240e-10 7.064269e-10 7.094893e-10 1.419669e-09 1.524876e-09 -7.177363e-10 1.119298e-09
2.783458e-09 1.451081e-09 1.586612e-10 2.887928e-09 1.363739e-09 5.047171e-10 1.671641e-09 2.148906e-09 6.642558e-10 1.153141e-09
7.295300e-10 -2.993795e-10 1.718182e-09 1.438096e-09 7.358739e-10 1.479009e-09 -8.293499e-10 2.377615e-09 -1.465166e-09 -3.331420e-10
8.437704e-10 -9.502473e-12 2.920682e-09 1.863500e-10 1.390447e-09 -9.296917e-10 1.020252e-09 -1.462038e-09 -2.000614e-09 6.048652e-10
2.107681e-09 2.101666e-09 1.086945e-09 1.875863e-09 1.031514e-09 1.655303e-09 -1.148717e-09 8.544698e-10 3.162648e-10 1.970593e-10
1.436636e-09 -4.674068e-10 1.467813e-09 -9.430761e-10 -1.714530e-09 6.415953e-10 -1.576966e-10 8.204733e-11 -6.182776e-10 3.720869e-09
2.292426e-09 -8.741964e-10 -5.101293e-10 -8.042513e-10 1.767519e-09 8.736739e-10 5.463385e-11 -3.380339e-10 -1.523244e-09 -6.976171e-10
7.514269e-10 -2.752618e-09 -1.179770e-10 2.528673e-10 -8.872401e-10 -6.651554e-10 -8.357554e-10 2.119176e-09 -2.722279e-09 -9.706232e-10
-4.084541e-10 -1.020398e-10 1.056603e-09 -1.380207e-09 4.504750e-10 -6.574052e-10 7.430101e-11 5.253560e-10 -8.586064e-10 1.324878e-09
-2.163583e-09 -2.729046e-10 1.160371e-10 -3.290623e-09 -1.567486e-09 -1.191013e-09 -9.467093e-10 -5.103839e-10 -1.961666e-09 -2.542741e-09
-7.147576e-10 1.043059e-09 -2.470663e-09 -1.941244e-09 -4.515116e-09 -8.532930e-11 -1.088777e-09 -1.333554e-10 -1.641063e-09 -3.495934e-10
-1.151969e-09 -3.554222e-09 -2.101191e-09 -1.806464e-09 -3.305695e-09 -2.244112e-10 -2.280551e-09 -1.277106e-09 -1.364696e-09 1.918514e-10
-2.403908e-09 -1.480962e-09 -2.357539e-09 -9.404882e-10 3.602034e-10 -1.409381e-09 -2.521428e-09 -3.121227e-09 -8.940796e-10 -1.313511e-09
-4.575817e-10 -1.212105e-09 -1.948265e-09 -4.142381e-11 -3.444467e-10 1.121857e-10 -2.221768e-09 -2.595328e-09 -2.857644e-09 -1.359806e-09
-2.003903e-09 -1.643517e-09 -7.720252e-10 -4.337440e-10 -1.467962e-09 -8.067829e-10 -3.123862e-09 -1.436836e-09 -1.584563e-09 -1.305369e-09
-2.064119e-09 -4.737939e-10 7.880319e-10 -1.365374e-09 -9.692623e-10 -3.713913e-09 -2.884940e-09 -1.895213e-09 -1.766662e-09 -2.628148e-09
-1.938326e-09 -2.422068e-09 -8.625538e-10 -2.237169e-10 -8.327585e-10 -2.516537e-09 -8.464647e-10 -2.598043e-09 -8.506277e-10 2.608505e-10
-1.926950e-09 -1.605898e-10 -4.120015e-10 -1.622186e-09 -1.352570e-09 -2.428783e-09 -1.740732e-09 -1.555356e-09 -9.366036e-10 -7.034684e-10
-3.547124e-09 -2.218300e-09 -1.103154e-09 -1.326496e-09 -1.907243e-09 -3.585952e-09 -2.360437e-09 4.775170e-10 -1.518689e-09 1.233243e-09
-1.095713e-09 -1.621448e-09 -1.523447e-09 -1.655697e-09 -6.804540e-10 -2.551123e-09 -1.085171e-09 -3.853105e-10 -5.246583e-10 -9.086343e-10
-4.473329e-10 -8.290238e-10 -9.551238e-10 8.000318e-10 -2.551539e-09 1.247959e-09 -2.915939e-09 1.052980e-09 1.835453e-10 -1.134418e-09
-1.897176e-09 -1.432899e-09 1.784407e-10 -4.579513e-10 1.449350e-10 -6.982592e-10 -3.424449e-09 -3.428713e-10 1.556634e-10 1.077225e-09
-5.804076e-11 -1.865688e-09 -3.659093e-09 -6.069708e-10 -1.370179e-09 -1.484305e-09 -7.881216e-10 -1.419227e-09 -4.364423e-10 3.188454e-10
-4.258272e-10 -1.782788e-09 5.537962e-10 4.614644e-10 -1.363118e-09 4.428919e-11 -6.847878e-10 -1.740600e-09 2.274234e-10 1.946020e-09
-8.746530e-10
-2.406715e-09 8.918254e-10 -2.294333e-09 -8.606557e-10 1.372904e-09 2.716087e-09 -1.226123e-10 -1.495531e-09 1.781382e-09 1.578156e-09
2.062793e-10 1.023125e-09 3.828324e-10 8.634802e-10 8.481870e-10 5.864375e-10 1.251129e-09 1.941252e-09 -1.375763e-09 1.522844e-09
2.118054e-09 -6.802873e-10 1.648826e-09 1.315379e-09 2.410547e-09 1.770570e-09 4.391149e-10 -1.350996e-09 -5.730920e-10 -9.022820e-10
2.133823e-11 -7.537433e-10 1.142887e-09 1.510153e-09 2.666047e-10 2.340374e-10 5.955762e-10 1.087963e-09 1.024733e-09 -5.840609e-10
1.948447e-09 1.507137e-09 -1.405942e-10 2.949485e-09 -1.880442e-09 1.873908e-09 1.027052e-09 1.863697e-09 -1.195285e-09 4.233612e-10
-1.989284e-10 2.560459e-09 1.113711e-09 -6.229864e-10 1.543418e-09 1.422290e-09 6.509768e-10 4.774166e-10 1.177569e-09 1.157834e-10
1.153883e-09 1.024711e-09 9.987157e-10 3.029258e-09 5.855218e-10 2.140555e-10 2.175326e-09 1.776521e-09 2.082442e-09 1.974979e-09
1.546758e-09 1.447716e-09 1.589879e-09 1.059156e-09 1.093616e-09 3.219816e-09 -1.447088e-10 1.088342e-09 1.359425e-09 1.500168e-10
1.159504e-09 1.215917e-09 -1.829163e-10 1.199182e-09 5.770667e-10 4.739970e-10 3.331888e-09 1.728822e-09 9.918670e-10 -1.881053e-10
7.603742e-10 -2.533618e-10 2.338719e-09 -8.979564e-10 6.960453e-10 3.458870e-09 2.602331e-09 1.642120e-09 4.094849e-10 2.043142e-09
6.892937e-10 1.628750e-09 2.309460e-09 -1.062041e-09 9.193934e-10 3.264643e-09 8.630165e-10 3.235118e-09 -1.261854e-10 5.854253e-10
9.263736e-10 2.210215e-09 1.966191e-09 1.815468e-09 1.767028e-09 1.667875e-09 5.324561e-10 -8.519945e-10 2.726607e-09 -2.316486e-10
2.923606e-09 1.488337e-09 1.245424e-09 7.716415e-10 1.343834e-10 1.459203e-09 1.363432e-09 7.732055e-10 1.591903e-09 1.587935e-09
1.953301e-09 2.217714e-09 5.525320e-10 9.463580e-10 5.487494e-10 -3.516532e-10 -6.183834e-10 1.975327e-09 1.234837e-09 2.533226e-09
5.473225e-10 1.130659e-09 -8.151108e-10 -8.945242e-10 1.299195e-09 7.463376e-10 2.204343e-09 -1.916169e-10 -3.019157e-10 2.918631e-10
9.157941e-10 1.268799e-09 6.093395e-10 3.636774e-10 2.181605e-10 -3.338657e-10 -2.759844e-10 2.249534e-09 5.664656e-11 7.115532e-10
7.279087e-10 -8.531636e-10 -5.496479e-10 1.324515e-09 3.643894e-10 -8.310267e-10 -7.038064e-10 -2.401294e-09 -2.435074e-10 -7.625864e-10
1.976003e-09 1.576785e-10 2.071688e-10 -3.453239e-10 1.292455e-09 1.012473e-09 5.648142e-10 -3.796266e-10 3.940076e-11 1.094758e-09
1.128522e-09 1.061654e-09 -6.474992e-10 -1.636715e-09 4.374806e-10 5.821942e-10 -1.856601e-09 -8.151366e-10 1.729488e-09 -6.355853e-11
1.599280e-09 5.172810e-10 -2.710785e-09 -1.153156e-09 -1.241932e-09 -1.720654e-09 -7.361661e-10 -2.175272e-09 -9.509495e-10 1.720315e-10
1.058201e-10 5.189700e-10 7.168797e-10 5.491549e-10 -2.637486e-09 1.117107e-09 3.343556e-10 1.101869e-09 -1.021639e-10 1.486668e-09
1.313399e-09 -1.756465e-09 1.172853e-09 -2.169680e-09 -6.293785e-10 -2.964213e-09 1.442771e-09 -9.018362e-10 -1.475062e-09 7.105822e-10
4.348049e-10 -1.527325e-09 -2.057944e-10 -2.378451e-09 1.585941e-09 -2.004770e-09 3.722602e-10 -7.394826e-11 -2.921907e-09 2.890369e-10
-2.078455e-09 -1.088397e-09 -7.871611e-10 -2.123558e-09 -1.195891e-09 -7.420490e-11 -1.580934e-09 1.333610e-09 -1.164303e-09 -1.501593e-10
1.251420e-09 -1.678088e-09 -6.298365e-10 -2.450485e-10 -6.274638e-10 4.448011e-10 -1.404597e-09 -1.589166e-09 -2.079823e-09 -1.621759e-09
-2.926250e-09 -8.889373e-10 5.432980e-11 -1.468445e-09 3.906160e-11 -3.465227e-10 -1.185738e-09 -7.533464e-10 -1.340877e-09 -1.224579e-09
-2.540574e-09 -1.694778e-11 -1.677411e-09 -1.987163e-09 -1.067638e-09 -1.727341e-09 3.873800e-10 8.570896e-10 -8.385196e-10 -1.123840e-09
-8.727328e-10 -1.046869e-09 -3.069653e-10 -1.667278e-09 -3.669975e-09 -2.013288e-09 -7.940648e-10 1.558081e-10 -2.050405e-09 -2.756933e-09
-1.264718e-09 1.226938e-09 -2.790289e-09 -1.429065e-09 -3.762550e-10 -7.767665e-10 1.913853e-09 3.636904e-10 -2.255455e-09 1.230338e-09
-1.310138e-09 -5.667352e-10 -2.074387e-09 -1.548231e-09 -9.091732e-10 -2.389874e-10 -3.668943e-10 -2.506692e-09 -6.403531e-10 -2.833217e-09
-1.810718e-09 9.963631e-10 -2.569004e-09 5.030880e-11 -1.002643e-09 -1.371021e-09 3.246992e-11 -1.730076e-09 -1.275396e-09 -1.904546e-09
-1.891366e-09 -4.789685e-10 -1.799769e-09 -9.285555e-10 -2.974013e-09 1.821468e-09 -2.628696e-10 -3.396392e-09 -1.401401e-09 4.520656e-10
-2.289667e-09 -6.865205e-10 -9.962814e-10 8.744886e-10 -1.868090e-09 -3.602581e-10 1.544922e-09 -7.376213e-10 -7.656498e-10 2.558750e-10
-1.454278e-09 -2.393956e-09 -1.651244e-09 -2.406192e-09 7.566617e-11 -1.095726e-09 -2.258582e-10 7.510328e-10 9.482287e-10 2.231303e-10
2.095944e-10 -1.770258e-09 -9.992667e-10 -6.671443e-11 -2.564749e-09 9.900957e-10 -6.042777e-10 -2.393708e-10 -5.540358e-10 -1.225288e-11
-1.129753e-09 8.823438e-10 2.964957e-09 -5.284921e-10 -1.306022e-11 -3.543189e-10 -1.495340e-09 1.860452e-09 2.608020e-10 1.051566e-09
-2.406715e-09
9.517477e-10 -1.632452e-09 -2.185163e-09 -7.946715e-10 -1.264619e-09 2.190445e-09 -1.873328e-09 1.439286e-09 1.705424e-10 -3.191709e-09
1.520958e-10 5.466790e-10 5.544958e-10 1.833784e-10 1.493942e-09 1.088689e-09 -2.610123e-09 -6.779053e-10 -1.925323e-10 -3.398209e-11
2.322543e-09 7.721528e-10 2.946412e-10 -8.842058e-10 1.322237e-09 2.199854e-09 -1.287562e-09 -6.333434e-10 -8.769168e-10 1.468904e-09
4.509204e-10 1.934517e-10 6.608155e-11 2.285484e-09 -5.445964e-10 1.054034e-09 4.786925e-10 -8.284526e-10 2.466584e-10 -1.223380e-10
2.380361e-09 -6.098484e-10 8.227986e-10 -1.305792e-09 2.335325e-09 -4.302063e-10 -1.569462e-10 7.447672e-11 3.419137e-10 1.194594e-09
1.499993e-09 1.288362e-10 1.224452e-09 7.572885e-10 4.992071e-10 -2.421458e-10 -7.377333e-10 1.477354e-09 -4.025363e-10 -9.864599e-10
2.561634e-09 2.316227e-09 1.385793e-10 2.090942e-09 1.387433e-09 3.199896e-10 -3.556866e-10 1.728156e-09 -8.000526e-11 1.808199e-09
-1.079688e-09 6.350643e-10 -4.201134e-10 1.540449e-09 4.570434e-10 -6.373792e-10 3.590006e-10 -1.898263e-10 1.632380e-10 1.312876e-09
1.291829e-09 -7.437184e-10 4.107345e-10 2.655854e-09 1.063220e-10 -1.360261e-10 1.435171e-09 1.833927e-09 4.628745e-10 1.631557e-09
2.255095e-09 1.067479e-09 6.555471e-10 6.638006e-10 1.612466e-09 2.309812e-09 8.958858e-10 1.730867e-10 1.439235e-09 1.688583e-09
1.787408e-09 -6.113809e-11 2.085024e-09 7.960778e-10 -6.535710e-10 4.688068e-10 1.117075e-09 9.391102e-10 1.361894e-10 4.550772e-10
7.016315e-10 -3.093714e-10 7.853505e-10 3.901327e-10 -7.182724e-10 2.765453e-09 1.808176e-09 1.559200e-09 1.664890e-10 -9.595681e-10
1.683499e-09 1.887561e-09 5.758299e-11 1.818432e-09 -1.348559e-09 -2.183075e-10 5.636056e-10 8.164706e-11 3.584724e-10 -2.117434e-09
2.756861e-09 1.011332e-09 1.090738e-09 2.166843e-09 1.294221e-09 1.031473e-09 -5.737743e-10 1.321723e-09 8.199006e-10 -1.405311e-09
1.342760e-09 5.069096e-10 7.036228e-10 5.233624e-10 1.947599e-10 -4.557997e-10 2.263669e-09 2.391024e-10 2.864096e-09 7.456733e-10
1.144828e-09 2.150147e-09 1.174998e-09 3.090896e-10 -2.307001e-10 1.254144e-09 2.079276e-09 -7.002726e-10 -2.015950e-09 -8.967465e-10
-1.246289e-09 1.412070e-09 1.196646e-09 -8.275947e-10 1.256614e-09 2.682933e-10 1.613497e-09 3.043611e-11 -3.334747e-11 -1.925565e-09
3.586784e-10 1.108546e-09 1.386271e-09 -6.269820e-10 -8.084131e-11 -1.947789e-10 1.261104e-09 2.262004e-09 3.874888e-10 6.194126e-10
3.126625e-10 -4.244899e-10 2.152218e-09 -1.825788e-09 8.451791e-11 4.832065e-10 1.567145e-09 -4.814571e-10 1.246360e-09 -3.608316e-10
-9.159157e-10 8.978091e-10 1.466458e-09 -4.624621e-10 -6.574574e-10 -3.923860e-10 -4.681498e-10 1.118071e-09 -2.349166e-09 1.208627e-09
-2.582208e-09 7.691126e-10 1.142332e-09 -2.265722e-09 -2.723217e-10 3.777327e-10 -4.398608e-10 4.613397e-10 -1.386416e-09 1.459640e-09
-6.467823e-10 -1.534122e-09 8.734258e-10 -1.048426e-09 8.165641e-10 2.650105e-10 1.045345e-09 1.295247e-09 1.932731e-09 -2.167739e-09
-2.029977e-09 -5.232733e-10 -1.827775e-09 -5.663549e-10 1.568652e-09 -2.424696e-09 -1.072986e-09 1.250963e-10 -2.193459e-09 -1.283778e-09
-1.732619e-09 -1.724621e-09 -1.841045e-09 6.090302e-10 -2.881261e-10 -4.343158e-10 -1.937813e-09 -9.239811e-10 -1.173625e-10 9.429308e-11
-2.328090e-09 -1.354429e-10 -2.410754e-10 -1.420599e-09 -7.625622e-10 -1.888119e-09 1.349506e-09 -9.059917e-11 -3.571463e-09 -2.491383e-10
8.829919e-10 -1.152843e-09 -2.059094e-10 -8.850385e-10 -2.507483e-09 -6.749259e-10 -8.546862e-10 4.612495e-10 -1.527485e-09 -1.892191e-09
-8.657910e-10 -1.612731e-09 1.720978e-09 -1.676196e-09 -4.032179e-09 -1.370508e-09 5.233554e-10 -1.262710e-09 -1.546996e-09 -1.130662e-09
1.103817e-10 -1.230003e-09 -9.695186e-10 -1.381423e-09 -9.988946e-10 -4.932050e-10 -7.458618e-10 1.161318e-10 -1.596735e-10 -2.207816e-09
-9.667157e-10 -2.950286e-09 -5.383882e-10 -5.876640e-10 -3.676136e-10 -2.438361e-09 -1.292929e-09 -1.269229e-09 -1.978542e-09 -1.786777e-09
8.519730e-10 -3.147985e-09 -4.058190e-10 3.503098e-10 -1.020275e-09 -1.257670e-09 -9.813929e-10 2.235259e-10 7.816967e-10 -2.227591e-09
-4.550081e-10 -1.055632e-09 -2.036355e-09 -3.040302e-10 4.766587e-10 -8.728316e-10 -1.247124e-09 -1.856780e-09 -8.535158e-10 6.508356e-10
-4.764851e-10 -4.795726e-11 1.486303e-09 -1.904433e-09 -7.362995e-10 -6.773086e-10 -1.958889e-09 2.892190e-10 -1.427888e-09 -1.260449e-09
-2.657021e-10 -7.942784e-10 9.205106e-10 -2.725403e-10 -1.840116e-09 8.378883e-11 3.118861e-11 -3.126690e-10 -1.622430e-09 1.041197e-11
-7.695132e-10 -7.060403e-10 -1.877273e-09 -1.695394e-09 -1.554198e-09 -2.066865e-09 -1.830870e-09 -7.675257e-10 -6.986734e-10 -5.965764e-10
-3.643818e-10 -4.389447e-10 -1.319356e-10 -2.443709e-09 -9.979794e-10 9.883842e-11 1.230839e-09 8.279242e-10 -1.570739e-09 5.364407e-10
-4.844840e-10 -9.247807e-10 -2.188399e-09 -1.529368e-09 7.136036e-10 2.698388e-10 -9.119063e-10 -4.092500e-10 9.177850e-10 -3.154267e-11
9.517477e-10
-1.676905e-10 8.656282e-10 1.157078e-09 -1.034850e-09 4.269203e-10 -1.477349e-09 -1.176543e-09 -1.129424e-09 -5.768841e-11 -1.745958e-09
6.416598e-10 1.131230e-09 -8.539875e-10 1.321392e-09 1.956603e-09 3.103992e-10 -1.553827e-10 3.942792e-10 6.881531e-10 1.475655e-09
1.475179e-09 -1.289293e-09 1.726645e-10 8.689956e-10 -6.512171e-10 4.034392e-10 5.422582e-11 7.684208e-10 8.938621e-10 9.210040e-13
1.885814e-09 -4.183135e-10 5.371146e-10 -5.899589e-10 3.831380e-11 2.066682e-10 4.832726e-10 6.050888e-10 1.398380e-09 1.411515e-09
5.041419e-11 1.001676e-09 -3.572087e-10 8.626286e-10 1.613604e-09 5.006643e-10 -1.175249e-10 1.178861e-10 -1.334578e-09 1.532425e-09
-4.208518e-10 -5.579250e-10 -3.099614e-09 2.173797e-10 7.782665e-10 7.174788e-10 1.848226e-09 -5.133982e-10 8.437473e-10 3.593440e-09
3.837389e-10 -2.000847e-09 1.654874e-09 8.700211e-11 3.325228e-09 1.091195e-09 2.706601e-09 -3.258448e-10 -1.938020e-09 1.203158e-09
-9.395954e-11 3.079911e-10 -9.645124e-10 4.082382e-10 -2.815288e-10 3.123085e-10 1.047431e-09 -5.826633e-10 2.301208e-09 -6.134630e-10
-5.614039e-10 1.247359e-09 -6.153132e-10 -4.237376e-10 1.620962e-09 -4.004257e-10 -4.595865e-10 1.092402e-10 1.537082e-10 3.043920e-09
7.795984e-10 2.655428e-10 3.455362e-10 2.403677e-09 -3.662976e-10 2.097041e-09 6.469929e-10 -2.684919e-10 1.693505e-09 2.845435e-10
6.076299e-10 6.736045e-10 -4.179292e-10 -2.665244e-10 -1.283362e-09 2.105171e-09 1.677036e-10 1.224794e-09 1.745169e-09 -5.362598e-10
-1.666368e-09 2.525003e-10 1.211660e-09 1.087578e-09 1.229081e-09 1.433694e-09 2.937384e-11 -4.894362e-10 6.771670e-10 2.016274e-09
1.172946e-09 -4.226773e-10 1.789098e-09 5.546583e-10 -1.847387e-10 -1.499469e-09 -7.180219e-10 8.212734e-11 2.883180e-10 1.861304e-09
1.803260e-09 2.203697e-09 4.486009e-10 -2.067661e-09 -6.163967e-10 -9.453945e-10 -9.251439e-10 3.176193e-09 1.537514e-09 1.165568e-09
2.562874e-10 4.718210e-10 -2.398119e-10 -1.273870e-09 -1.432824e-09 -7.790583e-12 -9.673095e-10 -8.670589e-10 -6.586794e-10 4.960394e-10
5.705361e-10 1.582312e-09 6.200665e-10 5.726204e-10 1.224284e-09 2.347206e-09 1.774263e-09 4.167544e-10 -1.955877e-10 9.656028e-11
-2.477747e-10 -3.908935e-10 6.986365e-10 1.517856e-09 4.714725e-10 1.988230e-10 7.751431e-10 6.084955e-10 -1.149702e-09 3.855267e-10
1.284022e-09 3.551491e-10 -6.862202e-10 7.493210e-10 3.446822e-10 -1.375533e-09 -1.113024e-09 -1.290208e-09 1.705264e-10 5.394830e-10
-5.076449e-10 1.920495e-09 -1.683208e-09 -9.185849e-10 -1.292423e-10 3.108857e-10 -4.042079e-10 -2.292120e-10 -5.254491e-10 -1.209187e-09
-1.664001e-10 -6.399871e-10 1.420014e-09 1.492915e-10 4.425834e-10 -1.921185e-09 3.392030e-10 -4.396853e-10 -1.585474e-09 8.492027e-10
2.377035e-10 -4.883172e-11 -3.779498e-10 -1.977736e-10 -6.765257e-10 -2.075813e-09 8.620177e-10 -1.682301e-09 5.505578e-10 -9.685603e-10
-4.428395e-10 5.796815e-10 1.227883e-10 -6.928193e-10 3.033521e-09 4.611569e-10 1.278134e-09 4.820964e-10 2.591613e-09 5.832539e-10
1.035636e-09 8.391561e-10 1.176873e-09 4.481309e-10 -8.457017e-10 6.135593e-10 -1.117204e-09 -1.859270e-09 -2.994932e-10 -5.578574e-10
-4.581113e-10 -4.740724e-10 -1.945010e-09 3.448698e-10 -1.462530e-09 -2.885982e-10 -1.732182e-09 -1.500660e-09 -1.549688e-09 4.777604e-10
-2.580843e-11 -3.546820e-10 -1.617767e-10 -2.284054e-09 2.617629e-10 -1.454782e-09 -4.072479e-10 7.650201e-10 1.374104e-10 -1.669368e-09
5.555367e-10 -1.532611e-09 -8.645560e-10 4.995839e-10 9.573080e-10 3.031334e-10 1.176726e-09 -1.970149e-09 -8.809658e-10 -4.859250e-10
-1.441420e-09 -1.575183e-10 1.213540e-09 -4.471001e-11 9.231172e-10 -9.566988e-10 -2.459902e-10 -1.484957e-11 -1.198733e-09 5.153876e-10
-1.440653e-09 9.728596e-11 1.162431e-09 6.553914e-10 -2.711502e-09 -2.520335e-09 -1.954217e-09 -3.804093e-10 -9.520197e-10 -1.308615e-09
-1.024558e-09 -1.194697e-09 -1.180410e-09 1.184561e-10 -3.053702e-10 3.303920e-10 -1.168042e-09 -2.198074e-09 -2.412960e-10 -1.588580e-10
5.600496e-10 1.741902e-09 -1.467433e-09 1.269687e-09 -1.850664e-09 9.471876e-10 8.045300e-10 2.846995e-10 6.637162e-10 -1.036770e-09
7.862082e-12 1.538830e-10 -2.365045e-10 3.582636e-10 2.335913e-10 -2.534225e-09 1.760273e-09 -1.645532e-09 -5.053304e-10 -3.860182e-10
1.188322e-09 -1.158300e-09 -1.420813e-09 -2.545163e-10 -2.634466e-09 -1.135783e-09 1.123125e-09 -5.265750e-10 -1.371305e-09 -4.585816e-10
-1.883450e-09 1.339907e-09 -1.935264e-09 -6.729221e-10 1.319604e-11 -2.257444e-09 -7.353170e-10 4.166609e-10 -7.525826e-10 3.256110e-10
-2.563837e-09 1.279225e-09 1.525752e-09 -7.112297e-10 -1.569631e-09 6.619643e-10 -8.706584e-10 -3.826881e-10 -1.251470e-09 -1.056925e-09
-6.680168e-10 -8.232319e-10 1.931608e-09 1.131621e-09 -7.305752e-10 5.174112e-10 1.750916e-10 -6.548112e-11 4.557021e-10 -7.482546e-10
-1.263174e-09 -3.669715e-09 1.081920e-09 1.102136e-09 2.609980e-10 -1.318130e-09 -5.273401e-10 7.071892e-10 1.557023e-09 -3.314758e-10
-1.676905e-10
4.690507e-10 1.452239e-09 -4.079662e-10 1.719252e-09 -2.043506e-09 1.163170e-09 -9.940555e-10 -3.204446e-10 6.327291e-10 -2.882334e-10
8.267429e-11 -1.263455e-09 -8.071211e-10 -1.072506e-09 -2.468395e-09 -1.089964e-09 -8.239449e-10 1.033279e-09 2.151438e-10 -1.974691e-09
-1.419603e-10 7.511676e-10 4.133783e-10 1.653454e-09 5.470399e-10 1.115036e-09 -4.198560e-11 1.045934e-09 8.883301e-10 5.205995e-10
-8.583765e-10 2.378893e-09 4.364801e-10 7.447523e-10 -1.433866e-09 2.028169e-09 -9.364826e-10 -3.187466e-10 2.599077e-11 1.473071e-09
1.703696e-09 -1.544048e-09 -6.461477e-10 2.810406e-09 2.829756e-10 5.556920e-10 5.591281e-10 1.133825e-09 2.108970e-10 -2.113008e-10
-2.364416e-10 -1.806876e-10 4.116364e-10 -2.398447e-10 1.366504e-09 1.158079e-09 -1.134012e-09 1.573825e-10 -6.022409e-10 1.869515e-09
5.141132e-11 -1.289537e-09 -2.244970e-10 8.057533e-10 -1.881276e-09 -5.923662e-11 -1.333606e-09 8.529180e-10 2.414642e-09 2.427446e-10
-1.372106e-09 -8.716290e-10 1.910195e-09 -6.255556e-10 -1.243082e-09 -5.319041e-11 -5.038409e-10 3.227121e-10 1.995950e-09 1.059133e-09
-1.852372e-10 -2.307402e-09 2.133567e-09 5.071569e-11 3.593354e-10 -2.786132e-10 -1.029254e-09 -5.045570e-10 7.342433e-10 1.222599e-09
-7.074961e-10 2.123657e-10 -5.845875e-10 6.730591e-10 1.796527e-10 -2.260909e-10 8.790011e-10 -9.209702e-10 -8.237060e-10 1.477512e-09
-6.601415e-10 1.858903e-10 6.240095e-10 5.034409e-10 -1.268268e-10 -4.626321e-10 9.250354e-10 2.676513e-09 -1.942043e-09 1.887219e-10
1.644612e-09 -5.139261e-10 -1.034518e-09 1.452104e-09 6.469678e-10 2.543152e-09 1.220222e-09 -2.348232e-10 5.796993e-12 2.409710e-10
-1.234694e-09 -1.216446e-09 1.854894e-10 1.954400e-09 9.237295e-10 9.535311e-10 -1.637014e-09 -9.666771e-10 -7.518501e-10 1.477820e-09
-9.028504e-10 -1.520593e-09 5.800279e-13 -1.545804e-10 8.399535e-12 -2.747431e-10 -1.209498e-09 5.198907e-10 1.129769e-09 -8.843511e-10
5.512257e-10 -1.554974e-09 -2.252367e-09 1.626425e-09 2.349582e-09 8.378476e-10 -1.306174e-09 -8.820049e-10 6.047796e-11 -4.830210e-10
-1.894735e-09 2.047251e-10 1.453901e-09 -1.275340e-09 6.307789e-10 -1.962948e-10 1.431245e-09 1.564983e-09 1.171398e-09 -2.997929e-10
1.659713e-09 -1.032095e-10 -1.026246e-10 1.300088e-09 -1.096142e-09 -1.068327e-09 -5.150443e-11 6.330492e-10 1.185485e-09 -2.253379e-09
9.857256e-10 -1.874016e-09 5.670036e-10 -6.566738e-10 -1.905872e-10 4.109220e-10 7.198080e-10 -1.497272e-10 2.434627e-10 5.900510e-10
9.283225e-10 1.296828e-09 7.745271e-10 -1.201714e-09 -6.756418e-10 -1.189177e-09 5.316431e-10 4.447263e-10 -1.456625e-09 -3.250753e-10
1.346867e-09 9.126166e-11 9.554366e-10 2.201609e-12 1.301485e-09 8.961381e-10 4.459646e-12 -6.255161e-10 3.365577e-10 -1.048901e-09
4.635666e-10 2.669840e-10 -2.079523e-10 -1.272772e-10 -1.855502e-10 -8.224044e-10 -4.418484e-10 5.937922e-10 1.847826e-09 -4.159924e-10
-5.986031e-10 -2.379413e-09 -7.171703e-10 2.535875e-11 1.439313e-09 -7.869645e-10 -1.142994e-09 1.670076e-10 -1.459976e-09 2.524755e-10
-2.952203e-10 4.517542e-11 -4.259615e-11 1.654677e-09 9.987416e-10 -1.877588e-10 -1.054952e-09 2.126571e-10 -5.378309e-10 -9.187895e-11
-1.552812e-09 -2.607109e-10 -1.013478e-09 6.111779e-10 -2.929363e-09 -1.253654e-09 7.277037e-10 1.331083e-09 -1.843283e-09 -2.638412e-09
-5.810091e-10 -1.157261e-09 5.725043e-10 6.520513e-10 -5.102344e-10 -8.089085e-12 6.681419e-11 9.354687e-11 3.411466e-10 -3.014741e-09
1.107478e-10 -7.889933e-10 -6.256433e-10 -1.298889e-09 1.440510e-09 -1.796674e-09 -5.276668e-10 7.825837e-10 -4.131885e-10 -1.185123e-09
-1.145317e-09 3.943769e-10 9.013170e-10 -3.277750e-10 -8.891329e-10 1.621523e-10 -2.270958e-09 8.577435e-12 -8.994446e-11 -6.009522e-10
-1.186536e-09 -1.088319e-09 -1.391679e-09 -2.085312e-09 4.619833e-10 -1.078984e-09 1.931871e-10 -7.207515e-10 8.798059e-11 -2.184812e-09
2.630542e-09 -2.087750e-09 -1.416401e-10 1.784612e-09 1.279428e-09 6.634178e-10 -8.670509e-10 -1.339735e-09 -1.576301e-10 1.567121e-11
-1.792050e-09 1.520656e-09 -2.305469e-09 4.547227e-10 -7.048040e-10 -7.117358e-10 -8.347155e-10 1.203960e-09 1.395872e-11 -2.654212e-10
1.419855e-09 -9.569353e-10 7.519698e-10 6.261909e-10 4.659561e-10 -9.653004e-11 2.037990e-10 1.157691e-10 2.422674e-09 7.290898e-10
-8.047681e-10 8.162818e-10 -1.729550e-11 5.105623e-10 -2.972389e-09 7.796281e-10 4.149490e-10 2.249730e-09 -1.638805e-09 -1.470152e-09
-6.955851e-10 -4.164064e-10 -6.251966e-10 -2.906385e-10 1.440153e-09 -1.679866e-10 1.666349e-09 -2.790651e-09 -1.075458e-10 -1.114716e-09
2.215019e-10 -7.345804e-10 -3.289193e-09 -1.503449e-09 -1.799679e-09 7.350615e-10 -3.843315e-10 4.463339e-10 -3.944158e-10 8.418237e-10
-1.150855e-09 7.222523e-10 1.239223e-09 8.600465e-10 2.423736e-09 1.672989e-09 7.028705e-11 1.821176e-10 1.795919e-09 -9.760767e-10
3.453359e-10 -9.012694e-10 -4.066237e-10 -1.127965e-09 9.141902e-11 8.157885e-10 -7.917807e-11 5.519776e-10 -4.805663e-10 -1.437049e-09
4.690507e-10
-2.920048e-09 2.291949e-09 -8.907239e-10 1.013333e-09 4.461976e-10 -3.308687e-10 -1.262715e-09 1.739050e-10 -1.023210e-09 1.939201e-10
1.410279e-09 -2.953299e-10 1.177508e-09 -5.615117e-10 -2.024974e-10 1.843368e-09 4.972055e-10 -1.483049e-10 -9.384483e-10 3.564486e-10
-1.170298e-09 6.246166e-10 -4.414677e-10 -1.092897e-09 7.787057e-10 9.128677e-10 -8.459080e-10 -1.732944e-09 5.579398e-10 1.947565e-10
-1.417240e-09 9.985016e-10 -1.895364e-09 -1.197106e-09 -1.857053e-09 -1.902380e-09 1.356804e-09 4.097306e-10 1.525431e-09 5.339384e-10
-2.394603e-11 1.096904e-09 1.403717e-10 6.944550e-10 5.103952e-10 -3.864122e-10 -2.016318e-10 -8.546809e-10 -5.852473e-10 -9.180254e-10
1.296083e-09 -4.302389e-10 -1.080886e-10 -1.755551e-09 -1.013505e-09 1.043134e-09 7.117791e-10 5.547856e-10 1.618057e-10 -1.717334e-09
-1.552561e-09 5.376674e-10 8.820658e-10 2.244160e-09 9.834832e-10 2.377440e-10 2.603747e-10 -7.431373e-10 2.959503e-10 -1.327089e-09
-3.394841e-10 -1.744105e-09 -2.027692e-09 9.516829e-11 1.005440e-11 3.027220e-10 -9.528828e-10 -3.138184e-10 1.246813e-09 1.255055e-09
4.200347e-10 -3.147675e-09 1.621356e-09 -2.738152e-09 -4.145125e-10 2.269491e-10 -6.038776e-10 1.986834e-09 2.363384e-09 1.096464e-10
3.779169e-10 9.858184e-11 -1.669650e-09 5.017471e-10 1.660463e-09 4.325744e-11 8.029064e-10 1.539981e-09 -2.456728e-09 -4.744545e-10
1.629056e-09 1.369513e-10 -1.110246e-09 1.927900e-11 -9.282894e-10 9.153034e-10 8.241463e-10 -7.566629e-11 -2.203042e-09 7.798622e-10
-9.055321e-10 1.106856e-09 -1.203586e-09 5.689582e-10 -1.408172e-09 -7.110925e-10 -1.030304e-09 7.337838e-10 -5.477432e-10 8.852660e-11
1.191759e-09 -1.099494e-09 1.769077e-09 1.730204e-10 -1.061403e-09 -9.593530e-10 9.464437e-10 1.203129e-09 -1.728434e-10 7.066286e-10
-2.533584e-10 -4.636669e-11 -1.126470e-09 8.443165e-10 -2.248166e-10 8.890695e-10 -4.643943e-10 -2.958173e-10 -3.857662e-10 -4.228700e-10
-8.898399e-10 -5.906683e-10 7.609569e-10 -3.108188e-11 1.129431e-09 5.659728e-10 -1.579357e-09 2.037558e-09 -6.309166e-11 7.283639e-10
-9.615541e-10 5.197213e-11 -1.799504e-09 -9.074430e-10 -1.484087e-10 -4.846457e-10 1.446445e-09 -1.445292e-09 9.502773e-11 -1.127288e-09
6.799468e-10 1.546453e-10 1.899138e-11 6.107428e-10 -2.093829e-10 -6.598684e-10 -1.393521e-09 -2.799690e-10 -2.232568e-09 1.089185e-09
1.273706e-09 9.275019e-10 8.178927e-10 -4.704787e-10 -8.301027e-10 1.041331e-10 -3.011959e-09 1.302500e-09 5.130306e-10 -1.380874e-10
1.578768e-10 -6.896735e-10 1.886641e-09 -6.823354e-10 4.209345e-10 -5.556167e-11 -5.785251e-10 3.050423e-10 3.353851e-10 -8.402246e-10
7.456822e-10 1.224181e-09 -1.229497e-09 1.843481e-09 -3.584683e-09 1.177105e-10 7.018828e-10 8.834275e-11 -1.000381e-09 1.360307e-09
-6.172753e-10 -7.622022e-10 -3.040943e-10 6.939995e-10 -9.419424e-10 1.076228e-09 -2.616342e-09 -7.110313e-10 -1.351513e-09 8.920956e-10
-1.291898e-09 -1.119590e-09 1.698037e-09 -8.817658e-10 -6.010351e-10 -1.156255e-09 8.059002e-10 5.191571e-10 1.460830e-09 2.474036e-10
1.433181e-09 -1.294286e-09 -1.944264e-09 -1.366829e-09 2.925670e-10 -2.277131e-10 1.406203e-09 6.645356e-10 2.195169e-09 2.241501e-09
-4.598003e-10 8.372636e-11 -1.736741e-09 -1.262521e-10 1.217820e-09 -1.748990e-09 -3.350446e-10 -1.081058e-09 2.246714e-09 4.294689e-10
-2.640162e-10 -5.857220e-11 9.525042e-10 1.665624e-10 -5.305913e-10 1.626974e-10 1.245359e-09 1.704632e-09 1.570823e-09 4.921243e-10
-1.985324e-09 4.824222e-10 1.234463e-09 7.506886e-11 2.189353e-09 1.117609e-09 -2.732097e-09 6.075626e-10 3.009143e-10 1.037696e-09
-4.371208e-10 5.951499e-10 -2.359576e-10 5.002578e-10 4.812644e-10 6.854319e-10 -2.126262e-10 -3.844055e-10 7.058425e-10 1.342666e-09
-2.594960e-10 1.208229e-09 1.830459e-10 2.194581e-09 -9.118623e-10 8.654970e-10 1.018343e-09 6.795291e-11 -1.424008e-09 1.618661e-09
-2.761006e-10 -7.187573e-10 -9.750363e-10 2.070288e-10 4.081550e-10 8.885127e-10 2.553133e-10 3.417517e-10 -1.546302e-09 1.157556e-09
6.888228e-11 3.272275e-09 6.764140e-10 -1.036842e-09 2.321216e-09 1.622534e-10 4.676671e-10 -1.176253e-10 -4.169946e-10 6.538599e-10
8.560410e-10 -1.862794e-10 7.115886e-10 -1.880726e-09 7.026000e-10 -2.079207e-09 -2.521522e-09 1.074966e-10 9.774895e-10 2.314734e-10
-2.704030e-10 -9.483603e-11 6.994633e-10 7.611330e-11 6.192158e-11 -7.730285e-10 -9.619083e-10 5.464178e-10 -9.673097e-10 -6.185132e-11
1.699285e-09 -1.411751e-10 -5.402096e-10 3.863254e-10 2.186379e-09 1.365037e-09 -1.003188e-09 1.992683e-09 -9.567210e-10 -1.278060e-09
-4.681617e-10 -1.287933e-09 1.513612e-09 2.755018e-11 6.325523e-11 6.826542e-10 2.507165e-10 1.586823e-09 8.981796e-10 -1.226363e-09
3.463825e-11 -7.910561e-10 -2.407486e-09 2.271327e-10 1.395034e-10 -1.782245e-09 -2.213814e-09 -1.390429e-09 -1.499622e-09 1.937038e-09
-1.589773e-11 -1.607748e-09 -2.168739e-09 -5.586234e-10 3.507219e-10 9.965248e-10 -9.063350e-10 1.879124e-09 8.818262e-10 -4.228143e-10
-2.920048e-09
-1.462990e-10 2.453407e-10 1.789132e-10 -3.268460e-10 5.041882e-10 -2.720205e-10 -3.338155e-10 4.659766e-11 1.578906e-10 1.412278e-10
-2.677785e-10 5.388989e-11 2.720779e-10 -1.067390e-10 3.036072e-10 -1.584295e-10 -2.876646e-10 -5.370750e-11 -7.088419e-11 -1.518233e-10
-1.247695e-10 2.261413e-10 -3.177830e-10 3.172903e-10 3.991750e-11 -6.940144e-11 -3.246885e-10 2.736877e-10 1.366037e-10 1.349187e-10
1.562101e-10 6.784674e-10 -1.000519e-10 2.029230e-10 -3.989655e-10 7.682093e-11 -5.452006e-11 3.636418e-10 4.524180e-10 -1.583489e-10
-4.295173e-10 -4.889800e-11 2.221409e-11 3.770657e-10 -5.012890e-10 -4.795904e-10 1.439888e-10 -1.583245e-10 1.259658e-10 -3.920403e-10
2.251469e-10 -4.008539e-10 5.561675e-12 8.049942e-10 5.921796e-10 -4.621832e-10 3.978305e-11 -1.382986e-10 6.357163e-10 -5.322143e-10
2.959859e-10 2.590593e-10 7.019619e-10 -2.499355e-10 6.257537e-10 3.432798e-10 5.994694e-11 -5.160970e-10 -1.984527e-10 -6.916141e-11
-2.367508e-11 -4.304444e-10 3.449710e-10 1.047263e-10 -7.594866e-11 3.872033e-10 6.667777e-11 -2.278416e-10 -2.144746e-10 4.679345e-11
6.563926e-11 3.285927e-10 2.818498e-10 -7.894618e-10 -6.308361e-11 3.139914e-10 2.720541e-10 2.130579e-10 -3.643749e-10 -1.394654e-10
4.813339e-10 1.837461e-10 -2.972476e-10 -2.787451e-10 2.872058e-10 4.633299e-10 5.091932e-11 3.800301e-10 2.222249e-10 -5.198621e-10
4.125741e-11 -1.574625e-10 -2.972177e-10 2.917026e-10 -3.163063e-10 5.065148e-11 -6.246093e-11 1.148064e-09 4.050652e-10 -3.156498e-10
-1.053957e-10 -5.120281e-10 -2.608989e-10 3.858253e-11 5.374163e-10 -3.166954e-11 -3.918351e-10 -3.624145e-10 -1.998796e-10 6.013930e-11
8.139231e-10 3.546687e-10 -5.904421e-11 1.435173e-10 4.032640e-10 -4.041943e-11 -1.950776e-10 2.044167e-10 3.009057e-10 3.449666e-10
-1.736211e-10 -2.311867e-10 1.010129e-10 4.201613e-11 -3.849172e-10 3.717080e-10 3.492853e-10 -2.728730e-10 -1.481396e-10 -2.984182e-10
4.354374e-11 2.551105e-10 2.091163e-10 1.808703e-10 -2.439951e-10 7.250422e-12 -7.425240e-11 1.423229e-10 4.541885e-10 -1.133893e-10
-3.021831e-10 -5.203991e-10 2.185846e-10 4.193581e-10 -6.090864e-10 1.784020e-10 -3.273092e-10 -4.218089e-10 5.681309e-10 -5.715250e-11
3.005652e-10 -1.018093e-10 -5.994292e-10 -4.788297e-10 -7.490555e-10 7.606903e-11 -3.816585e-10 2.703340e-11 2.771116e-11 4.271779e-10
-4.278007e-10 -3.177017e-10 -1.165998e-10 -3.576968e-10 3.743465e-10 -5.794734e-11 -9.720221e-11 9.136444e-10 3.024294e-10 -1.081856e-10
6.006544e-10 1.625109e-10 -2.206184e-10 8.412868e-11 -1.548508e-10 1.441279e-11 -1.402163e-11 -1.102996e-10 2.986273e-10 5.435625e-10
5.849781e-10 -1.224506e-10 -1.460031e-10 -9.439047e-11 1.758160e-10 -1.683362e-10 4.639371e-10 -2.076073e-10 1.380839e-10 1.706288e-10
1.188370e-10 2.672224e-10 6.507601e-10 -4.491138e-10 -2.530024e-10 4.411564e-10 5.362025e-10 -3.344055e-10 4.699329e-10 3.497551e-11
-1.086254e-10 6.217143e-11 3.122576e-10 -2.311221e-10 -1.482951e-10 -5.748356e-11 -3.294534e-11 -6.386987e-10 -3.533130e-10 7.491926e-11
-2.955321e-10 -5.350683e-10 4.026301e-10 2.102945e-10 -1.633621e-10 -5.843145e-10 7.651524e-10 -1.834920e-10 -2.700276e-10 2.719933e-10
-3.065036e-10 -4.002108e-11 -1.176861e-10 -4.368716e-11 -5.293215e-10 4.459300e-10 -6.776644e-11 4.825286e-11 6.109884e-10 -3.333369e-10
3.729105e-10 -4.287800e-10 3.737845e-10 -1.866531e-10 6.748246e-11 -1.321965e-10 -8.326171e-11 -1.404927e-10 -1.412840e-10 -2.373175e-10
-1.072155e-10 9.141948e-10 8.393843e-10 -7.681531e-10 5.988748e-11 -6.989329e-12 -7.719900e-10 -2.089477e-10 1.601292e-10 2.761797e-10
1.341592e-10 -1.293444e-10 -5.860704e-11 -2.013199e-10 3.879916e-10 2.704801e-10 -1.349305e-10 -1.691635e-10 1.434943e-10 1.097217e-10
1.542226e-10 4.275655e-11 3.711914e-10 -6.144414e-10 2.417243e-10 3.404762e-10 1.823223e-10 -1.974587e-10 -1.101043e-10 3.955754e-11
-6.312614e-10 -5.278261e-10 2.317373e-10 -1.256076e-10 4.571977e-10 2.535273e-10 3.277793e-10 -2.719216e-10 -1.609378e-10 8.977541e-11
5.959346e-10 5.306658e-10 -1.093530e-11 -2.471448e-10 2.723683e-10 7.438099e-11 -1.069543e-11 -4.247703e-10 -7.659911e-10 -3.224510e-11
-5.675770e-11 -1.828000e-10 -2.475584e-10 -5.576404e-11 -2.075977e-10 3.926967e-10 1.989972e-10 -5.996894e-10 4.757648e-10 -1.846621e-10
2.070538e-10 -7.438151e-10 -2.271234e-10 3.239974e-10 1.139980e-10 1.054778e-10 -4.165612e-12 -5.637290e-10 -1.624916e-11 5.529958e-11
1.627434e-10 -3.210904e-10 2.747965e-10 5.569321e-10 7.061798e-10 -3.096731e-10 -5.422240e-10 3.548838e-10 3.814234e-10 -1.201944e-10
2.917257e-10 5.102397e-10 -2.760680e-10 -2.953667e-10 -5.908200e-11 -6.453575e-10 5.007124e-10 1.988391e-11 -6.300323e-10 6.696937e-11
1.599649e-10 -3.209971e-10 4.967304e-10 2.252036e-10 -2.617073e-10 1.269629e-10 7.904563e-11 3.104330e-10 1.252496e-10 9.058645e-11
-4.158025e-10 1.927232e-10 2.712463e-10 -3.586639e-10 7.741254e-10 -3.514370e-10 1.544110e-10 5.876159e-11 -2.737513e-10 -4.599411e-10
-1.462990e-10
