DSAA
361 181
-180 180
-90 90
-2.102690e-08 2.163939e-08
-1.280364e-09 7.648510e-11 -1.461451e-09 2.896342e-09 2.167340e-09 -2.754113e-09 6.020086e-10 1.185676e-09 -1.716691e-09 -1.423998e-09
2.242001e-09 -3.741773e-10 4.590889e-10 -1.449871e-09 8.379381e-11 -3.226525e-10 2.072410e-10 2.629326e-09 -1.764266e-09 -3.951411e-10
-6.479895e-10 -5.718475e-10 -9.088718e-10 -1.497306e-09 -4.614862e-11 1.548399e-09 -5.947636e-10 7.522724e-10 -1.670123e-09 1.713780e-09
3.564601e-10 -5.564238e-10 3.353495e-10 1.290832e-09 1.586631e-09 3.987325e-11 6.720288e-10 -1.916016e-10 -1.657564e-09 7.124301e-10
4.825130e-10 1.809005e-10 -4.219232e-11 -8.525103e-10 -2.217088e-09 1.755626e-10 -1.286769e-10 4.805152e-10 2.197166e-09 -8.354366e-10
3.778862e-10 -3.496106e-10 1.719762e-09 1.671125e-10 -6.972670e-10 1.718544e-09 -1.817795e-09 -9.341480e-10 5.717606e-10 -5.670894e-10
-8.477166e-10 4.531284e-10 1.129539e-09 -6.086940e-10 2.839404e-10 -7.730281e-10 9.841342e-10 2.876520e-10 -9.943766e-10 1.010763e-09
7.978205e-10 1.972576e-11 2.554674e-10 3.756166e-10 -1.693433e-09 -6.168037e-10 -2.194563e-10 -8.860334e-11 2.413661e-10 1.563306e-09
-2.545240e-09 1.172886e-09 -1.545714e-10 -3.186680e-10 7.777221e-10 4.023024e-10 -6.483694e-10 -2.699863e-10 -6.772563e-10 -3.102877e-11
1.645721e-09 7.643739e-10 1.158706e-10 -1.108886e-09 9.792812e-10 -5.029077e-10 -2.334285e-10 2.419780e-10 -1.012160e-09 1.423622e-09
-3.779231e-10 -1.636336e-10 1.899165e-09 6.830421e-10 1.811935e-09 1.098890e-09 1.243843e-09 -1.463405e-09 5.649881e-10 -1.408803e-09
2.436120e-10 -1.680211e-10 -7.238694e-10 1.828807e-09 2.325970e-10 1.979408e-09 3.158498e-10 -1.358237e-09 -2.434673e-09 5.325029e-11
1.784843e-09 4.188208e-10 1.456444e-09 -4.193611e-10 -1.535043e-09 1.657966e-09 4.748076e-10 -2.435510e-09 2.283126e-11 -9.687648e-10
-2.164724e-09 1.789498e-09 -8.751857e-11 4.017521e-10 1.045061e-09 5.243014e-10 9.776676e-11 -1.911364e-10 3.527791e-10 -1.657597e-10
-3.592796e-10 -1.579987e-10 7.808224e-11 -2.136679e-09 -3.390807e-10 -2.126023e-10 -1.652285e-09 -5.824906e-10 -1.908218e-10 -3.848232e-10
4.749894e-10 -9.069086e-11 1.537234e-09 2.307919e-09 -5.349228e-10 -5.108982e-10 -1.470622e-09 -1.208575e-09 1.559873e-09 -2.073977e-10
-1.124557e-09 2.260923e-10 6.303096e-10 -6.712037e-10 1.133524e-09 -8.356784e-10 -1.781110e-09 -1.103480e-09 -1.409590e-09 8.838902e-10
1.621985e-09 -8.980008e-10 1.770439e-09 1.620813e-10 -2.999188e-10 9.832952e-11 -3.148484e-10 3.217337e-10 -6.577799e-10 6.521805e-11
-1.440570e-09 3.315951e-10 -2.535860e-10 -4.642590e-10 1.076801e-09 1.404604e-09 -7.751202e-10 7.432963e-10 -4.073346e-10 -1.070922e-09
2.810990e-10 1.071853e-09 -8.276029e-10 -1.407497e-09 -1.853671e-09 -9.067539e-10 1.156527e-09 -8.529574e-10 6.403749e-10 -2.464768e-10
1.627769e-10 -7.011316e-11 2.904277e-11 -6.724413e-10 -6.947951e-10 -1.239635e-09 1.475276e-09 -2.447709e-09 2.795972e-10 3.382862e-10
-1.724725e-09 -9.426898e-10 7.850304e-10 1.664684e-09 2.684601e-11 -5.979801e-10 -1.546475e-09 -5.254269e-10 -3.691035e-10 8.869740e-10
-5.865333e-10 -4.427732e-10 -9.472148e-10 5.078661e-10 -6.194452e-11 4.901634e-10 7.047034e-10 6.039859e-10 -7.401444e-10 4.476906e-10
2.379043e-09 1.550529e-09 -5.877964e-10 6.030416e-10 -8.429560e-10 -1.004959e-09 5.727174e-10 1.099412e-09 -9.515860e-10 1.381103e-09
-1.282437e-09 -6.983699e-10 8.181605e-10 7.262619e-10 -3.615407e-10 7.916490e-10 1.620836e-10 1.267733e-09 3.581573e-10 9.936350e-10
-6.950975e-10 1.987013e-09 -6.677145e-10 4.195978e-10 2.997836e-09 2.554177e-09 2.215221e-09 4.522280e-10 -1.671950e-09 4.275454e-10
1.875817e-09 1.756811e-10 9.380990e-10 -1.535822e-09 1.058993e-09 -4.659826e-10 -2.792504e-09 1.503819e-10 -9.808678e-10 -1.073836e-09
-2.655282e-10 -6.115483e-10 9.004364e-10 -2.167263e-09 -3.961998e-09 1.068914e-09 -1.642290e-09 -2.400631e-09 1.704045e-10 -4.635899e-10
2.572530e-10 -1.833890e-09 1.424127e-09 1.345006e-09 -3.089482e-10 -4.473639e-10 6.877735e-11 4.682928e-10 2.538406e-09 -1.068902e-09
7.897862e-10 -1.963135e-10 3.089138e-10 3.121524e-10 -2.480046e-09 -2.078299e-09 -1.388652e-09 7.880940e-11 3.495690e-10 2.124330e-10
1.960305e-09 -3.590013e-10 -1.291799e-09 1.826817e-10 -5.340416e-10 -7.636660e-10 5.356734e-10 7.563037e-10 6.952766e-10 8.339437e-10
-1.799202e-10 -2.906910e-09 2.406993e-09 -5.659408e-10 1.751247e-09 -2.420040e-09 8.087858e-10 -2.665776e-10 2.069339e-09 -1.448464e-09
1.990767e-11 -1.762108e-09 6.158131e-10 -1.215402e-09 -1.689064e-09 2.204529e-10 -2.212435e-10 -1.220870e-09 1.291610e-09 7.047814e-10
8.654745e-10 5.030888e-10 -6.875836e-10 -7.564242e-10 -9.926965e-11 -1.628926e-09 -1.960843e-09 6.958150e-10 -5.451654e-11 -4.877680e-10
3.057280e-10 -4.844500e-10 -4.902010e-10 -6.402148e-10 2.362546e-10 5.057383e-10 -1.079193e-09 -9.483458e-10 -9.469699e-10 -8.000833e-10
-6.138990e-10 -3.131358e-10 3.812695e-10 -9.498784e-10 -2.055710e-09 9.977867e-10 -5.092242e-10 4.798554e-11 2.170848e-09 -4.545453e-10
-1.280364e-09
-5.326503e-11 3.087127e-10 -3.658696e-10 3.506432e-10 -1.592593e-11 1.613021e-10 -9.522968e-10 -1.531686e-09 2.421583e-10 2.015085e-10
-2.462160e-10 -2.646751e-09 -4.885095e-10 1.502788e-09 -7.732207e-11 5.704681e-10 8.266830e-10 -1.063514e-09 4.861111e-10 -1.377096e-09
-9.208402e-10 1.622296e-10 7.566524e-10 -1.686377e-09 -5.377482e-10 -4.945027e-10 -2.728072e-10 -1.693053e-09 -1.443556e-11 -8.102934e-10
8.178223e-10 2.167136e-10 -4.223211e-10 1.074217e-10 -5.655826e-10 -4.454788e-10 -7.576457e-10 4.696378e-10 -2.082168e-09 -1.761133e-09
-4.800484e-10 4.169400e-10 3.307902e-10 4.877329e-10 -1.179233e-09 -1.670143e-09 1.458266e-09 -1.251154e-09 -2.404477e-10 -3.920218e-11
9.672880e-10 8.457975e-10 -4.303756e-10 -1.095025e-09 1.421810e-09 -9.942718e-10 -7.635439e-10 1.920244e-10 5.976993e-10 1.214606e-09
-6.760264e-10 4.600653e-11 4.784237e-10 -1.862710e-10 1.576091e-09 8.466494e-11 -8.894271e-10 -2.036230e-10 -3.557012e-10 -2.177482e-09
-1.459597e-09 -3.535824e-09 4.653296e-10 -8.208258e-10 -7.745419e-11 -2.044962e-09 -1.548888e-09 -4.280065e-10 -1.740073e-09 3.242243e-10
-1.662846e-09 4.574937e-10 3.294026e-10 -1.860895e-09 2.555955e-12 -1.737073e-09 1.906408e-10 1.350890e-09 1.451332e-09 1.189345e-09
-1.360475e-09 4.596160e-10 -1.192703e-10 -3.261390e-10 6.633896e-10 1.683873e-09 -1.161459e-09 6.344481e-10 -1.186252e-09 2.113688e-09
-1.166736e-10 2.002728e-09 -4.668980e-10 1.547840e-09 -1.047293e-09 2.251886e-09 2.042948e-10 1.316051e-09 1.710209e-09 2.445859e-09
6.379828e-10 2.604216e-09 -1.471108e-09 1.450319e-09 8.352430e-10 2.486321e-09 1.520620e-09 9.408710e-10 1.188261e-09 2.161780e-09
-1.097666e-09 -1.050255e-09 -5.395710e-11 -4.007102e-10 -4.609989e-11 -2.288380e-09 2.302972e-10 -1.160821e-10 7.815230e-10 1.564670e-10
1.193727e-09 4.090393e-10 1.524701e-09 1.745109e-09 2.409899e-09 1.503784e-09 -8.108031e-10 1.304152e-09 2.816222e-10 2.250256e-09
-2.867390e-10 2.430104e-11 2.100373e-09 2.677002e-10 6.083829e-10 7.529907e-10 1.029541e-09 1.029276e-10 5.084323e-10 2.516643e-10
-3.480728e-10 3.222928e-10 -2.714129e-09 2.559415e-10 1.851419e-09 -1.043492e-09 -6.671381e-10 2.104789e-09 8.560676e-10 9.704550e-10
1.472429e-09 -1.778657e-10 3.280415e-10 1.976355e-09 2.059841e-09 6.066806e-11 7.101662e-10 2.280672e-10 -1.569697e-10 4.443959e-10
1.117824e-09 1.642038e-09 9.104980e-10 8.444966e-10 -1.644957e-09 1.798563e-09 2.305635e-10 -1.348941e-09 -4.635497e-10 -7.509752e-10
7.188925e-10 8.133740e-10 7.313020e-10 3.806981e-10 2.900395e-10 -4.218094e-10 8.288049e-10 1.456546e-10 8.469176e-10 -1.350710e-09
9.853636e-12 7.796719e-10 2.824636e-09 7.418532e-10 5.802394e-10 2.826256e-09 -5.137572e-10 8.137810e-10 -2.066406e-09 -3.542350e-10
-8.122081e-11 1.768237e-09 -2.094816e-09 -1.320477e-09 3.415760e-10 2.337153e-09 -2.024805e-09 1.831380e-09 1.286747e-09 -5.009926e-11
2.289057e-09 1.302647e-09 -1.348963e-09 6.207944e-10 -1.478018e-10 1.400740e-09 -5.583772e-10 -8.640993e-10 -4.190908e-10 5.947696e-10
3.457475e-10 -1.218444e-10 1.210831e-09 1.102782e-10 -7.095317e-10 -2.068004e-09 -7.967620e-10 -1.272941e-09 -3.222362e-10 -8.759910e-10
1.260469e-10 -7.581609e-10 1.046199e-09 -7.131240e-10 8.873164e-10 -7.312592e-10 1.671277e-09 -1.182999e-09 9.218460e-10 -1.554768e-09
-9.523861e-10 5.865569e-10 6.717014e-10 8.811583e-10 1.205740e-09 -1.529608e-09 -1.197959e-09 -6.407032e-10 -1.975423e-09 1.351713e-09
4.831680e-10 4.230979e-10 -2.178172e-11 -8.731391e-11 2.783898e-09 -1.755921e-10 1.347491e-09 -1.980688e-09 2.123390e-10 -6.039830e-10
-1.703083e-09 -2.978939e-10 -1.008345e-09 3.594197e-10 -2.647593e-09 -2.361399e-10 7.579450e-10 -5.915908e-10 1.051828e-09 -1.290963e-09
8.908394e-10 9.410129e-10 5.604517e-10 3.512330e-10 1.751009e-09 -2.425173e-10 -4.665942e-11 5.159926e-10 -1.997257e-09 4.456984e-10
-4.570241e-10 -1.330304e-09 -1.392005e-09 5.349794e-10 6.638131e-10 -4.265215e-09 1.809696e-10 7.026532e-10 1.225383e-09 5.026611e-10
-5.319226e-10 3.635625e-10 -2.470972e-09 1.923215e-09 -8.216687e-10 -2.528160e-10 -7.405690e-10 1.453886e-09 -8.256837e-10 -7.217381e-10
-1.174750e-09 1.623753e-09 -9.255756e-10 7.722765e-10 8.557040e-10 -9.091333e-10 -2.150943e-09 -6.085830e-10 -5.193761e-10 5.448612e-10
9.640302e-12 1.938415e-09 1.418243e-09 4.074829e-11 -1.566144e-10 -1.089045e-09 -4.478709e-10 1.299481e-09 7.097212e-10 -1.828634e-11
-5.515616e-10 -1.041963e-09 2.954294e-10 -2.779972e-10 5.571492e-11 -4.957481e-10 2.460419e-10 -4.227730e-10 5.609400e-10 -1.120252e-09
-1.133509e-09 -4.977574e-10 -1.041818e-10 -6.903542e-10 4.919094e-10 -2.077438e-09 9.590159e-10 -9.610562e-10 9.876546e-10 2.902927e-10
-9.440234e-10 -1.258324e-09 -1.336072e-09 -1.018132e-09 5.002068e-10 -2.569025e-09 -4.203246e-10 -4.309141e-10 -1.929821e-09 4.345081e-10
1.520891e-09 9.361112e-10 -9.428794e-10 6.619194e-11 -1.883303e-09 8.740993e-10 -7.221632e-10 -9.593811e-10 -9.171235e-10 -7.045810e-10
-5.326503e-11
-7.738445e-10 4.020062e-10 -1.817715e-09 -2.381776e-11 7.623866e-10 4.629896e-11 -1.276595e-09 7.147607e-10 -2.286503e-09 -1.038093e-09
-6.011981e-10 -1.434950e-09 -1.337278e-09 -8.609697e-10 -2.197061e-09 -1.778794e-09 1.942422e-10 2.414064e-10 -3.382068e-10 1.691106e-10
-5.553019e-10 -4.275194e-10 -2.531917e-10 -1.550352e-09 -2.103334e-09 3.292130e-10 -9.535293e-10 8.050360e-10 -5.240552e-10 -3.593074e-10
5.280383e-10 8.211361e-10 -1.396226e-09 1.064209e-09 -7.297135e-10 -2.085162e-09 -5.302520e-10 -5.453306e-10 1.943753e-09 5.330777e-10
9.246600e-11 2.099358e-09 -8.854846e-10 -2.414465e-09 8.809316e-10 -1.068097e-10 -1.507247e-09 -7.294523e-10 -1.182585e-09 -7.892789e-10
-1.843720e-09 1.022014e-10 -6.733900e-10 -1.550299e-09 -2.501429e-09 -3.164849e-10 4.420951e-10 -2.122944e-09 -1.681219e-09 -1.231128e-09
-9.044704e-10 -1.727797e-10 9.818720e-10 5.672751e-11 7.848815e-10 8.101972e-10 1.024232e-09 -9.952529e-10 1.984959e-10 1.398010e-09
-2.896333e-09 -1.833052e-09 -6.336644e-10 1.609153e-09 -7.199866e-10 -3.750376e-11 -1.430655e-09 2.099146e-09 1.509114e-09 -9.889880e-10
2.009932e-09 -1.575368e-10 5.735031e-11 -1.282997e-09 2.329892e-10 -1.178102e-09 4.477061e-10 1.094957e-09 3.851130e-10 -3.795243e-10
1.393848e-09 -4.002648e-10 1.229251e-09 -1.261925e-09 -6.823650e-10 1.094005e-09 -6.731828e-10 2.342266e-09 -4.758864e-10 -1.345942e-09
1.746559e-09 7.386506e-10 1.256193e-10 -4.644374e-11 1.424207e-10 2.709317e-09 1.233705e-09 1.067919e-09 9.562554e-10 -3.735284e-10
-4.560783e-10 8.581642e-10 1.402929e-09 7.667090e-10 -4.190652e-10 -1.010752e-09 1.008715e-09 -7.340654e-10 2.415618e-09 7.396094e-10
5.783983e-10 -1.110941e-09 2.220986e-09 -6.815181e-10 1.539175e-09 -3.143243e-10 1.881507e-09 -6.211827e-10 6.030977e-10 2.161030e-09
8.608529e-10 1.166699e-09 1.626390e-09 1.691867e-10 1.240837e-09 5.590885e-10 -2.021078e-09 5.453226e-10 1.661515e-09 -1.764458e-09
-9.144331e-10 1.790305e-10 -4.777068e-12 -5.506333e-10 -9.431141e-10 5.902326e-10 1.647495e-09 7.361358e-10 -1.549145e-10 1.073750e-09
1.562917e-09 1.680761e-09 1.954923e-09 -1.339930e-09 -1.175905e-10 6.750636e-10 1.354955e-09 2.142651e-10 -2.613380e-10 -5.144642e-10
-3.347511e-10 -3.802851e-10 1.911251e-09 2.733527e-09 1.603234e-09 1.620749e-10 -2.661182e-11 -5.232032e-10 -3.047098e-10 7.108819e-10
5.210293e-10 1.209294e-09 3.355398e-10 2.312364e-10 2.200816e-09 -1.446245e-09 1.366217e-09 1.919625e-09 -6.217899e-10 -9.022359e-10
-1.770178e-10 1.364287e-09 -8.603081e-10 7.161886e-11 8.839740e-10 3.497455e-10 1.231105e-10 6.179079e-10 8.367896e-10 1.322297e-09
5.781855e-10 1.439583e-09 1.503616e-09 -5.297174e-11 1.412004e-09 2.783464e-10 -1.489378e-09 -1.477436e-10 -8.280658e-10 -1.038460e-09
1.342089e-09 2.021966e-09 6.013397e-10 1.395967e-09 1.307570e-09 1.613473e-09 7.138110e-10 1.171068e-09 -2.917452e-10 -1.643500e-09
1.866322e-10 3.734279e-09 8.520179e-11 -4.468992e-10 -6.633064e-12 -6.201695e-10 -2.113845e-09 -2.190823e-10 -5.532607e-10 6.978984e-10
1.729717e-09 -5.282475e-10 1.379841e-10 1.615928e-10 -1.906510e-09 3.503250e-10 1.285069e-09 3.949570e-10 3.443602e-10 1.120398e-09
5.728508e-10 7.642553e-10 -3.285799e-10 3.616845e-10 6.087236e-10 -8.303625e-10 -1.013272e-09 1.016606e-09 2.408231e-09 1.844644e-09
-1.037715e-10 9.826843e-10 9.325372e-10 1.512790e-09 3.508727e-10 1.330789e-09 -3.972639e-10 9.683446e-11 1.551967e-09 5.646437e-10
-8.287817e-10 1.122714e-09 4.967939e-10 -5.903983e-10 7.860181e-11 -3.097795e-10 2.228728e-10 -7.275691e-10 -1.785872e-09 1.130477e-09
4.503253e-11 5.925949e-10 2.131746e-10 -7.074197e-10 -4.261037e-10 9.100926e-10 -5.184084e-10 -1.610060e-09 -2.217488e-10 -2.496990e-09
1.923653e-10 -3.595395e-10 -5.177310e-10 5.181921e-10 -5.551105e-10 -1.652301e-10 4.782941e-10 -8.989640e-10 1.495411e-09 4.838769e-10
-8.237963e-10 1.460270e-09 3.369010e-10 4.893743e-10 -1.338868e-09 2.363386e-09 1.235729e-09 -5.492220e-10 -9.499009e-11 9.848036e-10
3.593273e-10 -7.925228e-10 -4.089958e-10 1.947086e-09 -6.329658e-10 -1.452081e-09 -1.293429e-10 -1.229515e-09 1.931313e-10 -1.149732e-09
1.665370e-09 -1.731971e-09 -2.346253e-09 -2.723866e-09 -4.281588e-10 6.574892e-10 2.002355e-10 -1.697712e-09 -2.384485e-09 -1.264547e-09
-8.115253e-10 -3.706035e-10 2.004043e-09 -1.338987e-09 -1.077025e-09 -6.764226e-11 4.558966e-10 -7.379251e-10 7.729656e-10 -2.625071e-09
1.237548e-09 -8.460044e-10 -6.013003e-10 -6.321843e-10 7.339505e-10 -2.949438e-10 -4.493919e-10 -1.001991e-09 -1.111765e-09 1.512646e-09
-2.916449e-10 7.403804e-10 -3.885253e-10 -2.177787e-09 -6.123664e-10 -2.827779e-10 1.559302e-09 -1.380176e-09 -4.502588e-10 5.684643e-10
-1.646314e-10 -1.436459e-09 -2.812004e-10 -9.048902e-10 -7.455427e-10 -9.174205e-10 -3.102183e-10 1.028793e-09 -2.934292e-10 2.549967e-10
-1.172573e-09 -8.167450e-11 -8.443935e-10 -2.046757e-09 5.844898e-10 -8.878602e-10 -1.779048e-09 -1.787213e-09 -4.843723e-10 3.881689e-11
-7.738445e-10
-1.832803e-09 -3.219015e-10 6.586919e-10 -8.680313e-10 -1.058974e-09 6.663221e-10 7.516206e-11 -1.199869e-09 -2.283911e-09 -1.986436e-09
4.593275e-10 -3.444028e-10 -1.744957e-09 -2.009515e-09 -2.345677e-09 -1.946157e-09 -9.055985e-10 -1.389232e-09 1.515062e-10 -2.510046e-09
-3.662552e-10 4.776790e-10 -2.073610e-09 -8.877590e-10 -8.092259e-10 6.823884e-10 -8.475496e-10 -8.617351e-10 -1.221874e-10 -6.529667e-10
-3.136252e-10 -1.551626e-09 -1.761084e-09 -1.204073e-09 5.173471e-10 1.020665e-09 -6.293319e-10 -1.921631e-09 1.054931e-09 -2.181839e-09
-2.021439e-10 1.625617e-09 -6.327595e-10 -5.380889e-10 9.842607e-10 1.398450e-09 6.473579e-10 6.723368e-10 -1.569863e-09 5.266722e-10
-1.480751e-09 1.503169e-09 1.464181e-10 -7.898882e-10 -3.739696e-10 -3.187372e-10 -1.511865e-09 -1.185597e-09 -7.643992e-10 -1.282764e-09
3.458237e-10 -7.438719e-10 -1.633773e-09 -8.215403e-10 -1.762088e-10 -2.521175e-10 -2.312160e-09 4.341652e-10 4.251012e-10 -2.000757e-10
8.482102e-10 2.193736e-09 -3.495596e-10 -1.590423e-09 -6.350316e-10 -3.280372e-10 -1.312507e-09 -1.072979e-09 1.184811e-09 -1.264798e-09
9.820301e-10 4.432171e-10 1.467766e-09 -9.221790e-13 -8.335667e-10 -9.300984e-10 7.857072e-10 -6.921163e-11 6.708188e-10 8.502885e-10
-1.248287e-10 -1.106352e-09 -8.695500e-10 5.325700e-10 1.548343e-09 -3.737239e-10 -6.765415e-10 3.681529e-09 7.014857e-10 1.085380e-09
2.738775e-10 -1.922962e-09 -1.403795e-09 3.543995e-10 3.744987e-10 1.591549e-10 7.065155e-10 1.115334e-10 1.813958e-09 -2.134606e-10
6.413473e-10 7.138949e-10 -4.560989e-10 1.929695e-10 -1.178909e-09 2.401760e-09 6.383726e-10 -4.142628e-10 -2.028947e-10 9.959614e-11
3.772462e-10 7.374732e-10 2.405831e-09 1.347287e-09 1.487706e-09 1.115583e-09 -5.913692e-10 1.870920e-09 1.469177e-09 1.650914e-09
4.607209e-10 1.273499e-09 -1.945043e-10 1.246072e-09 3.639521e-10 1.047630e-10 -3.194010e-10 -6.818667e-10 1.262752e-09 4.634800e-10
2.440890e-10 2.373776e-09 -2.199367e-11 1.020385e-09 1.009754e-09 1.929017e-10 -3.865358e-10 2.710097e-09 -5.442662e-10 7.791646e-10
1.564366e-09 -4.174098e-10 7.990406e-10 1.372352e-09 8.120387e-10 1.444198e-09 5.403322e-11 2.007020e-09 3.900342e-11 7.514391e-10
5.631278e-10 -5.425107e-10 3.781820e-10 1.919624e-09 1.231997e-09 3.437640e-09 1.611039e-09 3.368670e-09 -5.012760e-10 1.471820e-09
-6.539680e-10 3.017146e-09 1.990047e-09 -5.232396e-10 1.023147e-09 7.083779e-10 2.313628e-09 1.856472e-09 6.842669e-10 1.914177e-09
1.671732e-09 -1.687921e-09 1.980138e-09 -1.246795e-10 6.833455e-10 2.014390e-09 1.661945e-10 1.115748e-09 1.084781e-09 1.854611e-10
2.857137e-09 8.195226e-10 -7.073687e-10 1.119486e-09 3.537238e-10 1.479509e-09 -2.415336e-10 1.656305e-09 8.063521e-10 1.502368e-09
-4.357165e-10 4.522866e-10 2.052361e-09 1.001304e-09 4.601550e-10 4.023580e-10 1.846988e-10 -4.512356e-10 1.825201e-09 1.507411e-09
-1.026184e-09 7.915982e-10 1.326254e-09 -1.630690e-09 8.230406e-10 1.943681e-09 5.814986e-11 -3.445332e-10 2.973592e-09 -1.017701e-10
1.154557e-09 -1.282407e-09 -3.793510e-10 8.104173e-10 1.002323e-09 1.109998e-09 2.217186e-09 -5.064391e-10 -5.788129e-10 -2.134220e-10
6.325593e-10 1.760469e-10 5.343484e-11 5.821587e-10 9.389353e-10 1.070636e-10 6.173828e-10 1.547729e-09 -6.215644e-10 2.320540e-09
5.510765e-10 1.314321e-09 -1.753844e-09 -2.609538e-10 3.166845e-10 4.483550e-10 2.493556e-10 -6.218688e-10 -1.099258e-09 1.459378e-09
-1.029431e-09 2.245280e-09 -4.734069e-11 -3.115397e-10 -3.688625e-10 9.244184e-10 2.981123e-09 9.280371e-10 -1.431245e-09 -2.291442e-09
9.898037e-10 1.919489e-09 -1.233884e-09 4.741270e-10 9.108146e-10 6.716753e-10 -3.470477e-09 -5.504078e-10 5.671997e-10 8.533350e-10
-1.138353e-09 6.760353e-10 1.414572e-09 7.823104e-10 -3.031165e-09 3.655629e-10 -8.836343e-11 3.575406e-10 -6.233943e-10 4.586616e-10
4.123324e-10 -1.135546e-10 -2.358300e-10 -1.306057e-09 -1.362076e-09 -3.354587e-10 1.486361e-10 -1.886435e-09 4.247056e-10 -5.353462e-10
-4.322145e-10 -2.876903e-09 4.054857e-10 -1.268959e-10 5.806873e-11 -2.111123e-09 1.917314e-11 3.952748e-10 -1.519025e-09 7.781408e-10
6.350696e-10 -7.294401e-10 -6.200838e-10 -8.284040e-10 -1.170489e-09 -3.273143e-09 -7.763779e-10 1.633823e-10 -9.448112e-10 1.794751e-09
-1.090374e-10 -7.332228e-10 -1.794363e-09 -4.984778e-10 3.467110e-10 -1.335877e-09 -1.348325e-09 -1.697293e-09 1.659041e-09 5.046036e-10
8.932255e-11 -1.776546e-09 -4.492003e-10 -1.053443e-09 -1.115267e-10 -8.425321e-10 -1.567302e-09 -1.065057e-09 -1.615492e-09 -2.893342e-09
5.228433e-10 -3.805691e-10 8.727905e-10 -1.218254e-09 -2.683196e-10 -1.745076e-09 -3.415520e-09 -1.063096e-09 -2.805520e-09 -4.544984e-10
-3.957887e-10 -1.719293e-09 -1.651612e-09 -4.942690e-10 -1.460700e-09 8.770925e-11 -1.793418e-09 -1.515498e-09 -1.416527e-09 -2.049045e-10
-6.587382e-10 3.280628e-10 -2.148626e-09 2.744579e-10 5.325422e-10 -1.883401e-09 -1.210968e-09 -1.247551e-09 6.981404e-10 9.813929e-10
-1.832803e-09
-2.386568e-09 -1.292785e-09 -5.220300e-10 8.704497e-10 -1.025760e-10 8.400489e-11 -1.251072e-09 -2.988094e-09 -2.188108e-09 5.217016e-11
-1.392698e-09 -1.208225e-09 -1.644911e-09 -1.269365e-09 -7.745489e-10 -3.385120e-10 -1.448057e-09 -2.633548e-09 -3.143435e-09 -2.705411e-09
-1.507536e-09 -1.137591e-09 -9.746061e-10 -5.905988e-10 1.131828e-09 -2.975270e-09 -9.770336e-10 9.428861e-10 -1.408125e-09 -2.297888e-09
2.491356e-10 -1.038547e-09 -2.198901e-09 -4.309423e-10 -2.650635e-09 -2.061775e-09 -1.158477e-09 -1.673258e-09 -7.473966e-10 -3.129397e-10
-2.607885e-09 -2.533017e-09 -8.341330e-10 -5.739321e-10 -1.856940e-09 -2.602784e-10 -1.244413e-09 -1.312899e-09 -2.012221e-09 -8.092189e-10
-1.920582e-09 4.191010e-10 -7.606860e-10 -6.985181e-10 3.997514e-10 -1.650427e-09 -1.378133e-09 -1.307440e-09 -7.070121e-10 -1.550096e-09
-1.780438e-10 -1.950906e-09 -6.222807e-10 8.358498e-10 6.093440e-12 -8.471567e-10 -2.683061e-10 -1.657989e-09 -1.075170e-09 7.547574e-10
1.566448e-09 -5.384350e-10 7.496628e-10 -1.817889e-09 -2.806973e-10 -1.866828e-09 -6.356655e-10 1.000178e-09 -1.556382e-10 -1.216582e-09
-1.617663e-09 -2.753933e-09 3.130837e-10 1.790832e-09 -9.878339e-10 -5.632447e-10 7.409041e-10 -5.821195e-10 -1.451546e-09 -1.173834e-09
1.009204e-09 -6.350429e-10 2.164178e-10 1.774060e-10 -4.768954e-10 7.003413e-10 -2.243567e-10 1.416760e-09 2.354027e-09 -1.874477e-09
-2.646284e-10 7.597916e-10 5.431343e-11 -7.081067e-10 1.141598e-10 -2.235334e-10 5.883787e-10 -5.562872e-10 1.636723e-09 3.646244e-10
-7.293468e-10 3.230551e-10 4.224392e-10 1.461656e-09 -1.731359e-09 -5.314472e-10 -4.946442e-10 5.993381e-10 -4.214760e-10 -2.813460e-10
-1.281001e-09 -4.663227e-10 1.950868e-09 2.160374e-09 1.222701e-09 2.267555e-09 3.758547e-10 2.004091e-09 -2.102955e-10 1.438224e-09
1.042765e-09 -1.456316e-09 8.837197e-10 2.081996e-09 -7.260393e-10 1.875590e-10 6.222787e-10 -3.885652e-10 5.188486e-10 8.465000e-10
5.105932e-10 1.259116e-09 -2.812928e-11 1.876408e-09 2.007829e-10 1.249405e-09 9.749469e-10 1.169521e-09 1.126426e-09 1.486149e-09
1.225127e-09 1.841682e-09 1.290798e-09 1.250003e-09 5.941380e-10 2.870781e-10 2.791681e-09 2.286146e-09 8.544993e-10 -1.793311e-09
8.558387e-10 -2.919496e-11 7.672962e-10 2.232851e-09 2.083946e-10 -3.946810e-11 3.685081e-09 2.708178e-09 2.815258e-09 3.112755e-09
1.592348e-09 1.807510e-10 2.770397e-09 8.045637e-10 1.448439e-09 1.110473e-09 8.412402e-10 1.246506e-09 1.370398e-10 7.791810e-10
9.666676e-10 -1.060361e-09 1.361370e-09 3.304218e-10 4.847869e-10 1.107630e-09 -1.396529e-09 2.389593e-09 3.468003e-09 7.473982e-10
-1.194249e-09 1.138850e-09 2.787498e-09 2.796634e-09 -6.230356e-10 7.024469e-10 -6.666001e-11 -1.667288e-09 2.105018e-09 1.922359e-09
9.691989e-10 2.473798e-09 1.490907e-09 3.096129e-09 -1.367288e-09 1.567016e-09 2.047245e-09 2.250794e-09 5.514177e-10 1.487531e-09
-1.712661e-09 3.751199e-09 2.578420e-09 5.303319e-10 3.345602e-09 8.667509e-10 3.894326e-10 8.602089e-11 3.167203e-10 1.918348e-10
1.894809e-09 -3.033352e-10 -1.110653e-10 8.588461e-10 -5.967253e-11 1.039974e-09 1.089579e-09 2.552153e-09 2.600091e-09 6.153404e-10
2.132775e-09 5.900533e-10 1.425991e-09 1.788582e-09 -3.600776e-10 1.626568e-10 3.545641e-10 2.534127e-09 2.796947e-10 -4.292063e-10
2.552828e-10 4.905590e-10 2.448525e-09 3.372744e-10 2.088042e-09 1.281304e-09 5.093382e-10 -1.431133e-09 -6.597713e-11 2.128707e-09
1.542241e-09 -8.369798e-10 1.949571e-10 1.335383e-09 -3.486794e-10 1.590113e-10 6.006537e-10 -1.611041e-09 -4.046793e-10 1.520762e-10
-3.986731e-10 9.867903e-11 -5.188198e-11 -2.055302e-11 3.065665e-10 2.929387e-10 9.145448e-10 1.495832e-09 -1.545212e-09 2.422380e-09
6.026270e-10 -5.613472e-10 1.607574e-09 -5.811044e-10 -2.087785e-10 1.091440e-10 -9.838517e-10 7.043875e-10 -2.162092e-10 -1.137210e-09
2.689614e-10 -2.144302e-09 -1.281115e-09 -1.272232e-09 1.626164e-09 -1.112622e-09 -1.968247e-09 -8.250763e-10 7.226639e-10 -8.263397e-10
1.183428e-10 -3.000526e-10 5.060533e-10 -2.360512e-09 -1.623955e-09 -2.327425e-09 -6.981895e-10 -2.178142e-09 -1.790599e-09 -3.489048e-10
-1.261132e-09 -4.755019e-10 2.437645e-10 -1.433683e-09 4.454178e-10 -3.345653e-10 -5.758508e-10 2.069453e-09 4.533809e-10 -2.028015e-10
-2.086771e-09 -1.209917e-09 -2.075997e-09 -1.302416e-09 2.456300e-10 -1.942756e-09 -5.670692e-10 2.868030e-10 6.017082e-10 -1.749852e-09
-7.187622e-10 -4.381286e-10 2.594214e-10 -2.197101e-10 9.705367e-10 -2.195474e-10 5.545757e-11 -2.316240e-09 9.159356e-10 -1.332231e-09
-2.902026e-09 -2.050317e-09 -3.093720e-11 -1.502434e-09 -1.555476e-09 -1.680057e-09 -1.268741e-09 -2.658157e-09 -2.484275e-09 8.725340e-10
-3.360682e-09 -1.746161e-09 -2.127256e-09 -3.353923e-09 -1.236617e-09 -2.928505e-10 2.933223e-10 -1.622196e-09 -2.158776e-09 -4.345483e-10
-6.831718e-10 -3.117534e-09 -2.661251e-09 -1.984503e-09 -1.609090e-09 -1.729597e-10 -9.033363e-10 -1.352707e-09 -1.698204e-09 -2.645483e-09
-2.386568e-09
-3.660944e-10 -1.735655e-10 -8.032821e-10 -1.602068e-09 -1.279985e-09 -1.977856e-09 -1.676091e-09 -1.671763e-09 3.211607e-10 -1.431517e-09
-3.238244e-10 -1.825320e-09 -1.141274e-09 -2.097569e-09 -1.790641e-09 -3.760049e-09 -1.346036e-10 -2.800978e-09 -2.605828e-09 -1.629632e-09
-2.842401e-09 -2.125695e-09 -1.659436e-09 -3.333141e-10 -9.651645e-10 -1.397961e-09 -4.188139e-09 -1.414210e-09 -3.103406e-09 -2.696670e-09
-1.551905e-09 2.968824e-10 -2.150633e-09 -7.647653e-10 -9.550140e-10 -3.026913e-09 -2.609976e-09 -2.435959e-09 -2.274008e-09 -2.024700e-09
-2.215071e-09 -7.781581e-10 -7.344825e-10 -2.729173e-09 -1.935013e-09 -2.957701e-09 -4.211304e-10 -1.094262e-09 -1.760153e-09 -1.581897e-09
-1.131502e-09 1.425129e-09 -1.762170e-09 -7.145580e-10 -3.020580e-10 -2.195799e-09 -8.744816e-11 -1.899857e-09 -1.116552e-09 -1.759201e-09
-2.846536e-09 -1.891896e-09 -3.876096e-10 -3.371051e-10 -9.645943e-10 -1.754078e-09 -1.956425e-10 -7.409867e-10 -8.339893e-10 -1.278731e-09
-1.703276e-09 -5.586492e-10 1.007766e-09 -9.255669e-10 -8.471120e-10 -4.679617e-10 -4.552931e-10 5.074558e-10 1.084113e-10 -5.036910e-10
-7.645480e-10 1.121907e-09 3.824710e-10 -1.765669e-09 1.029701e-10 2.841429e-09 6.904194e-10 -7.994580e-10 1.472802e-09 -1.086197e-09
-2.090262e-10 -9.831668e-10 3.242784e-09 -6.199510e-10 -1.373618e-09 -4.712682e-10 1.254501e-09 1.564651e-09 8.182000e-10 -4.849148e-10
2.660381e-09 9.829080e-10 6.313727e-12 8.155687e-10 3.419381e-09 -4.070531e-11 2.280014e-10 -6.879993e-10 1.729729e-09 -9.994424e-10
1.455011e-09 1.870246e-09 -3.541702e-10 1.826773e-09 5.324309e-10 -2.660190e-10 6.007551e-10 -4.085599e-11 1.269671e-09 1.446665e-09
7.200534e-10 1.023299e-09 2.616488e-10 3.015619e-10 1.566453e-09 1.119342e-09 3.258106e-10 8.785383e-10 5.964089e-10 1.234043e-09
2.698462e-09 6.098379e-10 2.797269e-10 1.021663e-09 6.719856e-10 6.680061e-10 4.898748e-10 1.651591e-09 2.757682e-09 2.341403e-10
-8.021776e-11 2.613554e-09 1.704936e-10 4.387670e-10 1.219412e-09 2.009169e-09 1.564353e-09 8.777794e-10 6.527492e-10 1.754953e-09
2.708472e-09 5.189518e-10 3.301261e-09 1.055282e-09 2.592880e-09 -4.074010e-11 1.804422e-09 9.928033e-10 6.209591e-10 2.140696e-09
1.016984e-09 2.312756e-09 1.254239e-09 -2.731428e-10 2.215561e-10 -7.927936e-10 2.302831e-09 2.137265e-09 1.723650e-09 8.372168e-10
2.640781e-09 5.995566e-10 2.546176e-10 -3.608893e-10 1.762570e-09 2.416679e-10 2.272575e-09 9.881177e-10 2.121902e-09 -6.294325e-10
3.028529e-10 2.539353e-09 8.530330e-10 2.327599e-09 2.957444e-09 1.800874e-09 3.517545e-09 1.328753e-09 2.412209e-09 9.091577e-10
2.208018e-09 1.787527e-09 1.811609e-09 9.351697e-10 1.484071e-09 2.789561e-09 1.890710e-09 1.396128e-09 -7.370731e-10 1.564080e-10
5.351955e-10 2.713834e-09 2.878595e-09 7.348677e-10 9.431491e-10 1.705986e-09 -5.034578e-10 5.645580e-10 6.711833e-10 -2.953141e-10
1.321101e-09 -1.586607e-10 2.898886e-09 2.541366e-10 1.432381e-09 -7.019798e-10 2.579168e-09 1.744342e-09 8.093037e-10 1.378763e-09
1.600220e-09 6.803302e-10 -7.166263e-10 2.256914e-09 1.705940e-09 1.868603e-09 1.313215e-09 1.590852e-09 2.104343e-09 1.537934e-09
1.638607e-09 1.399637e-10 6.059102e-10 8.858922e-10 -8.152208e-10 2.290276e-09 -9.804241e-10 1.738440e-09 -5.912801e-10 5.949263e-10
1.191337e-10 8.274076e-10 1.573113e-09 -5.534574e-10 8.985399e-10 1.395174e-09 1.332027e-09 8.347876e-10 -1.448226e-09 6.248587e-10
8.561421e-10 4.789967e-10 -7.939263e-10 1.661652e-10 1.053476e-09 2.849715e-10 7.105516e-11 -1.379063e-09 2.364905e-09 7.843146e-10
-1.928098e-09 -3.761754e-11 -7.866328e-10 -6.504338e-10 -2.332586e-09 9.302565e-10 -6.679274e-10 6.086181e-10 7.852023e-10 -1.788083e-09
-1.728563e-10 6.076575e-10 -1.485226e-10 -1.103136e-09 -1.168627e-10 -1.211754e-09 1.723297e-10 -1.888740e-09 -5.561945e-10 3.633860e-10
1.739009e-10 9.999352e-10 1.850939e-09 -1.544177e-09 1.964697e-09 6.027257e-10 4.225039e-11 1.076383e-09 -7.796632e-10 -2.178231e-10
-9.763154e-10 2.575806e-10 -3.579805e-10 -4.959749e-10 -1.686659e-09 -1.066978e-09 -1.127179e-09 4.167101e-10 -8.165692e-10 7.821007e-10
-2.408325e-09 -9.993683e-10 2.239618e-10 -2.226187e-09 -1.242266e-09 -2.026714e-09 -1.153263e-09 -2.147135e-09 -4.815587e-10 -2.525766e-09
-1.758278e-09 -1.779914e-09 -4.949115e-11 -1.561509e-09 -9.112751e-10 2.644436e-10 -1.245009e-09 -2.485629e-09 -2.758847e-09 -1.223668e-09
3.504728e-10 -1.108823e-09 -9.483476e-10 -2.802524e-09 -8.230838e-10 -2.270005e-09 -4.569656e-10 5.091065e-10 8.630539e-10 -1.262865e-09
-1.529107e-09 3.874996e-10 -6.625851e-10 -7.651632e-10 -3.372176e-09 -6.199403e-10 -2.177563e-09 -3.312115e-09 -4.916930e-11 -8.569817e-10
-3.073821e-09 -2.716792e-09 -2.903046e-10 -2.645676e-09 -3.008816e-10 -5.044964e-10 -1.181192e-09 -1.992477e-09 -1.937782e-09 -1.166925e-09
-6.646082e-10 -2.016793e-09 -2.997578e-10 -2.049346e-09 -1.200534e-09 7.961101e-10 -4.827236e-10 -8.983925e-11 -7.413384e-10 -1.105438e-09
-3.660944e-10
-6.040309e-10 -1.679292e-09 -1.443367e-09 -2.388062e-09 -2.714052e-09 -3.876088e-10 -2.780872e-11 -9.434405e-10 -3.663217e-10 6.289458e-10
-2.071448e-09 -9.759623e-10 -1.127682e-09 -1.911376e-09 -2.379118e-09 -1.825073e-09 -1.658463e-09 -2.306886e-09 -2.266902e-09 -2.542613e-09
-4.139226e-09 -1.923758e-09 2.376671e-10 -1.790653e-09 -1.677519e-09 -2.606138e-09 -3.453863e-09 -3.586144e-09 -1.685624e-10 -1.743668e-09
-3.297494e-09 -1.346696e-09 -2.662511e-09 -1.740927e-09 -5.653120e-10 -4.651281e-10 -1.774182e-09 -1.975482e-09 -1.221095e-09 -1.846377e-10
2.429774e-10 -1.572510e-09 -2.294402e-09 -4.550922e-10 1.591877e-10 -6.954339e-10 -3.557472e-09 -1.645751e-09 -2.382767e-09 -6.437353e-10
3.681987e-10 -2.188318e-09 -2.062760e-09 -8.538698e-10 3.730934e-10 -2.571840e-09 -3.007280e-10 -2.614179e-09 -7.024867e-10 -1.885715e-09
6.316488e-10 -1.955945e-09 -9.321243e-10 -1.322463e-09 -9.342526e-10 5.515714e-10 2.730918e-11 4.191711e-10 -2.667908e-09 -7.418222e-10
-7.313066e-10 1.852641e-09 -3.602515e-10 5.783883e-10 -7.767507e-10 1.365064e-09 8.560629e-10 -1.017920e-09 -3.023005e-10 -8.449083e-10
9.284840e-10 4.886382e-10 1.991485e-10 -1.430901e-09 -1.736907e-09 -5.730109e-10 6.134105e-10 -3.502893e-10 -6.283643e-10 -1.257325e-09
1.146196e-09 -5.143262e-10 3.973211e-10 -2.850607e-10 -1.027608e-09 -1.820446e-09 9.648613e-11 -9.505517e-10 9.415474e-10 9.973067e-11
-7.468696e-10 2.661975e-10 4.561760e-10 1.011575e-09 -1.253108e-09 1.155637e-09 1.210580e-09 6.120297e-11 1.664247e-10 6.756528e-10
9.505470e-10 -9.031079e-11 8.933775e-10 4.795301e-10 3.582486e-10 2.441539e-09 1.821867e-09 -6.613132e-10 1.794059e-09 3.214942e-09
8.624794e-10 1.677587e-09 1.363064e-09 1.675535e-10 2.501048e-09 -1.107264e-10 8.017837e-10 -9.894682e-11 2.900021e-09 1.913169e-09
2.727998e-09 3.650454e-09 1.593118e-09 5.893372e-10 2.084752e-09 2.435228e-10 7.538827e-10 1.376124e-09 2.826587e-11 2.366464e-09
2.779774e-09 3.942773e-09 5.437894e-10 6.988565e-11 2.953351e-09 3.188583e-09 7.881872e-10 1.015346e-09 4.648558e-09 -9.096784e-10
1.587169e-09 7.914727e-10 9.436750e-10 2.028375e-09 1.738816e-09 3.190573e-09 1.743379e-10 1.661033e-09 2.775735e-10 4.249702e-09
6.694079e-10 1.817058e-09 1.967657e-09 4.094300e-09 3.215924e-09 2.365246e-09 1.123170e-09 2.283804e-09 1.497004e-09 2.189682e-09
1.299836e-09 2.026160e-09 9.344757e-10 1.896363e-09 2.457197e-09 1.618889e-09 2.340536e-09 1.781192e-09 1.343058e-09 1.611205e-09
3.403982e-10 1.063535e-09 1.267143e-09 2.675910e-09 -2.305942e-11 2.592728e-09 2.433079e-09 2.363790e-09 3.661038e-09 1.943347e-09
1.001912e-09 3.420045e-09 1.148085e-10 1.509758e-09 1.110787e-09 3.185994e-09 2.370686e-09 5.945869e-10 8.234834e-10 2.684128e-09
9.368580e-10 8.234389e-10 1.526613e-09 1.363937e-09 2.102237e-09 2.480539e-09 3.075591e-09 3.153516e-09 2.121207e-09 -4.960041e-10
3.193323e-09 7.049397e-10 1.096233e-09 3.030175e-09 3.669432e-10 -2.710128e-12 1.423680e-09 -5.968924e-10 1.358906e-09 -1.024851e-09
1.918306e-09 1.983016e-09 -2.398956e-11 8.854655e-10 1.761121e-09 -5.133928e-10 2.415477e-09 1.657746e-09 1.680700e-09 3.841341e-10
2.967981e-09 9.817860e-10 9.731731e-10 1.375124e-09 8.996376e-10 -4.540207e-10 6.802761e-10 2.016675e-09 -4.428584e-11 1.223059e-09
-3.336142e-11 -2.766495e-10 1.657667e-10 -6.918172e-10 -1.001254e-10 4.003444e-10 -7.699690e-10 -3.901190e-10 3.044359e-10 -7.430799e-10
1.031303e-09 4.319740e-10 1.651054e-09 1.515908e-09 8.125411e-10 1.523179e-09 8.328523e-13 6.261680e-10 -4.017502e-10 3.191948e-10
1.230147e-09 1.276717e-09 1.355548e-09 5.871347e-10 -1.887083e-10 -2.190785e-10 1.129844e-09 -1.320016e-09 4.157280e-10 2.253089e-10
1.854455e-09 -6.871487e-10 -1.801280e-09 1.247572e-09 -1.664870e-10 1.080038e-09 -1.084945e-09 -1.328821e-09 8.981867e-10 1.929026e-09
-9.314526e-10 -9.964127e-10 4.326951e-10 2.959022e-10 -1.577446e-09 -1.712136e-09 -2.234408e-09 -2.500303e-10 -1.091621e-09 -8.659075e-10
5.306304e-10 2.995890e-10 -4.909879e-10 2.943725e-10 -6.234840e-10 -1.450035e-09 -2.318256e-09 1.203985e-11 -2.180601e-09 -5.322940e-10
-5.510705e-10 6.279499e-11 -1.354672e-09 -6.115395e-10 -5.756379e-10 -1.701744e-09 -3.096914e-09 -3.141985e-09 -3.183131e-09 -1.043819e-09
-1.024616e-09 -1.062486e-09 -1.133964e-09 -1.952742e-09 -1.304781e-09 -1.472920e-09 -1.900333e-09 -1.977526e-09 -3.480513e-09 -8.717455e-10
-1.724353e-09 -1.859527e-09 -1.544813e-09 -1.549765e-09 -2.069929e-09 -1.393658e-09 -2.906412e-11 -8.754169e-10 -6.321523e-10 -2.075076e-09
-3.418410e-10 -1.393782e-09 -1.356229e-09 -7.549091e-10 -2.852196e-09 -3.263532e-09 -2.732864e-09 -3.141300e-09 -1.885897e-09 -1.776770e-09
-2.508092e-09 -1.771286e-09 -8.532291e-10 -1.333497e-09 2.168228e-10 -3.249815e-09 -1.191538e-09 -3.064727e-09 -4.069719e-09 -2.709276e-09
-3.570839e-09 -3.398342e-09 -1.916588e-09 -1.123243e-09 -1.076410e-09 -1.436390e-09 -4.022807e-09 -1.681565e-09 -8.509704e-10 -2.886674e-09
-6.040309e-10
-2.032672e-09 -7.885732e-10 -2.080663e-09 -1.413051e-09 -3.363350e-10 -3.782537e-09 -3.500385e-09 -4.999437e-10 -1.949131e-09 -6.999112e-10
-3.309191e-09 -2.090206e-09 -2.912337e-09 -1.388039e-09 -3.504300e-09 -7.893776e-10 -1.795352e-09 -1.594869e-09 -7.319996e-10 -1.316317e-09
-6.310150e-10 -3.075373e-09 -4.349008e-09 -1.678342e-09 -1.211626e-09 -2.178114e-09 -1.745039e-09 -4.897849e-09 -5.539831e-10 -5.202043e-11
-6.438332e-10 -2.004898e-09 -1.822741e-09 -2.248356e-09 -2.797441e-09 -3.234300e-09 -2.718335e-10 -2.132040e-10 -2.075360e-09 -8.556682e-10
-1.727215e-09 -2.838580e-09 -1.154804e-10 -2.980290e-09 -5.762948e-10 -7.933323e-10 -4.127276e-09 -1.342262e-09 -7.827040e-10 -9.641851e-10
-1.915822e-09 -2.925178e-09 -2.326039e-09 -3.130808e-10 4.475372e-11 -2.142196e-09 -1.003092e-09 -9.133330e-10 -9.909592e-10 -1.394593e-09
-1.996624e-09 -1.611589e-09 -8.344300e-11 -1.261213e-09 -8.746185e-10 -2.700448e-09 6.889325e-10 -5.998219e-10 -1.467515e-09 -7.307987e-10
9.594546e-10 3.968079e-10 -1.009288e-09 -1.993579e-09 -1.273598e-09 1.080288e-09 7.471336e-10 -1.589469e-11 -1.141167e-09 -1.290648e-09
7.372835e-10 3.215450e-11 8.507238e-10 -3.274224e-11 3.977425e-10 -1.731626e-09 -1.817692e-09 2.443271e-10 -6.580911e-10 7.330374e-10
-5.170527e-10 -8.472035e-10 1.203392e-09 -7.489204e-10 -1.148670e-09 1.618389e-09 -3.731382e-10 2.480656e-10 -5.368818e-10 9.709336e-10
-4.940947e-10 1.613148e-09 6.524492e-10 1.748309e-09 -6.435704e-11 -1.128624e-09 8.677269e-10 7.706886e-10 -7.755722e-12 3.375527e-10
4.810818e-10 1.869699e-09 1.776143e-09 2.227994e-09 1.386197e-09 5.156104e-10 1.148770e-10 2.089492e-09 -1.544689e-09 1.416416e-09
2.044979e-09 7.173235e-10 -1.595952e-10 2.289364e-09 1.247052e-09 1.747794e-09 -1.299774e-10 1.817634e-09 6.966692e-10 3.113524e-09
1.152381e-09 2.419285e-09 2.647907e-09 2.244390e-09 2.167786e-09 1.095785e-09 5.059990e-10 1.285020e-09 -1.805018e-10 2.332241e-09
1.083952e-09 2.635871e-09 2.953366e-09 8.208012e-10 -1.167291e-09 5.224823e-10 1.652347e-09 2.458634e-09 1.221371e-09 1.236493e-09
4.703511e-10 3.887189e-09 2.319106e-09 3.258989e-09 1.853778e-09 2.217949e-09 1.049092e-09 2.386303e-09 1.501558e-09 4.125558e-10
2.332515e-09 2.138411e-09 3.515257e-09 2.663838e-09 2.836295e-09 2.696661e-09 1.009212e-09 1.099428e-09 1.663089e-09 2.524685e-09
2.557713e-09 1.713287e-09 5.160805e-11 1.884414e-09 2.731477e-09 1.743554e-09 1.044318e-09 2.843794e-09 1.602918e-09 2.368640e-09
3.279344e-09 2.173499e-09 3.340955e-09 1.883559e-09 1.964708e-09 2.769037e-09 3.049442e-09 1.271468e-09 4.217446e-09 1.806851e-09
2.868904e-09 5.509598e-10 1.252226e-09 3.091065e-09 2.227376e-09 2.450836e-09 2.936198e-09 3.988710e-09 1.745907e-09 3.103082e-09
5.324298e-10 2.210819e-09 -3.158699e-10 2.541459e-09 4.135142e-09 3.526510e-09 -1.074123e-10 2.842602e-09 8.789396e-10 2.659212e-09
1.591347e-09 3.300964e-09 1.104252e-09 2.924392e-09 7.184732e-10 2.122805e-09 2.408192e-09 2.068689e-09 2.190503e-09 1.582503e-09
3.077687e-09 3.100800e-09 7.851800e-10 8.888783e-10 9.545621e-10 1.931621e-09 1.580446e-09 -8.172199e-10 3.313475e-09 5.471224e-10
3.767884e-09 2.367519e-09 4.902022e-10 9.397604e-10 1.856923e-09 5.102225e-10 -1.006028e-09 1.703852e-09 1.275220e-09 -3.686088e-10
6.464081e-11 9.980852e-10 2.306706e-09 1.203602e-09 7.084778e-10 5.981059e-10 -1.205196e-09 6.970067e-10 1.470223e-09 1.265625e-09
1.983210e-09 1.291283e-09 -1.165216e-09 1.545026e-09 4.089623e-10 -1.363157e-09 1.627336e-09 3.865118e-10 7.012270e-10 3.384526e-11
1.319287e-09 -6.371230e-10 -5.935329e-10 -1.021665e-09 -4.170012e-10 -5.074164e-10 7.121522e-10 8.731343e-10 -8.599740e-10 1.496657e-09
9.883918e-10 -1.395328e-09 4.136843e-10 6.340912e-10 -2.322140e-10 -3.557021e-10 -2.317932e-09 -1.379148e-09 -3.907807e-10 -1.293961e-09
1.078501e-09 -1.397705e-10 -1.618088e-09 -6.686476e-10 -6.050120e-10 6.983160e-10 -9.504785e-10 1.974454e-09 -5.399312e-10 -5.360756e-10
5.316384e-10 9.980061e-10 5.258357e-11 1.001873e-10 -1.950584e-09 -2.460575e-09 -1.789214e-09 -1.927400e-09 -1.809878e-10 -1.522824e-09
7.056706e-10 -5.879895e-10 -1.726495e-09 -2.492979e-09 -1.137090e-09 -1.363076e-09 -2.878115e-09 -2.553831e-09 -1.126502e-09 -1.646285e-09
-2.427151e-09 -1.663640e-09 1.211655e-09 -9.758987e-10 -1.141025e-09 -1.711905e-09 -4.944063e-10 -2.704261e-09 -2.585405e-09 -2.727222e-10
-2.491143e-09 -2.002680e-09 -2.422700e-09 -4.342671e-09 -2.625704e-09 -4.758047e-09 -1.271696e-09 -3.135854e-09 -1.154778e-09 -2.226529e-09
-2.063505e-09 -2.369122e-09 -2.753517e-09 -3.059467e-09 -6.070485e-10 -3.873424e-09 -2.688773e-09 -2.470956e-09 -2.031145e-09 -2.840539e-09
-1.944329e-09 -4.181379e-09 -2.324670e-09 -9.011696e-10 -3.452693e-09 -4.375284e-09 -2.044630e-09 -2.973913e-09 -2.778126e-09 -2.585279e-09
-3.227769e-09 -2.058826e-09 -7.246753e-10 -1.983107e-09 -3.173006e-09 -3.306283e-09 -2.590224e-09 -1.757381e-09 -1.336582e-09 -1.701950e-09
-2.032672e-09
-3.464594e-09 -1.463026e-09 -2.608547e-09 -4.600083e-10 -2.119818e-09 -2.700536e-09 -1.022431e-09 -2.910024e-09 -3.761472e-09 -4.988065e-09
-3.895621e-09 -2.443571e-09 -3.431702e-09 -3.267177e-09 -1.161700e-09 -4.042906e-09 -3.119085e-09 -4.946334e-09 -8.076610e-10 -3.280268e-09
-2.345771e-09 -2.256407e-09 -2.787770e-09 -4.232026e-09 -4.506530e-09 -6.695442e-10 -3.289757e-09 -2.084374e-09 -3.310356e-09 -2.244921e-09
-1.075740e-09 -3.922481e-09 -1.707401e-09 -8.803785e-10 -2.698513e-09 -5.117114e-11 -5.753674e-10 -1.928649e-09 -1.741205e-09 -3.553853e-09
-2.447549e-10 -1.238142e-09 -2.793139e-09 -1.642263e-09 -3.821958e-10 -5.452439e-11 -1.577142e-10 -1.034271e-09 -3.032636e-10 -1.602654e-09
-1.409801e-09 -1.414570e-09 -3.106214e-09 -8.976999e-10 -3.138726e-09 -8.057903e-10 -2.983292e-09 -1.536171e-09 -7.296477e-10 -2.512354e-09
1.273420e-11 -1.167520e-09 -5.841695e-10 -5.956236e-11 2.195311e-11 -2.223459e-09 -1.162829e-09 7.531848e-10 -1.447428e-09 -5.357481e-10
-2.206938e-09 -8.285821e-10 -2.758536e-10 -2.128229e-10 -2.017389e-09 -9.993265e-10 1.245183e-09 -5.206154e-10 6.208251e-10 -8.574932e-11
2.595442e-10 9.400600e-10 6.605345e-10 9.937784e-10 3.271065e-11 -5.780208e-10 -2.895045e-10 1.593848e-09 2.428167e-09 -4.497628e-10
-1.206796e-09 -1.427266e-10 4.776668e-10 2.369240e-09 -3.124013e-10 -1.576141e-09 -2.007418e-09 -1.128694e-09 1.250034e-09 -3.186327e-11
-1.707488e-09 3.438643e-10 1.361357e-09 2.992479e-09 -3.657501e-10 7.433252e-10 2.260128e-09 3.009032e-09 -8.023486e-10 7.021595e-10
7.362573e-10 1.621888e-09 1.134043e-09 6.710068e-10 1.077106e-09 -1.886680e-09 4.929309e-11 1.549315e-09 2.917207e-09 9.642158e-10
-7.131592e-11 2.304496e-09 2.571842e-09 2.471169e-10 2.121844e-09 -1.891805e-10 4.166381e-09 7.391796e-10 8.551215e-10 9.720368e-10
1.839551e-09 2.205280e-09 4.240788e-10 3.792438e-09 1.311046e-09 1.671936e-09 5.138018e-10 3.432923e-09 1.913531e-09 4.156711e-10
1.458275e-09 1.010322e-09 -7.410117e-11 2.572416e-09 1.703482e-09 2.280277e-09 8.654612e-10 1.667435e-09 3.217251e-09 4.448192e-10
7.323054e-10 1.271249e-09 1.782704e-09 2.031616e-09 2.834492e-09 5.044992e-09 2.090053e-09 3.743111e-09 1.779206e-09 2.775458e-09
2.087017e-09 2.721428e-09 1.272375e-09 3.024060e-09 3.547025e-09 5.505810e-09 2.173873e-09 2.101630e-09 2.491518e-09 4.016385e-09
1.790751e-09 1.492242e-09 3.503344e-09 1.118203e-09 2.122199e-09 3.570275e-09 3.752945e-09 3.430657e-09 3.327307e-09 3.334327e-09
2.780854e-09 1.869080e-09 1.768400e-09 2.861344e-09 1.073670e-09 3.310352e-09 3.870664e-09 3.553804e-09 1.754132e-09 1.336232e-09
2.708105e-09 2.266745e-09 1.551952e-09 1.548398e-09 1.059864e-09 2.285043e-09 3.650698e-09 1.263301e-09 2.748608e-09 3.352661e-09
5.418653e-09 6.109138e-10 3.098441e-09 2.824176e-09 4.316813e-09 1.970300e-09 2.469318e-09 3.423817e-09 3.860659e-09 1.366238e-09
2.282612e-09 1.684230e-09 2.956339e-09 2.082006e-09 1.462462e-09 5.017696e-10 2.076695e-09 1.129681e-09 1.355909e-09 3.554675e-09
9.059711e-10 3.716487e-09 1.886563e-09 1.842234e-09 1.176423e-09 3.272038e-09 1.143011e-09 2.741305e-09 5.449682e-10 1.615439e-10
2.594982e-09 9.900519e-10 1.846102e-09 8.654721e-10 1.712876e-09 5.371937e-10 1.676883e-09 1.578575e-09 9.151804e-10 -3.262257e-11
2.194357e-09 6.000819e-10 1.298481e-09 1.917059e-09 2.163856e-09 7.561641e-10 1.391587e-09 8.677158e-10 1.044336e-09 2.922159e-10
1.825480e-09 1.524316e-09 1.773636e-09 2.373759e-09 1.228107e-09 -5.165276e-12 1.366026e-10 4.025434e-10 -3.907494e-10 -1.161676e-09
1.204648e-09 1.530364e-09 1.755825e-09 1.023581e-09 -6.060908e-10 -2.445397e-09 -4.798041e-10 -9.473243e-10 -8.212128e-10 1.356857e-09
-7.756910e-10 2.846029e-09 -4.223299e-10 -8.859466e-10 -9.525053e-10 9.089232e-10 -3.499573e-09 1.036071e-09 -6.006906e-11 1.481672e-09
-2.112136e-09 3.713369e-10 -3.301984e-10 -1.006331e-10 -1.398631e-09 -1.371485e-09 -2.182756e-09 -1.615209e-10 1.053671e-09 -9.475621e-10
4.917943e-10 -7.270054e-10 -2.454006e-09 -1.650533e-09 6.689962e-10 -5.630894e-10 -8.438408e-10 -2.124107e-09 -4.580111e-10 -1.563799e-09
-6.698759e-10 6.600019e-10 -5.139072e-10 -2.266784e-09 -2.785043e-09 -1.162592e-09 -7.157477e-10 -3.588214e-09 -3.452784e-10 -2.168683e-09
8.631312e-11 -4.377623e-10 7.593400e-11 -2.835263e-09 -1.532470e-09 -3.538310e-10 -1.314629e-09 -2.710151e-09 -2.886089e-09 -1.012995e-09
-3.549979e-09 -1.681406e-09 -1.886108e-09 -2.704236e-09 -2.605514e-09 -2.854334e-09 -1.294254e-09 -5.053847e-09 -4.382380e-09 -1.808390e-09
-9.038203e-10 -1.402039e-09 -1.441529e-09 -1.630048e-09 -1.159279e-09 -3.823720e-09 -1.057811e-09 -1.736994e-09 -2.915356e-09 -3.618766e-09
-2.637376e-09 -5.320523e-10 -3.441541e-09 -2.788700e-09 -2.551661e-09 -9.857977e-10 -1.468144e-09 -1.868337e-09 -2.015434e-09 -4.836681e-09
-2.478653e-09 -3.513026e-09 -1.442132e-09 -3.099770e-09 -2.706572e-09 -1.256306e-09 -2.379194e-09 -4.545705e-09 -3.092731e-09 -1.945920e-09
-3.464594e-09
-2.667915e-09 -1.530676e-09 -2.698300e-09 -3.884039e-09 -2.074033e-09 -3.377125e-09 -3.000409e-09 -4.262393e-09 -2.243490e-09 -2.557494e-09
-1.959299e-09 -1.718768e-09 -1.917120e-09 -3.394513e-09 -9.679719e-10 -2.893302e-09 -2.236486e-09 -2.524408e-09 -3.929241e-09 -3.160917e-09
-1.617369e-09 -2.132641e-09 -2.687985e-09 -2.470413e-09 -2.700818e-09 -2.429921e-09 -4.031900e-09 -1.826668e-09 -2.022627e-09 -2.847438e-09
-2.684599e-09 -1.602730e-09 -2.814217e-09 -2.606213e-09 -2.029568e-09 -2.908983e-09 -2.321192e-09 -2.218480e-09 -3.423650e-09 -2.194872e-09
-1.475777e-10 -3.924727e-09 -3.290926e-09 -2.364319e-09 -1.338878e-09 -2.521904e-09 -3.267605e-09 -1.584240e-09 -2.935790e-09 -5.612580e-10
-5.473610e-10 -2.703563e-10 -1.517077e-09 1.383972e-10 1.674510e-09 -1.035433e-09 -3.141969e-09 -1.764011e-09 -1.399151e-09 -1.339148e-09
7.805285e-10 -1.979229e-09 -1.077576e-09 -1.002472e-09 -3.139696e-09 -9.254927e-10 -2.070160e-09 -1.329695e-09 -2.469124e-09 -1.362085e-09
-1.423538e-09 5.096635e-10 8.444376e-11 2.062173e-10 2.530423e-10 -6.838785e-10 -1.173586e-09 -2.284044e-10 -4.451716e-10 6.875761e-10
1.976554e-10 -2.455012e-09 -9.276376e-10 -7.301726e-10 1.304668e-09 -6.329553e-10 6.645436e-10 -1.897066e-10 7.134554e-10 1.993241e-09
-5.992159e-11 1.324306e-09 1.459793e-09 4.251959e-10 -1.330978e-09 1.305797e-09 -9.997989e-10 1.294626e-09 1.953419e-09 -1.235000e-09
3.773183e-10 -3.029101e-10 8.972479e-10 5.842315e-10 -1.699133e-11 -1.177646e-09 1.891816e-11 2.492532e-09 1.580007e-09 1.928681e-09
1.605103e-09 -7.071115e-10 2.094358e-11 2.237834e-11 6.795394e-10 8.356473e-10 1.332986e-09 1.003761e-09 2.783101e-09 -2.229576e-10
1.080302e-09 1.048420e-09 7.599607e-10 7.123730e-10 9.900768e-10 5.650177e-10 8.411674e-10 2.358299e-09 1.522814e-09 1.446424e-09
3.272704e-09 9.374655e-10 3.887920e-09 7.356411e-10 1.559753e-09 1.255728e-09 3.100815e-09 7.609176e-10 2.726337e-09 3.468610e-09
1.364082e-09 3.927195e-09 3.208221e-09 2.665299e-09 2.082914e-09 2.166653e-09 1.552498e-09 2.459171e-09 2.917692e-09 2.442768e-09
3.166724e-09 3.326252e-09 1.786468e-09 6.842496e-10 1.773291e-09 2.897942e-09 2.802921e-09 2.800091e-09 4.353557e-09 3.711450e-09
1.537881e-09 4.775036e-09 4.451534e-09 2.446349e-09 4.130365e-09 4.164646e-09 2.054459e-09 1.304714e-09 -2.122961e-10 4.172101e-09
1.549715e-09 3.462711e-09 3.974415e-09 2.819444e-09 1.720581e-09 3.489928e-09 3.585390e-09 3.176893e-09 1.746823e-09 3.696332e-09
9.639184e-10 4.053184e-09 8.955415e-10 1.465168e-09 1.837368e-09 2.962380e-09 5.383238e-09 1.886578e-09 2.958313e-09 2.379247e-09
4.224423e-09 4.624138e-09 7.429633e-10 2.371977e-09 3.024049e-09 4.134058e-09 4.914341e-09 3.317700e-09 3.767852e-09 1.909619e-09
4.622364e-09 3.599325e-11 2.599722e-09 2.605019e-09 3.633497e-09 3.206897e-09 2.788086e-09 3.714632e-09 1.059524e-09 1.544203e-09
4.120388e-09 2.252061e-09 1.222265e-09 2.714712e-09 2.385203e-09 3.240481e-09 2.225364e-09 1.151997e-09 2.619673e-09 2.511224e-09
1.930408e-09 9.953075e-10 6.679764e-10 1.510307e-09 1.705052e-09 9.054588e-10 8.963153e-10 6.966229e-10 2.048889e-10 -2.431601e-10
2.641340e-09 2.525261e-09 1.869177e-10 2.538363e-09 3.969614e-09 1.818924e-09 9.459505e-10 1.581041e-09 2.815884e-09 2.405949e-09
2.447287e-09 -5.210517e-11 1.891654e-09 1.306908e-09 3.472821e-10 3.872043e-11 4.310292e-10 -1.846557e-10 1.697189e-09 8.078156e-10
2.607678e-09 -7.250778e-11 1.356674e-09 2.326908e-09 -1.939634e-11 1.263094e-09 1.836356e-10 -1.117106e-09 -5.767914e-11 1.994465e-09
1.896685e-09 -1.432662e-10 7.263539e-10 -6.860402e-10 -5.427028e-10 1.133092e-09 -7.311220e-10 -1.828595e-09 1.105237e-10 7.158099e-10
8.813357e-10 1.305301e-09 -1.049602e-09 1.020042e-09 -1.894305e-09 -2.509663e-09 -9.452684e-10 -1.673966e-09 8.857757e-10 -1.147573e-11
-1.771778e-09 7.525351e-10 -1.605278e-09 -3.437328e-10 -5.455184e-10 -2.241418e-09 -9.658442e-10 -2.490186e-09 4.779778e-11 5.767719e-10
1.486558e-10 -1.703542e-09 7.242940e-11 -5.546050e-10 -2.033895e-09 -2.887056e-10 -1.964737e-09 -7.116102e-10 -3.710808e-09 -1.837757e-09
-2.085428e-09 -6.794968e-10 -2.390402e-09 -6.324178e-10 -2.837112e-09 -2.139383e-09 -4.454579e-10 -1.100109e-09 -9.374764e-10 -2.362536e-09
-2.660785e-09 -1.966519e-09 -2.077956e-09 -2.677896e-09 -2.108539e-09 -1.532274e-09 -2.799509e-09 -1.120803e-09 -8.839633e-10 -1.774594e-09
-3.147421e-09 -4.086651e-09 -1.987514e-09 -4.582281e-09 -8.112165e-10 -3.500463e-09 -3.013017e-09 -4.517406e-09 -2.984535e-09 -1.859195e-09
-2.329640e-09 -1.767859e-09 -3.615210e-09 -2.562437e-09 -3.007499e-09 -2.795871e-09 -1.424342e-09 -2.088457e-09 -4.039336e-09 -3.443657e-09
-1.793715e-09 -2.882129e-09 -2.567039e-09 -3.440106e-09 -1.844695e-09 -3.744723e-09 -3.025743e-09 -4.138915e-09 -3.577512e-09 -2.836356e-09
-3.875203e-09 -1.716131e-09 -1.966809e-09 -2.720808e-09 -7.404448e-10 -2.957879e-09 -5.372453e-09 -3.623540e-09 -1.918315e-09 -4.832463e-09
-2.667915e-09
-1.679749e-09 -2.199930e-09 -4.307453e-09 -2.683321e-09 -3.876158e-09 -2.378236e-09 -3.146723e-09 -3.492347e-09 -2.189184e-09 -2.294993e-09
-4.205649e-09 -2.463074e-09 -4.202874e-09 -1.318215e-09 -4.261073e-09 -4.430626e-09 -2.813819e-09 -2.927926e-09 -2.975812e-09 -1.379901e-09
-1.910865e-09 -3.124156e-09 -4.944789e-09 -2.302131e-09 -4.116578e-09 -3.820714e-09 -2.765005e-09 -2.941064e-09 -2.187583e-09 -2.925000e-09
-6.167907e-09 -3.214993e-09 -1.761345e-09 -3.352146e-09 -3.813487e-09 -2.037535e-09 -4.166953e-09 -1.019097e-09 -3.815957e-09 -1.216948e-09
-1.144572e-09 -1.458644e-09 -3.221815e-09 -2.490340e-09 -1.208028e-09 -3.867095e-09 -1.706413e-09 -4.479633e-09 -8.208597e-10 -2.255341e-09
-1.140654e-09 -2.628435e-09 -1.406149e-09 -1.081386e-09 -1.981680e-09 -1.955877e-09 -2.447987e-09 -2.492483e-09 -3.211511e-09 -9.158017e-10
-2.030721e-09 -2.070316e-09 1.293429e-10 -1.039203e-09 -1.827736e-09 -1.912121e-09 -2.195616e-09 -1.407098e-09 -2.383311e-09 -3.049631e-10
-1.096570e-09 -1.817421e-09 -2.047513e-09 -1.950349e-09 -5.756635e-10 9.061432e-10 -3.919186e-10 2.160632e-10 -2.707973e-10 -9.137838e-10
8.749121e-10 1.335308e-10 -2.382005e-09 1.148442e-09 -3.178927e-09 -2.239000e-10 5.502495e-11 -1.426332e-09 -7.512594e-10 -1.838564e-09
4.622772e-10 -1.251681e-09 -1.377065e-09 -2.395281e-10 1.868175e-09 6.344303e-10 1.855734e-09 2.063904e-09 4.297161e-10 -6.860867e-10
3.393167e-11 -6.447766e-10 1.032966e-09 2.213940e-09 1.764198e-09 1.116417e-09 1.282518e-09 1.755707e-09 7.054577e-10 2.441417e-10
8.889449e-10 2.529680e-09 2.213770e-09 1.001167e-09 6.020156e-10 9.123706e-10 1.091328e-09 8.594332e-10 1.824081e-09 1.946904e-09
9.739077e-10 1.537754e-09 3.441177e-09 3.656709e-09 -1.732627e-10 2.628863e-09 6.215791e-10 2.744269e-09 3.084160e-09 1.296690e-09
2.098780e-09 2.695581e-09 2.884922e-09 2.809243e-09 2.911640e-09 2.073888e-09 1.142161e-09 1.857610e-09 2.562139e-09 9.405060e-10
3.058522e-09 4.041611e-09 1.990102e-10 4.300961e-09 2.519752e-09 2.567923e-09 4.156701e-09 3.132500e-09 1.582663e-09 3.389158e-09
2.939849e-09 3.136972e-09 3.221878e-09 4.352930e-09 3.055060e-09 2.030352e-09 2.045347e-09 4.210436e-10 3.039252e-09 5.246295e-09
2.876026e-09 5.422255e-09 3.312050e-09 2.399827e-09 2.515604e-09 4.077710e-09 1.313829e-09 1.457018e-09 3.231591e-09 2.144838e-09
2.383255e-09 1.588936e-09 2.699078e-09 1.794087e-09 2.167028e-09 1.531065e-09 4.141644e-09 4.416580e-09 3.370336e-09 3.655201e-09
4.676227e-09 2.186228e-09 3.307254e-09 2.188828e-09 3.556587e-09 4.612583e-09 4.560772e-09 3.167392e-09 4.455612e-09 3.256893e-09
2.946879e-09 2.252574e-09 4.228878e-09 1.961886e-09 3.373973e-09 4.135513e-09 2.626026e-09 1.264819e-09 3.567496e-09 2.650969e-09
1.618712e-09 2.504140e-09 3.936258e-09 3.719270e-09 4.020830e-09 4.523597e-09 1.817040e-09 3.306461e-09 3.771072e-09 5.850802e-09
3.838176e-09 1.387387e-09 2.723194e-09 1.056870e-09 4.558494e-09 2.419528e-09 3.873960e-09 2.835329e-09 3.048971e-09 2.582961e-09
3.097488e-09 4.143649e-09 2.940243e-09 7.471828e-10 3.094200e-09 1.959572e-09 3.360396e-09 4.306196e-09 1.685058e-09 2.388596e-09
3.926330e-09 2.401133e-10 2.883016e-09 1.108639e-09 2.331473e-09 1.199523e-09 2.269610e-09 3.310148e-09 1.788406e-09 1.381159e-09
1.282863e-09 2.586498e-10 1.460250e-09 3.954988e-09 2.822409e-09 2.039003e-09 8.260028e-10 3.616963e-09 7.828245e-10 1.094878e-09
1.608307e-09 -4.982906e-10 -5.897303e-10 1.221914e-09 1.434753e-10 -8.247987e-10 1.340363e-09 1.071259e-09 9.740375e-10 1.110729e-11
9.585016e-10 1.566483e-10 5.040960e-10 1.251033e-09 1.046065e-09 6.975012e-10 -5.114159e-10 1.069171e-09 -8.932755e-10 -5.771136e-10
1.026638e-09 5.819351e-10 1.191939e-09 -2.825887e-09 1.020501e-09 5.010242e-10 7.140629e-10 3.281853e-10 8.475733e-11 -1.189420e-10
2.264682e-10 -5.911767e-10 -1.805963e-10 -7.460736e-11 -2.273010e-09 -3.943394e-11 -3.259264e-10 -1.856965e-11 -6.120717e-10 1.847589e-11
-4.005378e-11 -2.501810e-09 -3.354947e-09 -6.632646e-10 -2.700032e-09 -1.857185e-09 2.018258e-10 -1.788062e-09 -2.515101e-09 -1.411034e-09
-2.002358e-09 -4.018502e-09 -5.902843e-10 -2.976042e-10 -5.111853e-09 -2.087688e-09 -3.028253e-09 -1.544803e-09 -2.625465e-09 -7.004585e-10
-2.056824e-09 -3.387497e-09 -2.056390e-09 -3.033404e-09 -2.598600e-09 -2.631376e-09 -2.295354e-09 -1.601531e-09 -3.186842e-09 -2.289316e-09
-3.177157e-09 -2.889215e-09 -3.318117e-09 -2.211021e-09 -3.809074e-09 -2.108641e-09 -1.278574e-09 -1.620707e-09 -2.626687e-09 -1.907819e-09
-5.400589e-10 -3.528169e-09 -4.793695e-09 -3.820697e-09 -3.111952e-09 -2.802591e-09 -2.095760e-09 -3.565030e-09 -4.465491e-09 -2.616385e-09
-2.043230e-09 -3.103459e-09 -3.572438e-09 -1.514413e-09 -3.608084e-09 -4.242022e-09 -2.311076e-09 -3.818245e-09 -3.037526e-09 -3.130992e-09
-3.876574e-09 -4.218893e-09 -1.097039e-09 -4.744862e-09 -2.832930e-09 -2.988711e-09 -1.748962e-09 -3.272508e-09 -3.076484e-09 -3.963542e-09
-1.679749e-09
-2.757502e-09 -2.958845e-09 -3.346621e-09 -3.883199e-09 -1.772976e-09 -3.429950e-09 -5.365507e-09 -1.200923e-09 -5.040445e-09 -4.633157e-09
-3.384250e-09 -3.426969e-09 -3.634287e-09 -5.095835e-09 -5.359237e-09 -2.114483e-09 -3.325165e-09 -5.418296e-09 -3.620348e-09 -2.995305e-09
-2.768332e-09 -4.634460e-09 -3.846215e-09 -9.635049e-10 -2.941048e-09 -2.072995e-09 -4.447981e-09 -2.343377e-09 -2.393491e-09 -2.653142e-09
-1.574396e-09 -2.853223e-09 -1.822384e-09 -4.221042e-09 -3.030987e-09 -3.080206e-09 -3.227856e-09 -2.219059e-09 -2.898585e-09 -3.264906e-09
-3.155163e-09 -3.080427e-09 -2.828252e-09 -1.483006e-09 -1.455762e-09 -1.840566e-09 -3.359682e-09 -2.769110e-09 -3.185511e-09 -2.559932e-09
-2.730098e-09 -1.937450e-09 -3.212065e-09 -2.411746e-09 -1.553933e-09 -2.138201e-09 -1.542869e-09 -1.288361e-09 -1.541456e-09 -1.661160e-09
-1.159595e-09 -3.125381e-09 -2.258449e-09 -1.916117e-09 -1.538065e-09 -1.801303e-09 -2.561234e-09 -7.661716e-10 -9.238335e-10 3.204583e-10
1.820211e-12 -2.506457e-09 6.222386e-11 -7.638670e-10 3.047865e-10 -4.140513e-10 -1.955693e-09 -2.812218e-09 1.183524e-09 -3.978269e-10
3.012695e-10 -1.568839e-09 -1.249493e-09 1.978252e-09 -9.952772e-10 1.821490e-10 3.268107e-10 -1.873770e-09 -1.170992e-09 -7.257148e-10
1.358876e-09 7.131591e-10 2.553999e-09 4.155607e-10 2.528736e-09 1.750651e-10 -1.022567e-09 3.739005e-10 -1.038233e-09 -1.323100e-09
4.079247e-10 1.721985e-09 9.907656e-10 2.554291e-09 2.078931e-09 4.172308e-10 4.949549e-10 1.849319e-09 -1.262397e-09 1.612657e-10
2.246933e-09 8.043006e-10 1.218575e-09 2.792740e-10 -1.716024e-09 3.545813e-10 1.671601e-09 1.645464e-09 2.730986e-09 3.609351e-11
2.734119e-09 1.243176e-09 -3.169817e-10 2.842286e-09 -3.073220e-10 6.210729e-10 2.446290e-09 2.299027e-09 3.697337e-09 1.301096e-09
4.234108e-09 3.621853e-09 3.458117e-09 2.217944e-09 4.153548e-09 3.614214e-09 1.847797e-09 3.514948e-09 9.818562e-10 3.216871e-09
3.670183e-09 2.904963e-09 4.841279e-09 4.344550e-09 9.671682e-10 3.668695e-09 3.885385e-09 2.313362e-09 2.878795e-09 2.975070e-09
2.047603e-09 4.253069e-09 1.368208e-09 3.661015e-09 1.950553e-09 4.775744e-09 3.912752e-09 3.998882e-09 3.056293e-09 2.760289e-09
3.514946e-09 3.833957e-09 4.784388e-09 3.044028e-09 4.637645e-09 3.482950e-09 3.168320e-09 3.300088e-09 3.694894e-09 4.032820e-09
2.377824e-09 3.011072e-09 3.397917e-09 4.017231e-09 5.170886e-09 4.473880e-09 2.766671e-09 3.066329e-09 4.209993e-09 5.205157e-09
4.388179e-09 2.463378e-09 2.859313e-09 4.153873e-09 4.999003e-09 3.105533e-09 2.719019e-09 3.092403e-09 2.568296e-09 5.004102e-09
2.757232e-09 4.381740e-09 4.275319e-09 4.529821e-09 3.502630e-09 3.125969e-09 4.025706e-09 3.438489e-09 4.021734e-09 3.898375e-09
4.742318e-09 3.220077e-09 4.021212e-09 2.413567e-09 2.824154e-09 2.574453e-09 4.615907e-09 3.684163e-09 2.522535e-09 1.842782e-09
3.858247e-09 3.536487e-09 4.222073e-09 2.993500e-09 1.294058e-09 2.561581e-09 1.103298e-09 2.458052e-09 1.655040e-09 3.215980e-09
3.185047e-09 4.438914e-09 2.250697e-09 1.766353e-09 3.197633e-09 2.274408e-09 1.976294e-09 2.158041e-09 4.755104e-09 1.340309e-09
2.110455e-09 2.838046e-09 2.674617e-09 2.163351e-09 1.453822e-09 -9.610268e-10 2.229599e-09 1.249815e-09 -5.817949e-10 1.961043e-09
8.470715e-10 1.232533e-09 1.266464e-09 2.122356e-09 -6.376675e-10 7.390017e-10 5.169413e-10 -9.454503e-10 6.840926e-10 1.974902e-09
1.565956e-09 3.541788e-09 9.367377e-10 1.035212e-09 2.083288e-10 1.489090e-10 5.652560e-10 1.782336e-09 6.735008e-10 1.186676e-09
1.419323e-09 1.013062e-09 -4.808284e-10 1.388607e-09 -9.050021e-10 8.790473e-10 -3.474054e-10 5.737277e-10 2.253983e-09 1.896006e-10
6.333802e-10 1.644381e-09 8.568681e-10 -2.741120e-10 -7.689383e-10 -1.031898e-09 1.114403e-09 -1.942749e-09 -6.019864e-11 -1.610529e-09
-4.099828e-09 -1.070106e-09 -3.591563e-10 -1.466444e-09 -4.066125e-10 -1.187488e-09 -8.140078e-10 -1.807927e-09 -1.161777e-09 -1.548304e-10
-9.734024e-10 -1.539773e-09 -2.165052e-09 -9.294869e-10 -9.379074e-10 -1.300842e-09 -1.666486e-09 -1.936373e-09 -2.840981e-09 -2.022014e-09
-1.221212e-09 -1.715585e-09 -2.691681e-09 -1.844405e-09 -3.244050e-09 -3.135239e-09 -2.815298e-09 -1.571565e-09 -1.772490e-09 -2.017686e-09
-3.638545e-09 -2.191447e-09 -2.673096e-09 -1.935611e-09 -1.875502e-09 -1.727029e-09 -9.275306e-10 -4.052026e-09 -1.829177e-09 -1.346425e-09
-2.279635e-09 -2.231221e-09 -2.415551e-09 -1.687959e-09 -2.763135e-09 -1.986621e-09 -2.214415e-09 -1.496598e-09 -1.920846e-09 -3.741918e-09
-1.738550e-09 -3.100469e-09 -1.812499e-09 -4.652858e-09 -2.638140e-09 -2.900409e-09 -5.605316e-09 -2.629091e-09 -4.076676e-09 -4.707451e-09
-7.853442e-10 -3.965642e-09 -4.956490e-09 -5.097343e-09 -4.476302e-09 -4.256193e-09 -3.870445e-09 -3.283936e-09 -4.683435e-09 -2.238382e-09
-5.118044e-09 -2.760186e-09 -6.083901e-09 -3.113387e-09 -2.501994e-09 -2.785614e-09 -2.582488e-09 -3.590140e-09 -4.638764e-09 -3.529777e-09
-2.757502e-09
-4.645377e-09 -4.890088e-09 -3.272286e-09 -4.765021e-09 -5.264084e-09 -3.705418e-09 -4.464194e-09 -4.165242e-09 -3.811504e-09 -4.128298e-09
-4.057308e-09 -4.112636e-09 -3.877015e-09 -2.098116e-09 -2.396400e-09 -6.192971e-09 -3.502643e-09 -3.360665e-09 -4.345203e-09 -4.902528e-09
-2.476974e-09 -3.027655e-09 -5.543500e-09 -4.542383e-09 -3.501397e-09 -6.050682e-09 -5.252684e-09 -4.147414e-09 -3.371249e-09 -2.215774e-09
-4.250415e-09 -3.143032e-09 -4.309472e-09 -4.558890e-09 -2.843315e-09 -3.951055e-09 -4.486624e-09 -4.890292e-09 -3.201448e-09 -2.599623e-09
-2.165571e-09 -3.209731e-09 -3.094515e-09 -2.452705e-09 -4.139614e-09 -1.640380e-09 -4.041004e-09 -5.239455e-09 -3.317879e-09 -2.239695e-09
-9.402159e-10 -2.303636e-09 -4.003386e-09 -2.939459e-09 -2.490967e-09 -2.898641e-09 -2.002284e-09 -3.148410e-09 -3.820242e-10 -1.553396e-09
-2.083330e-09 -1.623777e-09 -1.733448e-09 -2.615965e-09 -2.557909e-09 -4.232284e-09 -6.873111e-10 -1.925713e-09 1.044042e-10 -2.433355e-09
-2.990819e-09 -1.636736e-09 -1.196229e-09 -8.975864e-10 -6.057554e-10 1.471062e-09 -4.808234e-10 -1.949805e-09 -1.012033e-09 -2.239489e-10
1.631267e-09 -2.904430e-09 1.389460e-10 5.896029e-10 1.355109e-10 -2.155284e-09 6.322145e-10 1.528027e-09 -1.626787e-09 -1.631077e-09
-5.148015e-10 1.523236e-09 -1.954757e-09 -1.436334e-09 5.818435e-10 -8.833201e-10 -9.521166e-10 6.258623e-10 1.644448e-09 2.217209e-09
-4.734548e-10 2.252995e-09 1.206803e-09 3.380735e-09 -1.311217e-09 2.009782e-09 3.728771e-10 2.747024e-09 3.362342e-10 2.325234e-09
2.506277e-09 2.103197e-09 1.941519e-09 8.085176e-10 1.139182e-09 1.680579e-09 3.272549e-09 1.939238e-09 2.176321e-09 2.531912e-09
1.707727e-09 2.573523e-09 2.588200e-09 -3.907373e-10 1.286430e-09 1.219871e-09 2.040122e-09 1.884252e-09 3.135396e-09 2.582407e-09
2.394598e-09 2.339186e-09 2.289829e-09 2.962235e-09 1.337269e-09 2.758020e-09 3.515093e-09 4.232867e-09 1.592028e-09 3.543556e-09
4.647685e-09 2.277991e-09 2.241456e-09 1.011077e-09 8.098140e-10 4.704311e-09 4.377149e-09 2.667972e-09 3.840930e-09 3.295382e-09
3.665692e-09 2.228979e-09 4.295881e-09 2.968551e-09 3.679456e-09 4.460128e-09 5.401228e-09 4.435231e-09 5.242359e-09 4.508042e-09
2.787722e-09 3.773573e-09 3.754114e-09 4.222716e-09 4.045805e-09 3.172047e-09 3.965944e-09 4.045127e-09 3.380438e-09 2.994949e-09
4.243589e-09 3.435802e-09 4.500323e-09 4.517816e-09 6.702566e-09 2.572147e-09 2.916024e-09 3.898941e-09 4.633997e-09 3.413744e-09
3.825924e-09 5.859556e-09 4.804851e-09 2.511685e-09 4.137827e-09 3.900951e-09 2.451992e-09 3.206012e-09 3.466633e-09 2.271734e-09
3.942903e-09 2.144503e-09 2.460615e-09 2.810773e-09 4.070473e-09 4.177570e-09 4.474929e-09 5.491807e-09 4.825446e-09 3.589744e-09
3.752606e-09 2.874511e-09 5.105436e-09 3.042474e-09 3.605004e-09 3.891529e-09 4.231611e-09 5.036314e-09 3.232316e-09 2.265917e-09
1.616547e-09 5.439473e-09 3.274958e-09 4.215630e-09 2.200293e-09 2.697911e-09 4.626048e-09 3.762454e-09 4.433662e-09 4.093849e-09
3.820679e-09 4.005208e-09 1.643851e-09 3.012511e-09 2.006429e-09 2.314103e-09 2.454849e-09 2.135782e-09 2.064227e-09 3.284987e-09
2.543075e-09 3.439794e-09 2.854788e-09 1.778849e-09 4.917052e-09 2.448894e-09 1.458274e-09 2.180961e-09 3.732109e-09 1.038995e-09
3.172261e-09 8.058656e-10 2.891107e-09 1.475409e-09 1.611570e-09 1.801648e-09 3.898724e-09 5.571925e-10 2.447811e-09 1.194863e-09
1.389990e-09 1.096918e-09 1.706383e-09 1.825967e-09 1.299953e-09 5.502781e-10 -9.788657e-11 1.229532e-09 1.698210e-09 3.656121e-09
1.779520e-09 6.379022e-10 2.230995e-09 2.085830e-09 3.519752e-10 -3.880564e-10 -6.109142e-10 6.425589e-10 -7.087300e-10 1.633779e-09
-3.432079e-10 -2.327449e-10 1.474080e-09 7.247827e-10 -1.559259e-09 -1.623732e-09 -1.272347e-09 -2.826377e-09 -9.394453e-10 -1.743338e-09
-2.613476e-11 2.952408e-10 -2.882327e-09 -2.384934e-10 -2.148960e-09 -1.357038e-09 -1.537575e-09 -2.318425e-09 -3.240791e-09 -4.837609e-10
-2.376199e-10 -1.329241e-09 -1.810496e-09 -1.694452e-09 -1.872594e-09 -4.565185e-10 -1.280997e-09 -1.545010e-09 -1.309452e-09 1.860214e-10
-2.669402e-09 -1.727014e-09 -2.586268e-09 -1.708068e-09 -2.711338e-09 -4.232698e-09 -1.860069e-09 -2.949705e-09 -3.204185e-09 -2.755600e-09
-2.177968e-09 -2.024452e-09 -3.629930e-09 -4.113014e-09 -2.990721e-09 -3.521021e-09 -5.011123e-09 -4.229069e-09 -3.086848e-09 -2.920929e-09
-5.180135e-09 -3.341680e-09 -2.479173e-09 -5.119442e-09 -3.277140e-09 -3.649004e-09 -4.022076e-09 -2.712667e-09 -3.455059e-09 -2.319568e-09
-2.728657e-09 -5.491074e-09 -5.354062e-09 -3.478429e-09 -1.770384e-09 -2.042684e-09 -3.955527e-09 -3.581665e-09 -2.771891e-09 -4.892869e-09
-1.768891e-09 -4.375367e-09 -6.264224e-09 -2.497793e-09 -4.507665e-09 -4.707876e-09 -2.964947e-09 -4.632244e-09 -3.903398e-09 -5.051568e-09
-6.857317e-09 -1.868437e-09 -2.979643e-09 -3.047657e-09 -4.033899e-09 -3.953204e-09 -4.567221e-09 -2.716858e-09 -4.508972e-09 -1.769235e-09
-4.645377e-09
-3.102336e-09 -5.305077e-09 -5.369363e-09 -5.400776e-09 -4.472239e-09 -5.186691e-09 -5.268568e-09 -4.904454e-09 -1.974833e-09 -5.134043e-09
-4.726805e-09 -3.917310e-09 -3.957505e-09 -4.740697e-09 -4.720083e-09 -3.691515e-09 -3.411553e-09 -3.515014e-09 -5.393316e-09 -2.631819e-09
-4.860260e-09 -3.656637e-09 -3.410523e-09 -5.097466e-09 -4.256049e-09 -4.033673e-09 -3.401066e-09 -4.080098e-09 -2.887531e-09 -3.161040e-09
-2.924225e-09 -4.544207e-09 -4.027676e-09 -2.717419e-09 -5.022889e-09 -3.183239e-09 -4.586494e-09 -3.621035e-09 -3.134520e-09 -2.420649e-09
-3.357753e-09 -2.935412e-09 -3.122554e-09 -2.527552e-09 -3.111371e-09 -1.460297e-09 -3.050936e-09 -3.283883e-09 -3.432381e-09 -5.039098e-09
-2.899265e-09 -4.218469e-09 -2.259090e-09 -2.450400e-09 -1.474706e-09 -3.374340e-09 -2.668408e-09 -1.861825e-09 -2.741682e-09 -3.149378e-09
-3.177671e-09 -3.596630e-09 -2.387360e-09 -2.859078e-09 -2.188263e-09 -3.194262e-09 -1.130981e-09 -2.767556e-10 -1.018171e-09 -2.160200e-09
-1.732619e-09 -1.537725e-09 -2.886339e-09 -1.347999e-09 -9.351174e-10 -1.716047e-09 -1.808954e-09 -1.040489e-09 -1.411917e-09 -1.414056e-09
-1.087068e-09 -1.812803e-09 -1.478145e-09 -2.372414e-10 6.094502e-10 -5.137224e-11 -2.336004e-09 -1.628197e-09 -1.494568e-10 -2.605393e-09
-9.468278e-12 6.251155e-10 -6.692915e-10 7.945517e-10 2.552026e-10 1.985404e-10 -1.508071e-09 9.171687e-10 7.756291e-10 8.613479e-10
1.332345e-10 1.130249e-09 1.698869e-09 2.370458e-10 7.091431e-10 7.520972e-10 2.343668e-09 4.048201e-10 2.856609e-09 3.543320e-09
2.358922e-09 3.692041e-11 3.884540e-09 1.874206e-09 1.165632e-09 -6.500154e-10 2.033815e-09 2.714020e-09 2.324472e-09 1.028686e-09
2.780549e-09 3.375931e-09 3.066624e-09 2.261155e-09 2.591274e-09 2.517500e-09 3.594104e-09 1.315790e-09 2.158717e-09 3.371947e-09
2.572389e-09 2.590866e-09 2.899159e-09 9.047040e-10 2.258978e-09 2.872880e-09 2.607775e-09 2.851545e-09 3.077374e-09 4.709719e-09
1.267045e-09 3.038779e-09 4.348765e-09 2.551207e-09 2.682609e-09 3.751977e-09 4.572983e-09 4.525372e-09 4.717582e-09 3.814050e-09
3.360912e-09 2.583463e-09 3.857557e-09 2.842975e-09 4.430887e-09 5.321951e-09 3.257196e-09 3.322357e-09 4.192997e-09 3.024930e-09
4.485674e-09 3.117812e-09 3.636671e-09 2.347657e-09 5.142298e-09 4.394294e-09 1.234824e-09 4.945250e-09 2.795826e-09 4.047490e-09
3.790043e-09 4.659804e-09 3.898991e-09 2.833329e-09 3.178818e-09 3.433750e-09 3.961757e-09 4.556513e-09 4.074909e-09 5.949484e-09
4.178051e-09 4.976072e-09 4.697096e-09 3.941335e-09 3.009741e-09 3.760366e-09 5.238107e-09 5.045708e-09 5.314257e-09 3.444281e-09
4.817557e-09 5.677993e-09 5.314702e-09 3.487137e-09 2.709148e-09 6.173968e-09 4.951552e-09 2.248127e-09 4.247636e-09 3.492461e-09
4.192186e-09 5.139461e-09 6.156933e-09 2.528373e-09 4.402779e-09 5.642827e-09 2.927800e-09 3.602406e-09 5.283580e-09 1.438361e-10
4.039590e-09 3.409649e-09 5.014816e-09 3.400018e-09 3.763067e-09 4.418806e-09 1.695830e-09 1.112779e-09 4.133675e-09 3.533458e-09
1.505281e-09 3.265565e-09 3.881419e-09 3.434696e-09 3.662397e-09 3.089737e-09 4.578014e-09 2.153400e-09 4.054051e-09 5.208706e-09
3.030798e-09 2.748206e-09 3.170823e-09 3.140596e-09 3.750400e-09 1.161978e-09 2.205918e-09 1.173697e-09 1.696138e-09 5.163201e-09
8.030849e-10 3.597405e-09 2.683706e-09 2.901270e-09 4.983371e-10 1.801590e-09 2.267213e-09 1.243051e-09 1.466447e-09 3.110982e-09
1.635800e-09 1.701527e-09 1.412951e-09 1.749160e-09 5.075114e-11 2.819823e-09 -7.428606e-11 1.203875e-09 1.092255e-09 1.832408e-09
5.235402e-10 -1.481144e-09 -2.530063e-11 4.306036e-10 9.837361e-10 8.956528e-10 -1.757295e-10 5.063734e-10 -2.950493e-10 9.006046e-10
-2.497788e-09 2.512619e-10 6.848506e-10 -1.741471e-09 -1.415188e-09 1.561741e-09 -1.229075e-09 -1.724780e-09 -1.258906e-09 8.912289e-10
1.045761e-09 1.106539e-09 -2.161415e-09 -1.687822e-09 -2.612062e-10 -1.562788e-09 -1.017424e-09 -1.438709e-09 -1.667996e-09 -2.561707e-09
-2.743040e-09 -8.096672e-10 -2.173941e-10 -1.790116e-09 -1.851017e-09 -8.094940e-10 -2.081808e-09 -2.043282e-09 -2.543895e-09 -3.021803e-09
-5.970349e-10 -2.790639e-09 -3.581478e-09 -1.936586e-09 -2.456722e-09 -3.730682e-09 -1.434844e-09 -2.259376e-09 -3.549593e-09 -2.993365e-09
-3.033260e-09 -2.037805e-09 -3.443096e-09 -3.937802e-09 -2.273258e-09 -3.845857e-09 -1.500565e-09 -3.743601e-09 -2.283279e-09 -5.398543e-09
-1.552973e-09 -3.415435e-09 -3.661594e-09 -3.431072e-09 -1.965522e-09 -4.276389e-09 -3.867961e-09 -4.236707e-09 -4.642235e-09 -2.604841e-09
-5.790374e-09 -4.187740e-09 -4.778148e-09 -5.996286e-09 -3.883002e-09 -4.640200e-09 -3.936368e-09 -4.195612e-09 -4.683078e-09 -5.504373e-09
-3.377018e-09 -3.455285e-09 -3.422577e-09 -5.784427e-09 -5.255547e-09 -5.112720e-09 -5.289855e-09 -5.186782e-09 -5.195480e-09 -4.945162e-09
-5.844244e-09 -5.852687e-09 -4.071018e-09 -5.383173e-09 -5.565091e-09 -3.910257e-09 -3.690286e-09 -2.788076e-09 -5.213337e-09 -2.841510e-09
-3.102336e-09
-3.676292e-09 -4.646167e-09 -5.414799e-09 -4.592104e-09 -4.890115e-09 -6.133973e-09 -5.577848e-09 -4.478111e-09 -4.417685e-09 -3.820996e-09
-3.644247e-09 -5.762875e-09 -5.033529e-09 -3.549263e-09 -3.805233e-09 -2.833048e-09 -6.264472e-09 -4.350639e-09 -3.867792e-09 -4.976337e-09
-3.203041e-09 -3.929242e-09 -4.855485e-09 -6.165046e-09 -4.639673e-09 -5.573378e-09 -3.326596e-09 -4.258887e-09 -5.004031e-09 -3.534146e-09
-3.517780e-09 -5.020186e-09 -3.646636e-09 -4.220065e-09 -4.782261e-09 -5.383312e-09 -3.360411e-09 -2.961450e-09 -2.997884e-09 -4.192354e-09
-4.174982e-09 -4.766492e-09 -2.666506e-09 -4.740772e-09 -3.151851e-09 -7.648278e-10 -4.692115e-09 -2.400520e-09 -3.346825e-09 -2.960238e-09
-2.654440e-09 -4.065843e-09 -7.043665e-10 -1.306663e-09 -1.977327e-09 -2.418191e-09 -3.222398e-09 -1.908650e-09 -4.574641e-09 -3.341237e-09
-8.587177e-10 -3.199937e-09 -7.514188e-10 -3.767636e-09 -1.390572e-09 -1.309413e-09 -1.613113e-09 -3.704316e-09 -1.897303e-09 -2.639866e-09
-2.274055e-09 -4.270931e-10 -2.768511e-09 -2.822424e-09 1.832024e-10 -1.641542e-09 -5.450596e-11 -2.186646e-09 -5.786999e-10 -5.957509e-11
-2.520569e-10 -1.416346e-09 1.178948e-09 -2.731984e-09 -9.238739e-10 1.123683e-10 4.370343e-10 -1.248568e-09 9.836759e-11 1.247165e-09
1.222050e-09 7.600505e-10 2.015321e-10 -8.694509e-10 5.053550e-10 -7.711609e-10 5.008637e-10 1.402419e-09 1.217270e-09 9.265921e-10
3.102041e-09 1.488057e-09 2.254352e-09 -1.110105e-09 2.629110e-09 3.146340e-09 1.122643e-09 1.082511e-09 2.460569e-09 -2.173367e-10
-4.734866e-10 2.738143e-09 2.869259e-09 3.138257e-09 2.904973e-09 2.208081e-09 -4.334442e-10 2.298939e-09 6.229479e-10 1.420938e-09
2.362267e-09 4.365146e-09 -3.230940e-10 2.881164e-09 4.231822e-09 5.352630e-09 5.204079e-09 5.019604e-09 3.876844e-09 3.053620e-09
6.944876e-10 4.095551e-09 2.784879e-09 3.681393e-09 4.668275e-09 3.173557e-09 1.712072e-09 3.013196e-09 4.516589e-09 4.155472e-09
3.396788e-09 3.710299e-09 2.666980e-09 3.955311e-09 3.703133e-09 4.020881e-09 2.620032e-09 3.717204e-09 3.890354e-09 4.124372e-09
3.458053e-09 4.377180e-09 6.082843e-09 2.620004e-09 3.215486e-09 2.807780e-09 3.141559e-09 3.484610e-09 4.031705e-09 4.145251e-09
5.254282e-09 5.712326e-09 3.601218e-09 5.405648e-09 5.144866e-09 3.338303e-09 3.693946e-09 6.024201e-09 5.694963e-09 4.075384e-09
3.442221e-09 4.640782e-09 6.726086e-09 3.700797e-09 5.283808e-09 3.705603e-09 3.158054e-09 4.787177e-09 3.434331e-09 3.006162e-09
5.300876e-09 4.598427e-09 5.005500e-09 5.534161e-09 4.688537e-09 4.795592e-09 5.231167e-09 6.275368e-09 5.293620e-09 5.860338e-09
3.408314e-09 4.507327e-09 5.974127e-09 4.229665e-09 4.604274e-09 6.140535e-09 2.721808e-09 4.233211e-09 5.810683e-09 4.931161e-09
2.159064e-09 4.155662e-09 6.328051e-09 5.612981e-09 2.421573e-09 2.642522e-09 2.985895e-09 2.226465e-09 6.003131e-09 3.191385e-09
4.136897e-09 4.031803e-09 5.615478e-09 3.357645e-09 3.733753e-09 4.298383e-09 4.339161e-09 4.266211e-09 3.106210e-09 3.546669e-09
5.336936e-09 4.356871e-09 3.663613e-09 5.885153e-09 4.267852e-09 2.237963e-09 1.613976e-09 5.550567e-09 4.172382e-09 2.792128e-09
2.767622e-09 3.812559e-09 2.082657e-09 1.917033e-09 2.178636e-09 1.634162e-09 2.034970e-09 2.058041e-09 3.565858e-09 9.588667e-10
2.567470e-09 1.669728e-09 2.912297e-09 3.659594e-09 3.309954e-09 1.116732e-09 2.350094e-09 2.626650e-09 1.818777e-09 1.576625e-09
1.180125e-09 7.103804e-10 2.574282e-09 4.470181e-09 1.146994e-09 2.441687e-09 5.720410e-10 1.666779e-09 6.577253e-10 2.649325e-09
2.270123e-09 2.617991e-10 1.058767e-09 2.599975e-09 -6.574308e-10 1.757994e-09 7.776311e-10 -8.904461e-10 8.398382e-10 -5.718186e-10
-1.257728e-09 -4.629705e-10 1.685613e-09 -6.107181e-11 -9.648141e-10 1.390540e-09 -2.654390e-11 -2.153422e-09 1.472276e-11 2.317289e-10
-1.063437e-09 5.649718e-10 -3.994986e-09 -2.779745e-11 -2.780662e-09 -1.241924e-09 -1.508410e-09 -1.757919e-09 -2.738166e-09 -3.264472e-09
-3.802269e-09 -1.611821e-09 -2.012617e-09 -1.971970e-09 -3.404538e-09 -6.658394e-10 -3.409907e-09 -4.974073e-09 -2.774505e-09 -2.412195e-09
-1.592218e-09 -3.975668e-09 -4.361094e-09 -2.837535e-09 -2.284895e-09 -2.755270e-09 -2.260352e-09 -2.899016e-09 -3.743958e-09 -2.192657e-09
-3.254590e-09 -3.336025e-09 -5.159091e-09 -5.658439e-09 -3.600521e-09 -2.873396e-09 -4.215782e-09 -6.327323e-09 -4.697012e-09 -4.465595e-09
-3.622191e-09 -3.036713e-09 -4.670107e-09 -4.712545e-09 -1.305639e-09 -2.878573e-09 -2.821175e-09 -4.096087e-09 -2.403566e-09 -2.811664e-09
-4.395071e-09 -6.018453e-09 -3.472198e-09 -2.499874e-09 -2.071428e-09 -3.344766e-09 -4.382539e-09 -4.023764e-09 -7.848197e-09 -5.272057e-09
-5.177270e-09 -4.414467e-09 -5.702368e-09 -5.262989e-09 -3.274769e-09 -2.955258e-09 -4.510854e-09 -3.805578e-09 -4.578153e-09 -5.944807e-09
-5.182055e-09 -4.855652e-09 -4.028423e-09 -4.259658e-09 -6.437947e-09 -5.916799e-09 -3.231316e-09 -6.214749e-09 -3.653001e-09 -3.534627e-09
-3.676292e-09
-3.927555e-09 -2.910147e-09 -4.780189e-09 -5.464228e-09 -4.615591e-09 -5.671235e-09 -4.728375e-09 -4.924147e-09 -5.530703e-09 -4.950126e-09
-6.242573e-09 -4.520751e-09 -4.037085e-09 -5.425645e-09 -3.025856e-09 -4.162163e-09 -3.605374e-09 -7.248933e-09 -3.664804e-09 -6.453134e-09
-4.610391e-09 -4.226351e-09 -5.427248e-09 -3.927428e-09 -5.384212e-09 -4.621638e-09 -4.329725e-09 -4.619173e-09 -3.255862e-09 -4.017290e-09
-5.794158e-09 -4.073123e-09 -4.736707e-09 -3.928620e-09 -5.422410e-09 -4.601697e-09 -4.587486e-09 -3.965784e-09 -1.254842e-09 -4.585442e-09
-3.340939e-09 -4.359778e-09 -4.173376e-09 -3.904683e-09 -4.275834e-09 -2.764342e-09 -2.182076e-09 -4.598147e-09 -2.003382e-09 -4.607423e-09
-5.112540e-09 -1.481725e-09 -2.792110e-09 -1.014105e-09 -2.691824e-09 -3.475122e-09 -2.037711e-09 -7.989092e-10 -2.661623e-09 -2.830851e-09
-2.892237e-09 -4.140199e-09 -4.188594e-09 -3.851720e-09 -1.762425e-09 -2.573539e-09 -1.320957e-09 -1.899239e-09 -1.485607e-09 -3.116375e-09
-1.754565e-09 -3.211756e-09 -6.488539e-10 2.924810e-10 -1.860468e-09 -4.437051e-10 -1.828822e-09 -1.991070e-09 -9.093475e-10 -1.595034e-09
-2.225397e-09 -1.422037e-09 -4.624364e-10 -1.169096e-09 -5.413329e-10 5.750665e-10 -7.065874e-11 -1.428007e-09 4.037492e-10 2.504174e-10
-1.338003e-09 -1.684293e-09 1.710648e-09 1.384107e-09 1.119980e-09 1.466409e-09 -6.054248e-10 7.999499e-10 2.338425e-09 1.568419e-09
4.028293e-09 1.471838e-09 1.172240e-09 1.560457e-09 -3.576347e-10 2.458196e-10 2.802613e-09 3.380680e-10 2.788843e-09 1.762085e-09
1.758373e-09 2.087562e-09 1.896155e-09 1.918236e-09 4.378985e-10 2.326131e-09 4.189033e-09 2.927236e-09 1.852896e-09 4.467793e-09
1.325157e-09 -2.547858e-10 1.710474e-09 4.950729e-09 1.246700e-09 2.626546e-09 3.251230e-09 1.909669e-09 5.194247e-09 3.173887e-09
3.226981e-09 5.262020e-09 5.274858e-09 3.133523e-09 2.774271e-09 3.832955e-09 3.979172e-09 2.713536e-09 3.266225e-09 3.629833e-09
3.903736e-09 6.189549e-09 4.122529e-09 3.312995e-09 4.749883e-09 3.932486e-09 5.482326e-09 2.821506e-09 2.695479e-09 4.149737e-09
6.351835e-09 3.410761e-09 4.288760e-09 2.670741e-09 4.761480e-09 4.526065e-09 4.094761e-09 5.606321e-09 7.799072e-09 5.226657e-09
3.249952e-09 3.089141e-09 4.807076e-09 4.768693e-09 4.218850e-09 4.168830e-09 5.738785e-09 4.965679e-09 4.191647e-09 5.476799e-09
5.431009e-09 3.271960e-09 7.006681e-09 4.113846e-09 5.619095e-09 5.878288e-09 5.540988e-09 3.491039e-09 3.591100e-09 4.150001e-09
5.434060e-09 5.607660e-09 5.328600e-09 5.291862e-09 4.889175e-09 5.000029e-09 6.959226e-09 4.359769e-09 5.338112e-09 4.713975e-09
3.960582e-09 4.465591e-09 7.608598e-09 4.628552e-09 5.428318e-09 4.816735e-09 3.616682e-09 5.132434e-09 4.968664e-09 6.633807e-09
3.372020e-09 3.407334e-09 6.114801e-09 8.588255e-09 4.382547e-09 3.841438e-09 3.734669e-09 4.475349e-09 2.700723e-09 5.472797e-09
3.289893e-09 5.414082e-09 5.339952e-09 3.577274e-09 3.675281e-09 3.381806e-09 4.721153e-09 4.199951e-09 3.735788e-09 3.473495e-09
3.586090e-09 4.638311e-09 2.829058e-09 5.346165e-09 3.338593e-09 4.760954e-09 4.740976e-09 4.634319e-09 4.533115e-09 2.884298e-09
3.378659e-09 3.069497e-09 1.017271e-09 2.396762e-09 1.332395e-09 1.755557e-09 1.214704e-09 2.709235e-09 9.455073e-10 3.123117e-09
3.330458e-09 2.315990e-10 1.989960e-09 1.850961e-09 4.721695e-09 1.186325e-09 2.403439e-09 5.867685e-10 8.622387e-10 7.445249e-10
1.267826e-09 3.975061e-09 3.350294e-09 7.184589e-10 -5.092225e-10 1.367982e-09 2.080970e-09 -5.640788e-10 2.861582e-09 1.983024e-09
5.478280e-10 3.179325e-09 -5.867678e-10 -2.553743e-09 1.896042e-09 2.871463e-10 -4.551916e-10 -1.585794e-09 1.116632e-09 -1.415029e-09
-8.611594e-10 3.380359e-10 1.177259e-09 -1.582194e-09 1.723947e-09 -3.143360e-10 -9.050005e-10 1.050784e-11 3.197652e-10 7.621970e-11
-7.910329e-10 7.729685e-10 8.922518e-10 -1.839114e-09 -1.239339e-09 -1.985948e-09 -2.122213e-09 -1.681846e-09 -2.255194e-10 -1.726636e-09
-1.015456e-09 -2.732246e-10 -2.650789e-09 -2.665398e-09 -7.344820e-10 -1.744091e-09 -4.808445e-09 -1.614719e-09 -2.810779e-09 -7.603251e-10
-2.171144e-09 -2.631712e-09 -4.646413e-09 -4.135359e-09 -1.710091e-09 -4.242775e-09 -3.358739e-09 -3.357405e-09 -3.316198e-09 -2.681998e-09
-4.690248e-09 -4.007509e-09 -4.848314e-09 -2.253215e-09 -5.344754e-09 -2.756821e-09 -2.894965e-09 -6.354258e-09 -3.677459e-09 -1.941064e-09
-4.539208e-09 -2.879456e-09 -5.249880e-09 -2.328443e-09 -4.369591e-09 -5.076951e-09 -3.805388e-09 -4.746476e-09 -3.216587e-09 -3.809471e-09
-3.747356e-09 -4.337617e-09 -7.007582e-09 -4.738902e-09 -4.393257e-09 -5.884429e-09 -5.625173e-09 -5.050206e-09 -5.042059e-09 -3.718395e-09
-4.115020e-09 -4.720509e-09 -5.987061e-09 -5.947706e-09 -7.068554e-09 -4.741667e-09 -7.538557e-09 -5.821372e-09 -4.124335e-09 -6.039107e-09
-3.280067e-09 -7.091223e-09 -5.594685e-09 -6.131279e-09 -4.497380e-09 -6.562131e-09 -6.670689e-09 -4.017600e-09 -4.274186e-09 -6.008391e-09
-3.927555e-09
-5.084841e-09 -5.782654e-09 -5.833685e-09 -4.918178e-09 -7.583563e-09 -5.137389e-09 -6.151300e-09 -5.158496e-09 -4.381576e-09 -5.920729e-09
-5.878646e-09 -6.341101e-09 -5.346953e-09 -6.935154e-09 -3.979650e-09 -5.913009e-09 -4.999222e-09 -4.300537e-09 -5.813214e-09 -4.581871e-09
-5.254609e-09 -7.206302e-09 -4.933252e-09 -4.032274e-09 -4.904985e-09 -3.695816e-09 -4.619525e-09 -4.112295e-09 -3.994390e-09 -6.320327e-09
-4.890343e-09 -4.366008e-09 -4.165177e-09 -4.070689e-09 -2.659820e-09 -5.345882e-09 -4.834261e-09 -5.608555e-09 -4.444248e-09 -4.758201e-09
-3.192732e-09 -5.689635e-09 -3.053918e-09 -5.244006e-09 -1.716588e-09 -6.000664e-09 -3.717836e-09 -4.007620e-09 -4.289292e-09 -4.228463e-09
-4.223865e-09 -4.437842e-09 -2.184563e-09 -4.329169e-09 -2.924662e-09 -4.342368e-09 -2.978219e-09 -2.639142e-09 -2.294817e-09 -3.669365e-09
-2.632995e-09 -1.518262e-09 -3.414295e-09 -2.476470e-09 -2.606420e-09 -2.839870e-09 -3.606526e-09 -2.442267e-09 -2.707480e-09 -4.604241e-09
-2.810091e-09 -2.033261e-09 -1.645961e-09 -6.031240e-10 -8.146802e-10 7.818031e-10 -1.226840e-09 -3.386061e-10 -4.868956e-10 -1.274185e-09
-1.058415e-09 -6.269090e-10 -8.578018e-10 -1.607777e-09 -3.317569e-10 -1.449754e-09 1.543671e-09 -7.566333e-10 1.107523e-11 -5.042608e-10
-6.594086e-10 1.187616e-09 1.833246e-09 -3.987569e-10 1.606569e-09 -5.907764e-10 2.084556e-09 1.507208e-10 1.871005e-09 -4.230810e-11
-2.337199e-10 3.007288e-10 2.362946e-09 3.424032e-09 1.121869e-09 2.314293e-09 3.020184e-09 1.574893e-09 1.650349e-10 1.636457e-09
1.872860e-09 1.041731e-09 2.910856e-09 1.501578e-09 1.864927e-09 7.932400e-10 5.373561e-09 2.687159e-09 3.317656e-09 2.140418e-09
2.914400e-09 3.421390e-09 2.657852e-09 1.534260e-09 1.957516e-09 4.809630e-09 2.544451e-09 4.304840e-09 2.324752e-09 4.051322e-09
3.334022e-09 4.940692e-09 5.108371e-09 3.249045e-09 4.841258e-09 2.838802e-09 2.202105e-09 2.996505e-09 3.470374e-09 3.596478e-09
3.826743e-09 5.867202e-09 5.102957e-09 3.717132e-09 3.163586e-09 5.348832e-09 5.210760e-09 5.347784e-09 4.285911e-09 3.830630e-09
3.934865e-09 5.417419e-09 4.014034e-09 4.765845e-09 5.698034e-09 4.300028e-09 3.655966e-09 5.857967e-09 4.077422e-09 6.931879e-09
4.052895e-09 5.927789e-09 4.647030e-09 5.392916e-09 6.154026e-09 5.973178e-09 2.869820e-09 5.326485e-09 4.211230e-09 4.164699e-09
6.396192e-09 6.496144e-09 4.593852e-09 4.093419e-09 5.951665e-09 4.222199e-09 5.964905e-09 5.261126e-09 4.617075e-09 4.240157e-09
4.781906e-09 6.435994e-09 5.045733e-09 7.757692e-09 6.132342e-09 5.074288e-09 5.359340e-09 5.344325e-09 4.110827e-09 5.120630e-09
5.171542e-09 5.686524e-09 5.869753e-09 6.475879e-09 5.029411e-09 4.943067e-09 7.248646e-09 4.322522e-09 5.834750e-09 5.350101e-09
5.270037e-09 6.352957e-09 4.515047e-09 3.396326e-09 5.215942e-09 4.713673e-09 4.420469e-09 5.612976e-09 3.404507e-09 3.350897e-09
4.266493e-09 4.412274e-09 5.563091e-09 5.446680e-09 4.161596e-09 5.614906e-09 5.538135e-09 4.750306e-09 4.003712e-09 1.806698e-09
5.625629e-09 3.872285e-09 1.550097e-09 5.641873e-09 5.065335e-09 2.873756e-09 1.638280e-09 4.016735e-09 2.431510e-09 2.667393e-09
2.815334e-09 3.498462e-09 3.955351e-09 4.385846e-09 2.503892e-09 2.168318e-09 9.241963e-10 3.443115e-09 2.029973e-09 4.566762e-09
2.759519e-09 2.009428e-09 1.906018e-09 2.914643e-09 3.250123e-09 2.708144e-09 2.418042e-09 3.890497e-09 2.849937e-09 3.205709e-09
-1.128459e-09 4.161753e-10 2.720823e-09 1.700569e-09 1.655423e-09 2.181186e-09 1.269949e-09 1.393114e-09 2.240412e-10 -1.476287e-09
2.788192e-09 7.398884e-10 1.187174e-09 5.193616e-10 -1.309686e-11 -3.680577e-10 2.822383e-09 1.079328e-09 -1.341664e-09 8.651280e-10
1.034748e-09 4.779859e-10 -1.103480e-10 -2.743890e-09 -2.797700e-09 2.161556e-10 -3.254137e-10 -1.536846e-09 3.802858e-10 -1.251687e-09
-1.881366e-10 -1.312577e-09 -1.925358e-09 -3.423521e-10 -1.043194e-09 -1.360971e-09 -2.120204e-09 -1.559505e-09 -1.173036e-09 -2.015295e-09
-2.522633e-09 -6.850736e-10 -2.289519e-09 -1.284725e-09 -1.461508e-09 -4.555394e-09 -3.578970e-09 -3.768468e-09 -4.444737e-09 -3.292457e-09
-3.051576e-09 -3.411921e-09 -3.674386e-09 -3.205533e-09 -2.626865e-09 -2.663141e-09 -4.098520e-09 -5.375982e-09 -2.881837e-09 -3.565251e-09
-3.898123e-09 -2.056085e-09 -6.142458e-09 -4.978551e-09 -3.356394e-09 -2.326743e-09 -3.778519e-09 -5.446106e-09 -3.107792e-09 -7.261856e-09
-5.017514e-09 -4.818383e-09 -3.166772e-09 -5.005493e-09 -5.204432e-09 -5.321486e-09 -5.162612e-09 -2.922168e-09 -3.926580e-09 -5.033386e-09
-4.952893e-09 -4.415777e-09 -3.829915e-09 -6.364205e-09 -4.868784e-09 -6.640150e-09 -5.417489e-09 -5.870172e-09 -5.253554e-09 -3.702459e-09
-7.931388e-09 -5.934091e-09 -4.217145e-09 -4.759405e-09 -5.140977e-09 -5.727204e-09 -4.341368e-09 -6.122365e-09 -5.653585e-09 -3.395116e-09
-4.603868e-09 -5.909342e-09 -4.107311e-09 -2.952142e-09 -4.810219e-09 -4.183947e-09 -5.423536e-09 -3.650528e-09 -5.193300e-09 -6.166685e-09
-5.084841e-09
-4.967893e-09 -5.832401e-09 -4.550516e-09 -4.989639e-09 -6.822854e-09 -5.950465e-09 -5.444669e-09 -4.502452e-09 -7.725055e-09 -6.053926e-09
-6.214997e-09 -6.507316e-09 -4.049074e-09 -5.458132e-09 -4.991652e-09 -7.145646e-09 -5.930786e-09 -5.550186e-09 -7.096426e-09 -5.051128e-09
-4.564155e-09 -5.131382e-09 -3.684970e-09 -5.071078e-09 -4.728087e-09 -4.169672e-09 -4.615397e-09 -6.888244e-09 -6.517650e-09 -5.696304e-09
-5.082800e-09 -5.960254e-09 -4.954752e-09 -6.471859e-09 -5.424217e-09 -6.175218e-09 -5.229728e-09 -5.099119e-09 -4.204063e-09 -3.457031e-09
-7.089606e-09 -4.025423e-09 -5.325720e-09 -4.526278e-09 -6.051664e-09 -4.912151e-09 -5.654918e-09 -4.836666e-09 -2.803440e-09 -3.454935e-09
-4.584511e-09 -3.695045e-09 -3.841913e-09 -2.849474e-09 -2.038754e-09 -2.967470e-09 -3.360497e-09 -3.105147e-09 -5.285438e-09 -2.265928e-09
-4.042011e-09 -3.662343e-09 -3.513257e-09 -2.475526e-09 -2.546917e-09 -2.411139e-09 -4.293400e-09 -1.548590e-09 -2.461824e-09 -2.005899e-09
-2.809014e-09 -1.824524e-09 -2.305118e-09 -1.009801e-09 -1.377733e-09 -7.631977e-10 3.533604e-10 -2.348351e-10 -6.485921e-10 -2.057485e-09
-1.614427e-09 -8.270506e-10 6.511567e-10 -4.831015e-10 2.910688e-10 -1.796771e-09 7.086352e-10 -2.319257e-09 -4.253763e-10 -5.105085e-10
2.280917e-10 -9.456578e-10 5.096551e-10 2.358074e-09 -7.083743e-10 5.416759e-10 3.631445e-10 3.376305e-10 5.455730e-10 1.089650e-09
2.337218e-09 2.495061e-09 -7.401594e-11 2.287788e-09 2.069413e-10 1.348972e-09 1.299681e-09 1.362847e-09 2.667988e-09 2.340091e-09
2.988123e-09 2.842138e-09 9.884721e-10 5.367253e-09 1.222160e-09 1.355339e-09 3.186678e-09 3.373190e-09 2.042599e-09 4.129435e-09
4.421249e-09 3.097210e-09 5.225801e-09 4.350060e-09 1.634691e-09 2.391823e-09 2.346203e-09 3.049698e-09 4.261487e-09 4.380903e-09
3.577435e-09 3.557546e-09 5.131497e-09 5.742033e-09 3.790191e-09 4.201169e-09 4.881831e-09 6.162985e-09 4.335939e-09 3.391083e-09
7.023615e-09 6.901754e-09 5.464697e-09 6.454203e-09 6.065775e-09 5.582511e-09 6.620265e-09 6.008823e-09 5.231017e-09 6.385889e-09
5.766974e-09 4.031959e-09 4.009431e-09 4.845930e-09 6.517779e-09 5.112403e-09 6.766613e-09 5.725832e-09 5.374828e-09 5.722260e-09
7.801005e-09 5.080243e-09 4.972259e-09 5.102123e-09 5.644269e-09 4.779786e-09 4.752239e-09 4.857465e-09 5.028761e-09 3.422007e-09
4.642870e-09 7.000801e-09 5.174849e-09 5.631713e-09 3.528277e-09 4.690532e-09 5.852101e-09 6.581880e-09 6.774105e-09 4.942780e-09
6.793561e-09 4.655384e-09 6.060251e-09 6.350163e-09 5.645736e-09 5.310111e-09 5.298284e-09 6.947915e-09 6.069783e-09 5.498605e-09
6.790639e-09 6.827268e-09 6.467816e-09 3.988013e-09 5.848232e-09 5.104468e-09 6.423037e-09 3.835869e-09 6.425685e-09 5.818556e-09
4.677967e-09 4.879249e-09 6.848409e-09 5.401022e-09 3.924548e-09 5.578098e-09 4.270269e-09 4.396997e-09 6.618759e-09 4.706466e-09
4.566911e-09 5.191122e-09 5.040150e-09 3.349397e-09 5.235408e-09 4.596693e-09 5.206308e-09 4.683663e-09 4.074271e-09 4.740061e-09
5.596762e-09 4.253270e-09 4.228094e-09 4.809699e-09 3.808138e-09 3.241120e-09 6.325942e-09 2.905723e-09 4.692509e-09 4.600832e-09
3.062577e-09 3.989787e-09 3.515730e-09 2.274417e-09 3.171509e-09 4.044674e-09 2.742278e-09 2.923589e-09 2.467796e-09 4.637088e-09
4.210240e-09 1.799107e-09 2.428579e-09 2.218294e-09 2.217053e-09 2.252488e-09 3.341376e-09 1.717641e-09 2.366545e-09 1.516387e-09
2.943490e-09 3.397446e-10 1.898203e-09 1.806733e-09 1.169775e-09 8.251684e-10 1.335856e-09 -1.242218e-09 1.509108e-09 1.563000e-09
6.037092e-10 3.579123e-10 1.876763e-09 1.150701e-09 -1.039631e-09 1.075169e-09 1.176203e-09 1.968393e-09 4.326160e-10 5.118024e-10
-8.126110e-10 -1.589659e-09 -1.552256e-09 -6.814531e-10 -7.877274e-10 -6.447495e-11 -1.013764e-09 -1.307525e-09 -4.062259e-10 -5.104656e-10
-2.648417e-09 -4.649851e-10 -4.202610e-09 -1.250023e-09 -3.341646e-09 -1.622124e-09 -2.638945e-09 -1.139538e-09 -1.189013e-09 -3.949383e-09
-6.683152e-10 -1.130375e-09 -2.518561e-09 -3.078705e-09 -3.280134e-09 -2.369087e-09 -3.690506e-09 -1.098264e-09 -2.338290e-09 -2.281092e-09
-4.173354e-09 -3.608120e-09 -3.197170e-09 -2.931109e-09 -3.491837e-09 -5.457425e-09 -1.865226e-09 -2.965782e-09 -1.394659e-09 -3.681490e-09
-4.277295e-09 -5.093137e-09 -4.080555e-09 -5.075822e-09 -4.371090e-09 -5.917851e-09 -5.224002e-09 -3.545710e-09 -4.332926e-09 -4.055515e-09
-2.270646e-09 -4.726872e-09 -6.686890e-09 -5.882095e-09 -4.104180e-09 -6.172807e-09 -5.212141e-09 -5.862587e-09 -4.577293e-09 -4.126111e-09
-2.680771e-09 -4.435887e-09 -5.373630e-09 -6.493002e-09 -4.318188e-09 -5.802768e-09 -4.297569e-09 -4.600476e-09 -5.040015e-09 -5.609973e-09
-6.318558e-09 -3.980543e-09 -5.672996e-09 -5.000644e-09 -3.313405e-09 -6.337984e-09 -5.861855e-09 -4.754562e-09 -7.658533e-09 -6.122042e-09
-5.031140e-09 -3.981257e-09 -7.581083e-09 -5.036476e-09 -6.112744e-09 -4.973252e-09 -7.779499e-09 -4.795491e-09 -6.276041e-09 -5.309633e-09
-4.967893e-09
-6.904631e-09 -6.629948e-09 -5.897901e-09 -6.052235e-09 -4.112339e-09 -5.856322e-09 -5.867996e-09 -6.478416e-09 -5.053357e-09 -4.713471e-09
-5.069548e-09 -5.861514e-09 -8.309896e-09 -6.709959e-09 -5.064437e-09 -5.088904e-09 -6.567353e-09 -6.556860e-09 -6.190437e-09 -6.749308e-09
-5.256025e-09 -4.850577e-09 -4.729568e-09 -6.462029e-09 -6.877117e-09 -5.676564e-09 -5.132554e-09 -5.163148e-09 -8.231187e-09 -5.621516e-09
-5.884418e-09 -5.012362e-09 -4.510806e-09 -4.952994e-09 -4.417724e-09 -4.674071e-09 -6.820851e-09 -3.376109e-09 -6.158313e-09 -5.702416e-09
-6.156659e-09 -5.743753e-09 -7.533200e-09 -7.938766e-09 -5.162414e-09 -4.958362e-09 -3.653366e-09 -4.533252e-09 -3.686232e-09 -4.688181e-09
-5.476887e-09 -3.090468e-09 -2.479241e-09 -3.666979e-09 -2.065918e-09 -2.194719e-09 -2.478578e-09 -3.660698e-09 -2.757174e-09 -5.144754e-09
-1.486760e-09 -2.476993e-09 -3.294467e-09 -2.364472e-09 -4.080311e-09 -1.789000e-09 -2.210770e-09 -2.919382e-09 -4.194576e-10 -1.884810e-09
-3.108600e-09 -3.112179e-09 -3.444776e-09 -1.624566e-09 -3.413693e-09 -2.139703e-09 -1.668405e-09 -3.304988e-09 -1.148539e-09 -4.214417e-10
7.033473e-10 5.485707e-10 -2.671033e-10 -9.478539e-10 -9.346446e-10 3.529272e-10 -1.306035e-09 -6.980352e-10 -1.796519e-10 -3.965774e-10
-1.704688e-10 -1.259356e-09 5.899281e-11 -3.653602e-10 -3.816534e-10 -6.732073e-10 8.828181e-10 6.666083e-10 6.418308e-10 1.672364e-09
2.799479e-10 1.707912e-09 1.563113e-09 1.582912e-09 9.836069e-10 2.187091e-09 1.948036e-09 4.160649e-09 -1.446329e-09 2.340556e-09
1.835323e-09 1.318827e-09 1.925749e-09 1.769790e-09 2.391155e-09 2.947774e-09 2.668837e-09 1.559391e-09 2.325660e-09 1.485499e-09
4.363580e-09 3.816434e-09 1.906298e-09 3.105550e-09 2.003856e-09 4.709931e-09 4.980149e-09 3.551870e-09 2.664944e-09 3.390446e-09
5.351853e-09 2.829145e-09 2.808228e-09 2.863883e-09 5.215353e-09 3.378495e-09 4.088243e-09 4.314765e-09 6.644672e-09 4.139120e-09
3.774993e-09 4.499719e-09 6.570021e-09 4.503736e-09 5.504978e-09 4.677819e-09 6.631726e-09 7.115255e-09 5.983800e-09 4.573938e-09
5.080173e-09 6.588321e-09 5.255377e-09 6.407169e-09 7.197865e-09 7.124569e-09 4.407854e-09 5.706332e-09 5.098558e-09 7.422306e-09
6.324185e-09 5.764387e-09 5.984528e-09 8.119745e-09 6.160567e-09 6.727469e-09 6.300798e-09 5.742047e-09 5.063947e-09 5.744910e-09
5.314296e-09 5.244095e-09 7.950395e-09 6.556915e-09 6.717669e-09 6.074248e-09 7.181595e-09 9.668383e-09 5.349033e-09 6.416387e-09
5.549565e-09 4.667254e-09 6.372501e-09 6.967887e-09 7.157613e-09 5.198784e-09 5.495190e-09 7.177869e-09 7.343465e-09 7.338193e-09
4.853182e-09 7.141546e-09 3.790067e-09 6.518635e-09 7.685343e-09 5.252249e-09 6.395069e-09 7.007812e-09 5.089975e-09 5.020407e-09
4.193556e-09 5.246765e-09 4.994472e-09 6.791110e-09 6.958808e-09 5.122437e-09 4.881485e-09 7.042093e-09 4.892643e-09 7.641723e-09
7.343777e-09 4.632396e-09 5.515299e-09 3.383789e-09 4.781101e-09 4.422458e-09 5.005376e-09 5.731620e-09 4.502469e-09 4.621132e-09
6.144588e-09 5.316516e-09 7.557410e-09 5.286406e-09 5.316637e-09 4.162465e-09 2.710079e-09 5.101413e-09 2.614641e-09 4.757957e-09
3.406903e-09 3.714990e-09 4.978450e-09 3.064274e-09 3.549221e-09 1.498787e-09 4.849274e-09 3.669705e-09 2.807802e-09 3.260713e-09
3.884654e-09 2.943144e-09 2.501828e-09 2.291702e-09 2.278325e-09 5.120365e-09 3.134651e-09 3.014453e-09 3.829968e-09 4.114899e-09
8.786192e-10 5.474757e-10 2.532568e-09 -5.030351e-10 4.260808e-10 2.832377e-09 2.343796e-09 5.415273e-10 9.546198e-10 9.740003e-10
-2.903570e-10 5.427532e-11 2.447315e-10 1.054276e-09 1.646316e-09 3.873889e-10 -3.008442e-10 1.588065e-09 7.354966e-10 -3.347745e-10
-2.773647e-10 1.828915e-11 1.350013e-10 1.286828e-09 1.540856e-09 -2.278614e-09 -1.578459e-09 -6.370702e-10 -7.022824e-10 -1.859522e-09
-1.785944e-09 -7.689502e-10 -2.632784e-09 2.600301e-10 -2.800106e-09 -1.876355e-09 -1.735405e-09 -1.367555e-09 -2.958104e-09 -2.839621e-09
-3.190492e-09 -1.509218e-09 -1.356280e-09 -2.554364e-09 -2.556393e-09 -2.241987e-09 -1.536393e-09 -3.655183e-09 -4.171526e-09 -3.343364e-09
-3.799491e-09 -2.321539e-09 -2.868860e-09 -4.353065e-09 -5.165512e-09 -1.155769e-09 -4.666601e-09 -2.899353e-09 -2.274754e-09 -4.872747e-09
-4.538061e-09 -3.713033e-09 -4.935405e-09 -4.286539e-09 -3.690962e-09 -5.117935e-09 -5.939572e-09 -4.203727e-09 -6.737410e-09 -5.081557e-09
-4.852178e-09 -4.434584e-09 -3.698143e-09 -4.327052e-09 -3.786671e-09 -6.426393e-09 -5.646888e-09 -4.737987e-09 -4.908395e-09 -5.592936e-09
-7.090140e-09 -6.309728e-09 -4.933869e-09 -5.795687e-09 -4.543526e-09 -5.780022e-09 -6.288754e-09 -7.346350e-09 -4.865815e-09 -7.258411e-09
-5.345397e-09 -5.674151e-09 -5.429654e-09 -6.050033e-09 -8.063209e-09 -6.884764e-09 -5.938493e-09 -5.390623e-09 -5.339713e-09 -5.004866e-09
-5.587603e-09 -5.504991e-09 -5.771247e-09 -6.405153e-09 -4.902288e-09 -5.690955e-09 -8.201462e-09 -6.985992e-09 -7.785004e-09 -5.886742e-09
-6.904631e-09
-6.940029e-09 -7.645418e-09 -5.534474e-09 -6.514985e-09 -6.759800e-09 -7.398193e-09 -5.124897e-09 -5.197228e-09 -7.197901e-09 -4.737799e-09
-6.603031e-09 -6.589524e-09 -7.125689e-09 -6.071023e-09 -6.708640e-09 -6.515020e-09 -5.271811e-09 -6.998921e-09 -7.506007e-09 -5.591630e-09
-6.138701e-09 -5.704340e-09 -5.657460e-09 -4.210322e-09 -7.890415e-09 -7.086889e-09 -5.820738e-09 -4.626877e-09 -5.990234e-09 -6.210497e-09
-6.450042e-09 -6.374291e-09 -6.156233e-09 -7.429826e-09 -3.590072e-09 -5.164244e-09 -4.115304e-09 -5.857271e-09 -5.386818e-09 -6.160100e-09
-3.304540e-09 -4.624057e-09 -4.851632e-09 -5.981440e-09 -6.956653e-09 -4.737573e-09 -4.542416e-09 -5.184488e-09 -3.333182e-09 -6.635833e-09
-4.296703e-09 -3.856396e-09 -3.169235e-09 -5.479105e-09 -2.942539e-09 -4.115635e-09 -3.927976e-09 -3.803210e-09 -4.076462e-09 -1.668132e-09
-5.909666e-09 -2.854439e-09 -2.107390e-09 -3.184500e-09 -5.024733e-09 -3.050465e-09 -3.180585e-09 -2.023806e-09 -1.899702e-09 -3.259752e-09
-4.456280e-09 -2.348865e-09 -3.267447e-09 -1.204815e-09 -1.564442e-09 -2.631433e-09 -1.565995e-09 -5.070374e-11 6.717358e-10 -2.281289e-09
-1.138537e-09 -5.438747e-10 1.047808e-10 -7.755189e-11 9.735000e-11 2.873044e-11 1.607054e-09 -8.233036e-10 -1.617133e-09 -8.845553e-10
-2.510754e-09 -3.159109e-10 4.423199e-10 8.037999e-10 -1.137971e-09 1.259973e-09 1.407211e-09 1.083720e-09 1.451257e-09 1.724566e-09
2.032191e-09 2.224714e-09 3.611577e-09 1.264410e-09 2.353312e-09 6.665398e-10 1.175639e-09 2.709755e-09 2.243888e-09 2.887121e-09
2.159334e-09 4.273656e-09 2.667260e-09 6.168202e-09 3.653144e-09 3.413587e-09 2.876621e-09 1.479326e-09 4.120058e-09 2.833221e-09
4.369823e-09 6.151864e-09 2.881838e-09 3.080418e-09 4.059597e-09 3.396879e-09 2.716703e-09 2.592610e-09 4.216658e-09 4.241314e-09
3.593698e-09 4.283450e-09 3.992740e-09 5.800951e-09 3.953431e-09 2.964945e-09 4.099779e-09 6.304149e-09 4.714612e-09 4.505925e-09
6.292777e-09 7.313283e-09 5.484662e-09 4.499201e-09 6.465342e-09 6.972249e-09 5.874898e-09 4.309804e-09 4.357423e-09 6.928566e-09
3.474045e-09 5.882308e-09 6.264373e-09 5.136243e-09 6.472206e-09 5.488696e-09 7.070682e-09 5.197264e-09 6.533528e-09 8.680989e-09
6.536104e-09 6.570514e-09 7.353800e-09 6.785643e-09 6.592778e-09 6.494068e-09 6.880754e-09 6.718923e-09 5.439315e-09 8.005571e-09
4.990385e-09 7.598363e-09 8.220280e-09 5.756739e-09 6.989957e-09 8.814286e-09 7.413794e-09 8.006396e-09 8.025481e-09 7.552310e-09
6.115685e-09 7.026109e-09 8.866281e-09 6.435386e-09 5.843773e-09 5.577358e-09 6.469868e-09 5.459320e-09 6.523122e-09 7.288988e-09
5.658384e-09 6.281985e-09 6.571246e-09 5.928454e-09 6.297918e-09 6.121891e-09 7.116513e-09 5.647925e-09 6.728273e-09 5.905565e-09
6.866775e-09 4.051504e-09 5.144424e-09 5.844978e-09 5.924452e-09 3.562648e-09 4.679671e-09 3.909272e-09 6.907415e-09 4.843992e-09
6.863475e-09 5.562328e-09 7.044751e-09 7.073075e-09 3.224445e-09 8.213185e-09 5.761054e-09 5.976674e-09 5.622339e-09 4.920940e-09
5.442764e-09 4.537831e-09 4.187847e-09 3.261221e-09 3.874038e-09 3.773355e-09 4.634314e-09 6.582942e-09 5.266745e-09 4.668338e-09
5.124374e-09 4.418901e-09 4.701338e-09 2.487253e-09 2.441316e-09 3.008161e-09 2.479533e-09 3.527116e-09 3.164494e-09 3.982858e-09
1.346793e-09 1.891444e-09 4.007937e-09 2.809992e-09 5.498156e-09 1.456810e-09 3.470133e-09 2.536281e-09 1.158013e-09 1.407674e-09
1.475660e-09 3.141015e-09 1.634923e-09 1.955134e-09 7.169628e-10 1.130961e-09 2.617321e-09 1.096126e-09 1.093350e-10 -1.483193e-10
1.246832e-10 1.012234e-09 9.531681e-10 -1.359042e-11 9.733985e-10 1.853035e-09 1.842089e-09 -1.043579e-09 -5.160861e-10 -2.793280e-10
-8.620722e-10 -1.744635e-09 8.211714e-10 1.197316e-09 1.848226e-10 -1.250161e-09 7.623382e-10 -1.071250e-09 -5.080590e-10 -3.363394e-10
-1.525559e-09 -2.093233e-10 -2.565907e-09 -2.191937e-09 -2.804324e-09 -4.559873e-09 -4.057140e-09 -3.624182e-09 -3.057886e-09 -2.863151e-09
-3.760930e-09 -2.642235e-09 -1.792864e-09 -3.728481e-09 -4.563123e-09 -2.866646e-09 -1.708659e-09 -2.832850e-09 -2.987074e-09 -3.473213e-09
-2.756304e-09 -3.270586e-09 -1.554051e-09 -4.099899e-09 -6.222847e-09 -4.466630e-09 -3.765804e-09 -2.990073e-09 -6.610779e-09 -4.136129e-09
-4.870346e-09 -4.229487e-09 -5.710537e-09 -3.187249e-09 -6.240922e-09 -4.624192e-09 -3.824955e-09 -3.135454e-09 -4.877344e-09 -6.423008e-09
-6.168076e-09 -4.033075e-09 -6.363236e-09 -4.472938e-09 -5.086973e-09 -4.440241e-09 -4.893917e-09 -4.903142e-09 -7.349308e-09 -3.801501e-09
-5.148088e-09 -7.314274e-09 -7.929455e-09 -5.951281e-09 -6.485750e-09 -4.962403e-09 -5.525893e-09 -4.712546e-09 -5.878839e-09 -6.315934e-09
-7.425105e-09 -7.097896e-09 -5.964866e-09 -6.143748e-09 -8.665983e-09 -5.629881e-09 -4.751044e-09 -5.434593e-09 -4.654367e-09 -6.260154e-09
-5.485974e-09 -5.642604e-09 -9.646903e-09 -7.367009e-09 -5.587676e-09 -5.941424e-09 -4.789475e-09 -8.354596e-09 -8.513488e-09 -4.886836e-09
-6.940029e-09
-6.906783e-09 -9.068514e-09 -6.001030e-09 -8.297411e-09 -7.026132e-09 -6.511350e-09 -5.505448e-09 -8.159806e-09 -8.123489e-09 -7.214227e-09
-7.548258e-09 -6.142066e-09 -8.893683e-09 -5.963882e-09 -8.905043e-09 -5.719376e-09 -8.614455e-09 -5.933119e-09 -6.474663e-09 -6.599391e-09
-7.248353e-09 -6.354547e-09 -4.763329e-09 -5.543143e-09 -8.426231e-09 -7.390745e-09 -7.560769e-09 -8.483504e-09 -5.684258e-09 -4.580664e-09
-6.399520e-09 -8.141154e-09 -5.213919e-09 -6.197386e-09 -5.797398e-09 -5.964189e-09 -6.384633e-09 -5.501744e-09 -6.820117e-09 -6.281719e-09
-6.663390e-09 -5.838046e-09 -6.465309e-09 -4.122109e-09 -6.150509e-09 -5.512365e-09 -5.246730e-09 -5.320800e-09 -5.083949e-09 -4.592782e-09
-4.135920e-09 -4.273529e-09 -5.157427e-09 -3.978337e-09 -2.217163e-09 -3.383238e-09 -2.968600e-09 -3.716174e-09 -4.910712e-09 -2.655432e-09
-5.621009e-09 -3.167687e-09 -3.061960e-09 -3.083620e-09 -2.565586e-09 -7.034898e-10 -3.497679e-09 -4.212287e-10 -3.309281e-09 -2.825403e-09
-1.687586e-09 -1.275316e-09 -2.274944e-09 -5.020128e-10 -2.690586e-09 -2.280456e-09 -4.908915e-09 -3.975076e-10 -3.768580e-09 -1.655820e-09
-2.036196e-09 -5.947144e-10 1.509343e-09 -1.297266e-09 -3.350026e-10 8.298184e-11 -4.128017e-11 -1.955589e-09 -3.949057e-10 -1.393766e-09
-1.437547e-09 -1.846138e-10 -1.630499e-09 -6.465022e-10 1.711462e-09 3.864459e-10 2.158366e-09 6.449601e-10 2.906636e-09 1.295303e-09
-2.521779e-10 -6.441495e-11 1.032878e-10 2.374988e-09 3.210092e-09 5.588228e-10 2.740799e-09 1.713174e-09 1.178921e-09 4.177946e-09
3.214004e-09 2.182494e-09 1.328781e-09 5.325214e-09 2.674464e-09 5.218860e-09 2.566949e-09 2.999997e-09 2.792640e-09 3.513942e-09
4.661871e-09 3.645577e-09 3.819626e-09 3.286673e-09 4.791052e-09 4.358871e-09 2.253454e-09 4.812620e-09 3.365780e-09 4.475313e-09
4.037630e-09 4.220993e-09 4.419313e-09 6.933943e-09 4.235823e-09 4.243492e-09 5.620605e-09 5.323848e-09 6.351865e-09 4.766533e-09
7.421452e-09 7.237157e-09 7.012636e-09 4.757601e-09 6.250300e-09 7.231411e-09 6.002198e-09 4.933876e-09 4.522223e-09 6.497768e-09
4.404883e-09 5.526465e-09 5.155883e-09 6.537828e-09 5.450688e-09 6.804944e-09 5.774417e-09 5.358641e-09 7.061800e-09 7.389852e-09
4.628366e-09 9.226356e-09 7.735867e-09 7.528652e-09 6.598764e-09 5.796702e-09 6.840138e-09 5.265105e-09 6.312529e-09 7.264769e-09
6.087120e-09 5.913063e-09 7.235734e-09 5.618470e-09 7.772367e-09 7.841884e-09 6.309952e-09 7.668760e-09 8.173278e-09 7.289822e-09
8.517049e-09 7.255124e-09 7.994235e-09 6.875746e-09 5.988734e-09 7.637898e-09 7.284169e-09 5.501031e-09 8.906109e-09 6.958034e-09
6.536155e-09 6.538318e-09 7.025280e-09 6.795808e-09 6.577518e-09 5.041183e-09 5.467112e-09 4.698576e-09 7.037766e-09 6.297313e-09
6.918908e-09 6.609349e-09 7.910141e-09 6.816676e-09 5.671227e-09 6.263455e-09 6.596126e-09 6.423854e-09 5.898141e-09 5.299674e-09
5.433559e-09 5.000905e-09 8.073802e-09 5.066968e-09 4.314352e-09 4.144924e-09 7.881340e-09 5.132880e-09 5.185010e-09 5.170896e-09
5.670820e-09 4.299912e-09 4.453727e-09 5.194063e-09 4.053971e-09 4.579075e-09 5.520962e-09 3.441366e-09 4.441925e-09 4.954256e-09
4.946907e-09 4.051719e-09 3.769216e-09 3.644353e-09 4.109698e-09 5.488741e-09 2.655625e-09 5.115763e-09 3.486112e-09 4.195752e-09
4.190283e-09 3.878719e-09 3.959273e-09 2.239563e-09 -1.782371e-11 2.258985e-09 2.922829e-09 1.928087e-09 4.626685e-09 4.662840e-10
1.139582e-09 7.666495e-10 1.816184e-09 1.240418e-09 1.155397e-09 2.048539e-09 2.324601e-09 1.026739e-09 7.169687e-10 -3.471846e-10
1.498605e-09 3.883306e-10 -1.036202e-09 3.673868e-10 1.424209e-09 3.523257e-09 1.769402e-09 1.423656e-09 -1.617925e-10 1.431852e-09
1.991249e-10 -2.925247e-09 6.286951e-10 -1.324278e-09 -1.739335e-09 5.356166e-10 -4.327943e-10 8.928984e-10 -6.620606e-10 -8.058391e-10
-1.364136e-09 -2.237520e-09 -1.443902e-10 -3.508989e-09 -5.522841e-10 -1.208391e-09 -4.042214e-09 3.674887e-10 -2.517991e-09 -2.681628e-09
-3.060025e-09 -2.985676e-09 -3.055941e-09 -3.387832e-09 -3.845235e-09 -2.876511e-09 -2.175463e-10 -2.514270e-09 -2.399122e-09 -3.287897e-09
-2.945030e-09 -2.480928e-09 -2.845887e-09 -4.845534e-09 -2.693733e-09 -3.105482e-09 -5.237708e-09 -3.058122e-09 -5.121516e-09 -4.540348e-09
-5.481502e-09 -5.458489e-09 -4.561748e-09 -3.981977e-09 -3.794246e-09 -5.481581e-09 -3.586252e-09 -6.484014e-09 -3.289441e-09 -5.428126e-09
-5.676997e-09 -5.036800e-09 -4.730611e-09 -5.012378e-09 -4.933948e-09 -7.297319e-09 -6.130083e-09 -3.739967e-09 -6.213605e-09 -6.084990e-09
-6.853208e-09 -5.441484e-09 -7.105140e-09 -7.551320e-09 -6.459477e-09 -4.856914e-09 -7.010625e-09 -5.777899e-09 -5.937849e-09 -6.824834e-09
-8.535664e-09 -6.079645e-09 -6.098663e-09 -6.708528e-09 -8.093857e-09 -5.846992e-09 -8.002524e-09 -7.840275e-09 -6.308493e-09 -6.798942e-09
-9.395253e-09 -8.823302e-09 -5.694973e-09 -7.497529e-09 -8.375240e-09 -7.392867e-09 -8.877295e-09 -7.769428e-09 -6.347101e-09 -8.899184e-09
-6.906783e-09
-7.333322e-09 -7.876864e-09 -7.547360e-09 -7.234593e-09 -6.394031e-09 -7.945418e-09 -7.759327e-09 -7.268612e-09 -6.249528e-09 -8.221758e-09
-8.041722e-09 -7.581545e-09 -6.025925e-09 -6.549904e-09 -7.565595e-09 -7.468991e-09 -7.645647e-09 -6.599695e-09 -6.917048e-09 -6.767984e-09
-6.668977e-09 -5.910469e-09 -7.091005e-09 -6.169306e-09 -7.180077e-09 -6.256867e-09 -7.757223e-09 -5.432844e-09 -7.216856e-09 -7.488818e-09
-6.419801e-09 -6.623976e-09 -6.212799e-09 -7.493923e-09 -7.173963e-09 -5.730920e-09 -6.238487e-09 -7.182091e-09 -4.583377e-09 -4.043327e-09
-6.974037e-09 -4.742834e-09 -4.535988e-09 -5.112773e-09 -4.811430e-09 -5.173142e-09 -5.285786e-09 -4.800374e-09 -5.431839e-09 -6.275492e-09
-3.952169e-09 -6.435803e-09 -4.052577e-09 -3.423982e-09 -3.492394e-09 -2.839242e-09 -3.368592e-09 -1.911533e-09 -4.749344e-09 -2.499161e-09
-4.182494e-09 -3.189354e-09 -2.906272e-09 -2.130983e-09 -2.630784e-09 -2.974309e-09 -1.951899e-09 -4.092211e-09 -4.926433e-09 -2.663963e-09
-2.077424e-09 -2.598681e-09 -2.822421e-09 -2.998823e-09 -2.152057e-09 -2.446069e-09 -3.016084e-09 -1.950704e-10 -1.249147e-09 -2.215377e-09
-2.613622e-09 -1.479987e-10 -2.603874e-10 -2.892069e-09 6.232934e-10 -3.677387e-10 -1.556582e-09 -1.300460e-11 -5.350327e-10 -1.822556e-09
8.433333e-11 1.143626e-09 1.779219e-09 3.313047e-09 1.527127e-11 1.227312e-09 1.530909e-09 -6.530199e-10 2.820940e-09 -1.207184e-10
-6.897934e-11 2.260054e-09 2.699940e-09 9.929443e-10 3.497198e-09 1.042289e-09 3.486303e-09 1.501568e-09 2.915610e-09 2.425502e-09
2.881251e-09 2.384460e-09 5.226287e-09 1.004769e-09 2.804405e-09 3.852073e-09 3.031842e-09 3.408688e-09 7.669799e-10 4.731718e-09
3.805869e-09 1.252292e-09 3.467626e-09 5.538942e-09 2.536285e-09 3.156977e-09 4.444752e-09 4.524921e-09 5.610103e-09 3.036568e-09
4.527368e-09 6.474480e-09 3.930923e-09 6.398245e-09 5.468043e-09 5.928752e-09 4.464207e-09 4.771718e-09 4.375623e-09 5.398535e-09
3.548889e-09 4.884155e-09 6.110879e-09 5.894422e-09 6.420915e-09 6.842548e-09 7.039228e-09 5.030638e-09 6.473468e-09 7.931948e-09
5.905351e-09 7.083746e-09 6.917245e-09 6.718599e-09 7.376055e-09 7.177112e-09 8.447861e-09 4.895220e-09 5.570949e-09 6.771222e-09
7.925331e-09 6.767876e-09 7.653692e-09 6.357961e-09 7.836980e-09 7.471062e-09 7.210399e-09 8.299314e-09 7.027460e-09 7.358747e-09
6.389023e-09 9.562714e-09 7.707989e-09 9.227636e-09 7.299922e-09 9.537360e-09 7.170358e-09 8.792536e-09 7.672804e-09 7.806396e-09
7.590640e-09 9.118820e-09 8.312502e-09 4.799928e-09 7.729210e-09 8.344411e-09 7.730890e-09 7.631985e-09 5.847301e-09 8.593141e-09
8.927663e-09 6.006397e-09 9.424213e-09 6.931173e-09 8.244029e-09 6.887021e-09 7.577655e-09 8.395486e-09 8.531615e-09 6.498375e-09
8.337429e-09 6.998004e-09 6.808417e-09 8.562590e-09 6.172853e-09 5.908140e-09 7.643686e-09 6.718100e-09 5.857075e-09 7.888171e-09
5.584795e-09 6.222038e-09 6.377854e-09 6.351403e-09 5.686358e-09 7.202827e-09 6.124746e-09 6.680088e-09 6.189283e-09 6.164195e-09
5.545644e-09 5.383250e-09 4.818667e-09 3.054860e-09 5.027997e-09 6.340554e-09 6.095414e-09 5.391823e-09 4.242295e-09 5.372110e-09
4.577383e-09 5.827820e-09 5.454441e-09 3.349557e-09 4.527492e-09 3.044217e-09 4.668774e-09 3.957953e-09 2.690423e-09 1.888906e-09
3.733102e-09 3.296507e-09 1.530281e-09 3.041124e-09 3.662697e-09 2.823964e-09 8.241900e-10 3.007211e-09 2.627661e-09 2.142393e-09
2.133925e-09 2.547850e-09 2.266927e-09 1.763233e-09 2.644583e-09 1.333301e-09 1.850321e-09 1.498306e-09 1.805680e-09 -2.394694e-09
7.503054e-10 4.968206e-10 -4.896698e-10 4.474365e-10 -3.576889e-10 -8.137442e-10 8.299411e-11 2.410940e-11 -1.993105e-10 1.309628e-09
1.206285e-10 -4.998576e-11 -8.570090e-10 -8.542361e-10 1.134095e-09 4.155635e-11 -8.429220e-10 4.607761e-10 -5.861333e-10 -2.233499e-09
-1.643376e-09 -1.252855e-09 -2.398106e-09 -3.268517e-09 5.969737e-10 -2.724410e-09 -3.335281e-09 -2.573962e-09 -2.863614e-09 -2.229254e-09
-3.480608e-09 -3.124672e-09 -3.302856e-09 -3.104778e-09 -3.487107e-09 -2.229496e-09 -3.860425e-09 -4.922093e-09 -3.074021e-09 -3.381669e-09
-4.722822e-09 -3.988349e-09 -2.554338e-09 -3.256932e-09 -5.389554e-09 -5.250814e-09 -4.870329e-09 -3.630920e-09 -4.499487e-09 -3.760947e-09
-5.867494e-09 -5.861474e-09 -5.324374e-09 -5.450534e-09 -5.350725e-09 -5.000031e-09 -5.636382e-09 -7.675910e-09 -6.098650e-09 -6.468561e-09
-5.725301e-09 -5.700396e-09 -5.026924e-09 -7.140054e-09 -3.765847e-09 -6.556780e-09 -4.871083e-09 -5.276431e-09 -5.145253e-09 -6.458967e-09
-5.655854e-09 -7.788265e-09 -7.825641e-09 -5.532358e-09 -7.500100e-09 -8.756976e-09 -8.200726e-09 -5.753610e-09 -8.309615e-09 -6.607474e-09
-4.996270e-09 -5.855390e-09 -7.681101e-09 -6.720164e-09 -7.988109e-09 -8.291274e-09 -7.762740e-09 -7.685105e-09 -7.915595e-09 -8.406751e-09
-5.748162e-09 -6.216012e-09 -7.388325e-09 -7.897619e-09 -5.838678e-09 -8.665713e-09 -5.088065e-09 -6.497851e-09 -6.051797e-09 -7.048169e-09
-7.333322e-09
-6.767506e-09 -8.734738e-09 -9.145125e-09 -6.958858e-09 -8.040095e-09 -7.714402e-09 -6.549660e-09 -6.755940e-09 -8.435943e-09 -8.080465e-09
-6.665589e-09 -6.658090e-09 -8.075344e-09 -8.297762e-09 -6.990049e-09 -6.673756e-09 -7.179837e-09 -5.439605e-09 -8.771278e-09 -5.993112e-09
-7.444690e-09 -8.039794e-09 -8.193624e-09 -7.288286e-09 -8.324320e-09 -7.286676e-09 -6.760767e-09 -5.857263e-09 -6.801130e-09 -5.619013e-09
-7.172221e-09 -7.526295e-09 -7.294502e-09 -7.034317e-09 -7.466549e-09 -6.207280e-09 -4.063863e-09 -6.559398e-09 -4.911076e-09 -8.050397e-09
-5.688439e-09 -3.978297e-09 -3.926557e-09 -5.376153e-09 -5.889853e-09 -5.714808e-09 -5.095940e-09 -4.984435e-09 -4.415055e-09 -6.341443e-09
-4.783677e-09 -4.077658e-09 -5.821021e-09 -5.687200e-09 -5.527953e-09 -4.227461e-09 -3.606579e-09 -5.239672e-09 -2.925512e-09 -5.140041e-09
-4.518621e-09 -2.617075e-09 -6.267764e-09 -3.787314e-09 -4.892414e-09 -1.532690e-09 -2.650611e-09 -3.631111e-09 -3.221403e-09 -3.362473e-09
-1.753544e-09 -4.683358e-09 -1.842624e-09 -2.115618e-09 -2.800155e-09 -2.214832e-09 -1.424678e-09 1.171311e-10 -1.314181e-09 -2.452479e-09
-2.717425e-10 -1.253307e-09 -1.099437e-11 1.059348e-09 3.461037e-11 1.419970e-09 -4.539300e-10 -1.522844e-09 7.647230e-10 -9.331381e-10
4.667442e-10 -5.527713e-10 -1.039421e-10 1.147695e-09 2.548032e-09 2.654209e-09 4.923916e-10 3.401574e-09 9.532927e-10 8.227262e-10
3.297273e-10 2.463614e-09 5.637238e-11 3.177921e-09 1.970569e-09 3.812052e-09 2.556512e-09 2.111864e-09 1.827371e-09 2.276307e-09
2.968327e-09 1.404144e-09 2.751268e-09 3.407484e-09 2.624448e-09 2.858092e-09 4.434916e-09 5.964972e-09 2.807235e-09 4.126026e-09
2.418579e-09 4.551866e-09 4.866286e-09 3.647561e-09 3.792547e-09 3.560841e-09 6.130656e-09 5.635057e-09 5.547824e-09 3.778057e-09
3.743652e-09 4.608880e-09 5.705110e-09 5.071252e-09 5.388423e-09 6.090639e-09 6.194133e-09 3.063176e-09 6.239818e-09 4.737547e-09
5.953924e-09 7.252881e-09 6.078141e-09 5.965298e-09 8.629626e-09 7.647571e-09 7.089598e-09 5.698173e-09 5.892861e-09 6.600900e-09
6.637235e-09 5.795271e-09 6.263752e-09 8.278533e-09 6.704143e-09 5.854909e-09 7.755410e-09 7.789933e-09 7.742497e-09 5.697975e-09
7.609114e-09 9.911974e-09 6.198343e-09 7.883990e-09 7.629923e-09 6.664711e-09 6.144475e-09 7.027002e-09 9.214563e-09 6.714053e-09
7.278479e-09 8.245774e-09 6.485333e-09 8.144329e-09 8.125714e-09 8.555163e-09 9.382677e-09 7.857087e-09 7.549231e-09 8.843263e-09
8.643668e-09 7.047881e-09 7.678417e-09 7.045375e-09 7.534075e-09 9.784260e-09 8.765973e-09 6.192128e-09 7.607137e-09 6.163865e-09
7.014483e-09 6.629474e-09 6.532661e-09 8.958748e-09 9.612932e-09 9.758640e-09 8.714422e-09 8.489631e-09 7.732518e-09 7.608004e-09
7.401079e-09 8.438428e-09 6.512167e-09 5.680022e-09 7.574511e-09 7.185909e-09 6.989124e-09 7.938124e-09 6.968751e-09 6.657400e-09
8.340052e-09 7.291084e-09 7.371555e-09 5.701125e-09 7.138637e-09 6.076820e-09 5.900898e-09 6.745076e-09 6.885102e-09 6.512626e-09
4.601318e-09 4.519134e-09 5.256995e-09 5.652771e-09 6.133243e-09 6.027465e-09 4.407649e-09 4.914892e-09 5.031991e-09 5.346183e-09
4.185642e-09 5.449163e-09 4.829003e-09 4.985335e-09 2.734204e-09 4.804199e-09 3.877017e-09 3.453430e-09 6.111635e-09 4.562623e-09
3.659946e-09 4.222003e-09 2.901442e-09 2.802574e-09 2.596481e-09 1.864463e-09 3.691467e-09 3.536659e-09 2.415453e-09 1.411955e-09
2.461626e-09 3.343156e-09 2.018099e-09 2.495083e-09 3.580114e-09 2.846686e-09 1.197047e-09 7.496441e-10 1.792791e-09 1.030237e-09
5.427498e-10 -1.109787e-09 1.845072e-09 -1.264592e-10 -6.008380e-10 4.257393e-10 1.747951e-09 -1.130941e-09 -5.115400e-10 -6.108568e-10
7.663126e-11 -1.069642e-09 1.196148e-09 1.333402e-09 1.165305e-10 -9.809246e-10 -2.092121e-09 -4.573445e-11 2.103687e-10 -3.268636e-10
-2.688707e-09 -3.950228e-10 -2.799359e-09 -2.772364e-09 -2.314863e-09 -2.715963e-09 -2.154140e-09 -1.354601e-09 -2.427378e-09 -2.337436e-09
-1.762643e-09 -1.833130e-09 -3.734584e-09 -4.566298e-09 -2.761062e-09 -3.751126e-09 -4.155799e-09 -3.640752e-09 -5.987892e-09 -4.421866e-09
-4.631339e-09 -1.708542e-09 -3.641767e-09 -4.942785e-09 -5.733149e-09 -3.644540e-09 -6.737366e-09 -5.349882e-09 -4.950291e-09 -5.267807e-09
-3.639182e-09 -4.632048e-09 -4.776057e-09 -4.704075e-09 -4.069337e-09 -6.127003e-09 -5.566049e-09 -4.697856e-09 -6.146839e-09 -6.949264e-09
-6.991201e-09 -5.720212e-09 -6.214525e-09 -6.346500e-09 -7.772797e-09 -6.188466e-09 -5.059761e-09 -6.709313e-09 -5.963782e-09 -8.893546e-09
-7.554280e-09 -6.806885e-09 -7.368764e-09 -5.536337e-09 -5.802681e-09 -6.092431e-09 -5.200393e-09 -7.080714e-09 -8.886006e-09 -7.285038e-09
-5.258193e-09 -9.138169e-09 -9.630514e-09 -8.117891e-09 -8.069287e-09 -7.197868e-09 -1.000790e-08 -7.521628e-09 -9.495467e-09 -7.342998e-09
-8.444597e-09 -8.670537e-09 -6.970203e-09 -7.895163e-09 -7.719628e-09 -8.376402e-09 -9.762037e-09 -8.901130e-09 -7.960911e-09 -8.231645e-09
-6.767506e-09
-8.011489e-09 -7.416149e-09 -9.207160e-09 -8.520857e-09 -1.077654e-08 -7.985345e-09 -9.848289e-09 -8.641691e-09 -7.730553e-09 -7.217266e-09
-8.406151e-09 -9.630130e-09 -1.068097e-08 -6.724338e-09 -7.667325e-09 -7.812469e-09 -7.373180e-09 -8.171186e-09 -6.855906e-09 -8.611573e-09
-6.432151e-09 -8.627095e-09 -8.905810e-09 -6.971039e-09 -8.270681e-09 -8.203009e-09 -7.911935e-09 -8.423185e-09 -8.516397e-09 -6.432275e-09
-5.704632e-09 -6.666148e-09 -7.439134e-09 -5.968468e-09 -4.904099e-09 -5.338352e-09 -6.210465e-09 -6.868371e-09 -8.288940e-09 -6.702940e-09
-8.753267e-09 -5.911700e-09 -5.092456e-09 -7.095966e-09 -5.798793e-09 -6.631434e-09 -4.009492e-09 -5.093570e-09 -4.087323e-09 -5.791558e-09
-3.632070e-09 -5.965584e-09 -5.239256e-09 -4.486808e-09 -5.594468e-09 -4.068198e-09 -5.571033e-09 -3.813265e-09 -2.783612e-09 -5.702652e-09
-2.489362e-09 -2.613323e-09 -3.840816e-09 -3.778281e-09 -3.474556e-09 -3.564236e-09 -2.409046e-09 -3.150435e-09 -5.347228e-09 -2.925736e-09
-1.319279e-09 -2.939113e-09 -2.556887e-09 -1.509074e-09 -1.154905e-09 -3.346863e-09 -8.573391e-10 -1.633464e-09 -1.086531e-09 -3.306235e-09
-6.552638e-10 -1.771964e-10 -1.775125e-09 -1.436696e-09 -1.255850e-09 -1.153333e-09 2.297846e-10 -1.471165e-09 -5.141725e-10 -2.024362e-09
-1.843505e-09 -8.896890e-10 -1.379565e-09 1.561524e-09 -9.515398e-10 -2.540488e-10 -6.184847e-10 1.738903e-09 1.826566e-09 2.431873e-09
2.293146e-09 1.244326e-09 1.193544e-09 1.549887e-09 3.506669e-09 2.351115e-09 2.948200e-09 3.354053e-09 1.239674e-09 2.260150e-09
2.339573e-09 2.968938e-09 3.085322e-09 5.254756e-09 3.325994e-09 3.953190e-09 4.334039e-09 4.311521e-09 2.976562e-09 1.701634e-09
1.839810e-09 4.964094e-09 3.638725e-09 5.588925e-09 3.062842e-09 6.033263e-09 6.095418e-09 5.496367e-09 3.582266e-09 6.040721e-09
4.089542e-09 6.393346e-09 5.273821e-09 5.546763e-09 5.571997e-09 4.642237e-09 7.265156e-09 4.951034e-09 7.131387e-09 5.427252e-09
6.702489e-09 7.248147e-09 8.172118e-09 7.730545e-09 6.895597e-09 6.627128e-09 6.501653e-09 8.297591e-09 6.783502e-09 8.481440e-09
7.816635e-09 6.039033e-09 6.572106e-09 9.430798e-09 6.670267e-09 8.203694e-09 8.795423e-09 6.832289e-09 7.601311e-09 8.238171e-09
7.716156e-09 8.349446e-09 8.389835e-09 8.128482e-09 8.107637e-09 1.004710e-08 6.607185e-09 8.799554e-09 8.245980e-09 8.844746e-09
1.019373e-08 7.355835e-09 8.647937e-09 7.124664e-09 8.763291e-09 6.593760e-09 8.524377e-09 6.929022e-09 8.389944e-09 8.928992e-09
7.034622e-09 6.929058e-09 7.585263e-09 8.245855e-09 7.540494e-09 6.614145e-09 9.775984e-09 8.341176e-09 9.749253e-09 8.249795e-09
9.340400e-09 7.001282e-09 8.387395e-09 8.108643e-09 5.980745e-09 8.119119e-09 8.279561e-09 1.026117e-08 6.979261e-09 8.295988e-09
7.483218e-09 7.631296e-09 7.777404e-09 6.974031e-09 5.786661e-09 8.269599e-09 9.038179e-09 7.110037e-09 6.178668e-09 6.462810e-09
8.476500e-09 7.518499e-09 7.761439e-09 7.008486e-09 6.585051e-09 6.054979e-09 7.683086e-09 7.667384e-09 4.247054e-09 6.131985e-09
5.713189e-09 5.965239e-09 5.949868e-09 6.980367e-09 5.724297e-09 5.430062e-09 6.936578e-09 7.264806e-09 5.661452e-09 4.059549e-09
4.461377e-09 4.429430e-09 6.799453e-09 3.800670e-09 3.397375e-09 4.971042e-09 4.496251e-09 4.266897e-09 3.732492e-09 2.868003e-09
2.511741e-09 3.355457e-09 3.348912e-09 3.501223e-09 3.211981e-09 5.233461e-09 2.464910e-09 1.814623e-09 3.493525e-09 8.102958e-10
2.718135e-09 2.598118e-09 -1.582276e-10 2.970379e-09 9.532125e-10 2.763555e-09 1.889237e-09 2.491430e-09 4.048093e-09 1.613906e-09
6.020787e-11 1.623381e-09 1.974247e-09 -8.265934e-10 1.041441e-09 -3.415494e-10 -9.695328e-10 -1.223585e-09 -9.126674e-11 6.475309e-10
-1.083491e-09 -5.553193e-10 1.921972e-09 9.469358e-10 -5.790632e-10 3.811226e-10 -1.269661e-09 -2.002684e-09 -1.102947e-09 -1.269233e-10
-1.092741e-09 -1.026747e-09 -1.935148e-09 -2.446069e-09 -4.370458e-09 -2.555176e-09 -4.390761e-09 -7.499141e-10 -2.748281e-09 -2.739629e-09
-4.107130e-09 -3.787975e-09 -3.637087e-09 -3.804731e-09 -3.828967e-09 -2.703562e-09 -4.111281e-09 -2.871420e-09 -4.489521e-09 -5.442649e-09
-3.474014e-09 -5.707740e-09 -1.681629e-09 -6.733638e-09 -3.723545e-09 -3.264120e-09 -5.870131e-09 -4.964440e-09 -5.240545e-09 -6.362864e-09
-6.651984e-09 -7.417834e-09 -3.671281e-09 -5.462484e-09 -6.769368e-09 -5.503574e-09 -5.643294e-09 -5.589849e-09 -8.636327e-09 -4.590486e-09
-7.642059e-09 -7.596236e-09 -6.301109e-09 -6.277983e-09 -7.595432e-09 -6.682949e-09 -7.521254e-09 -6.340530e-09 -7.406471e-09 -6.693475e-09
-9.953247e-09 -6.466547e-09 -7.115782e-09 -7.337027e-09 -6.862658e-09 -8.954990e-09 -8.974928e-09 -8.873061e-09 -8.977605e-09 -7.131398e-09
-9.189566e-09 -8.588496e-09 -8.499565e-09 -8.392525e-09 -1.032365e-08 -8.372168e-09 -7.207143e-09 -8.106721e-09 -7.537056e-09 -7.869624e-09
-9.107509e-09 -6.983605e-09 -8.784120e-09 -8.203176e-09 -9.339566e-09 -7.333073e-09 -7.546606e-09 -7.279836e-09 -8.430749e-09 -8.861160e-09
-8.011489e-09
-8.369157e-09 -7.523821e-09 -7.861703e-09 -8.353221e-09 -8.901327e-09 -8.601835e-09 -8.472170e-09 -8.898421e-09 -9.190749e-09 -8.951370e-09
-7.439761e-09 -7.836930e-09 -8.996172e-09 -7.692580e-09 -8.772074e-09 -8.650592e-09 -8.005466e-09 -7.403452e-09 -7.741520e-09 -7.949719e-09
-9.260636e-09 -8.116170e-09 -7.409685e-09 -9.284626e-09 -7.104198e-09 -7.665681e-09 -9.147037e-09 -8.494636e-09 -7.505061e-09 -9.869646e-09
-6.973318e-09 -6.506662e-09 -6.332415e-09 -6.262480e-09 -6.462249e-09 -6.989646e-09 -7.218812e-09 -6.571220e-09 -6.664955e-09 -6.816087e-09
-7.749557e-09 -6.568207e-09 -6.523040e-09 -6.864391e-09 -6.835071e-09 -8.116205e-09 -6.227564e-09 -5.391844e-09 -4.930761e-09 -6.208593e-09
-6.034061e-09 -4.353858e-09 -5.578965e-09 -4.124427e-09 -3.450584e-09 -3.802676e-09 -6.635098e-09 -7.054743e-09 -4.328917e-09 -5.469305e-09
-5.801177e-09 -2.698344e-09 -2.882086e-09 -2.063803e-09 -3.428534e-09 -4.329035e-09 -2.273276e-09 -2.368058e-09 -2.425896e-09 -3.383959e-09
-2.366805e-09 -2.268146e-09 -1.902628e-09 -2.358107e-09 -2.674995e-09 8.746611e-10 -8.549181e-10 -6.218480e-10 -1.481473e-09 -8.319695e-10
-1.303284e-09 -1.692126e-09 -2.048079e-09 7.236736e-10 -2.091456e-09 -1.510945e-10 -1.811211e-09 -2.194477e-10 4.362207e-10 -5.353367e-10
-9.822499e-10 -3.974776e-10 3.909041e-10 9.115184e-10 2.240032e-10 2.419214e-09 3.118987e-09 1.917464e-09 2.045256e-09 2.511982e-09
2.184250e-10 3.526252e-09 1.104624e-09 1.193257e-09 1.664315e-09 6.714252e-10 1.272538e-09 9.322683e-10 1.843691e-09 3.905268e-09
4.327649e-09 5.128777e-09 3.321480e-09 2.666863e-09 3.902651e-09 3.010755e-09 6.021958e-09 4.394280e-09 3.403305e-09 4.677863e-09
6.872206e-09 5.278337e-09 3.665088e-09 3.665196e-09 3.829260e-09 3.315655e-09 6.280878e-09 4.599119e-09 5.705933e-09 7.284338e-09
3.447737e-09 6.159147e-09 6.231771e-09 5.369873e-09 6.300802e-09 5.211653e-09 6.314206e-09 8.145439e-09 6.589067e-09 6.267106e-09
4.872649e-09 7.657344e-09 5.388880e-09 6.517437e-09 8.299829e-09 6.316178e-09 6.762736e-09 5.259627e-09 7.450922e-09 6.715943e-09
7.681425e-09 7.121757e-09 7.768214e-09 8.098358e-09 7.170444e-09 8.505443e-09 7.453330e-09 7.211813e-09 7.807211e-09 9.742490e-09
7.837534e-09 6.564527e-09 8.640368e-09 8.175902e-09 7.990469e-09 8.687674e-09 7.400239e-09 8.425335e-09 9.038955e-09 7.920508e-09
7.826893e-09 7.928795e-09 9.464022e-09 8.968095e-09 9.028738e-09 1.004213e-08 8.514494e-09 9.084056e-09 8.440753e-09 8.036178e-09
8.520254e-09 9.850781e-09 8.151043e-09 9.708669e-09 7.914530e-09 7.731511e-09 7.961324e-09 8.163951e-09 8.056468e-09 1.010508e-08
8.839800e-09 8.042002e-09 9.040083e-09 6.808435e-09 8.316559e-09 8.244631e-09 7.682314e-09 8.426351e-09 7.544235e-09 8.390708e-09
7.441338e-09 7.334215e-09 6.912849e-09 8.985595e-09 7.103237e-09 7.959041e-09 8.575401e-09 7.202794e-09 6.533215e-09 7.322569e-09
7.173662e-09 6.669819e-09 6.651774e-09 7.202903e-09 6.915528e-09 6.268964e-09 7.313431e-09 6.094158e-09 6.220128e-09 6.854078e-09
8.054385e-09 6.541836e-09 5.812655e-09 5.360025e-09 7.353548e-09 6.432852e-09 7.763806e-09 4.913308e-09 6.062134e-09 3.806907e-09
5.544194e-09 5.800456e-09 3.215966e-09 6.384944e-09 5.700934e-09 3.275894e-09 2.329450e-09 4.087791e-09 3.266889e-09 4.321709e-09
4.670353e-09 4.071484e-09 3.675702e-09 3.349112e-09 4.116220e-09 4.405806e-09 4.237780e-09 4.979117e-09 3.447267e-09 6.467746e-10
3.005787e-09 1.776826e-09 3.612337e-09 3.826826e-09 2.349726e-09 1.703548e-09 6.593495e-10 2.297548e-09 1.577160e-09 2.044151e-09
7.711964e-10 9.186799e-11 -7.583212e-12 2.373181e-09 1.870764e-09 7.305210e-10 1.844512e-09 -1.514471e-09 6.939465e-10 -5.169354e-10
3.119529e-10 -2.044049e-10 -3.746752e-10 -2.741255e-09 -1.181712e-10 2.467459e-10 -3.086443e-10 -1.015436e-09 -6.229060e-10 -1.119615e-09
-1.274040e-09 -9.595748e-10 -1.505498e-09 -1.202799e-09 -8.361313e-10 -3.610934e-09 -1.740891e-09 -2.979441e-09 -1.872139e-09 -2.700056e-09
-2.493077e-09 -3.369852e-09 -5.102703e-09 -4.762077e-09 -2.965313e-09 -1.457842e-09 -1.775029e-09 -3.310036e-09 -3.088610e-09 -5.516096e-09
-4.351813e-09 -4.193152e-09 -4.473844e-09 -5.344553e-09 -5.130925e-09 -4.098675e-09 -4.601478e-09 -5.325056e-09 -5.685585e-09 -5.462395e-09
-5.684595e-09 -6.751866e-09 -4.971272e-09 -5.719517e-09 -4.784679e-09 -7.500383e-09 -7.110804e-09 -5.768749e-09 -7.362573e-09 -5.278929e-09
-7.533683e-09 -5.680740e-09 -6.322633e-09 -8.494990e-09 -6.437445e-09 -6.269610e-09 -6.651846e-09 -7.145264e-09 -6.972659e-09 -6.417194e-09
-7.147892e-09 -7.413574e-09 -6.783020e-09 -7.270479e-09 -6.663984e-09 -6.693664e-09 -8.792540e-09 -7.328517e-09 -7.368786e-09 -6.364065e-09
-6.827235e-09 -7.108117e-09 -9.778625e-09 -7.990008e-09 -8.350749e-09 -8.508077e-09 -7.250688e-09 -8.501730e-09 -8.678482e-09 -8.048187e-09
-9.630695e-09 -8.551311e-09 -8.481083e-09 -8.957014e-09 -6.925010e-09 -9.395806e-09 -9.285677e-09 -1.024782e-08 -8.416392e-09 -7.109351e-09
-8.369157e-09
-8.059621e-09 -8.168295e-09 -8.782938e-09 -1.007944e-08 -9.665544e-09 -8.839794e-09 -8.628341e-09 -7.704763e-09 -8.596707e-09 -8.566075e-09
-8.275523e-09 -8.295984e-09 -9.593861e-09 -7.532527e-09 -1.047181e-08 -8.399397e-09 -7.467901e-09 -6.431202e-09 -8.145348e-09 -8.376031e-09
-9.259050e-09 -7.790066e-09 -7.549984e-09 -7.511596e-09 -7.502010e-09 -7.637550e-09 -7.567934e-09 -7.245439e-09 -9.408206e-09 -7.587431e-09
-6.964088e-09 -6.621732e-09 -7.759550e-09 -6.626690e-09 -8.572480e-09 -7.613427e-09 -8.174723e-09 -8.174180e-09 -7.335032e-09 -6.753359e-09
-7.228121e-09 -6.415543e-09 -5.105633e-09 -7.174803e-09 -6.277980e-09 -5.763920e-09 -6.302434e-09 -7.708480e-09 -2.931823e-09 -4.305591e-09
-6.802571e-09 -4.553571e-09 -5.523052e-09 -5.619489e-09 -7.369574e-09 -4.307628e-09 -5.285569e-09 -5.237947e-09 -3.457171e-09 -3.398866e-09
-3.565063e-09 -5.081388e-09 -4.222230e-09 -4.346169e-09 -4.779186e-09 -5.139533e-09 -2.827927e-09 -3.394662e-09 -2.622343e-09 -4.291338e-09
-4.223982e-09 -2.527609e-09 -3.406684e-09 -2.867820e-09 -2.200881e-09 -1.630913e-09 -5.972143e-10 -1.605824e-09 -1.744410e-09 -2.383782e-09
-1.590163e-09 -1.684412e-09 -1.966508e-09 5.069289e-10 -8.298788e-10 -1.467358e-09 -1.375172e-09 -1.175248e-09 -2.224456e-09 6.477115e-10
1.018390e-09 1.315679e-09 -3.232360e-10 8.414935e-12 1.126451e-09 1.364520e-09 -2.345369e-10 1.043833e-09 1.349933e-09 6.692571e-10
4.866691e-10 -3.140972e-10 7.209251e-10 2.950766e-09 3.375778e-09 6.492337e-10 2.939205e-09 2.887040e-09 3.340420e-09 3.477840e-09
2.682147e-09 1.612595e-09 3.740877e-09 3.397437e-09 4.243055e-09 1.673786e-09 2.763753e-09 4.088907e-09 4.391973e-09 5.597998e-09
3.977167e-09 5.853206e-09 4.047817e-09 6.942698e-09 4.963256e-09 4.174726e-09 5.071418e-09 5.551397e-09 7.288187e-09 4.864013e-09
6.071388e-09 6.528852e-09 7.198752e-09 7.237966e-09 5.506049e-09 7.743341e-09 5.874787e-09 6.402380e-09 6.864982e-09 9.574234e-09
8.204648e-09 7.902957e-09 7.296874e-09 8.345079e-09 8.237987e-09 7.859474e-09 7.512610e-09 6.801567e-09 9.606551e-09 7.427327e-09
7.268678e-09 7.309680e-09 8.466242e-09 8.436786e-09 7.180593e-09 1.005105e-08 6.531574e-09 7.748079e-09 7.629438e-09 9.809059e-09
8.551844e-09 7.747261e-09 8.744625e-09 8.834180e-09 6.057283e-09 7.951988e-09 8.940636e-09 1.000598e-08 8.464634e-09 1.070666e-08
9.887580e-09 9.335847e-09 8.291382e-09 9.811895e-09 8.693255e-09 9.503491e-09 9.287236e-09 9.288233e-09 7.903559e-09 9.322835e-09
9.507009e-09 8.613341e-09 9.209813e-09 8.271715e-09 8.926412e-09 8.346185e-09 9.363143e-09 1.034545e-08 9.401222e-09 7.713720e-09
9.476980e-09 8.166240e-09 7.897248e-09 8.901885e-09 1.049117e-08 8.017113e-09 8.389336e-09 8.112317e-09 8.370325e-09 9.182304e-09
8.331329e-09 9.128219e-09 8.670225e-09 8.789807e-09 9.284346e-09 8.393179e-09 7.830192e-09 9.034660e-09 9.084755e-09 7.112106e-09
6.456597e-09 6.984544e-09 1.023409e-08 6.566329e-09 7.478178e-09 8.218271e-09 7.753788e-09 7.313904e-09 6.392316e-09 7.245927e-09
7.636266e-09 7.588201e-09 5.961394e-09 7.435124e-09 7.915627e-09 5.019396e-09 5.585480e-09 6.633345e-09 4.578351e-09 4.401489e-09
4.935204e-09 4.321480e-09 5.104397e-09 4.260707e-09 5.336753e-09 4.571635e-09 4.095892e-09 4.760944e-09 4.618129e-09 5.329166e-09
3.160322e-09 2.918636e-09 4.584634e-09 3.298870e-09 3.809503e-09 4.047461e-09 2.839289e-09 3.615211e-09 1.870984e-09 2.152584e-09
1.758887e-09 8.106130e-10 -6.714255e-11 2.361124e-09 2.652197e-09 1.324961e-09 1.935896e-09 9.608777e-10 1.519289e-10 5.455704e-10
1.291634e-09 5.440353e-10 5.207876e-10 3.039691e-09 1.058375e-09 2.649590e-09 9.953220e-10 1.679750e-09 1.418900e-09 1.241842e-09
-1.655007e-10 -1.610239e-09 -8.389796e-10 -2.286150e-10 -2.779632e-11 -9.622925e-10 -1.846353e-09 8.152100e-10 -9.131996e-10 -1.636768e-09
-2.914760e-09 -3.000078e-09 -2.120885e-09 -1.493744e-09 -2.752016e-09 -2.990282e-09 -2.390507e-09 1.423113e-10 -2.414342e-09 -2.901309e-09
-3.158853e-09 -3.204474e-09 -3.507113e-09 -3.765046e-09 -4.623985e-09 -2.430892e-09 -6.475661e-09 -3.399022e-09 -4.129840e-09 -2.668153e-09
-4.629277e-09 -5.751895e-09 -6.156081e-09 -5.773412e-09 -5.942855e-09 -7.370146e-09 -4.576959e-09 -7.483962e-09 -5.746659e-09 -4.791322e-09
-5.095966e-09 -7.869703e-09 -8.428789e-09 -6.229280e-09 -5.626692e-09 -6.129735e-09 -5.820019e-09 -7.952480e-09 -8.356687e-09 -7.191139e-09
-7.442960e-09 -7.903545e-09 -6.689217e-09 -6.939347e-09 -6.353198e-09 -7.898826e-09 -8.608635e-09 -8.426389e-09 -6.974834e-09 -8.147166e-09
-7.968018e-09 -7.493985e-09 -5.581481e-09 -6.386161e-09 -9.939179e-09 -8.501517e-09 -8.405520e-09 -8.374902e-09 -8.402328e-09 -8.098199e-09
-9.127225e-09 -9.975472e-09 -8.747609e-09 -1.017509e-08 -8.821180e-09 -8.611287e-09 -9.028106e-09 -7.880746e-09 -9.577092e-09 -9.570543e-09
-8.895111e-09 -9.867893e-09 -8.381719e-09 -9.896234e-09 -9.078398e-09 -8.013850e-09 -9.204020e-09 -8.391357e-09 -8.799117e-09 -1.064169e-08
-8.059621e-09
-8.999142e-09 -7.177822e-09 -1.073327e-08 -1.073635e-08 -7.190940e-09 -9.706489e-09 -9.150666e-09 -9.354148e-09 -9.536221e-09 -1.044464e-08
-9.655702e-09 -9.650300e-09 -8.292393e-09 -1.170112e-08 -8.215848e-09 -9.331052e-09 -9.070216e-09 -1.014932e-08 -8.688026e-09 -8.296659e-09
-8.948742e-09 -8.905523e-09 -1.007230e-08 -8.589260e-09 -8.168580e-09 -1.173235e-08 -8.553638e-09 -7.932065e-09 -8.557790e-09 -8.540996e-09
-7.043657e-09 -8.543863e-09 -9.017536e-09 -7.428573e-09 -8.085244e-09 -7.521267e-09 -7.454468e-09 -8.048402e-09 -7.779323e-09 -6.120068e-09
-6.968076e-09 -7.234034e-09 -6.596692e-09 -7.504497e-09 -8.574268e-09 -9.100117e-09 -7.593123e-09 -6.137627e-09 -6.931232e-09 -4.691638e-09
-6.154583e-09 -6.522489e-09 -7.113089e-09 -5.014533e-09 -5.569039e-09 -5.770239e-09 -4.318055e-09 -5.196231e-09 -4.116919e-09 -5.125182e-09
-4.766617e-09 -4.406288e-09 -4.980193e-09 -3.309992e-09 -3.923141e-09 -3.842330e-09 -2.972522e-09 -4.128090e-09 -3.191322e-09 -3.595133e-09
-1.131078e-09 -3.596690e-09 -2.301390e-09 -2.800173e-09 -3.266566e-09 -1.562705e-09 -2.218268e-09 2.304808e-11 -1.319955e-09 -1.389437e-09
-1.207739e-10 -8.652037e-10 -2.952626e-09 -4.047931e-09 -1.607190e-09 -6.907699e-10 -1.456157e-09 2.324208e-10 -6.160443e-10 -3.248024e-10
7.064334e-10 1.797145e-09 -1.967389e-12 6.454151e-10 2.781523e-09 1.620414e-09 1.193005e-09 4.582982e-10 2.199420e-09 -1.354750e-10
3.217630e-10 7.603789e-10 2.477070e-09 4.679626e-10 3.004914e-09 4.311713e-09 1.259310e-09 1.103560e-09 1.382127e-09 4.380721e-09
5.823048e-09 2.805145e-09 3.275989e-09 2.293463e-09 3.141744e-09 5.185103e-09 3.567812e-09 3.520521e-09 4.559899e-09 6.063778e-09
6.034688e-09 4.757487e-09 3.666892e-09 3.238392e-09 4.879972e-09 5.543718e-09 4.770150e-09 7.599200e-09 5.970078e-09 4.963157e-09
8.711289e-09 6.790360e-09 6.831372e-09 7.618056e-09 4.945485e-09 7.963088e-09 7.311745e-09 6.042028e-09 6.529611e-09 5.906310e-09
6.978051e-09 6.219480e-09 8.284959e-09 9.548093e-09 7.474736e-09 7.366955e-09 9.128745e-09 7.762890e-09 7.203024e-09 7.514121e-09
7.273652e-09 7.651057e-09 8.724792e-09 8.021645e-09 1.065099e-08 8.615858e-09 9.580128e-09 9.397360e-09 8.808459e-09 9.140482e-09
1.021600e-08 1.035459e-08 8.672165e-09 7.718388e-09 9.233869e-09 1.047831e-08 8.502457e-09 9.813057e-09 1.097438e-08 7.977289e-09
8.732848e-09 8.670960e-09 1.138645e-08 9.773662e-09 9.490857e-09 9.306857e-09 1.218431e-08 8.817599e-09 9.380268e-09 9.806345e-09
9.346412e-09 8.872804e-09 9.502865e-09 1.088291e-08 9.801860e-09 8.650543e-09 8.481545e-09 7.902115e-09 9.239352e-09 8.595689e-09
1.024073e-08 9.771731e-09 8.139667e-09 9.787565e-09 1.007735e-08 1.019919e-08 8.942320e-09 8.940177e-09 8.822032e-09 8.832937e-09
7.450645e-09 1.013828e-08 7.957910e-09 9.042124e-09 9.553068e-09 8.806990e-09 9.803162e-09 7.342899e-09 9.147550e-09 6.997564e-09
1.069287e-08 9.021989e-09 8.325228e-09 6.779487e-09 7.351455e-09 9.372479e-09 8.172378e-09 4.849324e-09 7.942577e-09 6.627694e-09
6.647114e-09 7.499903e-09 6.526798e-09 8.414335e-09 6.041058e-09 6.738259e-09 5.291680e-09 5.859277e-09 5.444134e-09 3.749319e-09
5.129346e-09 5.790721e-09 6.371744e-09 5.923384e-09 5.800279e-09 5.324653e-09 4.169220e-09 5.472575e-09 2.920466e-09 5.697082e-09
5.082164e-09 4.821638e-09 2.413283e-09 3.837047e-09 3.370683e-09 3.186206e-09 2.680661e-09 1.331550e-09 2.817869e-09 3.754170e-09
3.462307e-09 2.994704e-09 4.636019e-09 7.795005e-10 1.458582e-09 3.838135e-09 8.816116e-10 2.001820e-09 2.592266e-09 9.803459e-10
2.749172e-09 2.022242e-09 1.175409e-09 3.371262e-10 1.353338e-09 2.310198e-09 2.803852e-09 -4.868219e-10 -1.753072e-09 3.392962e-10
1.490895e-09 -1.945402e-09 5.518716e-10 -4.326755e-10 -6.918773e-10 -1.619639e-10 -3.919308e-10 -5.637247e-10 -8.899073e-10 -8.963546e-10
-2.606781e-09 -1.549411e-09 -2.612660e-09 -7.646170e-10 -2.695118e-09 -5.235440e-10 -3.223198e-09 -2.782097e-09 -2.887216e-09 -2.043840e-09
-4.252963e-09 -4.378664e-09 -2.814191e-09 -2.630951e-09 -4.129204e-09 -3.991538e-09 -2.769020e-09 -5.593970e-09 -4.362025e-09 -4.483195e-09
-4.005574e-09 -4.427169e-09 -5.400672e-09 -4.244871e-09 -4.515612e-09 -4.357224e-09 -6.687175e-09 -6.345745e-09 -4.286681e-09 -6.144881e-09
-5.151668e-09 -6.862131e-09 -6.883502e-09 -7.208925e-09 -7.086212e-09 -6.771189e-09 -7.844375e-09 -6.686369e-09 -6.777017e-09 -7.802242e-09
-8.253782e-09 -7.021418e-09 -7.271801e-09 -6.978796e-09 -9.031269e-09 -7.539812e-09 -8.347786e-09 -7.238610e-09 -9.246122e-09 -8.656710e-09
-7.720249e-09 -9.589534e-09 -7.808964e-09 -1.124897e-08 -8.429233e-09 -8.806936e-09 -8.496225e-09 -9.048708e-09 -7.769049e-09 -8.591055e-09
-8.140499e-09 -8.998873e-09 -1.035974e-08 -9.162238e-09 -1.000386e-08 -1.007393e-08 -1.113216e-08 -9.670749e-09 -9.767414e-09 -7.687498e-09
-1.023919e-08 -9.729859e-09 -9.507271e-09 -1.093530e-08 -7.664809e-09 -9.660289e-09 -1.098034e-08 -8.987960e-09 -1.009623e-08 -9.037809e-09
-8.999142e-09
-1.009001e-08 -9.232818e-09 -1.082747e-08 -9.022741e-09 -9.681286e-09 -7.904742e-09 -7.854838e-09 -8.665461e-09 -1.107406e-08 -8.987317e-09
-1.135809e-08 -1.018845e-08 -1.019701e-08 -1.035767e-08 -1.015387e-08 -8.441387e-09 -9.352942e-09 -9.600358e-09 -9.525817e-09 -8.949951e-09
-9.002673e-09 -9.941375e-09 -8.829098e-09 -8.651431e-09 -8.696344e-09 -1.006397e-08 -8.600069e-09 -9.865995e-09 -8.183936e-09 -1.084856e-08
-8.714379e-09 -7.927922e-09 -8.580852e-09 -9.049407e-09 -9.837797e-09 -8.795900e-09 -7.494527e-09 -7.221370e-09 -9.858375e-09 -7.822444e-09
-8.307820e-09 -7.378774e-09 -7.612197e-09 -6.391315e-09 -7.344833e-09 -7.021473e-09 -6.976785e-09 -6.057389e-09 -6.083011e-09 -5.524677e-09
-6.666508e-09 -6.206669e-09 -7.239315e-09 -6.471462e-09 -7.203185e-09 -4.489233e-09 -5.663608e-09 -6.496627e-09 -4.563549e-09 -4.586801e-09
-3.765347e-09 -3.284977e-09 -4.744956e-09 -3.273856e-09 -5.310281e-09 -3.912813e-09 -5.444042e-09 -2.999595e-09 -3.207384e-09 -5.159785e-09
-2.482604e-09 -4.069968e-09 -4.171077e-09 -3.652945e-09 -3.012585e-09 -2.052643e-09 -2.149023e-09 -1.242352e-09 -1.736166e-09 -1.368825e-09
-1.305611e-09 -6.934753e-11 2.357096e-10 -1.609859e-09 -1.343430e-09 -1.183696e-10 -1.859015e-09 5.375325e-10 -1.265654e-09 -8.197491e-11
-1.328723e-09 2.023955e-09 3.823158e-10 2.786497e-11 8.044732e-10 2.817541e-10 1.297046e-09 1.315430e-09 2.537218e-09 3.277947e-09
2.157297e-09 1.913502e-09 2.025385e-09 2.887655e-09 1.157226e-09 2.394023e-09 4.644823e-09 3.185549e-09 3.688209e-09 2.594079e-09
3.418904e-09 4.680111e-09 4.316799e-09 3.318924e-09 5.856695e-09 5.525484e-09 3.418544e-09 3.571867e-09 3.890369e-09 4.021766e-09
4.434067e-09 4.128695e-09 5.148196e-09 5.690467e-09 7.975800e-09 5.941635e-09 4.916982e-09 5.884004e-09 5.171676e-09 6.779256e-09
6.452639e-09 7.319485e-09 6.293755e-09 5.730627e-09 6.923765e-09 6.924074e-09 7.426889e-09 7.749489e-09 5.947832e-09 6.624906e-09
5.568227e-09 6.392430e-09 6.570515e-09 7.798690e-09 8.003122e-09 6.160133e-09 8.041771e-09 7.552363e-09 8.940432e-09 7.041971e-09
8.704467e-09 9.331521e-09 9.767885e-09 7.173913e-09 9.471148e-09 7.269630e-09 8.003748e-09 8.504159e-09 9.925007e-09 9.751047e-09
8.814109e-09 9.452161e-09 9.095817e-09 1.249436e-08 1.091632e-08 9.189516e-09 1.107136e-08 8.992494e-09 1.089523e-08 8.921654e-09
1.109871e-08 9.872639e-09 9.966519e-09 1.033848e-08 1.029667e-08 8.949669e-09 9.578621e-09 9.733928e-09 1.118241e-08 1.006452e-08
8.549907e-09 8.947480e-09 9.347906e-09 9.526939e-09 9.340637e-09 9.539455e-09 9.680622e-09 9.980297e-09 8.715568e-09 8.438377e-09
9.107345e-09 9.883085e-09 1.102332e-08 9.464457e-09 8.609560e-09 9.334328e-09 9.402540e-09 9.119232e-09 9.168708e-09 8.504110e-09
8.525197e-09 9.241973e-09 9.890535e-09 9.400702e-09 9.642041e-09 8.717304e-09 8.498602e-09 9.276715e-09 8.170382e-09 8.536656e-09
8.866324e-09 7.729608e-09 9.961774e-09 6.696524e-09 9.179968e-09 9.239355e-09 8.031261e-09 7.759331e-09 8.088255e-09 8.532347e-09
8.054624e-09 7.584202e-09 6.906662e-09 5.670190e-09 6.994632e-09 8.560176e-09 6.047372e-09 5.875579e-09 7.768445e-09 4.434134e-09
7.397020e-09 6.911087e-09 5.808740e-09 8.272465e-09 3.516783e-09 5.704015e-09 5.910355e-09 3.977934e-09 5.421577e-09 4.698032e-09
5.975358e-09 2.841241e-09 3.698151e-09 4.116243e-09 3.631559e-09 2.079787e-09 4.025758e-09 5.491401e-09 3.300460e-09 2.056178e-09
3.589501e-09 1.664052e-09 1.904615e-09 2.060162e-09 1.918234e-09 2.594678e-09 2.677094e-09 1.144844e-09 2.992004e-09 6.057244e-10
-6.766024e-10 1.284276e-09 3.400396e-09 2.458358e-10 -9.606699e-10 3.402741e-10 9.501929e-10 -5.417692e-10 4.895058e-10 6.395057e-10
-9.186298e-10 -1.512902e-09 -2.053339e-09 -4.910027e-10 1.412941e-09 -2.253614e-09 -5.436783e-10 5.184255e-10 -2.264706e-09 -2.593581e-09
-3.392645e-09 -2.522145e-09 -3.719858e-09 -2.081261e-09 -3.010832e-09 -3.357419e-09 -2.372294e-09 -3.779955e-09 -4.018506e-09 -5.225057e-09
-3.410335e-09 -3.225945e-09 -3.604242e-09 -3.115520e-09 -5.600838e-09 -4.745356e-09 -3.525621e-09 -4.435162e-09 -2.506866e-09 -4.579247e-09
-4.995162e-09 -5.875548e-09 -5.169211e-09 -4.799790e-09 -7.434747e-09 -5.162668e-09 -4.852268e-09 -8.701037e-09 -7.677925e-09 -4.983764e-09
-7.256541e-09 -7.335835e-09 -6.974668e-09 -6.557415e-09 -6.610442e-09 -6.183162e-09 -6.384823e-09 -6.962959e-09 -8.526961e-09 -1.022749e-08
-7.565862e-09 -9.895247e-09 -7.111308e-09 -8.507848e-09 -8.482531e-09 -9.705613e-09 -7.668571e-09 -8.548703e-09 -7.738127e-09 -9.865496e-09
-7.758591e-09 -8.423330e-09 -9.651573e-09 -7.928697e-09 -8.978708e-09 -8.784047e-09 -8.599980e-09 -8.877650e-09 -9.062592e-09 -8.888468e-09
-8.498155e-09 -8.171341e-09 -9.630043e-09 -8.695576e-09 -9.340407e-09 -9.363725e-09 -1.222441e-08 -1.130528e-08 -9.273567e-09 -8.812409e-09
-1.051000e-08 -1.014106e-08 -8.698995e-09 -1.037665e-08 -1.020638e-08 -1.033539e-08 -1.043230e-08 -9.428393e-09 -9.041760e-09 -8.330861e-09
-1.009001e-08
-1.067996e-08 -1.001429e-08 -9.416552e-09 -9.557090e-09 -1.086502e-08 -1.057307e-08 -1.083601e-08 -1.133593e-08 -9.173246e-09 -1.035248e-08
-9.649209e-09 -9.678825e-09 -9.168865e-09 -8.401315e-09 -9.962204e-09 -9.086267e-09 -9.492564e-09 -1.084047e-08 -9.588072e-09 -1.026453e-08
-9.611187e-09 -1.105797e-08 -9.339534e-09 -9.912966e-09 -9.173103e-09 -1.022130e-08 -8.311524e-09 -8.425704e-09 -7.445879e-09 -8.778733e-09
-9.808987e-09 -8.050312e-09 -8.700408e-09 -8.522371e-09 -9.957120e-09 -8.281154e-09 -8.183030e-09 -7.118725e-09 -8.196245e-09 -7.350871e-09
-8.641233e-09 -6.787270e-09 -7.708653e-09 -6.982533e-09 -7.351732e-09 -7.332590e-09 -6.933183e-09 -6.501895e-09 -7.955793e-09 -6.077041e-09
-6.642278e-09 -7.275002e-09 -5.101682e-09 -5.244190e-09 -4.797881e-09 -6.068898e-09 -6.625264e-09 -6.610646e-09 -5.396733e-09 -5.470173e-09
-5.530293e-09 -4.045069e-09 -4.450049e-09 -4.802417e-09 -5.547112e-09 -3.921512e-09 -3.268470e-09 -2.162678e-09 -3.902545e-09 -3.774726e-09
-1.777363e-09 -4.878448e-09 -3.979077e-09 -3.804803e-09 -2.664496e-09 -2.310925e-09 -2.954949e-09 -1.791033e-09 -2.496500e-09 -2.952939e-09
-2.091387e-09 -8.290863e-10 -1.530968e-09 -9.611040e-10 -2.338270e-09 -9.180707e-10 -1.413815e-09 -6.711353e-10 2.431694e-10 -1.028119e-09
-4.960348e-10 2.800222e-10 1.013384e-09 1.328275e-09 -1.776253e-10 1.170257e-09 7.550606e-10 -2.686746e-10 6.338430e-10 1.464097e-09
1.186689e-09 2.646126e-09 1.627781e-09 1.950422e-09 2.334216e-09 2.620553e-09 1.625957e-09 4.278916e-09 5.059823e-09 2.994817e-09
2.199274e-09 4.112290e-09 5.144152e-09 6.054295e-09 2.930056e-09 3.646941e-09 4.520897e-09 3.795835e-09 4.370160e-09 4.807833e-09
7.847376e-09 4.852300e-09 6.352662e-09 6.338559e-09 6.068777e-09 4.473975e-09 5.432712e-09 5.720604e-09 7.701998e-09 7.251372e-09
6.650370e-09 5.512629e-09 4.998295e-09 7.044356e-09 7.818195e-09 6.996353e-09 6.793176e-09 7.908969e-09 8.542982e-09 7.169733e-09
7.175142e-09 7.492836e-09 7.290078e-09 7.704883e-09 7.508540e-09 8.842292e-09 1.028611e-08 1.126950e-08 7.151387e-09 9.521433e-09
9.833100e-09 8.847072e-09 7.782138e-09 8.940031e-09 9.464444e-09 1.079764e-08 9.467594e-09 1.169398e-08 1.053440e-08 9.967071e-09
9.901592e-09 9.503073e-09 1.025194e-08 8.997148e-09 9.517273e-09 9.183405e-09 9.551211e-09 1.045041e-08 9.634291e-09 8.703996e-09
9.209095e-09 9.973561e-09 1.056769e-08 9.448486e-09 1.008535e-08 9.321577e-09 1.087998e-08 1.124327e-08 1.002133e-08 8.970268e-09
1.126632e-08 9.700199e-09 9.670273e-09 1.252649e-08 8.962200e-09 1.034681e-08 9.440696e-09 1.034465e-08 1.130880e-08 8.736022e-09
1.002400e-08 9.848976e-09 1.016199e-08 1.079064e-08 8.693093e-09 1.050666e-08 1.047852e-08 1.125048e-08 8.868130e-09 1.026348e-08
9.433631e-09 8.776265e-09 9.526786e-09 8.554511e-09 1.005617e-08 9.133999e-09 9.215170e-09 9.719017e-09 7.865128e-09 8.633658e-09
9.396413e-09 9.028247e-09 7.795610e-09 7.929621e-09 7.190900e-09 8.487659e-09 8.924926e-09 7.985171e-09 8.212876e-09 6.153287e-09
8.217598e-09 7.049579e-09 5.970070e-09 7.257129e-09 6.693158e-09 7.617282e-09 7.388905e-09 5.937678e-09 6.314556e-09 6.976405e-09
5.609697e-09 6.131498e-09 3.829949e-09 5.507622e-09 6.837205e-09 4.660109e-09 4.863308e-09 5.760910e-09 4.981099e-09 5.434482e-09
5.958814e-09 5.744252e-09 4.081498e-09 3.964351e-09 5.433824e-09 3.047938e-09 3.799864e-09 2.972161e-09 3.515774e-09 3.665569e-09
5.682473e-09 2.314432e-09 3.867728e-09 2.255655e-09 3.261970e-09 3.049020e-09 4.341129e-09 3.698813e-09 1.343378e-09 3.144462e-09
1.370597e-09 1.673154e-09 2.373260e-09 8.815370e-10 1.825299e-09 7.826524e-10 -2.411579e-10 -9.373265e-10 3.810242e-10 6.815739e-10
1.092248e-09 -7.730472e-10 -1.597685e-09 5.859567e-10 -1.003391e-09 1.628268e-10 -6.656580e-10 -9.260512e-10 -1.703297e-09 -6.491213e-11
-1.474746e-09 -2.496942e-09 -3.921842e-09 -2.758938e-09 -3.359479e-09 -2.175076e-09 -2.150511e-09 -2.227506e-09 -3.530515e-09 -2.133765e-09
-3.612620e-09 -4.307908e-09 -5.089937e-09 -5.246263e-09 -3.175093e-09 -5.468657e-09 -4.906813e-09 -2.641029e-09 -5.454346e-09 -5.262053e-09
-3.824586e-09 -4.653021e-09 -5.473318e-09 -5.771277e-09 -5.922017e-09 -5.265999e-09 -7.037363e-09 -6.920894e-09 -7.469063e-09 -6.936002e-09
-6.982373e-09 -6.211208e-09 -5.823365e-09 -5.619684e-09 -6.555766e-09 -8.603702e-09 -7.782698e-09 -8.143275e-09 -7.603241e-09 -9.057070e-09
-8.441179e-09 -8.890818e-09 -7.664579e-09 -8.109211e-09 -7.574218e-09 -8.764784e-09 -9.761328e-09 -8.270159e-09 -7.876804e-09 -8.883910e-09
-9.286428e-09 -1.001984e-08 -8.459820e-09 -9.710489e-09 -8.101650e-09 -1.075669e-08 -8.335202e-09 -9.617131e-09 -1.163544e-08 -1.167919e-08
-1.088746e-08 -9.746891e-09 -8.259895e-09 -1.119683e-08 -9.324244e-09 -8.564150e-09 -1.191593e-08 -1.040940e-08 -9.770582e-09 -1.236083e-08
-9.651818e-09 -1.136817e-08 -1.066236e-08 -1.119929e-08 -1.080535e-08 -1.199202e-08 -1.022886e-08 -9.583334e-09 -9.812724e-09 -1.089798e-08
-1.067996e-08
-1.039138e-08 -1.016604e-08 -1.022900e-08 -1.248545e-08 -9.789765e-09 -1.096150e-08 -1.119553e-08 -1.021800e-08 -1.128985e-08 -9.277817e-09
-1.174997e-08 -9.771211e-09 -9.512196e-09 -1.101229e-08 -1.072658e-08 -8.973852e-09 -1.092269e-08 -9.950701e-09 -8.676335e-09 -1.254603e-08
-9.790639e-09 -1.062860e-08 -1.060419e-08 -1.037811e-08 -8.533485e-09 -8.637809e-09 -1.019821e-08 -1.044050e-08 -9.273136e-09 -1.020280e-08
-1.077630e-08 -1.065868e-08 -8.765576e-09 -9.876980e-09 -8.650636e-09 -8.054062e-09 -9.885077e-09 -8.122357e-09 -8.014482e-09 -9.504189e-09
-7.645405e-09 -7.592876e-09 -9.229997e-09 -6.687175e-09 -8.894486e-09 -7.635069e-09 -8.241961e-09 -5.906590e-09 -6.288760e-09 -8.615187e-09
-4.998808e-09 -5.389827e-09 -6.075135e-09 -5.416117e-09 -6.094034e-09 -6.305006e-09 -5.994799e-09 -7.503722e-09 -3.752433e-09 -5.964099e-09
-3.131482e-09 -7.652000e-09 -5.634455e-09 -4.882831e-09 -6.675423e-09 -4.972492e-09 -5.753666e-09 -6.781834e-09 -6.248813e-09 -2.253696e-09
-4.895264e-09 -2.795769e-09 -2.564139e-09 -2.604892e-09 -2.326388e-09 -2.680563e-09 -2.088353e-09 -2.430804e-09 -2.062194e-09 -2.323936e-09
-3.089750e-09 -1.727117e-09 -2.338266e-09 -1.571685e-09 -4.844070e-10 -4.199190e-10 -8.331746e-10 -4.193570e-10 4.814530e-10 5.006174e-10
1.874020e-10 -1.217458e-09 1.235244e-09 1.056168e-09 3.243671e-10 -3.384176e-10 1.440861e-09 1.033963e-10 1.710226e-09 7.524681e-10
3.063015e-09 1.691550e-09 1.332550e-09 2.272721e-09 2.158468e-09 4.642061e-09 1.957082e-09 2.587719e-09 3.099894e-09 2.940318e-09
4.958235e-09 5.303523e-09 4.780562e-09 4.039606e-09 3.496082e-09 3.157265e-09 4.235358e-09 5.017760e-09 4.982199e-09 5.115215e-09
5.069432e-09 5.627211e-09 4.017639e-09 6.555602e-09 6.040248e-09 7.317873e-09 6.247330e-09 4.656322e-09 6.890465e-09 6.080601e-09
7.605678e-09 5.234959e-09 7.472255e-09 5.199352e-09 6.082673e-09 8.877634e-09 7.100438e-09 6.232032e-09 7.763997e-09 7.242461e-09
8.347684e-09 9.337003e-09 9.441949e-09 9.014149e-09 9.442848e-09 7.680093e-09 7.539679e-09 1.281053e-08 7.852465e-09 1.116517e-08
9.701290e-09 1.027831e-08 1.020329e-08 9.597517e-09 1.000253e-08 8.182870e-09 8.957873e-09 1.022482e-08 1.024208e-08 9.089136e-09
9.200729e-09 9.309361e-09 9.447452e-09 9.623172e-09 1.076297e-08 1.035287e-08 1.211307e-08 8.883815e-09 1.212033e-08 8.353138e-09
8.425329e-09 1.085614e-08 1.072299e-08 9.587474e-09 9.176405e-09 9.153031e-09 1.027361e-08 9.673864e-09 9.766356e-09 9.169838e-09
1.293079e-08 1.048560e-08 9.969884e-09 1.123341e-08 1.096572e-08 1.008098e-08 1.207017e-08 9.179813e-09 9.873469e-09 9.988844e-09
1.050929e-08 8.980380e-09 1.219074e-08 9.989932e-09 1.148247e-08 1.022925e-08 8.401439e-09 1.275028e-08 1.067028e-08 9.950921e-09
1.160534e-08 9.646207e-09 1.097726e-08 9.193337e-09 9.886501e-09 9.460479e-09 1.115925e-08 8.740486e-09 9.748304e-09 1.019037e-08
7.795972e-09 1.019849e-08 8.352590e-09 9.671007e-09 9.034033e-09 1.099356e-08 8.453688e-09 7.182707e-09 1.011282e-08 7.350707e-09
7.838576e-09 8.396043e-09 8.677397e-09 7.318030e-09 7.429675e-09 7.893228e-09 6.194127e-09 6.658546e-09 5.142053e-09 9.070199e-09
6.131631e-09 7.686897e-09 6.768881e-09 5.682715e-09 5.722398e-09 4.707660e-09 6.011523e-09 6.568502e-09 4.457196e-09 4.584312e-09
7.813462e-09 5.718821e-09 7.408959e-09 4.437775e-09 4.386645e-09 3.808382e-09 1.649254e-09 3.838137e-09 3.848531e-09 1.637367e-09
2.909622e-09 2.702567e-09 2.251326e-09 2.519213e-09 3.350106e-09 2.701533e-09 2.520117e-09 2.476584e-09 2.856436e-09 1.877862e-09
2.880871e-10 5.430597e-10 1.766294e-09 1.399766e-09 1.071703e-09 3.541568e-10 1.182756e-09 -7.291020e-11 -9.744713e-11 1.247855e-09
-1.646402e-10 -1.759672e-09 5.708593e-10 1.553115e-09 -1.423324e-09 -2.960664e-10 -2.816777e-09 -2.868737e-10 -1.126416e-09 -3.074973e-09
-2.931489e-09 -1.483336e-09 -3.149930e-09 -3.845139e-09 -1.564115e-09 -2.524476e-09 -3.672397e-09 -3.328853e-09 -2.279469e-09 -2.697076e-09
-5.109390e-09 -3.542943e-09 -3.411089e-09 -1.903601e-09 -3.714148e-09 -4.805337e-09 -5.007097e-09 -5.905786e-09 -6.170552e-09 -4.973282e-09
-5.957452e-09 -5.540317e-09 -4.982912e-09 -5.049093e-09 -7.330097e-09 -5.662550e-09 -5.938611e-09 -5.932017e-09 -7.141371e-09 -8.777215e-09
-7.534727e-09 -7.311463e-09 -7.806072e-09 -6.699263e-09 -8.265601e-09 -6.993498e-09 -9.183341e-09 -9.191583e-09 -8.721696e-09 -9.149269e-09
-7.813029e-09 -7.323878e-09 -8.981438e-09 -8.753879e-09 -9.797019e-09 -9.938026e-09 -9.640918e-09 -8.644457e-09 -1.048977e-08 -9.743272e-09
-9.150228e-09 -9.199959e-09 -8.940851e-09 -8.941595e-09 -1.004971e-08 -9.715992e-09 -1.156001e-08 -8.528159e-09 -1.021348e-08 -1.084033e-08
-1.174714e-08 -1.041787e-08 -1.163206e-08 -8.728292e-09 -9.743400e-09 -1.058846e-08 -1.027058e-08 -1.099881e-08 -1.047049e-08 -1.018848e-08
-1.133654e-08 -1.047452e-08 -9.612008e-09 -1.192809e-08 -8.546960e-09 -1.023161e-08 -1.170958e-08 -9.919230e-09 -9.544123e-09 -1.004959e-08
-1.039138e-08
-1.309912e-08 -9.461642e-09 -1.166585e-08 -1.122032e-08 -1.001183e-08 -1.139912e-08 -1.135046e-08 -1.077741e-08 -1.064061e-08 -1.153780e-08
-1.191365e-08 -1.160089e-08 -9.974189e-09 -1.161898e-08 -1.071546e-08 -8.857721e-09 -9.783101e-09 -1.067837e-08 -9.618347e-09 -1.130539e-08
-1.005127e-08 -9.788994e-09 -9.315912e-09 -1.043474e-08 -8.643727e-09 -9.510731e-09 -9.986903e-09 -9.563789e-09 -7.612091e-09 -8.531443e-09
-1.108225e-08 -1.058197e-08 -9.713426e-09 -9.578341e-09 -8.578009e-09 -7.519149e-09 -9.983999e-09 -8.002598e-09 -7.714617e-09 -8.503066e-09
-1.069841e-08 -8.958515e-09 -9.956682e-09 -6.946232e-09 -7.260928e-09 -5.136066e-09 -7.355792e-09 -7.006358e-09 -7.662504e-09 -6.834856e-09
-7.104873e-09 -6.087367e-09 -5.590323e-09 -5.957888e-09 -4.943253e-09 -6.526987e-09 -5.185119e-09 -4.169074e-09 -7.342111e-09 -4.885113e-09
-5.396417e-09 -5.778197e-09 -4.990517e-09 -4.122009e-09 -3.919849e-09 -5.152437e-09 -2.524909e-09 -5.126180e-09 -4.866772e-09 -3.214154e-09
-3.119779e-09 -2.280164e-09 -1.800074e-09 -2.580348e-09 -3.101787e-09 -1.562971e-09 -1.081679e-09 -2.076865e-09 -3.192504e-09 -3.576396e-09
-2.692783e-09 -8.942239e-10 -3.828508e-09 -7.736072e-10 -2.828641e-09 -9.160470e-10 -4.939412e-10 -1.929388e-09 -1.331324e-09 2.818697e-09
8.548904e-10 2.708726e-09 -6.239718e-10 9.811983e-10 3.412315e-09 7.115278e-10 2.791341e-09 9.315542e-10 2.956508e-09 3.761421e-09
8.724358e-11 3.457774e-09 3.448531e-09 3.469358e-09 3.829893e-09 2.821944e-09 1.181025e-09 2.828829e-09 3.075111e-09 3.989407e-09
2.778030e-09 5.489660e-09 4.226557e-09 3.619868e-09 3.080968e-09 1.919093e-09 4.522911e-09 4.150873e-09 6.293463e-09 5.115469e-09
5.013798e-09 5.689381e-09 4.743408e-09 5.196311e-09 5.344567e-09 6.958701e-09 6.754930e-09 5.965619e-09 5.723833e-09 8.662551e-09
6.932488e-09 6.717304e-09 7.079668e-09 8.771946e-09 8.708561e-09 8.236986e-09 9.254312e-09 8.268081e-09 8.961213e-09 7.651353e-09
8.639078e-09 7.781998e-09 8.108928e-09 8.570410e-09 7.565170e-09 7.592130e-09 1.009045e-08 1.058280e-08 9.316445e-09 1.049087e-08
9.320436e-09 9.605816e-09 9.167299e-09 1.113964e-08 1.039326e-08 8.797684e-09 9.582589e-09 9.636861e-09 1.051700e-08 1.149688e-08
1.073327e-08 9.629464e-09 1.135501e-08 1.083266e-08 9.443096e-09 1.293865e-08 1.097154e-08 1.119898e-08 9.977643e-09 1.237255e-08
9.156270e-09 9.994390e-09 9.576703e-09 1.219102e-08 1.142693e-08 1.019062e-08 1.048012e-08 1.131851e-08 9.676412e-09 9.659012e-09
1.200304e-08 1.048876e-08 1.089755e-08 1.074115e-08 1.000436e-08 1.103414e-08 1.151068e-08 1.157014e-08 1.191940e-08 9.560211e-09
1.004748e-08 9.393685e-09 1.172406e-08 1.099651e-08 9.904124e-09 1.041105e-08 9.883313e-09 9.816628e-09 1.123958e-08 9.865702e-09
9.074083e-09 1.162007e-08 8.262662e-09 1.090982e-08 1.057758e-08 1.148016e-08 9.101309e-09 1.058722e-08 1.027625e-08 9.121051e-09
8.935131e-09 8.414115e-09 9.352631e-09 9.165248e-09 9.586938e-09 8.090756e-09 8.825858e-09 1.098732e-08 8.613106e-09 8.633493e-09
7.321689e-09 8.917000e-09 7.944894e-09 8.170806e-09 8.310386e-09 7.754005e-09 6.048705e-09 6.970575e-09 7.071539e-09 7.042424e-09
7.425413e-09 7.620874e-09 8.470969e-09 5.689798e-09 4.721993e-09 6.165460e-09 6.349073e-09 6.950930e-09 7.649633e-09 6.555420e-09
3.948627e-09 5.511001e-09 5.548454e-09 4.238550e-09 2.320251e-09 2.838907e-09 5.850454e-09 1.889561e-09 5.809552e-09 7.405725e-10
3.431840e-09 3.224375e-09 3.211849e-09 3.494819e-09 2.303860e-09 1.883014e-09 1.568279e-09 2.636044e-09 2.556095e-09 4.585671e-10
1.180723e-09 5.750501e-10 3.398748e-09 3.118947e-09 5.174570e-10 1.039954e-09 1.006281e-09 -2.711597e-10 -2.323953e-09 -1.937105e-09
3.014824e-10 2.331601e-09 9.983839e-11 -1.993639e-10 3.226611e-10 -4.821079e-10 -1.073253e-09 -1.965154e-09 -1.425783e-09 -2.603727e-09
-2.851088e-09 -3.137274e-09 -2.797758e-09 -6.455411e-10 -3.218134e-09 -2.839537e-09 -2.589353e-10 -1.568219e-09 -3.819514e-09 -3.298041e-09
-4.111515e-09 -3.814125e-09 -2.182774e-09 -4.461451e-09 -4.085110e-09 -4.626827e-09 -5.850501e-09 -5.838393e-09 -3.954595e-09 -7.357870e-09
-4.872901e-09 -7.243674e-09 -4.648935e-09 -5.578881e-09 -6.869437e-09 -5.008086e-09 -6.386868e-09 -5.766382e-09 -6.092657e-09 -6.703011e-09
-4.812525e-09 -6.359100e-09 -7.872972e-09 -1.013454e-08 -9.587506e-09 -8.531273e-09 -8.101185e-09 -8.018705e-09 -9.042977e-09 -8.942101e-09
-7.940812e-09 -8.669347e-09 -9.439671e-09 -9.053928e-09 -8.667410e-09 -1.005072e-08 -1.056833e-08 -9.078001e-09 -1.058731e-08 -1.022714e-08
-9.725687e-09 -9.609610e-09 -1.013778e-08 -9.129202e-09 -1.026720e-08 -1.004177e-08 -9.440708e-09 -1.054609e-08 -1.138156e-08 -9.979630e-09
-9.864611e-09 -1.081968e-08 -9.482471e-09 -1.109780e-08 -9.501706e-09 -1.067605e-08 -1.039572e-08 -9.496873e-09 -1.087220e-08 -1.002282e-08
-1.073843e-08 -1.081196e-08 -1.164515e-08 -1.230449e-08 -9.849291e-09 -1.172805e-08 -1.140201e-08 -9.754606e-09 -1.186869e-08 -1.289932e-08
-1.309912e-08
-1.124028e-08 -1.307195e-08 -1.078985e-08 -1.173488e-08 -1.021478e-08 -1.207097e-08 -1.145778e-08 -1.184809e-08 -9.657976e-09 -1.215718e-08
-1.025818e-08 -1.132340e-08 -1.042437e-08 -1.105042e-08 -1.091675e-08 -1.002107e-08 -1.197517e-08 -1.255299e-08 -1.129710e-08 -9.971475e-09
-1.077758e-08 -8.550445e-09 -1.244283e-08 -1.054437e-08 -1.076342e-08 -9.055345e-09 -1.010996e-08 -1.092609e-08 -9.116390e-09 -9.453012e-09
-1.003264e-08 -9.687615e-09 -1.322145e-08 -1.019445e-08 -7.904163e-09 -1.049022e-08 -9.065316e-09 -7.791980e-09 -9.650282e-09 -8.619437e-09
-8.715372e-09 -9.834621e-09 -8.278493e-09 -7.476753e-09 -8.311119e-09 -9.017298e-09 -7.444246e-09 -8.565014e-09 -8.702162e-09 -6.932681e-09
-6.525166e-09 -7.428291e-09 -7.308945e-09 -5.424580e-09 -7.497387e-09 -6.257039e-09 -7.928396e-09 -5.685577e-09 -7.084318e-09 -5.807531e-09
-6.890421e-09 -6.277569e-09 -4.548507e-09 -4.473953e-09 -4.514707e-09 -3.423617e-09 -5.528351e-09 -4.763775e-09 -4.955271e-09 -3.770787e-09
-4.176784e-09 -2.093147e-09 -3.252854e-09 -2.860084e-09 -2.026420e-09 -3.305426e-09 -7.077538e-10 -3.512269e-09 -8.113292e-10 -1.057190e-09
-9.369269e-10 2.717966e-10 -1.608226e-09 -1.842170e-09 -6.420888e-10 -6.762262e-10 -1.632688e-10 1.203116e-10 1.198334e-10 -2.771473e-10
6.957577e-10 7.207611e-10 2.246311e-09 -7.384766e-10 1.445219e-09 1.810093e-09 -4.920694e-10 9.004215e-10 1.320790e-09 2.214522e-09
2.644859e-09 1.112485e-09 2.913380e-09 1.825800e-09 3.010295e-09 1.829834e-09 3.309574e-09 1.005595e-09 2.565563e-09 4.109264e-09
2.405804e-09 4.040778e-09 5.574407e-09 4.109199e-09 3.293794e-09 5.642544e-09 6.531097e-09 5.659209e-09 4.999697e-09 4.896847e-09
7.033448e-09 8.018408e-09 6.230176e-09 4.649172e-09 5.001536e-09 7.000333e-09 6.566901e-09 8.898908e-09 7.080461e-09 8.080910e-09
8.655713e-09 6.187685e-09 9.312578e-09 7.304634e-09 7.781092e-09 8.520828e-09 7.155635e-09 1.052662e-08 7.968949e-09 8.677431e-09
8.158569e-09 9.709034e-09 1.033661e-08 8.283613e-09 9.363266e-09 1.072188e-08 9.701213e-09 9.006678e-09 9.263816e-09 1.032631e-08
1.011738e-08 1.014817e-08 1.047040e-08 1.010586e-08 9.185654e-09 9.850828e-09 1.062908e-08 1.105475e-08 1.371298e-08 1.088027e-08
1.140287e-08 9.451202e-09 9.580433e-09 1.075107e-08 1.192822e-08 1.027844e-08 1.154988e-08 1.162850e-08 1.262219e-08 9.810762e-09
1.093776e-08 1.260625e-08 1.083490e-08 9.831180e-09 1.186899e-08 1.247997e-08 1.177213e-08 1.207634e-08 1.057916e-08 1.257235e-08
1.104480e-08 1.059914e-08 1.212900e-08 1.091386e-08 1.064609e-08 1.074577e-08 1.127337e-08 1.118825e-08 1.159701e-08 1.280309e-08
1.045458e-08 1.054074e-08 1.145346e-08 1.012707e-08 1.181247e-08 1.112706e-08 1.198947e-08 9.070333e-09 1.146683e-08 1.015223e-08
1.113377e-08 1.113211e-08 8.707993e-09 9.390932e-09 9.532511e-09 1.111333e-08 1.118951e-08 9.128183e-09 8.817732e-09 9.734340e-09
8.624273e-09 9.740352e-09 1.015470e-08 8.850892e-09 7.641686e-09 8.447532e-09 8.949480e-09 9.724719e-09 1.058061e-08 8.734149e-09
9.586183e-09 9.047316e-09 8.254617e-09 7.598985e-09 8.226162e-09 7.565530e-09 7.727658e-09 7.337180e-09 6.866672e-09 7.718876e-09
6.534470e-09 8.694472e-09 5.819408e-09 7.040033e-09 6.075284e-09 5.384912e-09 5.768153e-09 8.026135e-09 6.020471e-09 7.209320e-09
5.528434e-09 4.435596e-09 6.068113e-09 5.260581e-09 3.237801e-09 4.541179e-09 4.942681e-09 4.880289e-09 2.261692e-09 6.154416e-09
1.954042e-09 1.265582e-09 9.012989e-10 2.688464e-09 3.151380e-09 2.939579e-09 5.374257e-10 2.649656e-09 3.192465e-09 4.180201e-09
3.787265e-09 1.827169e-09 -3.655405e-11 1.660479e-09 8.521002e-10 1.102019e-09 1.283877e-09 -5.752528e-11 1.214564e-09 1.517067e-09
1.230703e-09 -8.083896e-10 -2.826973e-10 -4.467349e-10 -8.568520e-10 -1.854114e-09 -2.145568e-09 -1.063792e-09 -2.603878e-09 -2.880012e-09
3.222875e-10 -2.651744e-09 2.160978e-10 -1.884794e-09 -3.308687e-09 -2.941196e-09 -3.043793e-09 -5.302223e-09 -2.905383e-09 -4.858690e-09
-3.722007e-09 -4.313001e-09 -4.299866e-09 -3.499280e-09 -6.350517e-09 -3.614896e-09 -5.288300e-09 -3.401594e-09 -5.280641e-09 -5.456742e-09
-5.440839e-09 -5.630772e-09 -5.950540e-09 -6.909553e-09 -6.541013e-09 -7.383353e-09 -6.900282e-09 -6.167564e-09 -6.885063e-09 -7.252664e-09
-8.053072e-09 -8.338175e-09 -8.219944e-09 -6.279313e-09 -6.732929e-09 -6.584393e-09 -8.266362e-09 -1.128158e-08 -7.744377e-09 -9.736653e-09
-8.054599e-09 -9.217724e-09 -1.033705e-08 -1.009813e-08 -9.196008e-09 -1.125244e-08 -9.374008e-09 -1.094757e-08 -9.573439e-09 -1.147636e-08
-9.939907e-09 -1.186603e-08 -1.055606e-08 -1.105446e-08 -1.168400e-08 -1.093973e-08 -9.548564e-09 -9.899618e-09 -1.144680e-08 -1.045211e-08
-1.067006e-08 -1.161049e-08 -1.174674e-08 -9.633619e-09 -1.165589e-08 -1.116804e-08 -9.993538e-09 -1.187245e-08 -1.151808e-08 -1.025560e-08
-1.153723e-08 -1.159001e-08 -1.050315e-08 -1.129772e-08 -1.091883e-08 -1.118310e-08 -1.063719e-08 -1.097919e-08 -1.068732e-08 -1.176616e-08
-1.124028e-08
-1.198146e-08 -1.013654e-08 -1.066384e-08 -1.273224e-08 -1.303353e-08 -1.130328e-08 -1.149761e-08 -1.125256e-08 -1.160158e-08 -1.194417e-08
-1.047030e-08 -9.966720e-09 -1.030604e-08 -1.062486e-08 -1.184608e-08 -1.179863e-08 -1.204551e-08 -1.190677e-08 -1.148256e-08 -1.253261e-08
-9.569549e-09 -1.092365e-08 -1.000404e-08 -9.655413e-09 -9.814866e-09 -1.173008e-08 -1.083979e-08 -1.158721e-08 -1.025616e-08 -1.120192e-08
-9.403368e-09 -9.886903e-09 -1.121361e-08 -8.340765e-09 -1.036921e-08 -1.004824e-08 -1.035116e-08 -9.845376e-09 -1.043087e-08 -8.438129e-09
-1.020259e-08 -9.644650e-09 -1.140834e-08 -7.411399e-09 -7.958133e-09 -8.814208e-09 -1.012704e-08 -8.062982e-09 -8.218166e-09 -9.673230e-09
-9.162146e-09 -8.445977e-09 -5.804202e-09 -6.564933e-09 -6.809353e-09 -5.715442e-09 -6.643411e-09 -5.172556e-09 -5.390531e-09 -7.131252e-09
-6.700226e-09 -5.435176e-09 -6.199679e-09 -5.111360e-09 -5.636675e-09 -5.633515e-09 -4.727974e-09 -3.449075e-09 -3.447733e-09 -5.599014e-09
-4.269880e-09 -4.738126e-09 -1.395470e-09 -2.977017e-09 -4.168422e-09 -3.481587e-09 -2.951483e-09 -4.006996e-09 -2.291721e-09 -1.818694e-09
-3.268361e-09 -2.077986e-09 -3.746773e-10 -2.947076e-09 1.257259e-09 -2.030189e-09 -2.641261e-09 -1.070472e-09 -1.570320e-09 -3.550860e-11
-8.260581e-10 1.237254e-09 1.005127e-09 1.120360e-09 8.025100e-10 -2.739589e-10 1.012994e-09 3.687259e-09 2.755850e-09 2.428753e-09
2.412550e-09 2.274256e-09 3.057296e-09 2.879293e-09 2.798100e-09 3.240068e-09 3.135020e-09 1.504517e-09 2.453455e-09 1.980569e-09
3.691968e-09 3.549363e-09 3.674822e-09 6.557939e-09 4.496921e-09 4.401094e-09 6.543123e-09 6.386581e-09 6.124133e-09 6.554074e-09
5.988416e-09 5.504948e-09 6.393321e-09 6.694175e-09 5.252784e-09 6.421273e-09 8.670672e-09 7.705415e-09 7.978641e-09 6.810806e-09
8.223483e-09 8.041178e-09 6.906097e-09 6.860905e-09 8.651999e-09 8.843546e-09 7.487944e-09 9.741636e-09 7.519536e-09 8.342847e-09
8.275618e-09 8.829915e-09 8.860787e-09 8.711061e-09 8.643972e-09 1.170913e-08 1.035286e-08 1.096635e-08 1.072744e-08 1.031213e-08
9.928253e-09 1.095074e-08 9.421419e-09 1.027159e-08 1.108553e-08 1.116786e-08 1.143652e-08 1.171523e-08 1.137186e-08 9.755985e-09
1.135700e-08 1.063235e-08 1.126454e-08 1.146873e-08 1.143515e-08 1.107984e-08 1.223834e-08 1.242159e-08 1.106771e-08 1.187023e-08
1.271118e-08 1.058287e-08 1.091874e-08 1.157149e-08 1.117842e-08 1.219914e-08 1.254167e-08 1.099284e-08 1.225363e-08 1.259880e-08
1.302317e-08 1.041066e-08 1.045630e-08 1.171642e-08 1.278394e-08 1.182024e-08 1.152217e-08 1.127984e-08 1.230504e-08 1.148546e-08
1.107097e-08 1.170277e-08 1.166903e-08 1.004562e-08 1.065827e-08 1.232484e-08 1.126146e-08 1.033535e-08 1.122902e-08 1.102343e-08
1.133837e-08 1.089121e-08 1.029079e-08 1.115808e-08 1.112577e-08 1.177177e-08 1.220247e-08 1.110405e-08 9.298603e-09 1.126760e-08
9.901000e-09 1.145366e-08 9.804253e-09 9.900824e-09 9.822720e-09 9.790795e-09 9.337703e-09 9.591344e-09 8.229278e-09 9.205298e-09
8.161205e-09 9.914001e-09 9.332388e-09 8.137153e-09 7.625546e-09 6.581399e-09 7.986855e-09 7.174031e-09 9.493530e-09 6.596100e-09
9.265032e-09 6.682251e-09 9.407039e-09 8.026219e-09 7.250319e-09 5.365961e-09 5.630060e-09 5.373758e-09 5.668226e-09 5.098745e-09
5.406550e-09 6.810884e-09 6.139352e-09 4.523371e-09 4.393139e-09 1.901150e-09 5.976746e-09 3.030645e-09 5.026699e-09 4.744992e-09
3.447870e-09 3.844140e-09 4.591258e-09 3.831336e-10 1.679664e-09 3.061240e-09 1.136402e-09 2.458547e-09 9.106874e-10 1.917152e-09
3.481921e-09 3.007748e-09 3.004157e-09 7.389628e-10 -5.344839e-10 2.136682e-09 -4.608169e-10 1.035680e-09 1.890784e-09 1.257113e-09
-5.246826e-10 5.694104e-10 -2.481639e-09 -2.439877e-09 -7.625589e-10 -1.298883e-09 -2.274748e-09 -7.870475e-10 -5.236381e-10 -1.537988e-09
-3.367151e-09 -3.181856e-09 -2.988688e-09 -4.832191e-09 -7.289555e-10 -2.116225e-09 -3.284711e-10 -4.796894e-09 -3.697102e-09 -3.411021e-09
-3.680370e-09 -4.211933e-09 -3.088647e-09 -4.773919e-09 -4.632720e-09 -5.085427e-09 -5.200012e-09 -4.740343e-09 -5.016616e-09 -6.068043e-09
-8.273887e-09 -6.433124e-09 -5.651005e-09 -7.803364e-09 -6.533032e-09 -8.327729e-09 -5.712729e-09 -8.638314e-09 -7.481231e-09 -7.080648e-09
-6.769857e-09 -7.716017e-09 -6.210215e-09 -8.123540e-09 -9.035861e-09 -9.430631e-09 -9.151418e-09 -7.902850e-09 -9.076421e-09 -8.510443e-09
-8.670681e-09 -7.240116e-09 -8.877934e-09 -1.115282e-08 -9.236234e-09 -8.666003e-09 -1.041393e-08 -8.469752e-09 -9.649889e-09 -9.126429e-09
-9.763061e-09 -9.518549e-09 -1.044987e-08 -9.688676e-09 -9.611779e-09 -1.057269e-08 -1.097252e-08 -1.025191e-08 -1.051568e-08 -1.217772e-08
-9.605531e-09 -1.137458e-08 -1.166563e-08 -1.079196e-08 -1.355694e-08 -1.159207e-08 -1.221385e-08 -1.111778e-08 -1.270879e-08 -1.162675e-08
-9.944498e-09 -1.133334e-08 -1.127335e-08 -1.177417e-08 -1.141662e-08 -1.251570e-08 -1.221013e-08 -1.214420e-08 -1.027036e-08 -1.178673e-08
-1.198146e-08
-1.142085e-08 -1.164426e-08 -1.053331e-08 -1.172759e-08 -1.225443e-08 -1.194837e-08 -1.360301e-08 -1.250770e-08 -1.258026e-08 -1.262974e-08
-1.141245e-08 -1.214012e-08 -1.282853e-08 -1.227440e-08 -1.066663e-08 -1.098518e-08 -1.064839e-08 -1.159383e-08 -1.274834e-08 -1.132372e-08
-1.302900e-08 -1.053713e-08 -1.084425e-08 -1.093999e-08 -1.185446e-08 -1.123501e-08 -9.939858e-09 -9.757586e-09 -1.102393e-08 -1.079510e-08
-1.202465e-08 -9.933779e-09 -1.068970e-08 -1.095459e-08 -1.170224e-08 -1.046199e-08 -1.042427e-08 -1.145342e-08 -8.979292e-09 -1.071730e-08
-1.204240e-08 -9.236929e-09 -9.474842e-09 -7.770907e-09 -9.165860e-09 -8.556596e-09 -7.100486e-09 -9.861119e-09 -9.948574e-09 -9.133655e-09
-9.397604e-09 -8.951899e-09 -6.858377e-09 -7.765897e-09 -5.597094e-09 -7.137892e-09 -1.041913e-08 -5.969030e-09 -7.316563e-09 -6.159707e-09
-4.739607e-09 -4.822262e-09 -7.436691e-09 -5.400663e-09 -3.794717e-09 -6.834105e-09 -3.048314e-09 -5.172387e-09 -5.102143e-09 -4.214237e-09
-3.426718e-09 -3.934396e-09 -3.576468e-09 -4.432865e-09 -4.606642e-09 -2.567189e-09 -2.916839e-10 -1.012621e-09 -1.300145e-09 -2.927228e-09
-2.295290e-09 -7.550829e-10 -2.082400e-09 -1.773201e-09 -6.952379e-10 -3.276652e-09 -1.127324e-09 6.690266e-10 6.667136e-10 -2.199938e-10
1.092797e-10 -1.662286e-10 2.070040e-09 1.557535e-09 7.102501e-10 1.503074e-09 3.946016e-09 1.542584e-10 8.237337e-10 2.190534e-09
2.402728e-09 1.805430e-09 3.285751e-09 1.898232e-09 1.369653e-09 3.251332e-09 1.754082e-09 2.131180e-09 4.041155e-09 4.168190e-09
4.061186e-09 3.894570e-09 4.836387e-09 4.276824e-09 6.059968e-09 6.215500e-09 4.982248e-09 5.545360e-09 4.506630e-09 7.113738e-09
7.408179e-09 5.646434e-09 5.180585e-09 6.318189e-09 7.677174e-09 8.318202e-09 8.853255e-09 8.228960e-09 7.541996e-09 7.329023e-09
7.106741e-09 8.223489e-09 1.095420e-08 7.996383e-09 7.662057e-09 9.379204e-09 1.074965e-08 1.151984e-08 9.035851e-09 9.435827e-09
1.136424e-08 8.622160e-09 9.666011e-09 1.123390e-08 1.044461e-08 9.721525e-09 9.897684e-09 8.867697e-09 1.202999e-08 1.129535e-08
1.167915e-08 1.152973e-08 1.227417e-08 1.042963e-08 1.118266e-08 1.227127e-08 1.102175e-08 1.180452e-08 1.011184e-08 1.091515e-08
1.132576e-08 1.232580e-08 1.262251e-08 9.968872e-09 1.170102e-08 1.270338e-08 1.112328e-08 1.234206e-08 1.073078e-08 1.219629e-08
1.119468e-08 1.121626e-08 1.367055e-08 1.171809e-08 1.135356e-08 1.240093e-08 1.355145e-08 1.204050e-08 1.133374e-08 1.124424e-08
1.172174e-08 1.117059e-08 1.156030e-08 1.162865e-08 1.173057e-08 1.372696e-08 1.072557e-08 1.290039e-08 1.098097e-08 1.165274e-08
1.221524e-08 1.261504e-08 1.216086e-08 1.155759e-08 1.302246e-08 1.155228e-08 1.105061e-08 1.203882e-08 1.100910e-08 1.234324e-08
1.088858e-08 1.156305e-08 1.131061e-08 1.144447e-08 1.115939e-08 1.234636e-08 9.349698e-09 1.053809e-08 9.371715e-09 1.003179e-08
9.826543e-09 1.125364e-08 1.204583e-08 1.159951e-08 1.182750e-08 9.626824e-09 6.933744e-09 9.914384e-09 1.133072e-08 8.821940e-09
1.108486e-08 7.716412e-09 8.932745e-09 9.121556e-09 8.911640e-09 9.196962e-09 7.988462e-09 8.718311e-09 9.036854e-09 8.661587e-09
6.790804e-09 5.939551e-09 6.591799e-09 5.726141e-09 5.464082e-09 7.843822e-09 6.175998e-09 5.699602e-09 4.871727e-09 4.923139e-09
7.328067e-09 4.020729e-09 6.032527e-09 4.570436e-09 4.806753e-09 4.414558e-09 4.003229e-09 6.077711e-09 3.873244e-09 3.940944e-09
5.480428e-09 2.364091e-09 2.264357e-09 4.064061e-09 3.547693e-09 3.472698e-09 9.005182e-10 1.288432e-09 1.323944e-09 2.570578e-09
3.135617e-09 1.203772e-09 2.002875e-09 3.001979e-09 2.457660e-09 1.612964e-09 5.252099e-10 -4.563868e-10 -6.920450e-10 1.288115e-09
8.597970e-10 9.942791e-10 -4.158937e-10 -5.612909e-10 -1.006093e-09 2.039950e-10 -7.380509e-10 -1.509059e-09 -1.891875e-09 -1.118215e-09
-1.748736e-09 -1.918124e-09 -3.102540e-09 -1.633325e-09 -1.556330e-09 -1.900264e-09 -5.601888e-09 -2.360756e-09 -3.803153e-09 -4.622813e-09
-3.091078e-09 -5.292998e-09 -4.039541e-09 -5.256732e-09 -3.732450e-09 -5.869563e-09 -4.106713e-09 -3.873191e-09 -6.880089e-09 -6.689242e-09
-6.949099e-09 -5.749641e-09 -6.788454e-09 -8.703441e-09 -6.946796e-09 -6.154297e-09 -7.151363e-09 -6.988159e-09 -6.726774e-09 -6.829747e-09
-8.348191e-09 -7.468315e-09 -8.823360e-09 -7.114166e-09 -9.316486e-09 -1.063105e-08 -9.074860e-09 -8.071085e-09 -1.051175e-08 -1.026142e-08
-9.430791e-09 -9.842786e-09 -9.995421e-09 -1.072308e-08 -1.058453e-08 -9.891903e-09 -1.074833e-08 -1.061736e-08 -1.059051e-08 -1.185266e-08
-1.013458e-08 -1.023453e-08 -1.052415e-08 -9.367270e-09 -1.127558e-08 -1.127113e-08 -1.212132e-08 -1.123458e-08 -1.339248e-08 -1.100910e-08
-1.222064e-08 -1.163935e-08 -1.117920e-08 -1.188610e-08 -1.217107e-08 -1.239797e-08 -1.284740e-08 -1.186259e-08 -1.263780e-08 -1.137678e-08
-1.194988e-08 -1.253811e-08 -1.221355e-08 -1.157445e-08 -1.191460e-08 -1.132340e-08 -1.229801e-08 -1.344579e-08 -1.213193e-08 -1.053183e-08
-1.142085e-08
-1.218759e-08 -1.271286e-08 -1.307027e-08 -1.192851e-08 -1.253083e-08 -1.382859e-08 -1.202087e-08 -1.302508e-08 -1.328596e-08 -1.377590e-08
-1.140043e-08 -1.117036e-08 -1.127457e-08 -1.065513e-08 -1.211396e-08 -1.088370e-08 -1.180502e-08 -1.128365e-08 -1.340396e-08 -1.098381e-08
-1.105162e-08 -1.326214e-08 -1.181296e-08 -1.190617e-08 -1.179517e-08 -1.268787e-08 -1.168765e-08 -1.270049e-08 -9.595925e-09 -1.157765e-08
-1.093651e-08 -1.205447e-08 -1.047013e-08 -1.123917e-08 -1.004225e-08 -1.028891e-08 -1.020553e-08 -9.097750e-09 -9.319066e-09 -1.151486e-08
-9.210645e-09 -9.721341e-09 -9.536463e-09 -1.056337e-08 -9.403248e-09 -9.162571e-09 -8.472783e-09 -9.876369e-09 -9.072079e-09 -7.341663e-09
-7.368277e-09 -6.018167e-09 -7.660859e-09 -7.005605e-09 -6.387861e-09 -5.523054e-09 -6.875955e-09 -5.254751e-09 -6.295724e-09 -6.725883e-09
-6.805795e-09 -6.832343e-09 -5.641278e-09 -6.392356e-09 -4.359095e-09 -6.086868e-09 -3.935263e-09 -4.730797e-09 -3.812135e-09 -3.877781e-09
-3.364407e-09 -3.892574e-09 -2.615963e-09 -3.534412e-09 -4.581405e-09 -4.378080e-09 -4.033061e-09 -3.893890e-09 -3.462535e-09 -2.786412e-09
-9.871753e-10 -4.407064e-09 -2.485408e-09 -1.858501e-09 -7.023552e-10 -2.269246e-09 -2.711829e-09 -1.652558e-09 7.145036e-10 7.125633e-10
3.073142e-09 -2.025873e-10 -2.492748e-09 5.745257e-10 1.005581e-09 -4.272664e-11 1.893155e-10 1.204821e-10 1.836475e-09 3.985593e-09
2.191240e-09 2.756966e-09 1.334571e-09 2.112065e-09 2.426747e-09 1.410331e-09 3.769137e-09 3.192527e-09 3.697680e-09 3.637237e-09
4.707686e-09 4.887092e-09 5.129870e-09 5.179047e-09 4.125984e-09 5.025843e-09 4.732006e-09 6.053180e-09 4.415743e-09 4.285601e-09
8.420439e-09 5.190706e-09 6.474059e-09 7.765789e-09 5.221223e-09 6.650403e-09 7.435752e-09 7.530161e-09 7.384870e-09 8.926265e-09
8.332013e-09 8.760637e-09 8.684291e-09 9.921528e-09 8.055122e-09 8.736944e-09 8.944489e-09 9.960403e-09 9.410161e-09 1.011981e-08
9.163064e-09 1.008023e-08 9.996555e-09 1.154938e-08 1.035414e-08 1.212046e-08 1.139492e-08 1.205069e-08 1.208791e-08 1.180493e-08
1.238963e-08 1.024686e-08 1.113532e-08 1.279864e-08 1.011203e-08 1.041528e-08 1.156476e-08 1.174679e-08 1.228366e-08 1.121994e-08
1.144668e-08 1.133866e-08 1.265621e-08 1.170028e-08 1.090029e-08 1.154142e-08 1.116211e-08 1.145690e-08 1.296157e-08 1.184174e-08
1.183710e-08 1.327914e-08 1.117009e-08 1.284456e-08 1.048550e-08 1.158229e-08 1.347907e-08 1.268733e-08 1.216017e-08 1.202307e-08
1.136357e-08 1.331362e-08 1.093103e-08 1.259573e-08 1.315647e-08 1.154883e-08 1.365906e-08 1.136503e-08 1.267989e-08 1.229245e-08
1.247577e-08 1.140971e-08 1.159683e-08 1.161983e-08 1.306888e-08 1.182504e-08 1.257821e-08 1.180198e-08 1.188693e-08 1.467285e-08
1.116977e-08 1.121511e-08 1.254704e-08 1.132236e-08 1.271780e-08 1.180601e-08 1.165610e-08 1.047712e-08 1.054211e-08 1.116371e-08
1.036094e-08 1.166310e-08 9.317007e-09 1.069086e-08 9.979519e-09 1.149087e-08 9.161822e-09 1.112172e-08 8.702908e-09 9.812219e-09
9.495399e-09 1.015184e-08 1.033850e-08 8.236348e-09 8.979193e-09 8.752369e-09 7.705206e-09 8.717358e-09 1.028839e-08 9.532440e-09
6.264380e-09 7.934105e-09 8.540803e-09 9.213391e-09 8.809050e-09 6.083958e-09 5.958697e-09 6.420731e-09 5.985926e-09 7.894084e-09
5.092481e-09 4.920651e-09 5.632060e-09 6.150005e-09 7.117353e-09 4.223216e-09 5.592631e-09 5.077548e-09 3.177667e-09 5.838865e-09
3.806016e-09 4.225509e-09 3.483891e-09 4.958514e-09 2.861031e-09 2.382349e-09 1.508283e-09 1.619619e-09 2.616580e-10 1.626434e-09
1.916343e-09 1.438315e-09 2.726745e-09 1.608749e-09 7.650999e-10 1.784578e-10 -1.515125e-10 -4.493718e-11 -1.330294e-09 -1.077152e-09
-1.649056e-09 -1.240573e-09 -1.983445e-09 -7.557339e-10 -1.094289e-09 -1.711756e-09 -7.638536e-10 -1.095858e-09 -2.259536e-09 -3.062678e-09
-3.003232e-10 -4.577293e-09 -1.920466e-09 -2.731215e-09 -3.373055e-09 -2.400650e-09 -6.190756e-09 -4.310975e-09 -4.136850e-09 -4.668034e-09
-5.011640e-09 -4.187318e-09 -5.068490e-09 -5.048917e-09 -5.736055e-09 -3.671077e-09 -5.570111e-09 -7.972083e-09 -7.182869e-09 -5.311069e-09
-7.714227e-09 -7.292289e-09 -5.731804e-09 -7.060680e-09 -7.398974e-09 -6.556036e-09 -7.358574e-09 -6.760589e-09 -8.656730e-09 -7.189669e-09
-1.118303e-08 -8.405778e-09 -9.907086e-09 -8.369774e-09 -9.065957e-09 -7.508319e-09 -8.093076e-09 -9.244104e-09 -9.494742e-09 -1.161571e-08
-1.021681e-08 -9.140797e-09 -1.020555e-08 -1.128903e-08 -1.099749e-08 -1.041843e-08 -1.112311e-08 -1.031083e-08 -1.087284e-08 -9.599983e-09
-1.070790e-08 -1.200474e-08 -1.122388e-08 -1.262654e-08 -1.172616e-08 -1.211174e-08 -1.227497e-08 -1.186746e-08 -1.039752e-08 -1.132222e-08
-1.191416e-08 -1.217566e-08 -1.394006e-08 -1.158732e-08 -1.305398e-08 -1.241289e-08 -1.345786e-08 -1.243934e-08 -1.141122e-08 -1.345950e-08
-1.187639e-08 -1.271867e-08 -1.454675e-08 -1.262347e-08 -1.260987e-08 -1.219983e-08 -1.359910e-08 -1.164265e-08 -1.235886e-08 -1.190199e-08
-1.218759e-08
-1.234049e-08 -1.239845e-08 -1.363823e-08 -1.192688e-08 -1.269661e-08 -1.400898e-08 -1.137566e-08 -1.206338e-08 -1.227517e-08 -1.272694e-08
-1.250273e-08 -1.236985e-08 -1.249600e-08 -1.202499e-08 -1.288274e-08 -1.262000e-08 -1.404999e-08 -1.123865e-08 -1.100868e-08 -1.267464e-08
-1.111290e-08 -1.284611e-08 -1.245413e-08 -1.262879e-08 -1.118143e-08 -1.189319e-08 -1.135554e-08 -1.078549e-08 -1.149736e-08 -1.132453e-08
-1.106201e-08 -1.056979e-08 -1.119091e-08 -1.077052e-08 -1.044031e-08 -1.021099e-08 -9.312077e-09 -1.009918e-08 -1.111182e-08 -1.107454e-08
-9.540007e-09 -9.967427e-09 -1.103642e-08 -8.539293e-09 -8.530407e-09 -7.363989e-09 -1.192081e-08 -9.804470e-09 -1.014341e-08 -8.392942e-09
-8.436874e-09 -7.091991e-09 -8.994662e-09 -7.034538e-09 -6.547465e-09 -6.221922e-09 -6.116646e-09 -6.989130e-09 -6.063651e-09 -6.953144e-09
-6.054227e-09 -6.125708e-09 -6.585950e-09 -6.477423e-09 -6.919729e-09 -6.127264e-09 -3.429382e-09 -5.890226e-09 -6.388859e-09 -6.632467e-09
-4.347643e-09 -3.979747e-09 -2.900719e-09 -2.265448e-09 -4.931445e-09 -4.144270e-09 -1.584621e-09 -3.661167e-09 -2.065486e-09 -3.502538e-09
-2.420693e-09 -2.219346e-09 -1.410123e-09 -9.082164e-10 -2.080170e-09 1.986132e-11 -1.455859e-09 -7.882259e-10 1.469670e-09 -3.685743e-10
-3.943236e-10 1.832749e-09 -9.204395e-10 2.198081e-09 1.364147e-09 -1.196971e-09 8.821877e-10 2.266481e-09 3.117400e-09 2.375371e-09
1.938743e-09 1.395065e-09 2.667805e-09 2.336913e-09 3.182147e-09 4.555104e-09 3.759041e-09 5.034170e-09 3.017584e-09 6.444948e-09
4.431060e-09 5.078249e-09 4.700120e-09 4.904056e-09 5.587019e-09 7.169625e-09 5.188202e-09 6.212166e-09 5.263759e-09 6.415406e-09
6.715870e-09 6.605489e-09 5.745192e-09 6.026775e-09 7.694654e-09 6.720885e-09 9.039753e-09 6.925718e-09 7.808655e-09 9.427569e-09
8.944284e-09 8.527336e-09 8.596133e-09 9.043625e-09 8.994382e-09 8.536739e-09 1.071142e-08 1.190805e-08 9.598431e-09 9.696450e-09
1.036149e-08 1.015061e-08 1.005552e-08 1.107441e-08 9.521824e-09 9.310980e-09 9.537628e-09 1.141672e-08 1.169667e-08 1.187880e-08
1.267736e-08 1.302942e-08 1.166229e-08 1.053731e-08 1.160376e-08 1.257442e-08 1.066723e-08 1.184715e-08 1.181865e-08 1.170092e-08
1.225711e-08 1.114257e-08 1.220871e-08 1.231894e-08 1.238504e-08 1.374219e-08 1.219266e-08 1.328517e-08 1.228394e-08 1.226237e-08
1.221207e-08 1.215905e-08 1.234311e-08 1.144151e-08 1.217518e-08 1.327261e-08 1.338802e-08 1.414362e-08 1.104374e-08 1.227275e-08
1.283369e-08 1.274783e-08 1.283185e-08 1.215166e-08 1.407629e-08 1.175543e-08 1.186765e-08 1.190599e-08 1.359131e-08 1.387133e-08
1.302707e-08 1.120312e-08 1.346548e-08 1.263384e-08 1.342408e-08 1.207959e-08 1.230828e-08 1.160703e-08 1.226982e-08 1.065680e-08
1.329485e-08 1.343643e-08 1.192356e-08 1.085667e-08 1.234242e-08 1.264741e-08 1.379931e-08 1.198040e-08 1.173513e-08 1.199436e-08
1.092700e-08 9.970296e-09 1.065917e-08 1.194164e-08 1.000748e-08 1.166290e-08 8.973767e-09 1.041577e-08 9.900176e-09 1.200148e-08
9.952916e-09 1.148162e-08 1.072066e-08 1.010805e-08 8.691309e-09 9.234882e-09 9.687962e-09 1.117338e-08 8.395080e-09 7.391877e-09
6.712433e-09 8.668477e-09 7.469617e-09 7.667880e-09 8.644554e-09 6.927944e-09 7.582313e-09 7.979877e-09 6.355922e-09 5.238993e-09
7.141085e-09 6.871806e-09 4.797897e-09 5.053804e-09 5.592008e-09 4.670929e-09 5.471736e-09 5.271337e-09 4.137572e-09 4.963699e-09
3.001643e-09 3.014466e-09 3.269077e-09 2.162724e-09 3.789572e-09 3.116439e-09 2.974365e-09 4.214710e-09 1.987615e-09 2.442471e-09
3.309988e-09 3.577060e-09 1.806720e-09 1.852118e-09 2.442718e-11 8.887904e-10 -1.123339e-09 1.231054e-09 -9.401070e-10 4.466092e-10
6.645783e-10 -1.281554e-09 -6.792967e-10 -1.888158e-09 -3.654364e-10 1.181738e-09 -1.169848e-09 -2.492853e-09 -8.046761e-10 -2.196451e-09
5.841707e-10 -2.526264e-09 -2.765635e-09 -1.640340e-09 -2.774640e-09 -3.114397e-09 -1.696831e-09 -2.449184e-09 -3.757207e-09 -4.608827e-09
-3.176594e-09 -5.394793e-09 -5.776478e-09 -6.279291e-09 -6.488188e-09 -6.307884e-09 -6.624768e-09 -6.625065e-09 -6.382404e-09 -6.599504e-09
-7.278401e-09 -9.578346e-09 -6.473255e-09 -8.270034e-09 -8.131475e-09 -7.963908e-09 -6.751543e-09 -7.482540e-09 -7.906832e-09 -6.679345e-09
-8.423245e-09 -9.031941e-09 -8.661396e-09 -8.516785e-09 -9.982332e-09 -1.010376e-08 -9.806833e-09 -1.004732e-08 -9.852644e-09 -9.398286e-09
-1.146943e-08 -1.070652e-08 -1.003658e-08 -1.108815e-08 -1.011185e-08 -1.118461e-08 -9.438963e-09 -1.020936e-08 -1.118022e-08 -1.092366e-08
-1.125320e-08 -1.101069e-08 -1.235007e-08 -1.169838e-08 -1.308838e-08 -1.279597e-08 -1.238525e-08 -1.263866e-08 -1.100935e-08 -1.220871e-08
-1.198481e-08 -1.124745e-08 -1.206785e-08 -1.203993e-08 -1.216091e-08 -1.194443e-08 -1.293330e-08 -1.295888e-08 -1.515650e-08 -1.328753e-08
-1.383849e-08 -1.140222e-08 -1.477011e-08 -1.271733e-08 -1.146187e-08 -1.137529e-08 -1.267281e-08 -1.398979e-08 -1.233307e-08 -1.222203e-08
-1.234049e-08
-1.288212e-08 -1.332641e-08 -1.224277e-08 -1.206396e-08 -1.505530e-08 -1.384012e-08 -1.257913e-08 -1.359986e-08 -1.224616e-08 -1.432785e-08
-1.152269e-08 -1.156114e-08 -1.375927e-08 -1.274546e-08 -1.222071e-08 -1.279707e-08 -1.312896e-08 -1.331144e-08 -1.325845e-08 -1.225037e-08
-1.280965e-08 -1.280555e-08 -1.249253e-08 -1.191819e-08 -1.316292e-08 -1.430401e-08 -1.156190e-08 -1.288620e-08 -1.115453e-08 -1.143728e-08
-1.205651e-08 -1.199139e-08 -1.360400e-08 -9.604970e-09 -1.100788e-08 -1.011779e-08 -1.088608e-08 -9.574326e-09 -1.274315e-08 -8.953252e-09
-1.067492e-08 -1.018086e-08 -9.445426e-09 -1.132066e-08 -9.744976e-09 -9.540097e-09 -1.076058e-08 -8.599582e-09 -1.025321e-08 -8.492619e-09
-9.253120e-09 -7.824455e-09 -7.088861e-09 -8.637681e-09 -9.498111e-09 -7.776077e-09 -8.136958e-09 -8.201144e-09 -7.902130e-09 -8.117951e-09
-7.608356e-09 -5.739573e-09 -6.916830e-09 -4.778473e-09 -5.985902e-09 -5.994981e-09 -5.240694e-09 -3.527964e-09 -5.574719e-09 -6.322474e-09
-6.100394e-09 -4.252493e-09 -2.570046e-09 -2.450219e-09 -4.799222e-09 -3.406685e-09 -3.363906e-09 -2.508856e-09 -3.381046e-09 -3.316232e-09
-2.707265e-09 -2.200454e-09 -3.591722e-10 -3.039255e-09 -6.126789e-10 -4.124316e-10 -1.145047e-09 -1.314817e-09 -1.465954e-09 1.654308e-10
1.091724e-09 2.095078e-09 2.019174e-11 8.651569e-10 1.509608e-09 3.775993e-09 1.576653e-09 7.116526e-10 2.540826e-09 -3.135602e-10
1.404666e-09 2.018249e-09 3.093808e-09 2.865629e-09 1.870113e-09 2.016229e-09 5.140791e-09 2.580968e-09 1.400063e-09 4.502999e-09
4.256876e-09 5.405325e-09 5.989472e-09 6.173568e-09 4.963084e-09 6.101087e-09 5.435199e-09 7.519040e-09 4.511379e-09 5.424768e-09
6.696383e-09 6.337576e-09 8.349097e-09 6.519116e-09 6.951584e-09 8.401895e-09 6.945891e-09 7.774049e-09 8.642083e-09 7.887231e-09
8.278316e-09 9.514725e-09 8.619906e-09 1.053769e-08 9.967414e-09 9.070978e-09 9.743549e-09 9.949637e-09 9.433134e-09 1.056099e-08
1.098146e-08 9.540959e-09 1.182186e-08 1.199143e-08 1.106068e-08 1.027997e-08 1.049301e-08 1.059596e-08 1.248980e-08 1.154952e-08
1.103105e-08 1.460781e-08 1.095650e-08 1.207296e-08 1.224645e-08 1.323058e-08 1.055933e-08 1.147227e-08 1.268916e-08 1.420457e-08
1.147337e-08 1.323584e-08 1.269862e-08 1.267667e-08 1.261388e-08 1.199577e-08 1.185877e-08 1.272711e-08 1.420029e-08 1.293234e-08
1.439845e-08 1.296002e-08 1.231249e-08 1.291550e-08 1.249190e-08 1.280424e-08 1.464615e-08 1.487194e-08 1.198592e-08 1.412025e-08
1.202206e-08 1.284981e-08 1.368014e-08 1.188003e-08 1.340414e-08 1.332897e-08 1.446324e-08 1.197195e-08 1.281823e-08 1.298257e-08
1.243868e-08 1.282767e-08 1.407732e-08 1.356971e-08 1.229730e-08 1.188006e-08 1.291384e-08 1.278325e-08 1.235901e-08 1.212132e-08
1.221602e-08 1.290957e-08 1.241518e-08 1.164965e-08 1.150974e-08 1.244062e-08 1.075932e-08 1.201630e-08 1.283164e-08 1.050284e-08
1.165584e-08 1.173960e-08 1.115064e-08 1.111263e-08 1.121809e-08 1.114400e-08 1.045545e-08 1.039249e-08 1.083956e-08 1.058755e-08
1.020878e-08 1.222066e-08 1.135649e-08 9.994643e-09 8.595382e-09 9.337985e-09 9.716760e-09 9.321224e-09 9.918303e-09 9.944748e-09
7.831173e-09 9.368087e-09 6.744493e-09 8.147325e-09 6.407212e-09 6.297045e-09 8.216375e-09 7.829486e-09 7.120295e-09 5.200270e-09
6.644253e-09 4.264331e-09 4.602282e-09 6.948865e-09 4.769505e-09 4.037358e-09 5.798905e-09 5.004361e-09 4.981047e-09 5.215500e-09
4.264135e-09 5.740854e-09 4.974148e-09 5.855741e-09 3.271639e-09 2.190421e-09 2.039054e-09 1.242425e-09 2.733027e-09 3.058559e-09
9.857062e-10 2.029132e-09 1.871003e-09 2.126547e-09 2.897220e-09 -6.115811e-11 1.365194e-09 4.067703e-10 -4.694135e-10 4.680609e-10
7.014856e-10 -1.431931e-09 -1.075957e-09 -7.691270e-10 8.230147e-10 -6.659466e-10 -1.437547e-09 -7.752570e-10 -4.331694e-09 -1.337278e-09
-7.034749e-10 -2.364893e-09 -1.554669e-09 -5.054062e-09 -4.858032e-09 -3.454465e-09 -5.489530e-09 -1.610235e-09 -5.732813e-09 -5.355415e-09
-3.763196e-09 -5.853645e-09 -4.668004e-09 -6.845598e-09 -4.104394e-09 -4.996433e-09 -8.621463e-09 -5.469813e-09 -7.457753e-09 -7.436855e-09
-5.340745e-09 -5.148514e-09 -6.505788e-09 -7.176901e-09 -8.242989e-09 -6.860617e-09 -8.780891e-09 -7.297558e-09 -7.442138e-09 -9.796519e-09
-8.819658e-09 -1.041090e-08 -9.965241e-09 -1.068545e-08 -9.686214e-09 -9.021918e-09 -9.934367e-09 -1.056293e-08 -1.091794e-08 -1.112422e-08
-1.027218e-08 -1.148177e-08 -1.042741e-08 -1.295904e-08 -1.160157e-08 -1.011640e-08 -1.243791e-08 -1.233366e-08 -1.198599e-08 -1.041012e-08
-1.118326e-08 -1.173519e-08 -1.189234e-08 -1.146074e-08 -1.238943e-08 -1.226719e-08 -1.227361e-08 -1.119664e-08 -1.323636e-08 -1.292130e-08
-1.292699e-08 -1.318892e-08 -1.312367e-08 -1.219750e-08 -1.269707e-08 -1.404742e-08 -1.253053e-08 -1.319696e-08 -1.219566e-08 -1.370350e-08
-1.252103e-08 -1.281390e-08 -1.326238e-08 -1.194907e-08 -1.174643e-08 -1.346682e-08 -1.243010e-08 -1.433306e-08 -1.360196e-08 -1.379867e-08
-1.288212e-08
-1.237905e-08 -1.198757e-08 -1.219859e-08 -1.261552e-08 -1.314731e-08 -1.446765e-08 -1.401424e-08 -1.266512e-08 -1.351684e-08 -1.316488e-08
-1.406683e-08 -1.359681e-08 -1.420668e-08 -1.269085e-08 -1.283433e-08 -1.250089e-08 -1.355647e-08 -1.325756e-08 -1.348671e-08 -1.356479e-08
-1.295520e-08 -1.299180e-08 -1.294838e-08 -1.128037e-08 -1.353404e-08 -1.180545e-08 -1.209775e-08 -1.230158e-08 -1.184524e-08 -1.088668e-08
-1.306346e-08 -1.137680e-08 -1.140177e-08 -1.177214e-08 -1.109220e-08 -1.281993e-08 -1.091007e-08 -1.187823e-08 -1.035072e-08 -1.040668e-08
-1.061590e-08 -9.766669e-09 -8.945199e-09 -9.855664e-09 -1.034588e-08 -8.615391e-09 -9.578392e-09 -7.897957e-09 -8.440118e-09 -9.214422e-09
-9.304869e-09 -8.859780e-09 -8.348855e-09 -7.822005e-09 -6.726692e-09 -6.244822e-09 -7.895345e-09 -6.589811e-09 -6.923332e-09 -6.743862e-09
-6.123310e-09 -6.345104e-09 -5.409373e-09 -6.216126e-09 -6.493011e-09 -4.015339e-09 -4.658520e-09 -5.264555e-09 -4.112771e-09 -4.774620e-09
-5.184191e-09 -5.211897e-09 -4.751322e-09 -2.419227e-09 -3.816331e-09 -2.443446e-09 -4.403262e-09 -5.092978e-09 -1.495250e-09 -1.876288e-09
-3.019945e-09 -5.629026e-10 -2.324301e-09 -1.440369e-09 -1.035984e-09 1.566780e-09 -1.716294e-10 -1.621706e-09 1.427741e-10 -9.286021e-10
-3.102979e-10 -5.184106e-10 -2.773004e-12 1.737141e-09 2.667252e-10 2.281477e-09 2.494557e-09 6.800208e-10 1.361550e-09 1.611615e-09
9.920937e-10 3.014775e-09 2.601652e-09 3.011937e-09 1.618132e-09 4.318156e-09 2.523503e-09 3.210288e-09 5.654424e-09 4.775245e-09
4.154537e-09 3.621860e-09 5.111404e-09 6.719966e-09 3.818300e-09 5.923908e-09 7.015546e-09 6.595911e-09 6.329042e-09 7.690963e-09
6.963557e-09 8.295968e-09 7.355637e-09 5.930537e-09 6.209536e-09 6.741228e-09 8.795030e-09 8.608493e-09 8.056003e-09 7.442944e-09
9.124048e-09 8.542444e-09 8.229528e-09 9.460428e-09 1.032096e-08 8.718728e-09 1.023457e-08 1.080009e-08 1.055402e-08 1.077833e-08
1.124517e-08 1.089484e-08 1.240239e-08 1.010112e-08 1.245094e-08 1.137598e-08 1.023506e-08 1.133796e-08 1.255047e-08 1.098813e-08
1.237705e-08 1.156534e-08 1.217334e-08 1.208908e-08 1.256664e-08 1.117938e-08 1.118675e-08 1.397216e-08 1.486482e-08 1.261451e-08
1.366134e-08 1.227770e-08 1.371097e-08 1.257908e-08 1.331401e-08 1.390627e-08 1.267579e-08 1.345040e-08 1.443489e-08 1.318611e-08
1.540577e-08 1.206636e-08 1.409963e-08 1.494779e-08 1.387982e-08 1.237985e-08 1.320564e-08 1.339686e-08 1.332916e-08 1.134690e-08
1.370170e-08 1.337586e-08 1.219428e-08 1.230941e-08 1.432629e-08 1.313184e-08 1.398398e-08 1.384183e-08 1.269484e-08 1.413767e-08
1.437026e-08 1.433450e-08 1.358288e-08 1.380417e-08 1.194630e-08 1.406434e-08 1.314404e-08 1.247983e-08 1.351878e-08 1.236190e-08
1.267907e-08 1.175926e-08 1.285716e-08 1.223256e-08 1.163867e-08 1.234042e-08 1.281797e-08 1.281499e-08 1.205874e-08 1.005693e-08
1.140199e-08 1.133762e-08 1.156348e-08 1.171063e-08 1.099076e-08 1.004639e-08 1.074103e-08 1.002897e-08 1.034020e-08 1.264712e-08
1.190175e-08 9.653902e-09 9.486180e-09 9.653284e-09 8.891158e-09 9.847675e-09 7.713395e-09 9.591116e-09 9.053536e-09 7.664320e-09
8.914685e-09 7.090271e-09 9.464376e-09 9.452633e-09 8.352536e-09 7.926325e-09 6.444091e-09 7.510623e-09 6.894503e-09 6.789413e-09
6.920357e-09 7.511328e-09 6.278101e-09 3.472429e-09 6.578970e-09 4.284225e-09 5.641784e-09 4.916119e-09 4.210763e-09 5.228777e-09
4.152124e-09 5.077190e-09 3.465950e-09 4.329290e-09 4.755014e-09 3.705547e-09 4.220153e-09 3.585614e-09 2.700095e-09 2.848664e-10
3.534263e-09 2.541801e-09 1.107820e-09 -5.898593e-11 1.398847e-09 1.861298e-09 3.613330e-10 -1.301946e-09 -2.621238e-09 5.652758e-10
6.931792e-10 -6.769655e-10 1.903948e-10 -6.514567e-10 -7.985690e-10 -2.876347e-09 -9.813197e-10 -1.016480e-09 -1.723172e-09 -1.726867e-09
-3.762481e-09 -2.493561e-09 -3.959998e-09 -3.191020e-09 -4.208730e-09 -2.926791e-09 -5.037957e-09 -4.407473e-09 -4.423337e-09 -3.570219e-09
-3.044760e-09 -5.614989e-09 -5.329334e-09 -5.799826e-09 -4.547613e-09 -4.555182e-09 -7.562156e-09 -6.394737e-09 -6.027099e-09 -8.019607e-09
-7.584698e-09 -7.324582e-09 -8.172427e-09 -7.820693e-09 -8.799069e-09 -9.117399e-09 -1.000230e-08 -1.018290e-08 -8.876378e-09 -8.016112e-09
-1.110354e-08 -9.110567e-09 -9.694319e-09 -8.211962e-09 -1.031181e-08 -8.349945e-09 -1.063795e-08 -1.026979e-08 -1.000493e-08 -1.122325e-08
-1.193496e-08 -1.053871e-08 -1.217834e-08 -9.862753e-09 -1.085241e-08 -1.009186e-08 -1.183760e-08 -1.155505e-08 -1.240447e-08 -1.254693e-08
-1.180268e-08 -1.194650e-08 -1.187148e-08 -1.199738e-08 -1.370777e-08 -1.357061e-08 -1.315469e-08 -1.324103e-08 -1.344009e-08 -1.426926e-08
-1.218514e-08 -1.370029e-08 -1.267404e-08 -1.192307e-08 -1.374373e-08 -1.301671e-08 -1.239857e-08 -1.330015e-08 -1.309695e-08 -1.372656e-08
-1.290698e-08 -1.411308e-08 -1.513179e-08 -1.365350e-08 -1.293770e-08 -1.316248e-08 -1.226909e-08 -1.366915e-08 -1.549547e-08 -1.181395e-08
-1.237905e-08
-1.266748e-08 -1.304449e-08 -1.491457e-08 -1.213291e-08 -1.439744e-08 -1.462124e-08 -1.375196e-08 -1.300585e-08 -1.433420e-08 -1.404318e-08
-1.427874e-08 -1.366686e-08 -1.351741e-08 -1.363821e-08 -1.276575e-08 -1.385191e-08 -1.216022e-08 -1.159771e-08 -1.384680e-08 -1.222929e-08
-1.359279e-08 -1.385610e-08 -1.424361e-08 -1.364554e-08 -1.212390e-08 -1.342702e-08 -1.317578e-08 -1.391103e-08 -1.334103e-08 -1.306506e-08
-1.302674e-08 -1.190649e-08 -1.332909e-08 -1.158177e-08 -1.153723e-08 -1.216982e-08 -1.248436e-08 -1.112201e-08 -1.071741e-08 -1.228949e-08
-1.026334e-08 -9.606050e-09 -9.267339e-09 -1.016102e-08 -1.002059e-08 -1.006017e-08 -9.397316e-09 -1.142333e-08 -8.610796e-09 -9.603434e-09
-7.806272e-09 -9.684823e-09 -9.564216e-09 -6.636478e-09 -7.340337e-09 -7.654092e-09 -8.254141e-09 -6.574746e-09 -7.642558e-09 -8.885412e-09
-6.515892e-09 -7.119090e-09 -7.084783e-09 -6.192995e-09 -6.199184e-09 -4.400713e-09 -6.486319e-09 -4.995336e-09 -6.905422e-09 -3.907271e-09
-3.768069e-09 -3.822849e-09 -6.417361e-09 -3.691768e-09 -3.447249e-09 -2.858692e-09 -2.345999e-09 -1.379019e-09 -3.991374e-09 -4.099965e-09
-2.548824e-09 -2.839580e-09 -2.403671e-09 -5.259881e-10 -8.214255e-10 -1.306241e-09 -1.976229e-09 -9.607167e-10 -1.096807e-09 8.160742e-11
2.331162e-10 -7.908296e-10 1.758457e-09 1.913477e-09 1.135975e-09 2.200800e-09 2.120699e-09 2.783267e-09 2.224278e-09 2.413557e-09
1.296661e-09 1.628700e-09 2.802219e-09 4.687058e-09 3.232273e-09 2.644649e-09 3.392332e-09 2.851622e-09 4.713823e-09 4.409247e-09
5.351103e-09 5.913973e-09 4.240344e-09 5.283777e-09 4.772238e-09 4.437026e-09 5.021827e-09 4.880433e-09 6.695405e-09 5.708716e-09
7.155286e-09 8.846593e-09 7.079485e-09 8.321025e-09 6.461295e-09 7.864060e-09 6.637644e-09 7.884000e-09 9.914847e-09 9.528414e-09
9.873635e-09 9.494877e-09 1.000803e-08 1.054439e-08 1.195714e-08 9.991822e-09 1.244520e-08 1.003983e-08 9.551942e-09 1.147716e-08
1.078847e-08 1.154961e-08 1.303551e-08 1.286325e-08 1.378317e-08 1.212788e-08 1.268476e-08 1.126164e-08 1.219899e-08 1.189988e-08
1.247253e-08 1.311234e-08 1.378798e-08 1.187921e-08 1.340912e-08 1.309839e-08 1.335167e-08 1.514009e-08 1.378497e-08 1.358461e-08
1.500792e-08 1.341750e-08 1.395854e-08 1.390317e-08 1.337129e-08 1.288596e-08 1.306501e-08 1.406561e-08 1.475054e-08 1.269971e-08
1.378598e-08 1.279773e-08 1.434688e-08 1.448346e-08 1.310639e-08 1.454078e-08 1.316946e-08 1.344495e-08 1.348531e-08 1.430581e-08
1.329451e-08 1.271215e-08 1.327238e-08 1.450316e-08 1.266739e-08 1.338339e-08 1.243638e-08 1.407708e-08 1.392666e-08 1.511460e-08
1.264857e-08 1.328750e-08 1.329321e-08 1.225653e-08 1.432279e-08 1.418794e-08 1.319006e-08 1.312926e-08 1.418692e-08 1.231119e-08
1.193061e-08 1.481813e-08 1.340597e-08 1.230128e-08 1.415612e-08 1.156311e-08 1.275819e-08 1.253714e-08 1.140692e-08 1.248999e-08
1.166652e-08 1.109307e-08 1.234151e-08 1.188411e-08 1.133117e-08 1.180998e-08 1.327147e-08 1.026698e-08 1.013811e-08 1.218715e-08
1.185484e-08 1.052640e-08 1.051633e-08 9.879260e-09 9.715879e-09 8.853982e-09 9.384082e-09 9.452575e-09 9.188121e-09 7.181130e-09
9.552939e-09 7.972446e-09 7.644259e-09 9.117874e-09 8.391983e-09 8.309105e-09 8.880805e-09 8.554037e-09 9.574148e-09 6.871164e-09
4.952018e-09 6.076105e-09 5.029975e-09 6.551631e-09 7.121484e-09 5.293236e-09 5.338619e-09 5.225367e-09 2.888757e-09 4.799050e-09
3.202505e-09 4.729838e-09 4.305984e-09 4.319947e-09 4.789400e-09 3.652260e-09 1.680276e-09 2.530507e-09 7.724330e-10 2.702463e-09
4.950679e-09 1.682198e-09 6.638135e-10 2.311507e-09 1.398686e-09 1.840606e-09 4.998483e-10 1.971483e-09 -1.436784e-09 -5.142817e-10
-1.106189e-10 7.419385e-11 4.282274e-10 -2.717668e-10 1.403306e-09 -5.784987e-10 -1.936343e-09 -6.738550e-10 -6.400784e-10 -2.882444e-09
-1.834475e-09 -4.938653e-10 -1.560135e-09 -1.905718e-09 -2.445893e-09 -4.369532e-09 -5.019412e-09 -2.933951e-09 -3.471076e-09 -5.487854e-09
-4.405477e-09 -5.169854e-09 -4.457929e-09 -6.133662e-09 -5.358762e-09 -4.281128e-09 -5.760574e-09 -6.342718e-09 -6.309994e-09 -8.285615e-09
-7.816999e-09 -6.914182e-09 -9.090919e-09 -8.456811e-09 -9.034362e-09 -8.004861e-09 -8.206474e-09 -7.942868e-09 -9.131367e-09 -8.680156e-09
-9.629237e-09 -9.306974e-09 -9.567286e-09 -8.723569e-09 -1.016039e-08 -1.028538e-08 -9.925113e-09 -1.051790e-08 -1.208685e-08 -1.115158e-08
-1.050644e-08 -1.148231e-08 -1.009196e-08 -1.143683e-08 -1.173772e-08 -1.236868e-08 -1.168197e-08 -1.114343e-08 -1.198745e-08 -1.151377e-08
-1.441226e-08 -1.120849e-08 -1.361052e-08 -1.212499e-08 -1.255697e-08 -1.132940e-08 -1.260490e-08 -1.286878e-08 -1.362988e-08 -1.381858e-08
-1.318515e-08 -1.256969e-08 -1.261627e-08 -1.394131e-08 -1.377242e-08 -1.349411e-08 -1.443484e-08 -1.276732e-08 -1.312539e-08 -1.387006e-08
-1.378521e-08 -1.381197e-08 -1.285408e-08 -1.301330e-08 -1.335380e-08 -1.419077e-08 -1.398571e-08 -1.346239e-08 -1.411997e-08 -1.270012e-08
-1.266748e-08
-1.475254e-08 -1.464239e-08 -1.464014e-08 -1.269557e-08 -1.349638e-08 -1.415284e-08 -1.416465e-08 -1.355249e-08 -1.566139e-08 -1.451591e-08
-1.403378e-08 -1.289506e-08 -1.275818e-08 -1.408072e-08 -1.336812e-08 -1.400054e-08 -1.405136e-08 -1.414762e-08 -1.373642e-08 -1.423647e-08
-1.370404e-08 -1.339593e-08 -1.604413e-08 -1.397656e-08 -1.426168e-08 -1.348845e-08 -1.415318e-08 -1.303447e-08 -1.181644e-08 -1.171713e-08
-1.394916e-08 -1.211808e-08 -1.336312e-08 -1.296913e-08 -1.204349e-08 -1.315480e-08 -1.295937e-08 -1.218079e-08 -1.250697e-08 -1.384907e-08
-1.285610e-08 -1.065766e-08 -1.066520e-08 -1.108926e-08 -1.009936e-08 -1.152960e-08 -1.046470e-08 -8.440899e-09 -1.079431e-08 -8.709207e-09
-9.711843e-09 -8.327942e-09 -9.605141e-09 -9.705260e-09 -8.593156e-09 -8.074118e-09 -6.273615e-09 -8.742523e-09 -7.590446e-09 -6.999548e-09
-6.885008e-09 -6.459446e-09 -8.775856e-09 -6.953191e-09 -8.216190e-09 -8.263981e-09 -4.060390e-09 -4.017623e-09 -5.792541e-09 -4.665090e-09
-4.872139e-09 -3.492853e-09 -3.999546e-09 -4.107687e-09 -5.563184e-09 -4.349937e-09 -2.414302e-09 -4.107315e-09 -1.914976e-09 -1.602219e-09
-4.197135e-09 -1.015362e-09 -1.109863e-09 -1.592429e-09 -2.891047e-09 -1.092069e-09 -2.865325e-10 -7.255745e-10 -2.480842e-09 -1.048955e-09
7.734200e-10 -6.937248e-10 -1.209978e-09 3.936464e-10 7.481482e-10 1.386620e-09 -3.712609e-10 2.663350e-09 1.757232e-09 7.344731e-10
2.975835e-09 2.987770e-10 2.653891e-09 4.247572e-09 4.089914e-09 2.819041e-09 3.822928e-09 4.551097e-09 4.512185e-09 5.057652e-09
4.877555e-09 3.626885e-09 4.554777e-09 4.327766e-09 3.257298e-09 5.664819e-09 6.153529e-09 7.061269e-09 7.031694e-09 5.137045e-09
6.532140e-09 7.831068e-09 6.414544e-09 8.661832e-09 7.774777e-09 7.474330e-09 7.793483e-09 9.440192e-09 8.625215e-09 1.026510e-08
9.246103e-09 1.195758e-08 8.733531e-09 1.011228e-08 9.129337e-09 9.697867e-09 1.129897e-08 1.201726e-08 1.005642e-08 1.065507e-08
1.189189e-08 1.146966e-08 1.258082e-08 1.282190e-08 1.076993e-08 1.146775e-08 1.192768e-08 1.270945e-08 1.195445e-08 1.246597e-08
1.309795e-08 1.500282e-08 1.174944e-08 1.228699e-08 1.399734e-08 1.370731e-08 1.238706e-08 1.444014e-08 1.452378e-08 1.531127e-08
1.477154e-08 1.424194e-08 1.297875e-08 1.400565e-08 1.439260e-08 1.460224e-08 1.548639e-08 1.287174e-08 1.287543e-08 1.427856e-08
1.382375e-08 1.244696e-08 1.422450e-08 1.563324e-08 1.372752e-08 1.329504e-08 1.433200e-08 1.435228e-08 1.436183e-08 1.415019e-08
1.447257e-08 1.596352e-08 1.296366e-08 1.391530e-08 1.424872e-08 1.432649e-08 1.443977e-08 1.266324e-08 1.387404e-08 1.431128e-08
1.330498e-08 1.231452e-08 1.331569e-08 1.373617e-08 1.298341e-08 1.294545e-08 1.428379e-08 1.361265e-08 1.351775e-08 1.304678e-08
1.486586e-08 1.546816e-08 1.346674e-08 1.457415e-08 1.330439e-08 1.495564e-08 1.455823e-08 1.232166e-08 1.227474e-08 1.433264e-08
1.231472e-08 1.288530e-08 1.346994e-08 1.337152e-08 1.291255e-08 1.162497e-08 1.186187e-08 1.168579e-08 1.092336e-08 1.045441e-08
1.176872e-08 9.476135e-09 9.394575e-09 1.080004e-08 1.113522e-08 1.163743e-08 9.321414e-09 8.472650e-09 8.584926e-09 1.039004e-08
9.135439e-09 9.077397e-09 7.691601e-09 1.161534e-08 7.237461e-09 7.318631e-09 7.721854e-09 1.006356e-08 5.820032e-09 7.233998e-09
7.906158e-09 6.117010e-09 6.331950e-09 6.238889e-09 7.296306e-09 5.789591e-09 3.420555e-09 5.289369e-09 5.689264e-09 4.428558e-09
3.451670e-09 2.878664e-09 3.648625e-09 3.129000e-09 2.237261e-09 2.882274e-09 3.346940e-09 2.039845e-09 2.958983e-09 1.409346e-09
1.055603e-09 1.801107e-09 2.353610e-09 9.710337e-10 1.735552e-09 3.058492e-10 -4.428121e-10 -1.342730e-09 -7.981585e-10 5.182968e-10
-1.138534e-09 -5.524683e-10 -1.339764e-09 6.934164e-10 -1.239650e-09 1.277792e-09 -3.079306e-09 -1.600363e-09 -2.644400e-09 -1.831621e-09
-2.743515e-09 -1.501746e-09 -2.937661e-09 -2.600832e-09 -3.606444e-09 -4.029497e-09 -5.134883e-09 -5.043306e-09 -3.726230e-09 -4.069687e-09
-4.799796e-09 -7.201157e-09 -4.691113e-09 -4.947883e-09 -5.449579e-09 -7.877879e-09 -6.886120e-09 -6.195580e-09 -7.677275e-09 -8.766203e-09
-8.016137e-09 -6.532013e-09 -7.493911e-09 -9.436744e-09 -8.429091e-09 -9.551022e-09 -9.435266e-09 -9.294227e-09 -8.431006e-09 -9.077045e-09
-9.419622e-09 -9.276165e-09 -8.338618e-09 -1.022526e-08 -9.838330e-09 -1.026279e-08 -1.081760e-08 -1.030083e-08 -1.140967e-08 -1.071712e-08
-1.134748e-08 -1.313332e-08 -1.059382e-08 -1.184002e-08 -1.326936e-08 -1.261295e-08 -1.186799e-08 -1.146166e-08 -1.130432e-08 -1.328972e-08
-1.233258e-08 -1.300708e-08 -1.346795e-08 -1.201998e-08 -1.331968e-08 -1.282133e-08 -1.306519e-08 -1.522959e-08 -1.426785e-08 -1.303904e-08
-1.295676e-08 -1.385150e-08 -1.304480e-08 -1.274021e-08 -1.346386e-08 -1.390847e-08 -1.398330e-08 -1.359577e-08 -1.359131e-08 -1.386488e-08
-1.347225e-08 -1.203173e-08 -1.352442e-08 -1.319565e-08 -1.273956e-08 -1.223536e-08 -1.382148e-08 -1.300622e-08 -1.318952e-08 -1.454049e-08
-1.475254e-08
-1.306553e-08 -1.577614e-08 -1.329874e-08 -1.552745e-08 -1.227932e-08 -1.525430e-08 -1.631459e-08 -1.417961e-08 -1.394360e-08 -1.405368e-08
-1.470671e-08 -1.394525e-08 -1.314140e-08 -1.467908e-08 -1.465294e-08 -1.290150e-08 -1.342573e-08 -1.326076e-08 -1.429119e-08 -1.299924e-08
-1.327576e-08 -1.382013e-08 -1.489659e-08 -1.264321e-08 -1.368061e-08 -1.344057e-08 -1.289803e-08 -1.326507e-08 -1.316090e-08 -1.360615e-08
-1.213218e-08 -1.377287e-08 -1.319328e-08 -1.308491e-08 -1.339185e-08 -1.264225e-08 -1.403826e-08 -1.190656e-08 -1.203743e-08 -1.087247e-08
-1.066056e-08 -1.068909e-08 -1.049778e-08 -1.144778e-08 -1.123731e-08 -1.135472e-08 -9.340773e-09 -1.051432e-08 -1.062340e-08 -1.001162e-08
-1.014772e-08 -1.132441e-08 -9.982248e-09 -8.473467e-09 -9.452457e-09 -8.430028e-09 -1.039361e-08 -7.075741e-09 -7.480176e-09 -7.750258e-09
-7.038259e-09 -8.134823e-09 -6.152889e-09 -5.827375e-09 -5.937535e-09 -4.299160e-09 -4.547359e-09 -5.088114e-09 -4.894274e-09 -5.639584e-09
-3.593607e-09 -5.339638e-09 -4.954613e-09 -3.695749e-09 -3.028903e-09 -3.406729e-09 -2.501467e-09 -1.909349e-09 -4.936989e-09 -1.176410e-09
-3.942409e-09 -1.236388e-09 8.611132e-10 -3.450513e-09 -1.053691e-09 -1.705511e-09 3.061536e-11 -1.007907e-09 3.820467e-10 -4.735838e-10
-9.742630e-10 1.213323e-09 1.815896e-10 1.520029e-09 1.980900e-09 1.090314e-09 3.153825e-09 2.368924e-09 1.129631e-09 2.287393e-09
-4.685490e-11 2.291842e-09 2.745402e-09 3.524658e-09 4.162039e-09 4.460686e-09 3.449780e-09 3.973307e-09 4.118907e-09 4.580925e-09
4.115501e-09 5.984808e-09 4.411440e-09 6.337233e-09 4.990847e-09 6.212908e-09 7.704851e-09 6.040890e-09 6.757075e-09 6.755541e-09
6.760633e-09 6.431527e-09 8.000169e-09 7.843113e-09 6.785188e-09 9.349269e-09 8.164604e-09 1.130695e-08 9.092907e-09 8.439017e-09
8.920440e-09 8.782520e-09 9.182300e-09 1.006678e-08 9.914994e-09 1.001665e-08 1.056812e-08 1.261787e-08 1.191448e-08 1.133065e-08
1.115589e-08 1.140397e-08 1.178930e-08 1.131072e-08 1.153704e-08 1.298067e-08 1.334356e-08 1.088022e-08 1.327715e-08 1.363515e-08
1.433979e-08 1.324919e-08 1.360105e-08 1.271963e-08 1.384001e-08 1.564899e-08 1.447934e-08 1.486197e-08 1.390994e-08 1.485523e-08
1.453590e-08 1.524329e-08 1.527572e-08 1.505648e-08 1.510926e-08 1.350797e-08 1.440490e-08 1.372806e-08 1.471753e-08 1.492815e-08
1.481760e-08 1.324386e-08 1.387160e-08 1.471618e-08 1.499686e-08 1.367936e-08 1.651641e-08 1.436932e-08 1.522583e-08 1.509516e-08
1.437613e-08 1.586127e-08 1.503818e-08 1.338021e-08 1.370354e-08 1.334762e-08 1.449322e-08 1.497423e-08 1.425254e-08 1.617072e-08
1.411399e-08 1.241609e-08 1.345434e-08 1.446697e-08 1.539972e-08 1.341657e-08 1.408855e-08 1.448890e-08 1.428663e-08 1.438579e-08
1.434465e-08 1.443174e-08 1.278804e-08 1.417119e-08 1.306165e-08 1.223508e-08 1.417793e-08 1.204182e-08 1.148841e-08 1.310558e-08
1.131915e-08 1.169395e-08 1.093902e-08 1.111883e-08 1.356388e-08 1.198375e-08 1.248449e-08 1.265061e-08 1.381437e-08 1.156937e-08
1.144101e-08 1.347044e-08 1.262611e-08 9.630720e-09 1.050310e-08 1.119580e-08 1.157865e-08 1.014881e-08 1.133423e-08 9.741766e-09
8.894218e-09 7.002658e-09 9.170552e-09 8.054690e-09 7.778158e-09 7.331108e-09 6.520025e-09 7.888541e-09 7.113476e-09 5.283372e-09
6.391909e-09 7.267044e-09 4.865987e-09 5.473662e-09 6.002229e-09 5.633515e-09 7.445031e-09 5.748609e-09 4.134116e-09 2.983231e-09
3.935042e-09 4.018507e-09 3.794089e-09 3.969952e-09 3.063968e-09 2.840617e-09 2.202419e-09 2.514710e-09 2.276084e-09 2.528246e-09
2.152232e-09 1.137833e-09 7.853570e-11 3.877656e-09 -1.579464e-09 3.177236e-11 5.772090e-10 -6.344836e-11 1.072698e-09 8.309649e-10
-4.927134e-10 -2.732673e-10 1.241704e-09 -1.801418e-09 4.349571e-10 -1.911757e-09 -9.537066e-10 -3.934426e-09 7.477245e-10 -2.593562e-09
-2.334890e-09 -2.005060e-09 -5.882262e-09 -4.320352e-09 -9.949462e-10 -3.830950e-09 -3.665168e-09 -5.172783e-09 -6.662499e-09 -4.891469e-09
-5.037009e-09 -4.420766e-09 -4.748076e-09 -6.095938e-09 -7.547605e-09 -6.054533e-09 -6.715845e-09 -6.811838e-09 -5.729256e-09 -6.144729e-09
-5.939553e-09 -7.727401e-09 -8.956811e-09 -7.642737e-09 -8.266942e-09 -9.037382e-09 -9.325380e-09 -1.036894e-08 -1.107474e-08 -8.085498e-09
-9.259633e-09 -9.922672e-09 -9.449916e-09 -9.622522e-09 -9.732342e-09 -1.064051e-08 -1.077280e-08 -1.102716e-08 -9.379369e-09 -1.275546e-08
-1.235854e-08 -1.232720e-08 -1.254467e-08 -1.233103e-08 -1.142949e-08 -1.186110e-08 -1.299904e-08 -1.269308e-08 -1.469265e-08 -1.256781e-08
-1.286750e-08 -1.428172e-08 -1.328128e-08 -1.227572e-08 -1.307317e-08 -1.360704e-08 -1.409092e-08 -1.314569e-08 -1.316830e-08 -1.380638e-08
-1.375122e-08 -1.512803e-08 -1.514695e-08 -1.255489e-08 -1.330267e-08 -1.425790e-08 -1.645366e-08 -1.361016e-08 -1.416445e-08 -1.450045e-08
-1.423339e-08 -1.458698e-08 -1.457599e-08 -1.430691e-08 -1.416510e-08 -1.291470e-08 -1.328394e-08 -1.489010e-08 -1.369952e-08 -1.506121e-08
-1.306553e-08
-1.449351e-08 -1.382295e-08 -1.413715e-08 -1.373239e-08 -1.452565e-08 -1.562615e-08 -1.350398e-08 -1.382914e-08 -1.620048e-08 -1.470931e-08
-1.469179e-08 -1.452414e-08 -1.506664e-08 -1.414512e-08 -1.606495e-08 -1.405246e-08 -1.439119e-08 -1.311630e-08 -1.458522e-08 -1.353116e-08
-1.435596e-08 -1.630015e-08 -1.321602e-08 -1.289265e-08 -1.348172e-08 -1.376527e-08 -1.244837e-08 -1.202508e-08 -1.280076e-08 -1.316138e-08
-1.341848e-08 -1.181302e-08 -1.281042e-08 -1.141247e-08 -1.326116e-08 -1.356197e-08 -1.199871e-08 -1.226985e-08 -1.182175e-08 -1.058884e-08
-1.225084e-08 -1.135902e-08 -1.365485e-08 -1.361207e-08 -1.044434e-08 -1.195284e-08 -1.054805e-08 -9.175840e-09 -1.107024e-08 -9.966855e-09
-9.181995e-09 -9.782519e-09 -8.773185e-09 -8.968002e-09 -9.495699e-09 -8.603101e-09 -6.846774e-09 -7.188405e-09 -8.565341e-09 -7.283641e-09
-6.776413e-09 -5.598821e-09 -5.609868e-09 -3.952980e-09 -6.272433e-09 -6.966727e-09 -7.439191e-09 -4.809707e-09 -6.976370e-09 -4.982815e-09
-3.701329e-09 -5.563887e-09 -3.622235e-09 -3.396347e-09 -4.210024e-09 -5.098121e-09 -3.082031e-09 -2.457696e-09 -3.199978e-09 -3.047099e-09
-3.729921e-09 -4.917906e-09 -3.074429e-09 -1.990115e-09 -2.337654e-10 -9.515848e-10 -2.018894e-09 -6.472858e-10 -2.784194e-09 -1.038439e-09
-1.769852e-09 -5.862035e-10 -4.162914e-10 2.114181e-10 -3.108788e-10 1.885976e-09 3.222123e-09 -1.232828e-09 1.104770e-09 1.800496e-09
2.311811e-09 2.195806e-09 1.539488e-09 4.973790e-09 2.241741e-09 4.592005e-09 3.361309e-09 3.617856e-09 3.531386e-09 4.435525e-09
6.694016e-09 7.171828e-09 5.184949e-09 5.461080e-09 3.383518e-09 6.531029e-09 6.904683e-09 8.051436e-09 6.334335e-09 6.505002e-09
6.382228e-09 8.935763e-09 7.901661e-09 1.003244e-08 9.586326e-09 1.044212e-08 8.742446e-09 7.805457e-09 1.080968e-08 1.080205e-08
8.395862e-09 9.594681e-09 1.094770e-08 1.029164e-08 1.021216e-08 1.127349e-08 1.184667e-08 1.079063e-08 1.128928e-08 1.121213e-08
1.119785e-08 1.171263e-08 1.321433e-08 1.299647e-08 1.285386e-08 1.332122e-08 1.207915e-08 1.383872e-08 1.183299e-08 1.241369e-08
1.527756e-08 1.412565e-08 1.355958e-08 1.391557e-08 1.379594e-08 1.460281e-08 1.528593e-08 1.467719e-08 1.378324e-08 1.367400e-08
1.380452e-08 1.443871e-08 1.414150e-08 1.395801e-08 1.543832e-08 1.353944e-08 1.498531e-08 1.454227e-08 1.508137e-08 1.600705e-08
1.417325e-08 1.507845e-08 1.362317e-08 1.395475e-08 1.436510e-08 1.376910e-08 1.485887e-08 1.417925e-08 1.531457e-08 1.360862e-08
1.418663e-08 1.287424e-08 1.498043e-08 1.416209e-08 1.359192e-08 1.339359e-08 1.359408e-08 1.478185e-08 1.547749e-08 1.554083e-08
1.512389e-08 1.358556e-08 1.346922e-08 1.477392e-08 1.535116e-08 1.466885e-08 1.468041e-08 1.303684e-08 1.420094e-08 1.339286e-08
1.318123e-08 1.638502e-08 1.357951e-08 1.335150e-08 1.285160e-08 1.494293e-08 1.363939e-08 1.256133e-08 1.228388e-08 1.426848e-08
1.270103e-08 1.162307e-08 1.208458e-08 1.236121e-08 1.176791e-08 1.295445e-08 1.346851e-08 1.266977e-08 1.304942e-08 1.219752e-08
1.224162e-08 1.076292e-08 1.034346e-08 1.265045e-08 1.042692e-08 1.063051e-08 8.949243e-09 9.291778e-09 1.019297e-08 9.397770e-09
9.534932e-09 9.838277e-09 9.588439e-09 7.783772e-09 9.104380e-09 9.461409e-09 7.344365e-09 8.292115e-09 7.520836e-09 8.365692e-09
5.215629e-09 7.088216e-09 5.852227e-09 7.361537e-09 5.723927e-09 5.679723e-09 7.129070e-09 4.097918e-09 5.219048e-09 6.910818e-09
4.689222e-09 3.623033e-09 6.037638e-09 4.803292e-09 3.652798e-09 3.379218e-09 3.758306e-09 2.069320e-09 3.269779e-09 2.663751e-09
2.606074e-09 -1.756772e-10 2.107264e-09 4.991385e-10 1.565235e-09 3.852501e-10 1.039325e-09 2.031754e-10 -1.263929e-09 -1.139505e-09
-1.291788e-09 7.658311e-10 8.344308e-10 -1.607935e-09 -3.774906e-10 -1.226219e-09 -2.021657e-09 3.207573e-11 -1.893674e-09 -3.237318e-09
-2.770625e-09 -3.050480e-09 -2.718382e-09 -2.701092e-09 -3.799660e-09 -5.590629e-09 -2.757667e-09 -3.000069e-09 -5.776957e-09 -2.336515e-09
-6.738435e-09 -6.638915e-09 -4.844018e-09 -5.033291e-09 -6.667401e-09 -5.100926e-09 -6.904866e-09 -5.825637e-09 -7.426786e-09 -7.187456e-09
-7.997070e-09 -8.868088e-09 -8.331722e-09 -9.706782e-09 -8.762587e-09 -8.202222e-09 -8.455774e-09 -1.019825e-08 -9.057566e-09 -1.129104e-08
-1.074272e-08 -9.927015e-09 -1.126005e-08 -1.119396e-08 -1.158492e-08 -1.020298e-08 -1.002896e-08 -1.022387e-08 -1.394855e-08 -1.174506e-08
-1.143135e-08 -1.281269e-08 -1.177003e-08 -1.169713e-08 -1.403783e-08 -1.325229e-08 -1.352274e-08 -1.249607e-08 -1.244203e-08 -1.259762e-08
-1.249095e-08 -1.312009e-08 -1.244589e-08 -1.467521e-08 -1.525307e-08 -1.226614e-08 -1.321692e-08 -1.433444e-08 -1.402000e-08 -1.385103e-08
-1.421546e-08 -1.594245e-08 -1.282363e-08 -1.389953e-08 -1.388304e-08 -1.545579e-08 -1.590146e-08 -1.422909e-08 -1.431424e-08 -1.481924e-08
-1.397822e-08 -1.511529e-08 -1.536303e-08 -1.501368e-08 -1.504601e-08 -1.410515e-08 -1.460019e-08 -1.477726e-08 -1.451533e-08 -1.395064e-08
-1.449351e-08
-1.695432e-08 -1.340375e-08 -1.459206e-08 -1.531776e-08 -1.365475e-08 -1.578075e-08 -1.626279e-08 -1.636617e-08 -1.474123e-08 -1.690085e-08
-1.485154e-08 -1.520301e-08 -1.578289e-08 -1.513772e-08 -1.564147e-08 -1.440667e-08 -1.463523e-08 -1.494089e-08 -1.354024e-08 -1.555966e-08
-1.532808e-08 -1.374991e-08 -1.402987e-08 -1.443842e-08 -1.313715e-08 -1.346922e-08 -1.325085e-08 -1.271668e-08 -1.255664e-08 -1.333075e-08
-1.355340e-08 -1.228651e-08 -1.329090e-08 -1.268955e-08 -1.183846e-08 -1.375908e-08 -1.232809e-08 -1.206566e-08 -1.120827e-08 -1.319587e-08
-1.291820e-08 -1.237897e-08 -1.151771e-08 -1.150115e-08 -1.151988e-08 -1.171941e-08 -9.719478e-09 -9.770030e-09 -1.104298e-08 -8.976102e-09
-1.143526e-08 -9.993883e-09 -1.054133e-08 -8.675227e-09 -8.537024e-09 -7.514686e-09 -8.665556e-09 -7.560851e-09 -7.670995e-09 -7.079603e-09
-6.632888e-09 -6.814378e-09 -7.001251e-09 -5.367266e-09 -5.672213e-09 -6.932444e-09 -6.345386e-09 -4.108804e-09 -4.517567e-09 -5.750753e-09
-3.574318e-09 -4.212378e-09 -5.697020e-09 -5.804932e-09 -4.217685e-09 -3.120826e-09 -3.307028e-09 -2.280051e-09 -1.053443e-09 -3.308655e-09
-1.498915e-09 -2.528168e-09 -1.509795e-09 -1.084848e-09 -9.899881e-10 -2.697359e-10 -8.117413e-10 -1.884596e-09 2.188749e-12 1.190037e-09
-1.044513e-09 -5.254401e-11 2.409078e-11 -2.569450e-09 1.959189e-09 2.052202e-09 2.064218e-09 2.036246e-09 3.684771e-09 2.736612e-09
1.467182e-09 3.236087e-09 2.806298e-09 4.799409e-09 5.484660e-09 2.402712e-09 2.965008e-09 3.905344e-09 5.325568e-09 6.627496e-09
6.318326e-09 4.263243e-09 6.204504e-09 5.419531e-09 7.795169e-09 6.062339e-09 6.175390e-09 7.234711e-09 8.749546e-09 7.636431e-09
8.926302e-09 8.471488e-09 7.851143e-09 7.801799e-09 8.081734e-09 8.792053e-09 1.005791e-08 8.862663e-09 1.014545e-08 8.386736e-09
1.108517e-08 1.042813e-08 1.182087e-08 1.178008e-08 1.109593e-08 1.256324e-08 1.126978e-08 1.093151e-08 1.183368e-08 1.247449e-08
1.239632e-08 1.422083e-08 1.202585e-08 1.337507e-08 1.179239e-08 1.201312e-08 1.345639e-08 1.237370e-08 1.291361e-08 1.387526e-08
1.352318e-08 1.431351e-08 1.261003e-08 1.349731e-08 1.286046e-08 1.395021e-08 1.415322e-08 1.446953e-08 1.656010e-08 1.418909e-08
1.494477e-08 1.335930e-08 1.542695e-08 1.521482e-08 1.511013e-08 1.337926e-08 1.589830e-08 1.608965e-08 1.571992e-08 1.518560e-08
1.442359e-08 1.451614e-08 1.485176e-08 1.555696e-08 1.596749e-08 1.514715e-08 1.663194e-08 1.493338e-08 1.454968e-08 1.573143e-08
1.577303e-08 1.394874e-08 1.457263e-08 1.582506e-08 1.421678e-08 1.729302e-08 1.385704e-08 1.564270e-08 1.373909e-08 1.517539e-08
1.427953e-08 1.424102e-08 1.467656e-08 1.454329e-08 1.414590e-08 1.405786e-08 1.564805e-08 1.381621e-08 1.365561e-08 1.523905e-08
1.362491e-08 1.501463e-08 1.486845e-08 1.463783e-08 1.332943e-08 1.265854e-08 1.305592e-08 1.278615e-08 1.421709e-08 1.473139e-08
1.321313e-08 1.284010e-08 1.278394e-08 1.209379e-08 1.342814e-08 1.178991e-08 1.240235e-08 1.185772e-08 1.285412e-08 1.126197e-08
1.014090e-08 1.168368e-08 1.192927e-08 1.099756e-08 1.060052e-08 1.047218e-08 1.096074e-08 1.003502e-08 9.915656e-09 8.623782e-09
1.106855e-08 8.449502e-09 1.001302e-08 1.024434e-08 8.614895e-09 9.370475e-09 9.548379e-09 8.490356e-09 7.209318e-09 8.429615e-09
8.256672e-09 7.028348e-09 7.622918e-09 6.731470e-09 5.758027e-09 6.477814e-09 4.074732e-09 6.578910e-09 4.186770e-09 5.667065e-09
5.023578e-09 4.874975e-09 6.617765e-09 2.009032e-09 3.284047e-09 2.622889e-09 4.117554e-09 2.995170e-09 2.959239e-09 3.245535e-09
2.306516e-09 2.095057e-09 2.177251e-09 1.520132e-09 1.081166e-09 6.179603e-10 -1.827880e-10 2.403959e-10 -2.704056e-10 1.040488e-09
-1.436040e-10 -9.496318e-10 2.441610e-10 -1.420402e-09 7.749399e-10 -8.765197e-10 2.242736e-10 -1.711970e-09 -2.616407e-09 -1.763410e-09
-4.418566e-09 -4.307909e-09 -3.810115e-09 -2.051616e-09 -4.209452e-09 -3.083167e-09 -4.989345e-09 -5.020930e-09 -2.295475e-09 -3.282749e-09
-4.806846e-09 -6.133211e-09 -5.916217e-09 -7.876787e-09 -8.166918e-09 -4.722965e-09 -6.444615e-09 -6.218647e-09 -7.822105e-09 -8.176522e-09
-7.085406e-09 -9.023620e-09 -8.513613e-09 -9.138184e-09 -6.989453e-09 -9.056040e-09 -9.192554e-09 -9.973721e-09 -8.853910e-09 -9.626254e-09
-1.129491e-08 -1.055159e-08 -1.049163e-08 -1.103166e-08 -1.148130e-08 -1.060651e-08 -9.966125e-09 -1.189129e-08 -1.289981e-08 -1.190547e-08
-1.193798e-08 -1.278184e-08 -1.151110e-08 -1.166725e-08 -1.295772e-08 -1.482653e-08 -1.341328e-08 -1.285634e-08 -1.314955e-08 -1.404093e-08
-1.144074e-08 -1.483725e-08 -1.413776e-08 -1.256237e-08 -1.504140e-08 -1.286947e-08 -1.313773e-08 -1.570389e-08 -1.560672e-08 -1.331388e-08
-1.466559e-08 -1.397234e-08 -1.580693e-08 -1.363565e-08 -1.437500e-08 -1.546596e-08 -1.450651e-08 -1.401210e-08 -1.670332e-08 -1.459144e-08
-1.459312e-08 -1.460298e-08 -1.541602e-08 -1.526203e-08 -1.354334e-08 -1.446328e-08 -1.407406e-08 -1.419852e-08 -1.423700e-08 -1.396973e-08
-1.695432e-08
-1.428901e-08 -1.557946e-08 -1.552921e-08 -1.529100e-08 -1.612521e-08 -1.539828e-08 -1.639432e-08 -1.553616e-08 -1.616961e-08 -1.425305e-08
-1.520098e-08 -1.418827e-08 -1.438302e-08 -1.622799e-08 -1.435544e-08 -1.452220e-08 -1.514216e-08 -1.542663e-08 -1.535273e-08 -1.461355e-08
-1.366705e-08 -1.681990e-08 -1.396976e-08 -1.378420e-08 -1.469413e-08 -1.379700e-08 -1.393839e-08 -1.308926e-08 -1.377555e-08 -1.365047e-08
-1.342366e-08 -1.305317e-08 -1.321054e-08 -1.292840e-08 -1.330246e-08 -1.265929e-08 -1.260946e-08 -1.434529e-08 -1.143255e-08 -1.358120e-08
-1.391572e-08 -1.221709e-08 -1.307358e-08 -1.112788e-08 -1.267148e-08 -9.814495e-09 -1.099068e-08 -1.104082e-08 -9.539451e-09 -1.051332e-08
-1.153655e-08 -1.022672e-08 -1.075879e-08 -9.615381e-09 -8.259352e-09 -8.622552e-09 -9.297824e-09 -9.339716e-09 -8.630722e-09 -7.065785e-09
-7.277715e-09 -6.953995e-09 -6.361609e-09 -7.849652e-09 -6.861612e-09 -8.348587e-09 -7.501825e-09 -7.232462e-09 -5.017105e-09 -6.594448e-09
-5.133306e-09 -4.553664e-09 -4.626755e-09 -4.267162e-09 -2.405192e-09 -3.262288e-09 -6.031423e-09 -2.945868e-09 -1.757366e-09 -1.161947e-09
-8.822615e-10 -3.665518e-09 -2.219666e-09 -1.703648e-10 -1.110630e-09 -1.253980e-09 -6.692829e-10 -1.367907e-09 -5.382784e-10 -3.829628e-10
-1.790169e-10 -2.074130e-10 -1.662727e-09 1.782145e-09 7.247479e-10 -6.878151e-10 2.564026e-09 1.463045e-09 1.748478e-09 2.433161e-09
3.679993e-09 7.811065e-10 3.974763e-09 1.964410e-09 3.252943e-09 3.295082e-09 3.974655e-09 3.121327e-09 5.211299e-09 4.113455e-09
5.870737e-09 4.010641e-09 5.926994e-09 5.317754e-09 6.340190e-09 7.204550e-09 6.256735e-09 7.597212e-09 7.884393e-09 9.048183e-09
8.359549e-09 7.099178e-09 7.613187e-09 9.381139e-09 6.721294e-09 9.518819e-09 1.097720e-08 1.016094e-08 8.581220e-09 9.563650e-09
9.563599e-09 9.936497e-09 9.935341e-09 1.144137e-08 1.196504e-08 1.245587e-08 1.255846e-08 1.179688e-08 1.151618e-08 1.391597e-08
1.287995e-08 1.287275e-08 1.432803e-08 1.353490e-08 1.267535e-08 1.227902e-08 1.328523e-08 1.235250e-08 1.463547e-08 1.346772e-08
1.519358e-08 1.403797e-08 1.336359e-08 1.302666e-08 1.564427e-08 1.388198e-08 1.435479e-08 1.476721e-08 1.390258e-08 1.639030e-08
1.426695e-08 1.390264e-08 1.452291e-08 1.532224e-08 1.492306e-08 1.607184e-08 1.587939e-08 1.586140e-08 1.752837e-08 1.521504e-08
1.581436e-08 1.417011e-08 1.422606e-08 1.640193e-08 1.600039e-08 1.546499e-08 1.544215e-08 1.460244e-08 1.573568e-08 1.526992e-08
1.529231e-08 1.528833e-08 1.660668e-08 1.469987e-08 1.524074e-08 1.447779e-08 1.398298e-08 1.439945e-08 1.422978e-08 1.417243e-08
1.584298e-08 1.410939e-08 1.677058e-08 1.440368e-08 1.533274e-08 1.408213e-08 1.426098e-08 1.460291e-08 1.502592e-08 1.501836e-08
1.456327e-08 1.429920e-08 1.349629e-08 1.320357e-08 1.365784e-08 1.363536e-08 1.330845e-08 1.334320e-08 1.414543e-08 1.416858e-08
1.265183e-08 1.336164e-08 1.311353e-08 1.230747e-08 1.431652e-08 1.278515e-08 1.202016e-08 1.169301e-08 1.316734e-08 1.266713e-08
1.286595e-08 1.326250e-08 1.253358e-08 1.106895e-08 1.134523e-08 1.122733e-08 1.081646e-08 1.014562e-08 9.370392e-09 9.758090e-09
9.859594e-09 9.595762e-09 9.490052e-09 9.051976e-09 1.032406e-08 9.132751e-09 7.964998e-09 7.676264e-09 6.502694e-09 9.605015e-09
7.487521e-09 7.781180e-09 8.536984e-09 4.226385e-09 6.456487e-09 6.735016e-09 6.189303e-09 5.850309e-09 4.734017e-09 5.914682e-09
3.510570e-09 3.588084e-09 5.637560e-09 2.111567e-09 3.377210e-09 3.382769e-09 3.010093e-09 4.925191e-09 2.821526e-09 1.395480e-09
2.765921e-09 3.570660e-09 -3.309765e-10 1.523812e-09 -3.093810e-10 1.529315e-09 1.409818e-09 -1.433700e-09 1.268894e-09 -6.162663e-10
-9.787814e-10 -1.878216e-09 -1.677529e-09 -1.228213e-09 -1.400849e-09 -2.281761e-09 -3.570051e-09 -1.892816e-09 -1.201685e-09 -1.887753e-09
-2.823723e-09 -1.678032e-09 -4.276131e-09 -3.057269e-09 -3.576699e-09 -4.527135e-09 -3.818613e-09 -5.749408e-09 -4.459281e-09 -6.083527e-09
-4.859824e-09 -4.960638e-09 -4.663644e-09 -6.034781e-09 -6.469843e-09 -7.813508e-09 -6.674588e-09 -7.205971e-09 -7.784031e-09 -5.861553e-09
-8.575523e-09 -9.119728e-09 -7.757968e-09 -8.408890e-09 -7.842135e-09 -8.438643e-09 -9.582789e-09 -8.904217e-09 -1.179349e-08 -1.104770e-08
-1.059813e-08 -1.041035e-08 -9.706072e-09 -1.048936e-08 -1.092591e-08 -1.113669e-08 -1.107216e-08 -1.287699e-08 -1.179848e-08 -1.256130e-08
-1.165044e-08 -1.288827e-08 -1.443379e-08 -1.207037e-08 -1.381452e-08 -1.348422e-08 -1.213931e-08 -1.564369e-08 -1.266909e-08 -1.478007e-08
-1.350993e-08 -1.441699e-08 -1.331293e-08 -1.499328e-08 -1.323191e-08 -1.471995e-08 -1.491403e-08 -1.407401e-08 -1.368034e-08 -1.420013e-08
-1.518827e-08 -1.515120e-08 -1.468028e-08 -1.412833e-08 -1.331525e-08 -1.430274e-08 -1.447535e-08 -1.456154e-08 -1.470409e-08 -1.432190e-08
-1.556521e-08 -1.386181e-08 -1.367355e-08 -1.465684e-08 -1.476317e-08 -1.479872e-08 -1.559251e-08 -1.509958e-08 -1.432499e-08 -1.433226e-08
-1.428901e-08
-1.585000e-08 -1.425743e-08 -1.448257e-08 -1.461734e-08 -1.541328e-08 -1.535996e-08 -1.530561e-08 -1.436656e-08 -1.485763e-08 -1.414388e-08
-1.461234e-08 -1.607321e-08 -1.524233e-08 -1.494365e-08 -1.510208e-08 -1.440757e-08 -1.430435e-08 -1.471078e-08 -1.375307e-08 -1.459121e-08
-1.558259e-08 -1.497007e-08 -1.428292e-08 -1.477886e-08 -1.464697e-08 -1.614366e-08 -1.427825e-08 -1.428906e-08 -1.331522e-08 -1.400257e-08
-1.443307e-08 -1.385629e-08 -1.365105e-08 -1.296920e-08 -1.328813e-08 -1.315331e-08 -1.341397e-08 -1.284748e-08 -1.143655e-08 -1.441801e-08
-1.300693e-08 -1.207401e-08 -1.343997e-08 -1.290306e-08 -1.363388e-08 -1.201971e-08 -1.204124e-08 -1.065647e-08 -1.025278e-08 -1.044083e-08
-1.115054e-08 -1.060445e-08 -8.757691e-09 -1.264923e-08 -8.885880e-09 -9.132950e-09 -9.368960e-09 -7.483033e-09 -9.361691e-09 -8.942849e-09
-7.611413e-09 -8.033523e-09 -5.859004e-09 -7.590902e-09 -7.298400e-09 -6.730756e-09 -6.610296e-09 -4.818041e-09 -5.842681e-09 -5.304548e-09
-3.629619e-09 -5.411315e-09 -4.154680e-09 -5.609225e-09 -3.831452e-09 -3.572028e-09 -2.307143e-09 -2.836674e-09 -4.830814e-09 -2.530349e-09
-1.835273e-11 -2.372897e-09 -1.147678e-09 -1.114256e-09 -2.481997e-09 -2.296149e-09 1.224846e-09 -1.486010e-09 -8.863855e-10 -8.179803e-10
7.821354e-10 2.435804e-11 -1.160522e-09 8.496559e-10 4.245989e-10 9.572699e-10 1.294379e-09 2.475349e-09 1.345041e-09 3.062320e-09
2.795008e-09 3.787749e-09 2.467185e-09 4.393323e-09 2.208204e-09 4.440766e-09 2.712822e-09 3.995261e-09 4.015995e-09 3.986397e-09
5.316368e-09 6.836015e-09 5.206960e-09 6.425132e-09 6.999971e-09 6.791309e-09 8.143521e-09 7.258004e-09 8.240046e-09 5.615782e-09
6.829241e-09 7.309939e-09 1.028161e-08 9.814118e-09 8.825078e-09 8.758857e-09 9.933420e-09 9.232180e-09 1.196197e-08 1.061762e-08
9.986889e-09 1.077330e-08 1.149784e-08 1.043643e-08 1.152354e-08 1.220327e-08 1.104213e-08 1.188300e-08 1.388103e-08 1.198208e-08
1.315844e-08 1.458433e-08 1.479161e-08 1.368831e-08 1.285293e-08 1.408199e-08 1.425031e-08 1.391425e-08 1.372174e-08 1.318075e-08
1.320652e-08 1.412926e-08 1.532665e-08 1.540510e-08 1.676900e-08 1.392236e-08 1.388849e-08 1.668089e-08 1.528917e-08 1.473567e-08
1.587750e-08 1.415436e-08 1.518578e-08 1.598266e-08 1.496490e-08 1.545895e-08 1.530712e-08 1.477464e-08 1.786926e-08 1.483625e-08
1.494980e-08 1.586243e-08 1.413008e-08 1.685466e-08 1.599386e-08 1.515971e-08 1.566369e-08 1.446381e-08 1.507863e-08 1.489176e-08
1.410916e-08 1.426859e-08 1.641505e-08 1.584093e-08 1.557282e-08 1.482100e-08 1.610787e-08 1.474770e-08 1.645703e-08 1.642019e-08
1.402586e-08 1.516258e-08 1.581181e-08 1.465957e-08 1.611869e-08 1.540381e-08 1.510519e-08 1.483345e-08 1.401578e-08 1.498388e-08
1.458443e-08 1.409163e-08 1.354556e-08 1.391150e-08 1.412398e-08 1.370768e-08 1.445680e-08 1.404823e-08 1.436608e-08 1.271402e-08
1.294287e-08 1.283135e-08 1.405361e-08 1.359770e-08 1.330028e-08 1.238304e-08 1.430133e-08 1.287016e-08 1.223251e-08 1.184763e-08
1.244349e-08 1.240462e-08 1.203583e-08 1.127358e-08 1.135979e-08 1.197698e-08 1.183143e-08 1.123460e-08 1.057002e-08 9.554791e-09
1.073429e-08 8.644162e-09 9.509885e-09 9.380584e-09 8.759574e-09 7.926379e-09 8.112803e-09 7.847590e-09 8.479621e-09 7.194215e-09
6.878659e-09 8.298746e-09 8.065596e-09 6.479878e-09 6.560061e-09 6.476690e-09 6.456084e-09 4.205341e-09 5.768519e-09 4.990351e-09
4.921735e-09 4.904422e-09 3.046205e-09 5.464845e-09 4.804036e-09 4.831433e-09 2.841761e-09 3.007900e-09 3.267406e-09 2.386918e-09
3.221174e-09 2.432965e-09 1.357928e-09 1.850706e-09 1.403910e-09 -5.506157e-10 7.856842e-10 1.485500e-09 -6.218774e-10 -1.135445e-09
9.187529e-10 -1.142719e-09 6.173234e-10 4.488760e-10 -1.559134e-09 -1.059487e-09 -1.281143e-09 -1.545385e-09 -2.610988e-09 -1.541824e-09
-3.842739e-09 -3.536833e-09 -3.055609e-09 -4.142139e-09 -5.156505e-09 -5.084594e-09 -7.502824e-09 -4.566651e-09 -6.511817e-09 -5.877930e-09
-5.777450e-09 -8.340859e-09 -4.985022e-09 -6.385750e-09 -7.188124e-09 -6.925942e-09 -5.468305e-09 -7.548629e-09 -7.554941e-09 -7.187285e-09
-8.155831e-09 -8.316593e-09 -8.229939e-09 -8.446960e-09 -9.057566e-09 -9.275737e-09 -8.731831e-09 -7.818900e-09 -8.002096e-09 -1.061371e-08
-1.036355e-08 -1.129177e-08 -1.112669e-08 -1.045825e-08 -1.161789e-08 -1.008408e-08 -1.186293e-08 -1.101950e-08 -1.286862e-08 -1.287846e-08
-1.214556e-08 -1.259856e-08 -1.275436e-08 -1.262710e-08 -1.324475e-08 -1.404543e-08 -1.315313e-08 -1.511347e-08 -1.373682e-08 -1.472107e-08
-1.375244e-08 -1.459967e-08 -1.343519e-08 -1.416204e-08 -1.405801e-08 -1.565783e-08 -1.434509e-08 -1.415857e-08 -1.431590e-08 -1.527682e-08
-1.472719e-08 -1.526529e-08 -1.497842e-08 -1.563462e-08 -1.428812e-08 -1.454265e-08 -1.610685e-08 -1.451095e-08 -1.453928e-08 -1.403189e-08
-1.481849e-08 -1.473906e-08 -1.452221e-08 -1.487992e-08 -1.638113e-08 -1.574486e-08 -1.543267e-08 -1.404429e-08 -1.591553e-08 -1.348524e-08
-1.585000e-08
-1.502451e-08 -1.498747e-08 -1.464775e-08 -1.680071e-08 -1.485186e-08 -1.580566e-08 -1.444629e-08 -1.429734e-08 -1.678497e-08 -1.570824e-08
-1.504434e-08 -1.556760e-08 -1.515858e-08 -1.629459e-08 -1.739321e-08 -1.566803e-08 -1.638438e-08 -1.613437e-08 -1.635821e-08 -1.414524e-08
-1.500025e-08 -1.543904e-08 -1.526520e-08 -1.598565e-08 -1.522394e-08 -1.453109e-08 -1.483463e-08 -1.385270e-08 -1.371439e-08 -1.328194e-08
-1.338574e-08 -1.304636e-08 -1.406730e-08 -1.376434e-08 -1.308065e-08 -1.415180e-08 -1.389632e-08 -1.410935e-08 -1.356449e-08 -1.452898e-08
-1.320694e-08 -1.200970e-08 -1.371079e-08 -1.268420e-08 -1.313731e-08 -1.170677e-08 -1.102482e-08 -1.174614e-08 -9.719412e-09 -1.177333e-08
-9.427272e-09 -1.081494e-08 -9.684289e-09 -1.150783e-08 -1.071789e-08 -8.272239e-09 -8.405704e-09 -9.158780e-09 -7.464757e-09 -7.555900e-09
-7.515870e-09 -8.587576e-09 -8.310805e-09 -8.780755e-09 -6.795975e-09 -6.289971e-09 -7.819350e-09 -5.355931e-09 -4.768597e-09 -5.538037e-09
-5.130959e-09 -4.675221e-09 -3.203284e-09 -3.970287e-09 -4.624699e-09 -4.171416e-09 -3.271913e-09 -2.601926e-09 -1.923251e-09 -2.885888e-09
-4.268467e-09 -3.629492e-09 -2.058030e-09 -3.436383e-09 -1.361064e-09 -8.188270e-10 -1.196040e-09 -1.757897e-09 -1.799199e-10 2.240172e-09
5.965944e-10 1.208364e-09 -9.500637e-10 1.354753e-09 3.368313e-10 3.168185e-09 1.686887e-10 9.971147e-10 1.422063e-09 1.018311e-09
6.766522e-10 2.515625e-09 2.720943e-09 3.265028e-09 1.726382e-09 3.179637e-09 5.771149e-09 5.651049e-09 5.831519e-09 8.786369e-09
5.998336e-09 7.003963e-09 8.177913e-09 5.829749e-09 4.701361e-09 4.332275e-09 7.528936e-09 7.586801e-09 7.475620e-09 7.176043e-09
7.765906e-09 8.034113e-09 8.243582e-09 9.482197e-09 9.745054e-09 9.852541e-09 9.282602e-09 8.948611e-09 1.259318e-08 1.085405e-08
1.129982e-08 1.180220e-08 9.372450e-09 1.121760e-08 1.251974e-08 1.183515e-08 1.256736e-08 1.198303e-08 1.227163e-08 1.237329e-08
1.276194e-08 1.309382e-08 1.265128e-08 1.263124e-08 1.314841e-08 1.431961e-08 1.483081e-08 1.443368e-08 1.302431e-08 1.529957e-08
1.565068e-08 1.476337e-08 1.448159e-08 1.519767e-08 1.440880e-08 1.494567e-08 1.466345e-08 1.431582e-08 1.834951e-08 1.584791e-08
1.517440e-08 1.571920e-08 1.558814e-08 1.427918e-08 1.670284e-08 1.492489e-08 1.618877e-08 1.625502e-08 1.663386e-08 1.527407e-08
1.612677e-08 1.515283e-08 1.686110e-08 1.570241e-08 1.647132e-08 1.781828e-08 1.491192e-08 1.534358e-08 1.521857e-08 1.480028e-08
1.620446e-08 1.522383e-08 1.604029e-08 1.539228e-08 1.448320e-08 1.550197e-08 1.635342e-08 1.585440e-08 1.582061e-08 1.462419e-08
1.685299e-08 1.624459e-08 1.567898e-08 1.607445e-08 1.539505e-08 1.492034e-08 1.537826e-08 1.528466e-08 1.582863e-08 1.510079e-08
1.406546e-08 1.513891e-08 1.509242e-08 1.450742e-08 1.395459e-08 1.446044e-08 1.397883e-08 1.486120e-08 1.386911e-08 1.470470e-08
1.446675e-08 1.299392e-08 1.346588e-08 1.502656e-08 1.274954e-08 1.192637e-08 1.372128e-08 1.301083e-08 1.389424e-08 1.107990e-08
1.329651e-08 1.275118e-08 1.145868e-08 1.263615e-08 1.087042e-08 1.239421e-08 1.204765e-08 1.114327e-08 1.016822e-08 9.831214e-09
1.052222e-08 1.039959e-08 1.208235e-08 9.433669e-09 8.042811e-09 8.775371e-09 8.366268e-09 1.001178e-08 8.460338e-09 6.165968e-09
7.359441e-09 7.475252e-09 7.262882e-09 7.390493e-09 5.790197e-09 7.147426e-09 6.569422e-09 6.730811e-09 4.166671e-09 5.561620e-09
5.145576e-09 5.475266e-09 5.249633e-09 3.393675e-09 3.763903e-09 1.792300e-09 3.499368e-09 3.261250e-09 3.032610e-09 1.731816e-09
1.675271e-09 2.410147e-09 3.135422e-09 1.730943e-09 2.859675e-09 4.913930e-10 -1.505634e-09 9.243890e-10 -1.031235e-09 -1.143778e-10
-3.090758e-10 5.857351e-10 -2.209798e-09 -8.090863e-10 -1.561012e-10 -1.336199e-09 -9.256647e-10 -1.009874e-09 -1.714977e-09 -1.816054e-09
-2.582115e-09 -5.258702e-10 -4.931437e-09 -2.723011e-09 -3.150502e-09 -3.965448e-09 -4.305697e-09 -5.011893e-09 -6.083253e-09 -5.284510e-09
-5.978176e-09 -6.246636e-09 -5.676848e-09 -6.364513e-09 -7.384306e-09 -7.462650e-09 -5.841294e-09 -7.997584e-09 -6.972974e-09 -6.497034e-09
-6.968030e-09 -8.370669e-09 -1.036694e-08 -9.090914e-09 -8.948799e-09 -9.237333e-09 -9.843226e-09 -1.078307e-08 -1.114203e-08 -1.096491e-08
-1.023385e-08 -1.191219e-08 -1.050493e-08 -1.145940e-08 -1.236716e-08 -1.151933e-08 -1.229726e-08 -1.297668e-08 -1.242629e-08 -1.244156e-08
-1.378171e-08 -1.159334e-08 -1.348833e-08 -1.398937e-08 -1.221837e-08 -1.290622e-08 -1.487004e-08 -1.476757e-08 -1.405982e-08 -1.328208e-08
-1.394237e-08 -1.485947e-08 -1.459816e-08 -1.381262e-08 -1.557637e-08 -1.419005e-08 -1.476238e-08 -1.600330e-08 -1.504495e-08 -1.559670e-08
-1.447670e-08 -1.465109e-08 -1.502389e-08 -1.515151e-08 -1.469994e-08 -1.625080e-08 -1.422307e-08 -1.494528e-08 -1.659907e-08 -1.612137e-08
-1.700119e-08 -1.562519e-08 -1.577565e-08 -1.793733e-08 -1.639302e-08 -1.474784e-08 -1.467358e-08 -1.453148e-08 -1.517590e-08 -1.640177e-08
-1.502451e-08
-1.755022e-08 -1.544713e-08 -1.451717e-08 -1.598257e-08 -1.524437e-08 -1.532313e-08 -1.663585e-08 -1.533164e-08 -1.672421e-08 -1.667963e-08
-1.527841e-08 -1.638979e-08 -1.590549e-08 -1.672628e-08 -1.492131e-08 -1.606578e-08 -1.512859e-08 -1.619861e-08 -1.666356e-08 -1.512828e-08
-1.678798e-08 -1.586931e-08 -1.615422e-08 -1.738284e-08 -1.525568e-08 -1.637439e-08 -1.601587e-08 -1.387563e-08 -1.425141e-08 -1.479520e-08
-1.453508e-08 -1.442385e-08 -1.424301e-08 -1.506167e-08 -1.312015e-08 -1.688942e-08 -1.278648e-08 -1.457404e-08 -1.248382e-08 -1.431138e-08
-1.355686e-08 -1.205438e-08 -1.286544e-08 -1.154606e-08 -1.179373e-08 -1.387600e-08 -1.238641e-08 -1.043623e-08 -1.146231e-08 -1.018528e-08
-1.056072e-08 -9.477606e-09 -9.262084e-09 -9.319649e-09 -9.211895e-09 -1.038305e-08 -1.081830e-08 -1.010600e-08 -7.478459e-09 -8.349499e-09
-9.584966e-09 -8.241585e-09 -6.972060e-09 -7.334071e-09 -5.486889e-09 -6.856382e-09 -6.553704e-09 -5.958957e-09 -3.511081e-09 -6.158624e-09
-4.871489e-09 -4.914838e-09 -5.260974e-09 -4.022987e-09 -3.623512e-09 -3.884898e-09 -1.885072e-09 -3.619234e-09 -2.851797e-09 -2.625043e-09
-2.110334e-09 -2.510410e-09 -2.244372e-09 -4.936810e-09 -9.384991e-10 -7.364795e-10 -4.552248e-10 -1.631862e-09 6.119844e-11 -9.993983e-10
-1.154195e-09 1.318799e-09 1.974730e-09 4.604926e-10 -3.670228e-10 9.117767e-10 3.886554e-09 2.514540e-09 1.759724e-09 1.717657e-09
3.057488e-09 4.535524e-09 3.353502e-09 3.046404e-09 2.289526e-09 2.633024e-09 5.179025e-09 3.523396e-09 5.316078e-09 4.537919e-09
5.071065e-09 6.189619e-09 5.535878e-09 8.369547e-09 6.273378e-09 6.221621e-09 7.365467e-09 8.918716e-09 9.108745e-09 7.992496e-09
8.521703e-09 8.838169e-09 1.009225e-08 9.382804e-09 9.512442e-09 1.071907e-08 9.682545e-09 1.062210e-08 1.133456e-08 1.087459e-08
1.242729e-08 1.210646e-08 1.083720e-08 1.180285e-08 1.328539e-08 1.204056e-08 1.171846e-08 1.321594e-08 1.427066e-08 1.368172e-08
1.375758e-08 1.293241e-08 1.427127e-08 1.320066e-08 1.435568e-08 1.259992e-08 1.359405e-08 1.475068e-08 1.389655e-08 1.464971e-08
1.539140e-08 1.394384e-08 1.557291e-08 1.495304e-08 1.448350e-08 1.749692e-08 1.647558e-08 1.472282e-08 1.507214e-08 1.605212e-08
1.590057e-08 1.488796e-08 1.680527e-08 1.557802e-08 1.529052e-08 1.710191e-08 1.689496e-08 1.507524e-08 1.581282e-08 1.623769e-08
1.535794e-08 1.655111e-08 1.649398e-08 1.571748e-08 1.524543e-08 1.511951e-08 1.537826e-08 1.468807e-08 1.515233e-08 1.658964e-08
1.602813e-08 1.569308e-08 1.492193e-08 1.580902e-08 1.509388e-08 1.517075e-08 1.578047e-08 1.523073e-08 1.690888e-08 1.649828e-08
1.542950e-08 1.639918e-08 1.507540e-08 1.628160e-08 1.574489e-08 1.644116e-08 1.730298e-08 1.620936e-08 1.612237e-08 1.641277e-08
1.473015e-08 1.655156e-08 1.545498e-08 1.555015e-08 1.479039e-08 1.578680e-08 1.510871e-08 1.573698e-08 1.324183e-08 1.387509e-08
1.448056e-08 1.395612e-08 1.350361e-08 1.486198e-08 1.328940e-08 1.330555e-08 1.252301e-08 1.394162e-08 1.333501e-08 1.371857e-08
1.176885e-08 1.145786e-08 1.174690e-08 1.128007e-08 1.234356e-08 1.103779e-08 1.204808e-08 1.078967e-08 1.096211e-08 1.167069e-08
1.039203e-08 9.723858e-09 9.158451e-09 9.518119e-09 9.673617e-09 1.127549e-08 9.748179e-09 8.838351e-09 9.396106e-09 8.406412e-09
7.946113e-09 6.520706e-09 8.479440e-09 9.347098e-09 7.199590e-09 5.728417e-09 5.454404e-09 6.591789e-09 5.739393e-09 6.257928e-09
5.067195e-09 4.169185e-09 3.243326e-09 4.818318e-09 3.426686e-09 3.133248e-09 3.378623e-09 3.257313e-09 1.838231e-09 6.266418e-09
3.951646e-09 1.737331e-09 1.417840e-09 2.304024e-09 1.410988e-09 -2.558892e-10 -1.065831e-09 1.376053e-09 3.894203e-10 -5.800862e-10
-1.288678e-11 4.846869e-10 8.325595e-10 -1.548972e-09 -1.028123e-09 -1.365874e-09 -1.367540e-09 -2.213417e-09 -1.281357e-09 -2.169216e-09
-2.471866e-09 -3.198123e-09 -2.764307e-09 -3.039203e-09 -2.499408e-09 -3.826000e-09 -3.143874e-09 -6.518805e-09 -3.706051e-09 -4.394398e-09
-4.444584e-09 -6.474899e-09 -5.927166e-09 -5.345623e-09 -8.443692e-09 -7.448274e-09 -6.289019e-09 -7.299775e-09 -7.617769e-09 -9.046794e-09
-8.367925e-09 -9.740700e-09 -8.593825e-09 -9.043637e-09 -1.009385e-08 -1.029008e-08 -9.841087e-09 -9.228877e-09 -1.016538e-08 -1.070025e-08
-1.021689e-08 -1.190389e-08 -1.269043e-08 -1.242720e-08 -1.125697e-08 -1.157170e-08 -1.248992e-08 -1.210919e-08 -1.178007e-08 -1.259111e-08
-1.171247e-08 -1.355553e-08 -1.342700e-08 -1.332952e-08 -1.251994e-08 -1.538358e-08 -1.406095e-08 -1.424880e-08 -1.369359e-08 -1.409772e-08
-1.486118e-08 -1.468669e-08 -1.395477e-08 -1.427441e-08 -1.489924e-08 -1.433565e-08 -1.408731e-08 -1.456858e-08 -1.521196e-08 -1.577753e-08
-1.579589e-08 -1.557621e-08 -1.633114e-08 -1.629322e-08 -1.662509e-08 -1.740391e-08 -1.616359e-08 -1.640441e-08 -1.690022e-08 -1.468367e-08
-1.620056e-08 -1.449759e-08 -1.516309e-08 -1.483276e-08 -1.540848e-08 -1.536148e-08 -1.623777e-08 -1.599527e-08 -1.700891e-08 -1.438444e-08
-1.755022e-08
-1.564611e-08 -1.622346e-08 -1.550894e-08 -1.604666e-08 -1.530000e-08 -1.605030e-08 -1.637889e-08 -1.816593e-08 -1.643344e-08 -1.704497e-08
-1.621826e-08 -1.630034e-08 -1.606407e-08 -1.610817e-08 -1.606685e-08 -1.557508e-08 -1.700673e-08 -1.564455e-08 -1.667479e-08 -1.513982e-08
-1.664610e-08 -1.638965e-08 -1.564644e-08 -1.502146e-08 -1.615539e-08 -1.510538e-08 -1.579840e-08 -1.686185e-08 -1.454294e-08 -1.523997e-08
-1.383630e-08 -1.422868e-08 -1.561535e-08 -1.389762e-08 -1.350212e-08 -1.427332e-08 -1.469897e-08 -1.240787e-08 -1.375651e-08 -1.414814e-08
-1.289333e-08 -1.235194e-08 -1.281987e-08 -1.262092e-08 -1.164598e-08 -1.248417e-08 -1.250762e-08 -1.047772e-08 -1.230176e-08 -1.074585e-08
-1.240819e-08 -1.092900e-08 -1.018482e-08 -1.183967e-08 -8.769403e-09 -9.171424e-09 -8.793609e-09 -8.502568e-09 -8.711669e-09 -9.265751e-09
-7.943814e-09 -8.197103e-09 -7.917734e-09 -9.544691e-09 -7.714186e-09 -6.370515e-09 -8.787094e-09 -6.325326e-09 -5.663447e-09 -4.893337e-09
-4.482251e-09 -5.689550e-09 -4.497506e-09 -3.310116e-09 -5.335077e-09 -4.723371e-09 -2.868379e-09 -4.062559e-09 -4.720264e-09 -2.223432e-09
-3.422055e-09 -1.455547e-09 -3.370735e-09 -3.478663e-10 -2.933360e-09 -1.358668e-09 -1.178217e-09 -2.157546e-09 8.524146e-10 -4.724330e-10
-6.255245e-10 4.990005e-10 2.405385e-09 -5.487593e-10 1.474447e-09 2.457380e-09 2.240887e-10 2.291852e-09 2.886393e-09 1.946255e-09
4.161191e-09 3.511307e-09 4.449023e-09 2.318559e-09 6.395022e-09 5.425925e-09 5.200144e-09 6.133027e-09 6.415555e-09 7.651829e-09
6.256686e-09 7.133512e-09 6.951189e-09 5.982873e-09 6.465830e-09 7.634488e-09 7.892948e-09 8.045039e-09 8.445916e-09 7.393479e-09
9.318871e-09 7.248487e-09 9.226091e-09 9.020445e-09 1.184930e-08 8.474601e-09 8.123449e-09 9.712263e-09 1.057748e-08 1.100917e-08
9.968079e-09 1.114243e-08 1.091388e-08 1.224939e-08 1.357541e-08 1.208600e-08 1.347658e-08 1.433182e-08 1.307431e-08 1.304253e-08
1.427935e-08 1.295991e-08 1.378449e-08 1.504722e-08 1.536622e-08 1.444891e-08 1.499095e-08 1.503197e-08 1.501634e-08 1.660650e-08
1.532387e-08 1.404930e-08 1.615883e-08 1.555973e-08 1.466931e-08 1.497982e-08 1.672868e-08 1.618302e-08 1.607066e-08 1.510452e-08
1.624770e-08 1.614206e-08 1.533925e-08 1.565121e-08 1.562219e-08 1.550667e-08 1.624937e-08 1.701620e-08 1.552011e-08 1.558869e-08
1.775711e-08 1.702987e-08 1.629144e-08 1.699480e-08 1.546818e-08 1.707509e-08 1.627182e-08 1.657681e-08 1.549966e-08 1.580072e-08
1.651739e-08 1.571069e-08 1.648018e-08 1.583730e-08 1.677036e-08 1.582505e-08 1.559360e-08 1.587843e-08 1.636186e-08 1.636188e-08
1.728144e-08 1.624859e-08 1.523810e-08 1.594527e-08 1.646859e-08 1.683824e-08 1.556808e-08 1.601746e-08 1.511374e-08 1.623838e-08
1.650203e-08 1.735363e-08 1.675724e-08 1.594799e-08 1.543006e-08 1.442993e-08 1.531593e-08 1.525761e-08 1.397936e-08 1.429482e-08
1.340142e-08 1.485065e-08 1.372875e-08 1.421771e-08 1.375373e-08 1.452574e-08 1.363911e-08 1.264277e-08 1.386898e-08 1.342127e-08
1.178614e-08 1.334159e-08 1.356081e-08 1.301812e-08 1.337054e-08 1.230874e-08 1.209750e-08 1.157587e-08 1.146830e-08 1.117039e-08
1.199874e-08 9.826214e-09 1.248608e-08 8.532408e-09 1.021982e-08 9.112646e-09 8.684690e-09 8.201668e-09 9.509447e-09 7.617870e-09
8.587861e-09 7.757632e-09 8.080450e-09 6.978275e-09 7.466975e-09 8.400019e-09 6.438305e-09 6.427501e-09 5.096366e-09 7.181870e-09
4.566324e-09 4.271671e-09 2.132543e-09 5.565139e-09 3.397310e-09 5.516723e-09 4.243649e-09 3.087700e-09 3.357929e-10 2.507268e-09
1.212855e-09 2.000664e-09 1.763032e-09 1.375708e-09 2.236677e-09 6.982885e-10 7.703551e-10 6.020710e-10 -3.723292e-11 -3.035070e-10
-4.871231e-10 -1.010792e-09 5.169448e-11 -8.588010e-10 1.000364e-09 -2.500328e-09 -2.468066e-09 -2.175738e-09 -3.460906e-09 -2.602550e-09
-3.353698e-09 -1.614583e-09 -3.603829e-09 -1.338282e-09 -5.270707e-09 -4.907670e-09 -3.061840e-09 -3.774417e-09 -5.684436e-09 -5.158400e-09
-4.145611e-09 -5.624942e-09 -6.957362e-09 -6.751693e-09 -6.097969e-09 -6.268280e-09 -6.051172e-09 -7.636796e-09 -6.926843e-09 -9.276602e-09
-8.563259e-09 -9.048344e-09 -1.128006e-08 -8.392283e-09 -9.664975e-09 -7.912962e-09 -1.076123e-08 -1.000303e-08 -1.006805e-08 -1.060912e-08
-1.086929e-08 -1.122743e-08 -1.239640e-08 -1.094047e-08 -1.297005e-08 -1.110755e-08 -1.294066e-08 -1.231158e-08 -1.316376e-08 -1.203085e-08
-1.389783e-08 -1.349645e-08 -1.342207e-08 -1.398911e-08 -1.321826e-08 -1.393734e-08 -1.419046e-08 -1.541614e-08 -1.403689e-08 -1.427203e-08
-1.541485e-08 -1.463399e-08 -1.448940e-08 -1.436176e-08 -1.535797e-08 -1.602908e-08 -1.671615e-08 -1.508549e-08 -1.772472e-08 -1.645068e-08
-1.482799e-08 -1.490150e-08 -1.632183e-08 -1.550807e-08 -1.579416e-08 -1.533308e-08 -1.656113e-08 -1.730370e-08 -1.677113e-08 -1.551313e-08
-1.629509e-08 -1.585176e-08 -1.580485e-08 -1.671227e-08 -1.531347e-08 -1.550400e-08 -1.690665e-08 -1.701374e-08 -1.583762e-08 -1.573927e-08
-1.564611e-08
-1.674880e-08 -1.586528e-08 -1.746626e-08 -1.648032e-08 -1.559553e-08 -1.510029e-08 -1.754274e-08 -1.610265e-08 -1.619550e-08 -1.580300e-08
-1.622772e-08 -1.749899e-08 -1.518340e-08 -1.664412e-08 -1.768465e-08 -1.623699e-08 -1.562112e-08 -1.567714e-08 -1.745265e-08 -1.577369e-08
-1.529953e-08 -1.655668e-08 -1.731996e-08 -1.694881e-08 -1.533106e-08 -1.474892e-08 -1.586700e-08 -1.635252e-08 -1.562563e-08 -1.765867e-08
-1.685149e-08 -1.406808e-08 -1.499331e-08 -1.426382e-08 -1.540032e-08 -1.410864e-08 -1.396018e-08 -1.368187e-08 -1.347837e-08 -1.438327e-08
-1.352592e-08 -1.261086e-08 -1.259068e-08 -1.540209e-08 -1.146825e-08 -1.289563e-08 -1.353832e-08 -1.210203e-08 -1.136807e-08 -1.329079e-08
-1.150047e-08 -1.145581e-08 -1.006224e-08 -1.096999e-08 -9.260929e-09 -1.013884e-08 -9.540350e-09 -8.644819e-09 -7.442639e-09 -9.572039e-09
-8.583982e-09 -8.252591e-09 -8.342803e-09 -7.522611e-09 -5.807730e-09 -7.739495e-09 -6.217314e-09 -6.357526e-09 -7.180576e-09 -5.225927e-09
-6.665292e-09 -4.837199e-09 -3.356303e-09 -6.278080e-09 -5.331124e-09 -2.525189e-09 -3.236905e-09 -4.700552e-09 -3.107820e-09 -1.597570e-09
-2.699045e-09 -1.659245e-09 -3.847425e-09 -1.494402e-09 -7.667532e-10 -2.456437e-09 -4.994666e-10 3.872950e-10 -1.920498e-09 -9.923125e-10
8.808541e-10 2.613217e-10 4.301578e-10 7.160471e-10 9.343427e-10 2.295470e-09 2.794925e-09 2.978227e-09 1.831003e-09 3.460512e-09
2.556169e-09 4.930634e-09 4.031085e-09 2.888523e-09 3.580542e-09 1.675552e-09 5.580395e-09 6.994684e-09 4.986247e-09 5.532977e-09
6.131443e-09 7.911042e-09 7.622405e-09 7.095323e-09 5.846648e-09 6.165653e-09 6.925024e-09 8.403053e-09 7.516722e-09 8.773644e-09
8.238044e-09 1.100114e-08 1.041473e-08 1.262404e-08 9.624070e-09 9.851033e-09 1.087255e-08 1.154390e-08 1.027183e-08 1.020336e-08
1.197585e-08 1.173698e-08 1.376605e-08 1.179189e-08 1.220724e-08 1.236792e-08 1.315309e-08 1.423134e-08 1.425286e-08 1.480294e-08
1.256218e-08 1.429641e-08 1.437272e-08 1.540901e-08 1.352274e-08 1.426409e-08 1.513467e-08 1.519172e-08 1.582480e-08 1.546985e-08
1.505450e-08 1.507813e-08 1.770676e-08 1.536390e-08 1.528188e-08 1.515705e-08 1.563294e-08 1.636740e-08 1.554784e-08 1.572370e-08
1.520269e-08 1.689793e-08 1.588023e-08 1.593742e-08 1.763404e-08 1.719160e-08 1.579193e-08 1.578529e-08 1.838900e-08 1.610171e-08
1.766596e-08 1.674284e-08 1.774955e-08 1.640024e-08 1.585057e-08 1.646065e-08 1.597801e-08 1.690713e-08 1.518885e-08 1.585961e-08
1.687350e-08 1.649066e-08 1.543037e-08 1.611312e-08 1.599747e-08 1.574950e-08 1.554959e-08 1.648819e-08 1.610299e-08 1.660195e-08
1.573647e-08 1.770331e-08 1.675234e-08 1.542730e-08 1.636317e-08 1.672052e-08 1.759461e-08 1.528701e-08 1.542119e-08 1.568065e-08
1.669587e-08 1.554538e-08 1.651168e-08 1.532710e-08 1.671802e-08 1.422649e-08 1.494805e-08 1.473393e-08 1.624458e-08 1.410042e-08
1.459100e-08 1.373443e-08 1.431186e-08 1.322761e-08 1.461404e-08 1.375171e-08 1.339342e-08 1.530113e-08 1.309615e-08 1.464019e-08
1.347848e-08 1.131446e-08 1.192167e-08 1.214231e-08 1.267824e-08 1.136160e-08 1.101715e-08 1.214867e-08 1.148421e-08 1.115852e-08
1.162613e-08 9.732937e-09 1.050139e-08 9.995849e-09 1.140358e-08 9.640003e-09 9.920943e-09 9.251798e-09 9.722697e-09 9.852355e-09
1.089318e-08 7.743975e-09 6.310676e-09 6.834977e-09 8.376724e-09 6.238888e-09 7.758764e-09 8.086519e-09 4.851707e-09 6.645664e-09
4.686820e-09 6.103964e-09 2.895497e-09 4.803731e-09 4.386294e-09 3.381557e-09 4.501703e-09 3.311485e-09 1.155293e-09 1.695846e-09
3.152993e-10 2.282496e-09 2.494663e-09 1.747731e-09 1.132059e-09 8.245317e-10 1.709633e-09 4.538489e-10 -1.275459e-09 1.034775e-09
8.325480e-10 1.718680e-09 -1.326920e-09 -9.990967e-10 3.600668e-10 -1.565738e-09 -4.566806e-09 -3.435561e-10 -3.135743e-09 -8.092458e-10
-1.455064e-09 -5.008831e-09 -3.588524e-09 -5.217267e-09 -5.175298e-09 -4.899391e-09 -3.475290e-09 -5.928481e-09 -3.600250e-09 -5.131060e-09
-6.626539e-09 -5.983619e-09 -7.458495e-09 -7.926207e-09 -5.819696e-09 -7.583947e-09 -6.288131e-09 -8.059355e-09 -6.162901e-09 -9.573536e-09
-8.149914e-09 -9.331731e-09 -8.978367e-09 -8.747787e-09 -1.117829e-08 -9.950695e-09 -1.058490e-08 -1.089893e-08 -1.103126e-08 -1.005836e-08
-1.162640e-08 -1.178791e-08 -1.082983e-08 -1.203416e-08 -1.277584e-08 -1.230329e-08 -1.304964e-08 -1.269844e-08 -1.274686e-08 -1.240141e-08
-1.433182e-08 -1.256332e-08 -1.352234e-08 -1.482949e-08 -1.413652e-08 -1.562226e-08 -1.546628e-08 -1.465499e-08 -1.479268e-08 -1.600345e-08
-1.494147e-08 -1.536110e-08 -1.538553e-08 -1.501061e-08 -1.587575e-08 -1.425328e-08 -1.764504e-08 -1.590983e-08 -1.598504e-08 -1.601192e-08
-1.557921e-08 -1.625076e-08 -1.560461e-08 -1.651458e-08 -1.492591e-08 -1.719565e-08 -1.620746e-08 -1.529206e-08 -1.683780e-08 -1.585943e-08
-1.717409e-08 -1.676421e-08 -1.645964e-08 -1.628489e-08 -1.590234e-08 -1.702535e-08 -1.686860e-08 -1.521716e-08 -1.573571e-08 -1.524813e-08
-1.674880e-08
-1.536241e-08 -1.700162e-08 -1.652594e-08 -1.599674e-08 -1.660540e-08 -1.629081e-08 -1.663810e-08 -1.702276e-08 -1.526967e-08 -1.643189e-08
-1.661930e-08 -1.574540e-08 -1.695784e-08 -1.858341e-08 -1.562994e-08 -1.669686e-08 -1.577522e-08 -1.685973e-08 -1.779395e-08 -1.719851e-08
-1.617309e-08 -1.570435e-08 -1.646958e-08 -1.558948e-08 -1.550253e-08 -1.550872e-08 -1.580357e-08 -1.516876e-08 -1.612023e-08 -1.570808e-08
-1.580722e-08 -1.587789e-08 -1.454697e-08 -1.446867e-08 -1.408192e-08 -1.522203e-08 -1.454316e-08 -1.466541e-08 -1.341298e-08 -1.339788e-08
-1.451795e-08 -1.450437e-08 -1.352064e-08 -1.220790e-08 -1.251335e-08 -1.266980e-08 -1.266984e-08 -1.095834e-08 -1.272089e-08 -1.269984e-08
-1.319177e-08 -9.796532e-09 -1.016200e-08 -9.734155e-09 -9.598193e-09 -1.132286e-08 -9.674410e-09 -1.018394e-08 -8.640263e-09 -8.215707e-09
-1.002775e-08 -7.545697e-09 -8.595040e-09 -7.813656e-09 -8.228109e-09 -7.981346e-09 -6.446542e-09 -6.221482e-09 -7.416698e-09 -4.098412e-09
-7.051419e-09 -4.368864e-09 -5.166825e-09 -6.413542e-09 -3.456287e-09 -4.506485e-09 -5.007966e-09 -2.379493e-09 -4.724301e-09 -5.834112e-09
-5.155628e-09 -2.882311e-09 -3.445897e-10 -2.617184e-09 -1.258389e-09 -1.300281e-10 -3.353652e-10 -9.748241e-10 4.744037e-11 5.056249e-10
2.475063e-10 1.930329e-10 7.069445e-10 1.708946e-09 1.517260e-09 8.896067e-10 2.370820e-09 2.142894e-09 1.507679e-09 3.558791e-09
3.259748e-09 3.334758e-09 2.933838e-09 5.170706e-09 2.417622e-09 3.589568e-09 4.073782e-09 3.932696e-09 3.639559e-09 4.888037e-09
7.163461e-09 7.839234e-09 5.876633e-09 6.307562e-09 6.283758e-09 7.564300e-09 7.580815e-09 8.343712e-09 8.076733e-09 8.097884e-09
1.019173e-08 1.034801e-08 7.739112e-09 1.130870e-08 9.304192e-09 1.058000e-08 1.156000e-08 1.169664e-08 1.080477e-08 1.343410e-08
1.202013e-08 1.116619e-08 1.329579e-08 1.273801e-08 1.159764e-08 1.324521e-08 1.538957e-08 1.304166e-08 1.362744e-08 1.289022e-08
1.389518e-08 1.421460e-08 1.631395e-08 1.432065e-08 1.616493e-08 1.524553e-08 1.395316e-08 1.568814e-08 1.494302e-08 1.469591e-08
1.565726e-08 1.696241e-08 1.597004e-08 1.549417e-08 1.642414e-08 1.571116e-08 1.772674e-08 1.730031e-08 1.572442e-08 1.800152e-08
1.550696e-08 1.866620e-08 1.601895e-08 1.684661e-08 1.760815e-08 1.709979e-08 1.679269e-08 1.749141e-08 1.695620e-08 1.740584e-08
1.749010e-08 1.729751e-08 1.729397e-08 1.639984e-08 1.666246e-08 1.663137e-08 1.678429e-08 1.771771e-08 1.533564e-08 1.673101e-08
1.792619e-08 1.758178e-08 1.594151e-08 1.719910e-08 1.623230e-08 1.737521e-08 1.519757e-08 1.695688e-08 1.630318e-08 1.682337e-08
1.578426e-08 1.646715e-08 1.840202e-08 1.713980e-08 1.619373e-08 1.622307e-08 1.583796e-08 1.632345e-08 1.627258e-08 1.587344e-08
1.655982e-08 1.604215e-08 1.635539e-08 1.595274e-08 1.547521e-08 1.560563e-08 1.538167e-08 1.455740e-08 1.674771e-08 1.553093e-08
1.512704e-08 1.561295e-08 1.478562e-08 1.414748e-08 1.464535e-08 1.375640e-08 1.393527e-08 1.395625e-08 1.241889e-08 1.363356e-08
1.526941e-08 1.401381e-08 1.226076e-08 1.161430e-08 1.124928e-08 1.211335e-08 1.326953e-08 1.170342e-08 1.145736e-08 1.273997e-08
1.084449e-08 1.054195e-08 9.734819e-09 9.627105e-09 1.082487e-08 1.007803e-08 1.094838e-08 1.120839e-08 8.199786e-09 9.032179e-09
8.542988e-09 7.357178e-09 6.710636e-09 7.620407e-09 6.458379e-09 7.581721e-09 5.966896e-09 6.554025e-09 6.611960e-09 7.579305e-09
5.220626e-09 6.176434e-09 4.380133e-09 4.819830e-09 4.120058e-09 5.927502e-09 3.324376e-09 1.455557e-09 4.935322e-09 1.862384e-09
1.653477e-09 4.967747e-09 5.747743e-10 3.544588e-10 2.114833e-09 1.301035e-09 1.307442e-09 -1.002704e-09 7.018214e-10 2.467795e-09
-5.271747e-10 1.369319e-09 -4.801829e-10 7.140851e-10 -1.423724e-09 -2.179070e-09 -2.056160e-09 -2.529249e-09 -6.301986e-10 -2.221304e-09
-2.739866e-09 -3.472260e-09 -5.280911e-09 -6.280291e-09 -2.267477e-09 -4.922382e-09 -4.186899e-09 -5.318489e-09 -6.278338e-09 -5.516313e-09
-6.130087e-09 -8.287583e-09 -5.566157e-09 -7.551165e-09 -7.753645e-09 -7.978763e-09 -7.042934e-09 -6.520035e-09 -7.319857e-09 -8.057331e-09
-8.706763e-09 -8.503716e-09 -9.256751e-09 -9.655639e-09 -9.955937e-09 -1.163376e-08 -1.055511e-08 -1.212682e-08 -1.232633e-08 -1.018508e-08
-1.028752e-08 -1.172724e-08 -1.208481e-08 -1.332351e-08 -1.284259e-08 -1.221483e-08 -1.179299e-08 -1.325654e-08 -1.295216e-08 -1.388872e-08
-1.271340e-08 -1.396880e-08 -1.374306e-08 -1.500902e-08 -1.385085e-08 -1.457833e-08 -1.500163e-08 -1.616314e-08 -1.525830e-08 -1.517426e-08
-1.483338e-08 -1.483870e-08 -1.636326e-08 -1.724365e-08 -1.666823e-08 -1.505819e-08 -1.663231e-08 -1.773125e-08 -1.596501e-08 -1.712590e-08
-1.615744e-08 -1.619121e-08 -1.669729e-08 -1.635473e-08 -1.728370e-08 -1.544517e-08 -1.626112e-08 -1.751408e-08 -1.630053e-08 -1.661484e-08
-1.629820e-08 -1.711353e-08 -1.659247e-08 -1.530130e-08 -1.831436e-08 -1.682970e-08 -1.570864e-08 -1.657298e-08 -1.669320e-08 -1.579930e-08
-1.536241e-08
-1.714588e-08 -1.733527e-08 -1.603624e-08 -1.766179e-08 -1.602516e-08 -1.642823e-08 -1.701892e-08 -1.704266e-08 -1.609387e-08 -1.663435e-08
-1.725646e-08 -1.764105e-08 -1.659641e-08 -1.660332e-08 -1.666186e-08 -1.525490e-08 -1.609155e-08 -1.642885e-08 -1.839383e-08 -1.785964e-08
-1.657572e-08 -1.622984e-08 -1.569270e-08 -1.799846e-08 -1.513732e-08 -1.664684e-08 -1.549827e-08 -1.767153e-08 -1.711089e-08 -1.511591e-08
-1.544356e-08 -1.512105e-08 -1.598359e-08 -1.576186e-08 -1.480709e-08 -1.501635e-08 -1.437149e-08 -1.416454e-08 -1.361056e-08 -1.271887e-08
-1.268809e-08 -1.373749e-08 -1.361003e-08 -1.328064e-08 -1.218027e-08 -1.201839e-08 -1.278926e-08 -1.267681e-08 -1.188502e-08 -1.160958e-08
-1.214615e-08 -1.137536e-08 -1.185105e-08 -1.099005e-08 -1.085582e-08 -1.039642e-08 -1.017489e-08 -9.631475e-09 -9.080825e-09 -1.029090e-08
-1.030102e-08 -8.675894e-09 -8.404460e-09 -8.036155e-09 -7.652068e-09 -7.298684e-09 -6.306507e-09 -4.356665e-09 -5.265891e-09 -5.419967e-09
-6.400172e-09 -6.346738e-09 -4.971870e-09 -4.716640e-09 -3.368071e-09 -3.510423e-09 -3.632569e-09 -3.310960e-09 -4.696993e-09 -4.035867e-09
-2.702004e-09 -2.423347e-09 -2.293689e-09 -2.022659e-09 -2.741057e-09 -2.316880e-09 6.656033e-10 -7.159970e-10 -7.183482e-10 -1.165946e-09
-5.203255e-10 1.768040e-09 6.790494e-10 1.093038e-09 2.012704e-09 1.591431e-09 8.565952e-10 1.804151e-09 3.297052e-09 2.957328e-09
5.544496e-09 2.732746e-09 3.463983e-09 5.356192e-09 3.689467e-09 5.790231e-09 3.356881e-09 4.610993e-09 5.611531e-09 4.181250e-09
7.193445e-09 5.927455e-09 5.453071e-09 7.806082e-09 6.674401e-09 9.137299e-09 6.973229e-09 7.820113e-09 7.589327e-09 7.848513e-09
9.701690e-09 8.151189e-09 1.152734e-08 1.139860e-08 9.631679e-09 1.063741e-08 1.065101e-08 1.222264e-08 1.171284e-08 1.118746e-08
1.125467e-08 1.192242e-08 1.196509e-08 1.283086e-08 1.269825e-08 1.330251e-08 1.233145e-08 1.473854e-08 1.275276e-08 1.314234e-08
1.555290e-08 1.551990e-08 1.323849e-08 1.419551e-08 1.464925e-08 1.503164e-08 1.462247e-08 1.473447e-08 1.540496e-08 1.615501e-08
1.465037e-08 1.594971e-08 1.695395e-08 1.693176e-08 1.666054e-08 1.684619e-08 1.699066e-08 1.557044e-08 1.731200e-08 1.637524e-08
1.735262e-08 1.659899e-08 1.822338e-08 1.671289e-08 1.828411e-08 1.713301e-08 1.647954e-08 1.782319e-08 1.682291e-08 1.626306e-08
1.639843e-08 1.660927e-08 1.718929e-08 1.753224e-08 1.769283e-08 1.688334e-08 1.951355e-08 1.672886e-08 1.905910e-08 1.683428e-08
1.643620e-08 1.581611e-08 1.738695e-08 1.748617e-08 1.616106e-08 1.740396e-08 1.741284e-08 1.789449e-08 1.717128e-08 1.725033e-08
1.611444e-08 1.832025e-08 1.682259e-08 1.673562e-08 1.789669e-08 1.572794e-08 1.639956e-08 1.687948e-08 1.666779e-08 1.765532e-08
1.618579e-08 1.570164e-08 1.541242e-08 1.680488e-08 1.579114e-08 1.646588e-08 1.692065e-08 1.645905e-08 1.547948e-08 1.496067e-08
1.556056e-08 1.512657e-08 1.454442e-08 1.451909e-08 1.611205e-08 1.359191e-08 1.483816e-08 1.420686e-08 1.543844e-08 1.402122e-08
1.314596e-08 1.426486e-08 1.326425e-08 1.272774e-08 1.288401e-08 1.212402e-08 1.217814e-08 1.308134e-08 1.148587e-08 1.211046e-08
1.145523e-08 1.051477e-08 9.961094e-09 1.156576e-08 1.140662e-08 9.549303e-09 9.170800e-09 8.717696e-09 8.641395e-09 9.833178e-09
1.017991e-08 8.593772e-09 8.390177e-09 6.490527e-09 6.597165e-09 5.724131e-09 7.735162e-09 7.163583e-09 5.181754e-09 5.093896e-09
5.363210e-09 4.970686e-09 5.120711e-09 4.212975e-09 3.417037e-09 4.487028e-09 2.441768e-09 5.111389e-09 3.503890e-09 3.631244e-09
4.280162e-09 3.654303e-09 1.678735e-09 3.123445e-09 9.954674e-10 3.502516e-09 1.510367e-09 8.526502e-10 1.378452e-09 1.597032e-09
-8.743292e-11 -2.467559e-10 -1.937287e-09 -4.474626e-10 -3.191804e-09 -1.695055e-09 4.120871e-10 -7.316207e-10 -2.402445e-09 -3.197031e-09
-3.280010e-09 -2.894938e-09 -2.519628e-09 -4.651628e-09 -3.323759e-09 -3.173374e-09 -5.343732e-09 -5.089519e-09 -6.464706e-09 -5.485125e-09
-4.797791e-09 -5.946064e-09 -6.464610e-09 -5.706338e-09 -7.784046e-09 -7.615103e-09 -8.271755e-09 -8.959130e-09 -7.190267e-09 -8.214890e-09
-8.464235e-09 -1.083901e-08 -9.390503e-09 -1.109644e-08 -1.017596e-08 -1.171638e-08 -9.676062e-09 -1.001567e-08 -1.060753e-08 -1.028907e-08
-1.097916e-08 -1.122418e-08 -1.232467e-08 -1.229601e-08 -1.297640e-08 -1.331798e-08 -1.259151e-08 -1.297065e-08 -1.373346e-08 -1.349624e-08
-1.498014e-08 -1.422967e-08 -1.307438e-08 -1.557922e-08 -1.435423e-08 -1.521711e-08 -1.636055e-08 -1.566909e-08 -1.479270e-08 -1.539920e-08
-1.591633e-08 -1.478780e-08 -1.700226e-08 -1.527097e-08 -1.527242e-08 -1.623882e-08 -1.615601e-08 -1.680363e-08 -1.665444e-08 -1.702152e-08
-1.591881e-08 -1.633136e-08 -1.623637e-08 -1.660792e-08 -1.639019e-08 -1.608347e-08 -1.613377e-08 -1.626998e-08 -1.750338e-08 -1.656258e-08
-1.725835e-08 -1.729939e-08 -1.679031e-08 -1.734776e-08 -1.678050e-08 -1.707331e-08 -1.802848e-08 -1.859628e-08 -1.673220e-08 -1.690429e-08
-1.714588e-08
-1.580629e-08 -1.876397e-08 -1.714931e-08 -1.696699e-08 -1.745259e-08 -1.723795e-08 -1.629875e-08 -1.731842e-08 -1.753719e-08 -1.820046e-08
-1.870142e-08 -1.663587e-08 -1.679528e-08 -1.808097e-08 -1.650434e-08 -1.797238e-08 -1.656963e-08 -1.738809e-08 -1.666833e-08 -1.765445e-08
-1.574736e-08 -1.709568e-08 -1.711457e-08 -1.827263e-08 -1.552977e-08 -1.672729e-08 -1.620838e-08 -1.681232e-08 -1.640249e-08 -1.532147e-08
-1.717186e-08 -1.528278e-08 -1.650115e-08 -1.557774e-08 -1.501875e-08 -1.438243e-08 -1.534855e-08 -1.428547e-08 -1.504023e-08 -1.349393e-08
-1.448161e-08 -1.577970e-08 -1.363747e-08 -1.332677e-08 -1.235870e-08 -1.232571e-08 -1.304268e-08 -1.349551e-08 -1.307835e-08 -1.222033e-08
-1.226615e-08 -1.174265e-08 -1.063139e-08 -9.916996e-09 -1.068125e-08 -9.891830e-09 -9.848294e-09 -9.447803e-09 -9.390809e-09 -8.912548e-09
-9.297267e-09 -9.605588e-09 -7.111788e-09 -7.934685e-09 -8.294433e-09 -6.853018e-09 -7.522752e-09 -6.991591e-09 -6.139471e-09 -6.840444e-09
-5.117496e-09 -4.797931e-09 -5.592490e-09 -3.697118e-09 -4.118125e-09 -5.125131e-09 -4.561318e-09 -2.924724e-09 -3.048039e-09 -2.616128e-09
-1.752908e-09 -2.196965e-09 -1.007185e-09 -1.644725e-09 -1.636426e-10 -2.369720e-09 7.391391e-10 -5.556365e-10 -5.356278e-10 -6.277156e-10
1.211678e-09 1.008447e-10 2.016481e-10 9.650009e-10 -1.354013e-09 1.174823e-09 3.193556e-09 2.032816e-09 3.068279e-09 9.761018e-10
8.086711e-10 4.596340e-09 2.780048e-09 6.144885e-09 5.444422e-09 3.942197e-09 6.170433e-09 2.807746e-09 7.047419e-09 5.070165e-09
7.627325e-09 7.162325e-09 7.153840e-09 6.524532e-09 7.159090e-09 6.002624e-09 7.494386e-09 7.042976e-09 9.053718e-09 8.546898e-09
7.932720e-09 1.094465e-08 9.790033e-09 9.916028e-09 9.562370e-09 1.075184e-08 1.042089e-08 1.089614e-08 1.246903e-08 1.380845e-08
1.336312e-08 1.074143e-08 1.287983e-08 1.456094e-08 1.373434e-08 1.293976e-08 1.236179e-08 1.273121e-08 1.473731e-08 1.537213e-08
1.447982e-08 1.488146e-08 1.367979e-08 1.507550e-08 1.520265e-08 1.458508e-08 1.634172e-08 1.516406e-08 1.639905e-08 1.759321e-08
1.483521e-08 1.589258e-08 1.502478e-08 1.618909e-08 1.669777e-08 1.556820e-08 1.607811e-08 1.652822e-08 1.719681e-08 1.936432e-08
1.679849e-08 1.798023e-08 1.774935e-08 1.659713e-08 1.608036e-08 1.773625e-08 1.744371e-08 1.684114e-08 1.632489e-08 1.615068e-08
1.702111e-08 1.647098e-08 1.791098e-08 1.865163e-08 1.671500e-08 1.815017e-08 1.831729e-08 1.670370e-08 1.756845e-08 1.737427e-08
1.727356e-08 1.673548e-08 1.659528e-08 1.629628e-08 1.644865e-08 1.606855e-08 1.723452e-08 1.724610e-08 1.736181e-08 1.626329e-08
1.898850e-08 1.732529e-08 1.770720e-08 1.647185e-08 1.735011e-08 1.706928e-08 1.578519e-08 1.631542e-08 1.796275e-08 1.640150e-08
1.607116e-08 1.605893e-08 1.729536e-08 1.523977e-08 1.737183e-08 1.602743e-08 1.502759e-08 1.660346e-08 1.555175e-08 1.488271e-08
1.560896e-08 1.555647e-08 1.590433e-08 1.502561e-08 1.426870e-08 1.475486e-08 1.458807e-08 1.299169e-08 1.439450e-08 1.378645e-08
1.443668e-08 1.459885e-08 1.353479e-08 1.270121e-08 1.228719e-08 1.257795e-08 1.301876e-08 1.271889e-08 1.347283e-08 1.170842e-08
1.226116e-08 1.171802e-08 1.137459e-08 1.029527e-08 9.303249e-09 1.022874e-08 9.185698e-09 9.133934e-09 9.361290e-09 9.902741e-09
7.265374e-09 7.878838e-09 7.336259e-09 9.808287e-09 7.508553e-09 5.977641e-09 6.846226e-09 8.181080e-09 6.520153e-09 5.363631e-09
8.382135e-09 6.983177e-09 2.692928e-09 4.488990e-09 4.692317e-09 5.260454e-09 3.652352e-09 3.274234e-09 1.478363e-09 3.614663e-09
4.438362e-09 2.348416e-09 1.416879e-09 1.843156e-09 2.773837e-09 2.202576e-09 5.981886e-10 -2.825821e-11 1.366797e-09 3.650592e-10
-1.620473e-09 1.354885e-09 1.255940e-10 -2.196344e-09 1.843469e-10 -2.360970e-09 -2.452920e-09 -1.918699e-09 -1.778486e-09 -2.029102e-09
-2.975604e-09 -2.958004e-09 -4.718891e-09 -4.686722e-09 -4.815961e-09 -4.625102e-09 -4.661922e-09 -4.075031e-09 -5.080066e-09 -7.174284e-09
-5.681805e-09 -7.681784e-09 -7.345791e-09 -6.475775e-09 -6.850518e-09 -6.660425e-09 -6.993121e-09 -7.220479e-09 -8.451088e-09 -9.686233e-09
-9.637033e-09 -8.571735e-09 -1.007058e-08 -1.014545e-08 -1.046039e-08 -9.843958e-09 -1.069755e-08 -1.148243e-08 -1.030605e-08 -1.118786e-08
-1.170057e-08 -1.309495e-08 -1.118271e-08 -1.092822e-08 -1.227659e-08 -1.234503e-08 -1.409929e-08 -1.391658e-08 -1.372918e-08 -1.543589e-08
-1.499033e-08 -1.482744e-08 -1.439031e-08 -1.469221e-08 -1.449968e-08 -1.473777e-08 -1.418058e-08 -1.529320e-08 -1.556693e-08 -1.508808e-08
-1.518449e-08 -1.615351e-08 -1.651154e-08 -1.617530e-08 -1.577184e-08 -1.581124e-08 -1.717660e-08 -1.745554e-08 -1.644222e-08 -1.691464e-08
-1.611487e-08 -1.771492e-08 -1.606425e-08 -1.831776e-08 -1.679082e-08 -1.673948e-08 -1.670593e-08 -1.679125e-08 -1.753438e-08 -1.675807e-08
-1.827151e-08 -1.711992e-08 -1.793764e-08 -1.703710e-08 -1.642146e-08 -1.582773e-08 -1.756805e-08 -1.801251e-08 -1.689100e-08 -1.612263e-08
-1.580629e-08
-1.617130e-08 -1.583761e-08 -1.769179e-08 -1.743596e-08 -1.767334e-08 -1.824145e-08 -1.841138e-08 -1.627230e-08 -1.621660e-08 -1.728327e-08
-1.649424e-08 -1.760661e-08 -1.634671e-08 -1.631841e-08 -1.732758e-08 -1.822733e-08 -1.669229e-08 -1.739009e-08 -1.723413e-08 -1.669334e-08
-1.623660e-08 -1.709751e-08 -1.591208e-08 -1.647948e-08 -1.584552e-08 -1.731518e-08 -1.743016e-08 -1.564418e-08 -1.623948e-08 -1.638218e-08
-1.544341e-08 -1.589495e-08 -1.510777e-08 -1.467639e-08 -1.642740e-08 -1.540067e-08 -1.518592e-08 -1.547568e-08 -1.416564e-08 -1.525454e-08
-1.438867e-08 -1.256065e-08 -1.442185e-08 -1.382142e-08 -1.457639e-08 -1.441388e-08 -1.365866e-08 -1.340726e-08 -1.175554e-08 -1.367513e-08
-1.261247e-08 -1.073644e-08 -1.212357e-08 -1.266891e-08 -1.076293e-08 -9.404773e-09 -1.033703e-08 -9.824576e-09 -9.286804e-09 -8.419542e-09
-1.003579e-08 -8.624077e-09 -7.478360e-09 -8.612367e-09 -8.769902e-09 -5.514079e-09 -5.077606e-09 -7.640370e-09 -5.328462e-09 -6.522699e-09
-6.552243e-09 -6.307962e-09 -3.956188e-09 -5.530092e-09 -5.243568e-09 -4.919430e-09 -4.256183e-09 -3.600449e-09 -3.625851e-09 -2.191448e-09
-2.460684e-09 -1.742885e-09 -2.373056e-09 -1.069874e-09 -1.213931e-09 -1.405451e-09 -1.686406e-09 9.164482e-10 -1.753511e-09 1.599098e-11
3.612615e-10 -5.972969e-10 4.576431e-10 3.066266e-09 1.023202e-09 2.589371e-09 2.761291e-09 2.105747e-09 3.251061e-09 1.683986e-09
4.351638e-09 3.809086e-09 2.949336e-09 4.681542e-09 4.089391e-09 2.725239e-09 6.930800e-09 4.855396e-09 5.157994e-09 5.181858e-09
6.398187e-09 6.158082e-09 6.515142e-09 6.989632e-09 8.640566e-09 6.696158e-09 9.028659e-09 8.996520e-09 8.253451e-09 9.568018e-09
1.006398e-08 1.001389e-08 8.691289e-09 1.225324e-08 9.401322e-09 1.162860e-08 1.158359e-08 1.123226e-08 1.258363e-08 1.132372e-08
1.428643e-08 1.265720e-08 1.412676e-08 1.248069e-08 1.284279e-08 1.357902e-08 1.476850e-08 1.479282e-08 1.463685e-08 1.518298e-08
1.468152e-08 1.413352e-08 1.495300e-08 1.489879e-08 1.566943e-08 1.493962e-08 1.686199e-08 1.687659e-08 1.631944e-08 1.661166e-08
1.650014e-08 1.643611e-08 1.659499e-08 1.621110e-08 1.638469e-08 1.684742e-08 1.632994e-08 1.770060e-08 1.722546e-08 1.818761e-08
1.695122e-08 1.865243e-08 1.785338e-08 1.759382e-08 1.776829e-08 1.671899e-08 1.730511e-08 1.807892e-08 1.884649e-08 1.653811e-08
1.731022e-08 1.871741e-08 1.698670e-08 1.816421e-08 1.644313e-08 1.715462e-08 1.751734e-08 1.709543e-08 1.734135e-08 1.612433e-08
1.637786e-08 1.724036e-08 1.718087e-08 1.805479e-08 1.873919e-08 1.807679e-08 1.696591e-08 1.735062e-08 1.695889e-08 1.781585e-08
1.896777e-08 1.789632e-08 1.785346e-08 1.736706e-08 1.644649e-08 1.767913e-08 1.785878e-08 1.907022e-08 1.747322e-08 1.610827e-08
1.684872e-08 1.693018e-08 1.632637e-08 1.927047e-08 1.722615e-08 1.552173e-08 1.542434e-08 1.605306e-08 1.655776e-08 1.671830e-08
1.752124e-08 1.590885e-08 1.526336e-08 1.528328e-08 1.489522e-08 1.423696e-08 1.485198e-08 1.528402e-08 1.425355e-08 1.327866e-08
1.639836e-08 1.318374e-08 1.316507e-08 1.290616e-08 1.216189e-08 1.352408e-08 1.297084e-08 1.386393e-08 1.241065e-08 1.324272e-08
1.090755e-08 1.097724e-08 1.100283e-08 1.132405e-08 9.593350e-09 9.887779e-09 1.011435e-08 1.090347e-08 9.520821e-09 8.326155e-09
1.088075e-08 7.586846e-09 7.369504e-09 8.033462e-09 6.803202e-09 8.531813e-09 8.042645e-09 7.525838e-09 5.028691e-09 5.847934e-09
5.711712e-09 5.156483e-09 4.093967e-09 4.628273e-09 3.264038e-09 3.919089e-09 5.468692e-09 3.893803e-09 1.682294e-09 2.096009e-09
1.239732e-09 1.315535e-09 3.591286e-09 4.909980e-10 3.232537e-09 1.139651e-09 1.147065e-09 -3.840321e-10 3.151871e-10 1.484058e-09
-3.783053e-10 1.481823e-09 -1.359666e-09 -4.474880e-10 -1.260792e-09 -3.051182e-10 -2.150612e-09 -1.682902e-09 -2.487176e-09 -2.772000e-09
-1.798986e-09 -3.453013e-09 -3.303585e-09 -5.815046e-09 -3.502867e-09 -5.999166e-09 -4.671969e-09 -5.792579e-09 -5.386289e-09 -4.899044e-09
-4.788564e-09 -6.717382e-09 -6.563610e-09 -6.349245e-09 -7.934449e-09 -9.097531e-09 -8.296699e-09 -8.563731e-09 -8.608659e-09 -9.641628e-09
-9.328623e-09 -9.068317e-09 -9.029251e-09 -1.006500e-08 -1.077083e-08 -1.026485e-08 -1.165967e-08 -1.165526e-08 -1.235316e-08 -1.167316e-08
-1.185722e-08 -1.253667e-08 -1.304790e-08 -1.311689e-08 -1.285791e-08 -1.344793e-08 -1.340874e-08 -1.465883e-08 -1.471495e-08 -1.380964e-08
-1.456906e-08 -1.453978e-08 -1.472048e-08 -1.572823e-08 -1.558166e-08 -1.652231e-08 -1.514503e-08 -1.478055e-08 -1.465663e-08 -1.597438e-08
-1.581785e-08 -1.681467e-08 -1.670217e-08 -1.640888e-08 -1.595153e-08 -1.587423e-08 -1.695786e-08 -1.621230e-08 -1.807876e-08 -1.706158e-08
-1.795506e-08 -1.712839e-08 -1.805437e-08 -1.674589e-08 -1.789149e-08 -1.679531e-08 -1.814796e-08 -1.623665e-08 -1.795034e-08 -1.733099e-08
-1.605600e-08 -1.681091e-08 -1.797166e-08 -1.661491e-08 -1.827653e-08 -1.693707e-08 -1.709030e-08 -1.695811e-08 -1.721891e-08 -1.631038e-08
-1.617130e-08
-1.734944e-08 -1.823702e-08 -1.797301e-08 -1.730691e-08 -1.696275e-08 -1.660637e-08 -1.883869e-08 -1.749276e-08 -1.782305e-08 -1.645047e-08
-1.723710e-08 -1.786750e-08 -1.744021e-08 -1.774642e-08 -1.710381e-08 -1.754497e-08 -1.699648e-08 -1.709988e-08 -1.715225e-08 -1.718623e-08
-1.782107e-08 -1.668392e-08 -1.835672e-08 -1.615247e-08 -1.676166e-08 -1.877219e-08 -1.669896e-08 -1.618957e-08 -1.594309e-08 -1.613546e-08
-1.567120e-08 -1.697497e-08 -1.660555e-08 -1.665825e-08 -1.502182e-08 -1.637437e-08 -1.476985e-08 -1.424168e-08 -1.465931e-08 -1.346048e-08
-1.491774e-08 -1.390268e-08 -1.436660e-08 -1.402367e-08 -1.390484e-08 -1.454515e-08 -1.293322e-08 -1.371608e-08 -1.159062e-08 -1.377184e-08
-1.219527e-08 -1.133787e-08 -1.207406e-08 -1.072595e-08 -1.171239e-08 -1.136005e-08 -9.498383e-09 -9.657168e-09 -9.437132e-09 -7.713933e-09
-8.410847e-09 -9.638328e-09 -8.673541e-09 -7.993219e-09 -7.079827e-09 -7.721315e-09 -7.826838e-09 -6.952508e-09 -7.154686e-09 -7.747185e-09
-6.051359e-09 -5.834002e-09 -4.918735e-09 -5.044665e-09 -4.640192e-09 -5.449875e-09 -4.713864e-09 -3.965620e-09 -2.571157e-09 -4.138538e-09
-2.021799e-09 -3.383776e-09 -3.202336e-09 -3.320635e-09 -2.203789e-09 -1.797274e-09 -1.350871e-09 -1.200925e-09 -7.747607e-10 1.839275e-09
-3.268386e-11 1.092997e-09 8.571477e-11 2.482558e-09 7.981949e-10 1.972582e-09 -3.717804e-12 1.846779e-09 1.399255e-09 1.502141e-09
4.457988e-09 2.789621e-09 3.295678e-09 1.986164e-09 5.384969e-09 3.791262e-09 5.622146e-09 6.129450e-09 6.913101e-09 4.652551e-09
6.198247e-09 6.161166e-09 7.096510e-09 8.393410e-09 7.002156e-09 9.935820e-09 8.943772e-09 9.813768e-09 9.203913e-09 9.495525e-09
8.644871e-09 9.347745e-09 8.672255e-09 9.579648e-09 1.135186e-08 1.016244e-08 1.244517e-08 9.756331e-09 1.268559e-08 1.264154e-08
1.183873e-08 1.299092e-08 1.370477e-08 1.231553e-08 1.494365e-08 1.302963e-08 1.451008e-08 1.440595e-08 1.424712e-08 1.407851e-08
1.499402e-08 1.389447e-08 1.391627e-08 1.483995e-08 1.662055e-08 1.455130e-08 1.539867e-08 1.509818e-08 1.585139e-08 1.642102e-08
1.567191e-08 1.641394e-08 1.641307e-08 1.742687e-08 1.576304e-08 1.683181e-08 1.788457e-08 1.782705e-08 1.765762e-08 1.769388e-08
1.856282e-08 1.731019e-08 1.740426e-08 1.844725e-08 1.733403e-08 1.745401e-08 1.768306e-08 1.940736e-08 1.683132e-08 1.693598e-08
1.812922e-08 1.724328e-08 1.632251e-08 1.722734e-08 1.780953e-08 1.828935e-08 1.711258e-08 1.758858e-08 1.630100e-08 1.729612e-08
1.704981e-08 1.708394e-08 1.679373e-08 1.799367e-08 1.788043e-08 1.747146e-08 1.898478e-08 1.953394e-08 1.708577e-08 1.705641e-08
1.800879e-08 1.708189e-08 1.770602e-08 1.702450e-08 1.890430e-08 1.645230e-08 1.701413e-08 1.675130e-08 1.647267e-08 1.633126e-08
1.613421e-08 1.683219e-08 1.665432e-08 1.682366e-08 1.659875e-08 1.780904e-08 1.531848e-08 1.629700e-08 1.701227e-08 1.552312e-08
1.537721e-08 1.551654e-08 1.631800e-08 1.498617e-08 1.557730e-08 1.684760e-08 1.397271e-08 1.657409e-08 1.483711e-08 1.562406e-08
1.558309e-08 1.470110e-08 1.382486e-08 1.351511e-08 1.273266e-08 1.308267e-08 1.346969e-08 1.247980e-08 1.141285e-08 1.146405e-08
1.109496e-08 1.325160e-08 1.059825e-08 1.015563e-08 1.304592e-08 1.000200e-08 1.031926e-08 9.235831e-09 9.165178e-09 1.043042e-08
8.451600e-09 9.574286e-09 9.689536e-09 9.086264e-09 6.887122e-09 9.275971e-09 6.534940e-09 8.038251e-09 3.110499e-09 5.707215e-09
5.616231e-09 6.357086e-09 4.126535e-09 3.546612e-09 5.991963e-09 5.160840e-09 3.871298e-09 2.703168e-09 3.750632e-09 3.010350e-09
2.469382e-09 3.528679e-09 3.732272e-09 1.920862e-09 1.403682e-10 2.869395e-09 1.250380e-09 8.186369e-10 9.696765e-10 -1.089262e-09
-2.950708e-10 -4.279860e-10 -1.814027e-09 -1.160981e-09 -6.166394e-10 -2.591227e-09 -2.774751e-09 -2.275564e-10 -4.325642e-09 -3.833628e-09
-1.226006e-09 -2.790050e-09 -2.211308e-09 -4.611307e-09 -3.720017e-09 -4.937524e-09 -5.123754e-09 -5.673154e-09 -4.678538e-09 -4.580006e-09
-6.012611e-09 -6.878388e-09 -6.362372e-09 -8.424038e-09 -6.379957e-09 -7.822567e-09 -7.468355e-09 -8.186315e-09 -8.874846e-09 -9.335920e-09
-9.302377e-09 -1.050407e-08 -8.540455e-09 -1.062699e-08 -1.078484e-08 -1.060113e-08 -1.062522e-08 -1.092334e-08 -1.234523e-08 -1.079738e-08
-1.230036e-08 -1.186146e-08 -1.315618e-08 -1.318447e-08 -1.417652e-08 -1.431772e-08 -1.347482e-08 -1.378806e-08 -1.424292e-08 -1.509953e-08
-1.551236e-08 -1.526809e-08 -1.422476e-08 -1.524337e-08 -1.477396e-08 -1.529340e-08 -1.511528e-08 -1.591187e-08 -1.535300e-08 -1.635128e-08
-1.665175e-08 -1.589313e-08 -1.680199e-08 -1.671817e-08 -1.601506e-08 -1.662131e-08 -1.665647e-08 -1.700147e-08 -1.679607e-08 -1.684762e-08
-1.802831e-08 -1.679876e-08 -1.679838e-08 -1.634977e-08 -1.675389e-08 -1.662092e-08 -1.756943e-08 -1.787605e-08 -1.724301e-08 -1.705586e-08
-1.687398e-08 -1.727020e-08 -1.777394e-08 -1.790549e-08 -1.724929e-08 -1.735384e-08 -1.758876e-08 -1.656492e-08 -1.649408e-08 -1.692409e-08
-1.734944e-08
-1.779429e-08 -1.713520e-08 -1.734480e-08 -1.711815e-08 -1.797239e-08 -1.837873e-08 -1.706531e-08 -1.719184e-08 -1.741402e-08 -1.807632e-08
-1.898490e-08 -1.749462e-08 -1.656050e-08 -1.760434e-08 -1.766038e-08 -1.786201e-08 -1.773874e-08 -1.817139e-08 -1.685337e-08 -1.750327e-08
-1.845917e-08 -1.691559e-08 -1.759582e-08 -1.812767e-08 -1.640866e-08 -1.687089e-08 -1.732850e-08 -1.606620e-08 -1.647572e-08 -1.772824e-08
-1.611871e-08 -1.649328e-08 -1.620426e-08 -1.805225e-08 -1.508570e-08 -1.571212e-08 -1.564350e-08 -1.507181e-08 -1.421413e-08 -1.516315e-08
-1.395159e-08 -1.476288e-08 -1.350045e-08 -1.243853e-08 -1.249048e-08 -1.374928e-08 -1.269166e-08 -1.243610e-08 -1.331608e-08 -1.376009e-08
-1.306042e-08 -1.237972e-08 -1.086740e-08 -1.197062e-08 -1.222789e-08 -1.213902e-08 -1.011788e-08 -1.094437e-08 -9.221361e-09 -8.275056e-09
-9.800581e-09 -1.103743e-08 -9.412297e-09 -1.014880e-08 -6.760865e-09 -6.976810e-09 -7.486127e-09 -6.723947e-09 -8.326161e-09 -4.999612e-09
-7.221028e-09 -5.149706e-09 -6.328663e-09 -4.217755e-09 -5.350881e-09 -5.306115e-09 -3.774218e-09 -4.249962e-09 -4.599833e-09 -2.330883e-09
-3.744420e-09 -8.306915e-10 -1.253551e-09 -2.384315e-09 -2.274610e-09 8.349154e-11 -1.404343e-09 -2.420610e-10 -6.437073e-11 -2.212619e-09
4.268835e-10 -2.090803e-10 -1.746585e-09 -6.737870e-10 1.760113e-09 1.235258e-09 4.376931e-10 1.932029e-09 3.646067e-09 3.174429e-09
4.571857e-09 2.689321e-09 3.587347e-09 4.822862e-09 3.847824e-09 4.884216e-09 3.910007e-09 6.818103e-09 4.750946e-09 7.176352e-09
6.547316e-09 7.988853e-09 6.406318e-09 5.211247e-09 7.223968e-09 7.031575e-09 8.527670e-09 8.513787e-09 8.218450e-09 1.106656e-08
9.199511e-09 1.152339e-08 9.240291e-09 9.774866e-09 1.037603e-08 1.095056e-08 9.977263e-09 1.366470e-08 1.303077e-08 1.132991e-08
1.351496e-08 1.183155e-08 1.247248e-08 1.338726e-08 1.381678e-08 1.598973e-08 1.427202e-08 1.382397e-08 1.501403e-08 1.497685e-08
1.511100e-08 1.599767e-08 1.499736e-08 1.597845e-08 1.652229e-08 1.621540e-08 1.686486e-08 1.685837e-08 1.671207e-08 1.608139e-08
1.724295e-08 1.693559e-08 1.721575e-08 1.708119e-08 1.613999e-08 1.771852e-08 1.726025e-08 1.762183e-08 1.829669e-08 1.869805e-08
1.869695e-08 2.023501e-08 1.815097e-08 1.808357e-08 1.860643e-08 1.911289e-08 1.883890e-08 1.685815e-08 1.886472e-08 1.756779e-08
1.861670e-08 1.904019e-08 1.850429e-08 1.830355e-08 1.798588e-08 1.680076e-08 1.822548e-08 1.980751e-08 1.958540e-08 1.769571e-08
1.779986e-08 1.662499e-08 1.681067e-08 1.779645e-08 1.711888e-08 1.758577e-08 1.802659e-08 1.776166e-08 1.800633e-08 1.814998e-08
1.746099e-08 1.907447e-08 1.718278e-08 1.806653e-08 1.699976e-08 1.839348e-08 1.709656e-08 1.674077e-08 1.853238e-08 1.739619e-08
1.775012e-08 1.675585e-08 1.830835e-08 1.625544e-08 1.623721e-08 1.819246e-08 1.602347e-08 1.797996e-08 1.709652e-08 1.636749e-08
1.691939e-08 1.743960e-08 1.570415e-08 1.632422e-08 1.478163e-08 1.545076e-08 1.524764e-08 1.562606e-08 1.676795e-08 1.504718e-08
1.474463e-08 1.366375e-08 1.429733e-08 1.394800e-08 1.440379e-08 1.226935e-08 1.310409e-08 1.175087e-08 1.213265e-08 1.216726e-08
1.260729e-08 1.026848e-08 1.170710e-08 1.037854e-08 9.953214e-09 1.004183e-08 9.661006e-09 8.323456e-09 9.076667e-09 9.082805e-09
7.776506e-09 1.004392e-08 7.093986e-09 6.573748e-09 6.596192e-09 6.083779e-09 6.122542e-09 5.653433e-09 5.656245e-09 6.456381e-09
6.570698e-09 4.867965e-09 5.847771e-09 3.489190e-09 4.784581e-09 3.587094e-09 3.300769e-09 2.544811e-09 2.939610e-09 4.172302e-09
2.034006e-09 1.460895e-09 2.546906e-09 -2.261759e-10 6.590284e-10 1.114115e-09 3.204233e-10 -4.560463e-10 -1.489610e-09 9.792144e-10
7.891383e-10 -4.427862e-10 -4.223356e-10 -2.166223e-09 -1.677251e-09 -3.437584e-09 -2.597975e-09 -3.970291e-10 -1.226349e-09 -3.730826e-09
-1.673483e-09 -5.046858e-09 -3.665796e-09 -3.725020e-09 -4.714324e-09 -6.187793e-09 -4.390275e-09 -4.932242e-09 -4.651148e-09 -6.241721e-09
-7.868640e-09 -5.875816e-09 -6.305618e-09 -7.534310e-09 -7.780356e-09 -9.445875e-09 -7.776229e-09 -8.276078e-09 -9.127299e-09 -9.872991e-09
-1.022514e-08 -7.989903e-09 -1.066704e-08 -1.213511e-08 -1.112961e-08 -9.216850e-09 -1.121720e-08 -1.114159e-08 -1.215124e-08 -1.269489e-08
-1.304123e-08 -1.218556e-08 -1.224907e-08 -1.418298e-08 -1.296892e-08 -1.292083e-08 -1.474289e-08 -1.381031e-08 -1.387387e-08 -1.402533e-08
-1.523792e-08 -1.535265e-08 -1.512259e-08 -1.560576e-08 -1.564941e-08 -1.654995e-08 -1.640306e-08 -1.654740e-08 -1.537301e-08 -1.540960e-08
-1.719031e-08 -1.669559e-08 -1.603378e-08 -1.698821e-08 -1.651102e-08 -1.747856e-08 -1.792379e-08 -1.786798e-08 -1.835597e-08 -1.752561e-08
-1.714861e-08 -1.643243e-08 -1.767891e-08 -1.632920e-08 -1.752561e-08 -1.697044e-08 -1.683928e-08 -1.752135e-08 -1.723358e-08 -1.719807e-08
-1.779014e-08 -1.699203e-08 -1.878324e-08 -1.722576e-08 -1.766775e-08 -1.755197e-08 -1.700943e-08 -1.895261e-08 -1.728298e-08 -1.899001e-08
-1.779429e-08
-1.755797e-08 -1.718868e-08 -1.761899e-08 -1.737201e-08 -1.676642e-08 -1.753041e-08 -1.742318e-08 -1.741070e-08 -1.799361e-08 -1.724762e-08
-1.800558e-08 -1.816388e-08 -1.817963e-08 -1.742279e-08 -1.679134e-08 -1.863620e-08 -1.817640e-08 -1.811612e-08 -1.731651e-08 -1.694186e-08
-1.768698e-08 -1.652870e-08 -1.779417e-08 -1.680106e-08 -1.676009e-08 -1.662141e-08 -1.750968e-08 -1.675635e-08 -1.660578e-08 -1.742865e-08
-1.652006e-08 -1.575925e-08 -1.598914e-08 -1.600438e-08 -1.549387e-08 -1.553406e-08 -1.481514e-08 -1.566433e-08 -1.429156e-08 -1.466385e-08
-1.557998e-08 -1.364951e-08 -1.594387e-08 -1.413915e-08 -1.317486e-08 -1.426188e-08 -1.397309e-08 -1.243942e-08 -1.363515e-08 -1.321397e-08
-1.317924e-08 -1.320941e-08 -1.193682e-08 -1.199489e-08 -1.192498e-08 -9.438064e-09 -9.740833e-09 -1.129267e-08 -9.849522e-09 -7.830768e-09
-9.400106e-09 -8.679019e-09 -8.145664e-09 -8.458025e-09 -7.635331e-09 -8.499025e-09 -7.716164e-09 -6.364702e-09 -7.843140e-09 -6.678877e-09
-7.594177e-09 -5.928631e-09 -6.604737e-09 -4.842526e-09 -4.853857e-09 -5.220136e-09 -4.207260e-09 -4.043589e-09 -3.623147e-09 -1.498420e-09
-2.515606e-09 -2.161675e-09 -1.577072e-09 -2.688853e-09 -1.318346e-09 -1.813978e-09 -1.321920e-09 -9.626994e-10 -3.792092e-10 -1.070751e-09
4.466970e-10 -2.702746e-10 -1.095077e-10 1.759037e-09 -9.705623e-10 8.606156e-10 1.858922e-09 1.855423e-09 2.282771e-09 4.149538e-09
3.348165e-09 1.818857e-09 4.943687e-09 4.117195e-09 4.420784e-09 4.329821e-09 3.961989e-09 8.491664e-09 7.401591e-09 7.523209e-09
6.427980e-09 6.504903e-09 8.085901e-09 8.990828e-09 6.878075e-09 8.011352e-09 7.103873e-09 8.380935e-09 7.250519e-09 1.002404e-08
9.237421e-09 1.036924e-08 1.166136e-08 1.017516e-08 9.987938e-09 1.090176e-08 1.328567e-08 1.343490e-08 1.234252e-08 1.093525e-08
1.174219e-08 1.298003e-08 1.377209e-08 1.284158e-08 1.320063e-08 1.497916e-08 1.344792e-08 1.435521e-08 1.410845e-08 1.486629e-08
1.475135e-08 1.474672e-08 1.439332e-08 1.580644e-08 1.545668e-08 1.575348e-08 1.632318e-08 1.701379e-08 1.643592e-08 1.722999e-08
1.628702e-08 1.798986e-08 1.776200e-08 1.743965e-08 1.694154e-08 1.795403e-08 1.798136e-08 1.846817e-08 1.666375e-08 1.807101e-08
1.730399e-08 1.773385e-08 1.680088e-08 1.829716e-08 1.889964e-08 1.785941e-08 1.816655e-08 1.777296e-08 1.670043e-08 1.886693e-08
1.766497e-08 1.783686e-08 1.666167e-08 1.785182e-08 1.837778e-08 1.758630e-08 1.777418e-08 1.797381e-08 1.768962e-08 1.679449e-08
1.836369e-08 1.790836e-08 1.874007e-08 1.723832e-08 1.731349e-08 1.895276e-08 1.814673e-08 1.972868e-08 1.827437e-08 1.696295e-08
1.894545e-08 1.838944e-08 1.779219e-08 1.804471e-08 1.734350e-08 1.721159e-08 1.762174e-08 1.792494e-08 1.729398e-08 1.776165e-08
1.693722e-08 1.781648e-08 1.635252e-08 1.668923e-08 1.813844e-08 1.606953e-08 1.636426e-08 1.778712e-08 1.577452e-08 1.659859e-08
1.548394e-08 1.561685e-08 1.610170e-08 1.575841e-08 1.520469e-08 1.468011e-08 1.454147e-08 1.470632e-08 1.414648e-08 1.679034e-08
1.366770e-08 1.347293e-08 1.370204e-08 1.492251e-08 1.420581e-08 1.460092e-08 1.355121e-08 1.205533e-08 1.189694e-08 1.183732e-08
1.135148e-08 1.244846e-08 1.083598e-08 1.032538e-08 1.025429e-08 1.061098e-08 1.038349e-08 8.225303e-09 9.952970e-09 9.131612e-09
8.699875e-09 1.022922e-08 6.979333e-09 8.051341e-09 9.514957e-09 8.962151e-09 6.151564e-09 5.862377e-09 6.711515e-09 7.123096e-09
5.742953e-09 5.755840e-09 6.954674e-09 5.146802e-09 3.780370e-09 4.033243e-09 4.479203e-09 4.194093e-09 5.437016e-09 3.339305e-09
2.446159e-09 4.021202e-09 5.214746e-10 6.431808e-10 1.589487e-09 -3.669392e-10 -7.090494e-10 8.692565e-10 2.695247e-09 -3.729524e-10
3.094291e-10 8.350975e-10 4.542636e-10 7.445974e-10 -1.754885e-10 -1.913485e-09 -2.563664e-09 -1.955299e-09 -1.609927e-09 -3.350028e-09
-2.561791e-09 -2.013259e-09 -2.876672e-09 -2.879508e-09 -3.934386e-09 -4.890695e-09 -5.797222e-09 -5.496625e-09 -6.915234e-09 -7.199878e-09
-6.910521e-09 -7.458257e-09 -7.373959e-09 -6.936181e-09 -6.536315e-09 -9.142519e-09 -8.730182e-09 -9.058041e-09 -1.077716e-08 -9.609194e-09
-1.079168e-08 -9.744724e-09 -1.092083e-08 -1.010835e-08 -9.507942e-09 -1.027270e-08 -1.045954e-08 -1.113064e-08 -1.111679e-08 -1.382410e-08
-1.381839e-08 -1.183449e-08 -1.209609e-08 -1.411554e-08 -1.359262e-08 -1.358212e-08 -1.487189e-08 -1.396932e-08 -1.405098e-08 -1.436023e-08
-1.514361e-08 -1.443585e-08 -1.621686e-08 -1.610588e-08 -1.498318e-08 -1.582799e-08 -1.511983e-08 -1.746190e-08 -1.686258e-08 -1.629897e-08
-1.681233e-08 -1.739464e-08 -1.792501e-08 -1.708637e-08 -1.782986e-08 -1.827915e-08 -1.605862e-08 -1.888672e-08 -1.634460e-08 -1.675437e-08
-1.769006e-08 -1.837022e-08 -1.722451e-08 -1.846322e-08 -1.747878e-08 -1.640425e-08 -1.889570e-08 -1.707236e-08 -1.659178e-08 -1.672955e-08
-1.818677e-08 -1.741242e-08 -1.835009e-08 -1.799298e-08 -1.932598e-08 -1.815286e-08 -1.835572e-08 -1.862544e-08 -1.803859e-08 -1.770844e-08
-1.755797e-08
-1.873006e-08 -1.622184e-08 -1.821187e-08 -1.829630e-08 -1.824203e-08 -1.774908e-08 -1.826379e-08 -1.741143e-08 -1.813905e-08 -1.956319e-08
-1.770805e-08 -1.750117e-08 -1.858496e-08 -1.793806e-08 -1.877688e-08 -1.718942e-08 -1.867711e-08 -1.798964e-08 -1.822103e-08 -1.749348e-08
-1.839750e-08 -1.746049e-08 -1.853172e-08 -1.698224e-08 -1.846950e-08 -1.799915e-08 -1.710049e-08 -1.691991e-08 -1.779236e-08 -1.579333e-08
-1.746356e-08 -1.717767e-08 -1.627350e-08 -1.580481e-08 -1.692213e-08 -1.536039e-08 -1.569227e-08 -1.512553e-08 -1.725553e-08 -1.580958e-08
-1.415865e-08 -1.580304e-08 -1.367588e-08 -1.321492e-08 -1.349735e-08 -1.392570e-08 -1.479774e-08 -1.280748e-08 -1.380529e-08 -1.318780e-08
-1.291163e-08 -1.331576e-08 -1.075631e-08 -1.157351e-08 -1.296888e-08 -1.075348e-08 -1.058619e-08 -1.059879e-08 -9.055969e-09 -9.704503e-09
-1.027243e-08 -9.235166e-09 -8.922361e-09 -1.043415e-08 -7.401324e-09 -6.892120e-09 -8.400553e-09 -5.629799e-09 -8.290860e-09 -7.456738e-09
-6.491126e-09 -4.611940e-09 -4.280978e-09 -4.719128e-09 -4.468743e-09 -4.709432e-09 -5.410068e-09 -4.078549e-09 -3.649064e-09 -3.401518e-09
-1.807871e-09 -1.783938e-10 -2.262949e-09 -1.690628e-09 -3.532784e-10 -3.826801e-09 8.771741e-10 -2.288893e-09 3.796347e-10 6.495675e-10
-4.107733e-10 -1.504523e-09 1.053923e-09 2.019629e-09 1.389618e-09 -3.182875e-10 1.502741e-10 3.065438e-09 1.578323e-09 3.089649e-09
4.566078e-09 3.561188e-09 3.530364e-09 3.682372e-09 5.712619e-09 4.678873e-09 4.509311e-09 6.454810e-09 5.928500e-09 4.996661e-09
7.305709e-09 5.188678e-09 7.459213e-09 7.183445e-09 7.496555e-09 7.177702e-09 7.938112e-09 1.000700e-08 8.525696e-09 9.726364e-09
9.290289e-09 9.038249e-09 1.110104e-08 1.097012e-08 9.727709e-09 1.036718e-08 1.202867e-08 1.113291e-08 1.260730e-08 1.432869e-08
1.248859e-08 1.357939e-08 1.317130e-08 1.506112e-08 1.373094e-08 1.390349e-08 1.350812e-08 1.492857e-08 1.536180e-08 1.587771e-08
1.518097e-08 1.640158e-08 1.544834e-08 1.729550e-08 1.689652e-08 1.556456e-08 1.771329e-08 1.682514e-08 1.788997e-08 1.601381e-08
1.645463e-08 1.863027e-08 1.704416e-08 1.775968e-08 1.854219e-08 1.698461e-08 1.848733e-08 1.720172e-08 1.745063e-08 1.752275e-08
1.843696e-08 1.740864e-08 1.899911e-08 1.826947e-08 1.855989e-08 1.774638e-08 1.758897e-08 2.128270e-08 1.817084e-08 1.914526e-08
1.811423e-08 1.833497e-08 1.816163e-08 1.921784e-08 1.855484e-08 1.820230e-08 1.733328e-08 1.807334e-08 1.802649e-08 1.759540e-08
1.683461e-08 1.813712e-08 1.946691e-08 1.841588e-08 1.893321e-08 1.731331e-08 1.972428e-08 1.989335e-08 1.765041e-08 1.779786e-08
1.709147e-08 1.815818e-08 1.736934e-08 1.760246e-08 1.966946e-08 1.869988e-08 1.762451e-08 1.779262e-08 1.685663e-08 1.769721e-08
1.693447e-08 1.957403e-08 1.768098e-08 1.691068e-08 1.754870e-08 1.633546e-08 1.685129e-08 1.717724e-08 1.571711e-08 1.693134e-08
1.520336e-08 1.523442e-08 1.710517e-08 1.634121e-08 1.686156e-08 1.540579e-08 1.566991e-08 1.486270e-08 1.484725e-08 1.454764e-08
1.491772e-08 1.438915e-08 1.471138e-08 1.384890e-08 1.358718e-08 1.464109e-08 1.203528e-08 1.293617e-08 1.412940e-08 1.230776e-08
1.187470e-08 1.151179e-08 1.158900e-08 1.169757e-08 1.007071e-08 1.079961e-08 1.064500e-08 9.339907e-09 9.754604e-09 8.538671e-09
9.878762e-09 8.393240e-09 7.999396e-09 8.313911e-09 9.667879e-09 8.515381e-09 6.928250e-09 8.077279e-09 6.877396e-09 6.742393e-09
7.510681e-09 5.439949e-09 5.237832e-09 5.618977e-09 4.383998e-09 5.936516e-09 3.660481e-09 2.967958e-09 1.737266e-09 2.921417e-09
3.270580e-09 3.648285e-09 1.812557e-09 2.526300e-09 1.393706e-09 2.176960e-09 9.136727e-10 1.515609e-09 -1.062066e-09 -1.309891e-10
5.622777e-10 -8.785372e-10 -6.173249e-10 -2.845256e-10 -1.972505e-09 -1.331181e-09 -1.825343e-09 -2.726415e-09 -2.091173e-09 -2.997459e-09
-4.796155e-09 -3.062439e-09 -5.543681e-09 -1.860661e-09 -4.511613e-09 -5.958292e-09 -4.605107e-09 -2.881122e-09 -4.621242e-09 -6.180855e-09
-7.728552e-09 -6.662503e-09 -6.112778e-09 -6.440237e-09 -6.449241e-09 -8.033720e-09 -8.789862e-09 -8.352585e-09 -8.581406e-09 -8.796608e-09
-9.085325e-09 -9.870956e-09 -1.046754e-08 -1.072889e-08 -1.056246e-08 -1.127401e-08 -1.229210e-08 -1.085304e-08 -1.206675e-08 -1.257918e-08
-1.284416e-08 -1.358652e-08 -1.225821e-08 -1.258483e-08 -1.421548e-08 -1.372799e-08 -1.343790e-08 -1.541341e-08 -1.473340e-08 -1.420849e-08
-1.491254e-08 -1.422622e-08 -1.508287e-08 -1.520344e-08 -1.558327e-08 -1.560703e-08 -1.635724e-08 -1.735948e-08 -1.727631e-08 -1.578317e-08
-1.750982e-08 -1.687948e-08 -1.721554e-08 -1.832162e-08 -1.648101e-08 -1.954216e-08 -1.681513e-08 -1.778370e-08 -1.726430e-08 -1.803637e-08
-1.721113e-08 -1.858514e-08 -1.888642e-08 -1.921620e-08 -1.719460e-08 -1.719238e-08 -1.771197e-08 -1.814930e-08 -1.851730e-08 -1.747506e-08
-1.772094e-08 -1.846764e-08 -1.892996e-08 -1.695128e-08 -1.915113e-08 -1.894349e-08 -1.728295e-08 -1.718372e-08 -1.767621e-08 -1.719269e-08
-1.873006e-08
-1.716277e-08 -1.966635e-08 -1.793630e-08 -1.724294e-08 -1.774881e-08 -1.808483e-08 -1.800749e-08 -1.798148e-08 -1.762129e-08 -1.804566e-08
-1.831869e-08 -1.739641e-08 -1.800929e-08 -1.762475e-08 -1.816364e-08 -1.817408e-08 -1.771061e-08 -1.700728e-08 -1.804125e-08 -1.795444e-08
-1.761409e-08 -1.847969e-08 -1.799407e-08 -1.738159e-08 -1.787727e-08 -1.794893e-08 -1.678026e-08 -1.733728e-08 -1.717037e-08 -1.716881e-08
-1.729564e-08 -1.605511e-08 -1.792705e-08 -1.695806e-08 -1.700882e-08 -1.806277e-08 -1.575608e-08 -1.600820e-08 -1.606475e-08 -1.512858e-08
-1.622649e-08 -1.528942e-08 -1.392712e-08 -1.448388e-08 -1.328793e-08 -1.255950e-08 -1.299446e-08 -1.290334e-08 -1.370104e-08 -1.392818e-08
-1.251264e-08 -1.351178e-08 -1.247781e-08 -1.334389e-08 -1.109512e-08 -1.233663e-08 -1.195528e-08 -9.979941e-09 -1.087854e-08 -9.756344e-09
-9.394678e-09 -1.080447e-08 -7.726315e-09 -9.558500e-09 -8.292759e-09 -6.878498e-09 -8.833538e-09 -7.618413e-09 -7.638072e-09 -8.566579e-09
-6.798325e-09 -6.677439e-09 -5.785793e-09 -4.780147e-09 -2.480254e-09 -4.587582e-09 -4.004642e-09 -3.024459e-09 -3.460139e-09 -4.157500e-09
-2.695479e-09 -2.268254e-09 -2.618350e-09 -1.119126e-09 -2.677561e-09 -2.910993e-10 -1.451538e-09 -1.514604e-09 8.578380e-10 1.002278e-09
9.033826e-11 1.210676e-09 6.896865e-10 1.165389e-09 4.264995e-10 3.165026e-09 5.630641e-10 1.833095e-09 2.149332e-09 1.838913e-09
3.813243e-09 3.042783e-09 3.618503e-09 3.268780e-09 3.506032e-09 4.399690e-09 5.833810e-09 5.828020e-09 3.771580e-09 7.494046e-09
7.742806e-09 7.270281e-09 8.072738e-09 6.237124e-09 7.088885e-09 8.618306e-09 8.043266e-09 7.493408e-09 7.957684e-09 1.049160e-08
9.859090e-09 1.060756e-08 1.051814e-08 1.106275e-08 1.413554e-08 1.063751e-08 1.341098e-08 1.272746e-08 1.074450e-08 1.321922e-08
1.291820e-08 1.196193e-08 1.521590e-08 1.375837e-08 1.432340e-08 1.420244e-08 1.445488e-08 1.354594e-08 1.633944e-08 1.553162e-08
1.623000e-08 1.681114e-08 1.615418e-08 1.579916e-08 1.627032e-08 1.731043e-08 1.797513e-08 1.775208e-08 1.717464e-08 1.830930e-08
1.743509e-08 1.683861e-08 1.798738e-08 1.850207e-08 1.923520e-08 1.757865e-08 1.685341e-08 1.784178e-08 1.894300e-08 1.892409e-08
1.947495e-08 1.801525e-08 1.798284e-08 1.868194e-08 1.801491e-08 1.823227e-08 1.771607e-08 1.875362e-08 1.797302e-08 1.863402e-08
1.958104e-08 1.824428e-08 1.688571e-08 1.867822e-08 1.769948e-08 1.839242e-08 1.778245e-08 1.842603e-08 1.770267e-08 1.782276e-08
1.841815e-08 1.731973e-08 1.751883e-08 1.853270e-08 1.650697e-08 1.834139e-08 1.995781e-08 1.810137e-08 1.850942e-08 1.974799e-08
1.817020e-08 1.867389e-08 1.862971e-08 1.845495e-08 1.746805e-08 1.979483e-08 1.959215e-08 1.875449e-08 1.854131e-08 1.792602e-08
1.777886e-08 1.706767e-08 1.726418e-08 1.789407e-08 1.726720e-08 1.778127e-08 1.762041e-08 1.729107e-08 1.772116e-08 1.703174e-08
1.719624e-08 1.600453e-08 1.589429e-08 1.660346e-08 1.550170e-08 1.746876e-08 1.609770e-08 1.543618e-08 1.471381e-08 1.477142e-08
1.557233e-08 1.513076e-08 1.725400e-08 1.349097e-08 1.407775e-08 1.282624e-08 1.340768e-08 1.235395e-08 1.316641e-08 1.194591e-08
1.180205e-08 1.100850e-08 1.175563e-08 1.036802e-08 9.992228e-09 1.109375e-08 1.014733e-08 9.676150e-09 8.704002e-09 1.022822e-08
1.118275e-08 7.544457e-09 7.596462e-09 7.291930e-09 7.543817e-09 7.286069e-09 7.380196e-09 7.484451e-09 7.642494e-09 7.460742e-09
5.641757e-09 6.095622e-09 5.536298e-09 5.808636e-09 4.535332e-09 3.121963e-09 4.153696e-09 3.798152e-09 2.705853e-09 2.473090e-09
2.653450e-09 2.104696e-09 1.476536e-09 1.647265e-09 1.423964e-09 2.058934e-09 8.859921e-10 -9.420483e-10 1.513404e-09 6.691737e-10
5.450688e-10 -1.644982e-09 -1.661641e-09 -2.431437e-09 -2.088493e-09 -2.674862e-09 -7.778923e-10 -3.619074e-09 -2.241395e-09 -4.768084e-09
-3.672697e-09 -3.216134e-09 -4.467956e-09 -3.041311e-09 -5.209726e-09 -5.376959e-09 -5.320144e-09 -4.559497e-09 -4.392225e-09 -6.945617e-09
-7.198235e-09 -7.175578e-09 -7.064775e-09 -8.187102e-09 -8.585434e-09 -5.943798e-09 -7.816495e-09 -9.463704e-09 -9.653778e-09 -9.328230e-09
-9.312108e-09 -1.006821e-08 -9.848297e-09 -1.089178e-08 -1.067166e-08 -1.027434e-08 -1.064633e-08 -1.187599e-08 -1.242556e-08 -1.183059e-08
-1.258082e-08 -1.231755e-08 -1.374856e-08 -1.317529e-08 -1.302999e-08 -1.355838e-08 -1.576931e-08 -1.409283e-08 -1.372051e-08 -1.537668e-08
-1.464837e-08 -1.580794e-08 -1.555056e-08 -1.711202e-08 -1.545265e-08 -1.544233e-08 -1.710993e-08 -1.591986e-08 -1.585142e-08 -1.675006e-08
-1.702219e-08 -1.680475e-08 -1.664422e-08 -1.689821e-08 -1.765047e-08 -1.887547e-08 -1.738415e-08 -1.785024e-08 -1.759867e-08 -1.706067e-08
-1.740027e-08 -1.823041e-08 -1.791289e-08 -1.807299e-08 -1.875031e-08 -1.741765e-08 -1.730394e-08 -1.714086e-08 -1.875408e-08 -1.888573e-08
-1.763920e-08 -1.845534e-08 -1.877189e-08 -1.695805e-08 -1.765837e-08 -1.855424e-08 -1.775064e-08 -1.800044e-08 -1.826469e-08 -1.765839e-08
-1.716277e-08
-1.652928e-08 -1.864878e-08 -1.871369e-08 -1.848838e-08 -1.824066e-08 -1.830064e-08 -1.860183e-08 -1.951772e-08 -1.883596e-08 -1.781851e-08
-1.816801e-08 -1.810474e-08 -1.798634e-08 -1.790234e-08 -1.835769e-08 -1.815471e-08 -1.828318e-08 -1.851667e-08 -1.924070e-08 -1.863494e-08
-1.884703e-08 -1.749180e-08 -1.996073e-08 -1.705494e-08 -1.852027e-08 -1.743055e-08 -1.730905e-08 -1.677552e-08 -1.711115e-08 -1.650451e-08
-1.646555e-08 -1.742175e-08 -1.573900e-08 -1.695033e-08 -1.685340e-08 -1.636267e-08 -1.591510e-08 -1.647213e-08 -1.507502e-08 -1.597237e-08
-1.596804e-08 -1.492173e-08 -1.437918e-08 -1.465167e-08 -1.551639e-08 -1.316499e-08 -1.328121e-08 -1.442703e-08 -1.446575e-08 -1.297013e-08
-1.259586e-08 -1.151194e-08 -1.297056e-08 -1.214243e-08 -1.098102e-08 -1.113369e-08 -9.851636e-09 -1.069359e-08 -1.061537e-08 -9.341647e-09
-1.154675e-08 -9.268519e-09 -9.396568e-09 -9.855896e-09 -7.762484e-09 -9.101485e-09 -6.862909e-09 -6.177244e-09 -7.922911e-09 -7.061908e-09
-5.514927e-09 -6.218917e-09 -5.623630e-09 -4.773848e-09 -5.739022e-09 -5.195455e-09 -3.935184e-09 -3.653865e-09 -3.279280e-09 -3.856934e-09
-3.556268e-09 -2.746062e-09 -1.692216e-09 -1.012314e-09 -2.012533e-09 -1.783257e-09 -2.317466e-09 -1.043595e-09 -1.622298e-09 -7.181114e-10
9.851462e-10 1.452712e-09 3.995876e-10 9.186190e-10 -1.679277e-10 2.422040e-09 2.899869e-09 1.726528e-09 4.531790e-09 2.777444e-09
6.102255e-09 3.861177e-09 4.881343e-09 5.740696e-09 5.156439e-09 6.838270e-09 4.954904e-09 5.183210e-09 5.785358e-09 4.265712e-09
5.624976e-09 8.464764e-09 5.464125e-09 7.636316e-09 7.447972e-09 9.286963e-09 8.125774e-09 8.163060e-09 8.472136e-09 9.588268e-09
9.054940e-09 9.915503e-09 1.072739e-08 1.194665e-08 1.118519e-08 1.098519e-08 1.308759e-08 1.316637e-08 1.207841e-08 1.325953e-08
1.301458e-08 1.327239e-08 1.333165e-08 1.424759e-08 1.364892e-08 1.556850e-08 1.613512e-08 1.436171e-08 1.457095e-08 1.689462e-08
1.546718e-08 1.487859e-08 1.730907e-08 1.558115e-08 1.597673e-08 1.651515e-08 1.667209e-08 1.801151e-08 1.816959e-08 1.652010e-08
1.803888e-08 1.811765e-08 1.749179e-08 1.935916e-08 1.697907e-08 1.837874e-08 1.811103e-08 1.744182e-08 1.839617e-08 1.824574e-08
1.774424e-08 1.791743e-08 1.770458e-08 1.855471e-08 1.851079e-08 1.876080e-08 1.747318e-08 1.897950e-08 1.774570e-08 1.887524e-08
1.843560e-08 1.755978e-08 1.754716e-08 1.831597e-08 1.784301e-08 1.783068e-08 1.884960e-08 1.756340e-08 1.962046e-08 1.867471e-08
1.820140e-08 1.903421e-08 1.953180e-08 1.754455e-08 1.914165e-08 1.901704e-08 1.871895e-08 1.922760e-08 1.946256e-08 1.842232e-08
1.937168e-08 1.847007e-08 1.779225e-08 1.834399e-08 1.844379e-08 1.805595e-08 1.827331e-08 1.806677e-08 1.770159e-08 1.807333e-08
1.846512e-08 1.946614e-08 1.740929e-08 1.652744e-08 1.692224e-08 1.795639e-08 1.758091e-08 1.763853e-08 1.763983e-08 1.835948e-08
1.606889e-08 1.709878e-08 1.671075e-08 1.761367e-08 1.698367e-08 1.483707e-08 1.641057e-08 1.558297e-08 1.648321e-08 1.485594e-08
1.487830e-08 1.512603e-08 1.592391e-08 1.431816e-08 1.363561e-08 1.417412e-08 1.362206e-08 1.326176e-08 1.269886e-08 1.403995e-08
1.249210e-08 1.113251e-08 1.234774e-08 1.260051e-08 1.026556e-08 1.238545e-08 1.014792e-08 1.119755e-08 9.951363e-09 8.009393e-09
8.775523e-09 1.247903e-08 8.896130e-09 7.440910e-09 7.668096e-09 6.788364e-09 7.212975e-09 7.068419e-09 8.209168e-09 5.669892e-09
6.879622e-09 5.686669e-09 6.362524e-09 5.891853e-09 7.378707e-09 2.648340e-09 4.561990e-09 2.593209e-09 4.744887e-09 3.434064e-09
1.748202e-09 1.680156e-09 1.118711e-09 2.769507e-09 1.115814e-09 2.453626e-09 1.768785e-09 5.919016e-10 -3.235225e-10 1.175857e-09
9.266720e-10 -8.896469e-10 -7.594056e-10 -6.256504e-10 -2.588856e-09 -2.248760e-09 -2.063984e-09 -3.129208e-09 -1.903255e-09 -2.995494e-09
-2.450223e-09 -5.952214e-09 -4.020158e-09 -3.519724e-09 -6.007391e-09 -4.873316e-09 -7.014959e-09 -6.586689e-09 -5.311840e-09 -7.863911e-09
-6.604649e-09 -6.351966e-09 -9.047819e-09 -8.458866e-09 -8.530722e-09 -7.639781e-09 -7.074954e-09 -9.082989e-09 -9.016090e-09 -1.170946e-08
-1.029470e-08 -8.972074e-09 -9.530215e-09 -1.183038e-08 -1.185358e-08 -1.141236e-08 -1.242699e-08 -1.132567e-08 -1.373457e-08 -1.283789e-08
-1.356695e-08 -1.333270e-08 -1.519761e-08 -1.414984e-08 -1.392502e-08 -1.435787e-08 -1.458451e-08 -1.552693e-08 -1.392461e-08 -1.502777e-08
-1.516558e-08 -1.644780e-08 -1.600513e-08 -1.607462e-08 -1.673926e-08 -1.583978e-08 -1.558790e-08 -1.616680e-08 -1.695902e-08 -1.676917e-08
-1.787557e-08 -1.720242e-08 -1.703873e-08 -1.880163e-08 -1.687429e-08 -1.871867e-08 -1.653011e-08 -1.770490e-08 -1.683511e-08 -1.847735e-08
-1.715082e-08 -1.815318e-08 -1.851146e-08 -1.833514e-08 -1.812153e-08 -1.735438e-08 -1.851537e-08 -1.816062e-08 -1.841062e-08 -1.922199e-08
-1.939874e-08 -1.793731e-08 -1.795621e-08 -1.777514e-08 -1.831213e-08 -1.733128e-08 -1.879149e-08 -1.725704e-08 -1.755713e-08 -1.803782e-08
-1.652928e-08
-1.905434e-08 -1.803854e-08 -1.821315e-08 -1.805192e-08 -1.903429e-08 -1.930264e-08 -1.821720e-08 -1.747725e-08 -1.788251e-08 -1.857173e-08
-1.800400e-08 -1.834362e-08 -1.896487e-08 -1.869952e-08 -1.751769e-08 -1.856401e-08 -1.810532e-08 -1.854725e-08 -1.849713e-08 -1.756522e-08
-1.935556e-08 -1.768147e-08 -1.812953e-08 -1.824738e-08 -1.900976e-08 -1.869813e-08 -1.805515e-08 -1.725905e-08 -1.729173e-08 -1.684671e-08
-1.711005e-08 -1.777046e-08 -1.766318e-08 -1.786093e-08 -1.782192e-08 -1.657283e-08 -1.517344e-08 -1.585684e-08 -1.506409e-08 -1.476342e-08
-1.560372e-08 -1.504104e-08 -1.400408e-08 -1.400394e-08 -1.405991e-08 -1.451632e-08 -1.357473e-08 -1.408650e-08 -1.266918e-08 -1.380746e-08
-1.378042e-08 -1.206609e-08 -1.255549e-08 -1.156501e-08 -1.098726e-08 -1.276852e-08 -1.159014e-08 -1.066812e-08 -1.009964e-08 -9.506715e-09
-1.061453e-08 -1.149194e-08 -9.219474e-09 -8.422156e-09 -8.075926e-09 -8.947810e-09 -8.865358e-09 -6.079231e-09 -7.042438e-09 -6.126033e-09
-5.964047e-09 -4.758106e-09 -4.821492e-09 -4.171025e-09 -4.703851e-09 -5.211260e-09 -4.731437e-09 -3.837087e-09 -2.895748e-09 -4.156990e-09
-4.328104e-09 -3.562998e-09 -3.021233e-09 -9.220940e-10 -1.170826e-09 -3.134599e-09 -9.432369e-10 1.986319e-10 -9.560996e-10 -4.000955e-11
4.442708e-10 1.099525e-09 2.680509e-09 1.084445e-09 1.067446e-09 8.117314e-10 2.122837e-09 1.953929e-09 3.010072e-09 2.819240e-09
3.253370e-09 4.622935e-09 4.414273e-09 4.970692e-09 6.147534e-09 4.993785e-09 5.481917e-09 5.619049e-09 5.747099e-09 6.157174e-09
6.049657e-09 5.724060e-09 7.886249e-09 6.530209e-09 7.296606e-09 7.365404e-09 7.413748e-09 8.534585e-09 9.593943e-09 9.975547e-09
1.043721e-08 1.001539e-08 8.889842e-09 1.139596e-08 1.192828e-08 1.239536e-08 1.189727e-08 1.285182e-08 1.239535e-08 1.259431e-08
1.396946e-08 1.423043e-08 1.339595e-08 1.373965e-08 1.387488e-08 1.632516e-08 1.495602e-08 1.528624e-08 1.475973e-08 1.648257e-08
1.692181e-08 1.687870e-08 1.653824e-08 1.700830e-08 1.579942e-08 1.738785e-08 1.716130e-08 1.637276e-08 1.729437e-08 1.726236e-08
1.777022e-08 1.801135e-08 1.845224e-08 1.783163e-08 1.879323e-08 1.801070e-08 1.934461e-08 1.797270e-08 1.860463e-08 1.775291e-08
1.956053e-08 1.842385e-08 2.004917e-08 1.890554e-08 2.030565e-08 1.954881e-08 1.976687e-08 1.968476e-08 1.742765e-08 1.774008e-08
1.951770e-08 1.926117e-08 1.814654e-08 1.817165e-08 1.796430e-08 1.892490e-08 1.812055e-08 1.964504e-08 1.798015e-08 1.788863e-08
1.774172e-08 1.868522e-08 1.873123e-08 1.916239e-08 1.802889e-08 1.831393e-08 1.897615e-08 1.789551e-08 1.790300e-08 1.712607e-08
1.799426e-08 1.917066e-08 1.819662e-08 1.921126e-08 1.797718e-08 1.756027e-08 1.912152e-08 1.901264e-08 1.779041e-08 1.742043e-08
1.749143e-08 1.716029e-08 1.867449e-08 1.833797e-08 1.672578e-08 1.794381e-08 1.782761e-08 1.769731e-08 1.680200e-08 1.766729e-08
1.832459e-08 1.765848e-08 1.597243e-08 1.784842e-08 1.548238e-08 1.730174e-08 1.562961e-08 1.519201e-08 1.519549e-08 1.433100e-08
1.527578e-08 1.428870e-08 1.502968e-08 1.403121e-08 1.326582e-08 1.391872e-08 1.302271e-08 1.326110e-08 1.297647e-08 1.250252e-08
1.195152e-08 1.117997e-08 1.209061e-08 1.198408e-08 1.233176e-08 1.141431e-08 1.147331e-08 9.557669e-09 8.746913e-09 9.101348e-09
9.637026e-09 8.001113e-09 7.698866e-09 7.178542e-09 7.650098e-09 8.183144e-09 7.131835e-09 7.664157e-09 5.585250e-09 5.973034e-09
5.750407e-09 6.316283e-09 4.547250e-09 4.493884e-09 4.895860e-09 4.779090e-09 3.849924e-09 4.477245e-09 2.540143e-09 2.019819e-09
1.940638e-09 2.006483e-09 2.111463e-09 2.936950e-09 1.423185e-10 2.021451e-09 7.467127e-10 6.360696e-10 1.279400e-09 6.429557e-10
-1.728207e-09 -1.159044e-09 5.847620e-11 -1.644590e-09 -1.949076e-09 2.442455e-10 -3.102485e-09 -2.221202e-09 -2.916885e-09 -5.181409e-09
-4.818288e-09 -3.656947e-09 -3.016230e-09 -4.457589e-09 -4.241179e-09 -5.045070e-09 -5.822797e-09 -5.421825e-09 -5.787804e-09 -5.376027e-09
-6.420338e-09 -7.344259e-09 -6.830844e-09 -8.329331e-09 -8.514480e-09 -8.056577e-09 -7.687770e-09 -8.633691e-09 -8.866124e-09 -1.106709e-08
-1.188452e-08 -1.015131e-08 -1.103678e-08 -1.184863e-08 -1.092767e-08 -1.334742e-08 -1.085166e-08 -1.372674e-08 -1.215646e-08 -1.310532e-08
-1.227430e-08 -1.407997e-08 -1.194607e-08 -1.480600e-08 -1.474775e-08 -1.406775e-08 -1.447272e-08 -1.420683e-08 -1.387710e-08 -1.518551e-08
-1.532871e-08 -1.670694e-08 -1.645573e-08 -1.623853e-08 -1.603128e-08 -1.564198e-08 -1.561700e-08 -1.653114e-08 -1.841989e-08 -1.663785e-08
-1.739865e-08 -1.749137e-08 -1.758021e-08 -1.726082e-08 -1.732181e-08 -1.791692e-08 -1.754421e-08 -1.753035e-08 -1.864465e-08 -1.914554e-08
-1.862722e-08 -1.811674e-08 -1.775497e-08 -1.933330e-08 -1.774017e-08 -1.732007e-08 -1.944889e-08 -1.818716e-08 -1.933841e-08 -1.985914e-08
-1.795991e-08 -1.875074e-08 -1.836109e-08 -1.792504e-08 -1.694422e-08 -1.785754e-08 -1.776839e-08 -1.803856e-08 -1.867505e-08 -1.831855e-08
-1.905434e-08
-1.735896e-08 -1.852664e-08 -1.767349e-08 -1.818817e-08 -1.827136e-08 -1.738409e-08 -1.761693e-08 -1.829410e-08 -1.945935e-08 -1.753030e-08
-1.816313e-08 -1.881005e-08 -1.797533e-08 -1.854483e-08 -1.835527e-08 -1.908244e-08 -1.790169e-08 -1.806585e-08 -1.912264e-08 -1.889391e-08
-1.748172e-08 -1.865206e-08 -1.974367e-08 -1.792011e-08 -1.839740e-08 -1.822586e-08 -1.816110e-08 -1.772943e-08 -1.780428e-08 -1.789170e-08
-1.787226e-08 -1.734512e-08 -1.719041e-08 -1.634965e-08 -1.699616e-08 -1.586318e-08 -1.548044e-08 -1.550531e-08 -1.487084e-08 -1.645071e-08
-1.515131e-08 -1.460896e-08 -1.587214e-08 -1.407949e-08 -1.465797e-08 -1.465007e-08 -1.382110e-08 -1.267909e-08 -1.498489e-08 -1.201408e-08
-1.457067e-08 -1.184391e-08 -1.428664e-08 -1.212855e-08 -1.068695e-08 -1.225003e-08 -1.059803e-08 -9.789029e-09 -1.044667e-08 -1.009486e-08
-9.289113e-09 -1.040915e-08 -1.036558e-08 -9.752426e-09 -7.983778e-09 -8.205822e-09 -9.105506e-09 -8.535788e-09 -6.978973e-09 -7.416521e-09
-4.870996e-09 -6.587630e-09 -6.016862e-09 -4.283718e-09 -4.838988e-09 -2.974133e-09 -4.757371e-09 -3.986272e-09 -2.872687e-09 -4.790825e-09
-1.999005e-09 -1.275543e-09 -4.083843e-09 -3.054831e-09 -2.699760e-09 1.656802e-10 -3.267975e-09 -9.695391e-10 -7.130357e-10 2.201845e-09
1.905665e-10 4.338761e-10 4.319990e-10 1.229582e-09 1.794565e-09 1.340487e-09 1.868403e-09 1.100420e-09 3.231308e-09 3.954513e-09
8.797148e-10 4.315591e-09 4.427568e-09 5.185617e-09 4.459592e-09 4.677700e-09 5.652312e-09 3.705892e-09 6.961745e-09 8.352562e-09
6.434271e-09 7.185220e-09 7.445555e-09 8.559797e-09 7.886040e-09 6.215943e-09 8.667850e-09 8.477108e-09 8.633676e-09 9.080162e-09
9.338387e-09 1.148285e-08 1.030859e-08 1.109067e-08 1.254746e-08 1.290229e-08 1.175384e-08 1.216056e-08 1.225617e-08 1.277259e-08
1.398743e-08 1.349519e-08 1.321474e-08 1.489724e-08 1.491800e-08 1.381264e-08 1.475187e-08 1.449278e-08 1.464825e-08 1.537406e-08
1.604212e-08 1.586423e-08 1.684396e-08 1.539992e-08 1.585714e-08 1.659788e-08 1.704866e-08 1.665321e-08 1.946379e-08 1.708886e-08
1.820928e-08 1.773155e-08 1.785730e-08 1.864310e-08 1.802189e-08 1.753225e-08 1.854685e-08 1.885352e-08 1.895693e-08 1.766489e-08
1.979512e-08 1.934135e-08 1.808086e-08 1.885230e-08 1.815981e-08 1.985491e-08 1.772290e-08 1.853629e-08 1.865992e-08 1.822335e-08
1.817685e-08 1.847045e-08 1.925998e-08 1.764534e-08 1.892874e-08 1.877002e-08 1.889984e-08 2.005807e-08 1.944726e-08 1.813769e-08
1.871905e-08 1.882199e-08 1.963487e-08 1.797267e-08 1.820128e-08 1.906889e-08 1.782909e-08 1.807326e-08 1.791356e-08 1.864669e-08
1.763235e-08 1.840674e-08 1.763736e-08 1.822044e-08 1.773159e-08 1.842793e-08 1.765343e-08 1.910978e-08 1.859200e-08 2.092117e-08
1.793658e-08 1.769650e-08 1.795771e-08 1.780084e-08 1.761760e-08 1.779566e-08 1.828658e-08 1.744559e-08 1.674919e-08 1.630093e-08
1.688800e-08 1.827819e-08 1.676029e-08 1.680938e-08 1.636596e-08 1.664383e-08 1.609196e-08 1.654189e-08 1.556471e-08 1.591576e-08
1.633275e-08 1.469292e-08 1.559408e-08 1.629770e-08 1.403311e-08 1.437466e-08 1.364703e-08 1.293646e-08 1.206494e-08 1.346031e-08
1.316424e-08 1.263004e-08 1.163002e-08 1.134228e-08 9.899400e-09 1.204728e-08 1.124222e-08 1.134408e-08 1.007267e-08 9.668269e-09
1.017750e-08 8.836992e-09 9.649722e-09 9.147109e-09 7.563961e-09 8.305942e-09 7.294916e-09 7.391511e-09 7.356427e-09 5.028364e-09
7.550399e-09 7.464584e-09 4.883515e-09 3.606659e-09 4.354526e-09 4.340376e-09 3.334386e-09 4.017595e-09 3.738015e-09 3.411576e-09
1.471385e-09 2.598187e-09 2.072016e-09 7.636264e-10 1.217918e-09 1.685227e-09 7.512683e-10 3.265527e-09 1.575170e-09 8.233583e-10
-7.680062e-10 -2.068866e-09 -1.028775e-09 -4.176382e-09 -2.173547e-09 -8.731473e-10 -1.588769e-09 -4.143876e-09 -3.192133e-09 -4.033559e-09
-2.435201e-09 -2.242909e-09 -3.218856e-09 -4.630071e-09 -5.007229e-09 -4.411704e-09 -8.319806e-09 -5.903351e-09 -5.767869e-09 -6.603586e-09
-7.756140e-09 -7.685724e-09 -8.691521e-09 -7.448495e-09 -6.791929e-09 -7.140928e-09 -8.886933e-09 -8.788295e-09 -8.933234e-09 -9.159456e-09
-1.132771e-08 -1.086190e-08 -1.081858e-08 -1.165625e-08 -1.252842e-08 -1.228552e-08 -1.101180e-08 -1.271729e-08 -1.344058e-08 -1.206530e-08
-1.343585e-08 -1.335679e-08 -1.372937e-08 -1.352448e-08 -1.346788e-08 -1.483102e-08 -1.497384e-08 -1.585195e-08 -1.391009e-08 -1.507781e-08
-1.675648e-08 -1.534188e-08 -1.623680e-08 -1.742207e-08 -1.613611e-08 -1.765102e-08 -1.784541e-08 -1.744204e-08 -1.731327e-08 -1.704384e-08
-1.693090e-08 -1.753871e-08 -1.781502e-08 -1.753446e-08 -1.862301e-08 -1.804614e-08 -1.796780e-08 -1.819410e-08 -1.888509e-08 -1.727634e-08
-1.944588e-08 -1.924188e-08 -1.793647e-08 -1.893621e-08 -1.911009e-08 -1.807581e-08 -1.957233e-08 -1.852885e-08 -1.934569e-08 -1.790423e-08
-1.774728e-08 -1.827841e-08 -1.793316e-08 -1.843148e-08 -1.849368e-08 -1.838599e-08 -1.827111e-08 -1.752797e-08 -1.865196e-08 -1.887797e-08
-1.735896e-08
-1.820204e-08 -1.827110e-08 -1.880770e-08 -1.841717e-08 -1.830088e-08 -1.768869e-08 -1.855867e-08 -1.773020e-08 -1.906773e-08 -1.815817e-08
-1.902731e-08 -1.852027e-08 -1.959457e-08 -1.906409e-08 -1.780224e-08 -1.905110e-08 -1.956886e-08 -1.806019e-08 -1.855100e-08 -2.048316e-08
-1.968143e-08 -1.931238e-08 -1.874680e-08 -1.954477e-08 -1.833208e-08 -1.718254e-08 -1.841654e-08 -1.855920e-08 -1.792126e-08 -1.731413e-08
-1.763077e-08 -1.707869e-08 -1.819552e-08 -1.713373e-08 -1.716422e-08 -1.608184e-08 -1.646222e-08 -1.637845e-08 -1.630134e-08 -1.828553e-08
-1.640051e-08 -1.614060e-08 -1.530763e-08 -1.659701e-08 -1.359286e-08 -1.473563e-08 -1.413110e-08 -1.434431e-08 -1.443605e-08 -1.363462e-08
-1.254043e-08 -1.211567e-08 -1.227317e-08 -1.199166e-08 -1.097763e-08 -1.186052e-08 -1.044033e-08 -1.125042e-08 -9.750189e-09 -9.558099e-09
-9.377712e-09 -8.642885e-09 -9.976946e-09 -8.631368e-09 -8.171300e-09 -7.325658e-09 -9.756838e-09 -5.941806e-09 -6.906985e-09 -7.527619e-09
-7.960792e-09 -5.327315e-09 -6.101747e-09 -4.993430e-09 -3.643409e-09 -3.812042e-09 -5.301909e-09 -3.859741e-09 -4.694793e-09 -4.168077e-09
-1.397838e-09 -2.782329e-09 -2.157804e-09 -1.342756e-09 -2.500586e-09 -1.676030e-09 -7.364711e-10 9.057769e-11 -1.744804e-09 1.406746e-09
1.087136e-09 -9.835842e-10 1.174858e-09 -5.579976e-10 8.920472e-10 1.261620e-09 2.421114e-09 1.901025e-09 3.643340e-09 1.740192e-09
1.979785e-09 3.596580e-09 2.695427e-09 3.320015e-09 4.134498e-09 4.720792e-09 5.854898e-09 3.893748e-09 5.777132e-09 6.379657e-09
5.745604e-09 6.177835e-09 6.401480e-09 9.674531e-09 8.171273e-09 7.887010e-09 9.261368e-09 8.936876e-09 8.050855e-09 9.310622e-09
9.546622e-09 1.167507e-08 1.148149e-08 9.061040e-09 1.092272e-08 1.258098e-08 1.207169e-08 1.237949e-08 1.421492e-08 1.323307e-08
1.370216e-08 1.422306e-08 1.327035e-08 1.494073e-08 1.390177e-08 1.561657e-08 1.533010e-08 1.656262e-08 1.574927e-08 1.576375e-08
1.665356e-08 1.768815e-08 1.717550e-08 1.694831e-08 1.652651e-08 1.775288e-08 1.814739e-08 1.790006e-08 1.774816e-08 2.037740e-08
1.929675e-08 1.891952e-08 1.790404e-08 1.734852e-08 1.853533e-08 1.887859e-08 1.841704e-08 1.903559e-08 1.936075e-08 1.883532e-08
1.759063e-08 1.943882e-08 2.101632e-08 1.774234e-08 1.906696e-08 1.930233e-08 2.052871e-08 1.883485e-08 1.802472e-08 1.842453e-08
1.833173e-08 1.833169e-08 1.965063e-08 1.899618e-08 1.899809e-08 1.876326e-08 1.904297e-08 1.981475e-08 1.932206e-08 1.758881e-08
1.821889e-08 1.963518e-08 1.807070e-08 1.797233e-08 1.909308e-08 1.811333e-08 1.840723e-08 1.980941e-08 1.931055e-08 1.948828e-08
1.872141e-08 1.864141e-08 1.843611e-08 1.889664e-08 1.890827e-08 1.948251e-08 1.854639e-08 1.843878e-08 1.905045e-08 1.862565e-08
1.870878e-08 2.038096e-08 1.895850e-08 1.939520e-08 1.701607e-08 1.817213e-08 1.817876e-08 1.877098e-08 1.634432e-08 1.865592e-08
1.803930e-08 1.622930e-08 1.710998e-08 1.790640e-08 1.666221e-08 1.752677e-08 1.565575e-08 1.620252e-08 1.665788e-08 1.579804e-08
1.610608e-08 1.491420e-08 1.443134e-08 1.428009e-08 1.345442e-08 1.527413e-08 1.432994e-08 1.412735e-08 1.403024e-08 1.377499e-08
1.189378e-08 1.370310e-08 1.317465e-08 1.228014e-08 1.196484e-08 1.086957e-08 1.193852e-08 1.045476e-08 1.088261e-08 1.088290e-08
9.960995e-09 1.109053e-08 1.002853e-08 9.036254e-09 6.246850e-09 8.330866e-09 6.719056e-09 6.483834e-09 7.063699e-09 7.539666e-09
5.796174e-09 4.568644e-09 5.114236e-09 5.584523e-09 7.295871e-09 3.379760e-09 3.792845e-09 2.962569e-09 4.453748e-09 3.975532e-09
2.074345e-09 5.622182e-11 2.033119e-09 3.618509e-09 5.073413e-10 1.618281e-09 5.726787e-10 -5.786193e-10 5.016067e-10 -1.584726e-09
-8.478335e-10 -1.074518e-09 -2.473929e-10 -2.263779e-09 -2.676326e-09 -2.480131e-09 -2.574017e-09 -3.718601e-09 -1.150919e-09 -9.743676e-10
-4.189668e-09 -4.062237e-09 -3.530787e-09 -4.989216e-09 -4.513122e-09 -5.474718e-09 -5.979525e-09 -4.879521e-09 -6.757763e-09 -6.345101e-09
-5.902869e-09 -1.049426e-08 -8.304194e-09 -6.269744e-09 -7.007961e-09 -1.019506e-08 -9.648900e-09 -8.432569e-09 -9.919046e-09 -9.671944e-09
-1.066089e-08 -9.890278e-09 -9.469504e-09 -1.093116e-08 -1.032529e-08 -1.164942e-08 -1.194687e-08 -1.150397e-08 -1.365711e-08 -1.255169e-08
-1.323769e-08 -1.268217e-08 -1.327149e-08 -1.328977e-08 -1.375473e-08 -1.444672e-08 -1.524769e-08 -1.444656e-08 -1.687674e-08 -1.547066e-08
-1.557397e-08 -1.622479e-08 -1.662910e-08 -1.637296e-08 -1.646023e-08 -1.699734e-08 -1.747923e-08 -1.764154e-08 -1.659703e-08 -1.648726e-08
-1.822166e-08 -1.864303e-08 -1.709675e-08 -1.793236e-08 -1.931068e-08 -1.751659e-08 -1.757184e-08 -1.864749e-08 -1.816346e-08 -1.839817e-08
-1.978959e-08 -1.871472e-08 -1.796849e-08 -1.881598e-08 -1.946317e-08 -1.743705e-08 -1.999177e-08 -1.906585e-08 -1.819750e-08 -1.795281e-08
-1.792970e-08 -1.869893e-08 -1.808314e-08 -1.830340e-08 -1.821689e-08 -1.791031e-08 -1.862662e-08 -1.812395e-08 -1.882802e-08 -1.823099e-08
-1.820204e-08
-1.845446e-08 -1.823709e-08 -1.807512e-08 -1.760378e-08 -1.779110e-08 -1.850814e-08 -1.867789e-08 -1.959695e-08 -1.843067e-08 -1.885464e-08
-1.901411e-08 -1.797108e-08 -1.930956e-08 -1.888569e-08 -1.929322e-08 -1.878655e-08 -1.871558e-08 -1.764803e-08 -1.826158e-08 -1.887671e-08
-1.843055e-08 -1.915315e-08 -1.781699e-08 -1.805599e-08 -1.833487e-08 -1.886903e-08 -1.814631e-08 -1.787483e-08 -1.778774e-08 -1.760923e-08
-1.790281e-08 -1.663664e-08 -1.851703e-08 -1.632713e-08 -1.590335e-08 -1.664613e-08 -1.768881e-08 -1.620099e-08 -1.622384e-08 -1.630104e-08
-1.660075e-08 -1.706553e-08 -1.594404e-08 -1.588778e-08 -1.511116e-08 -1.403376e-08 -1.469232e-08 -1.465011e-08 -1.309587e-08 -1.310843e-08
-1.264078e-08 -1.192239e-08 -1.364523e-08 -1.254105e-08 -1.219573e-08 -1.248555e-08 -1.311910e-08 -1.098678e-08 -1.053928e-08 -8.537332e-09
-9.133775e-09 -1.099612e-08 -8.736223e-09 -8.858406e-09 -9.099902e-09 -7.895708e-09 -8.774573e-09 -7.508993e-09 -6.880548e-09 -7.508809e-09
-6.898615e-09 -7.294465e-09 -5.761547e-09 -6.477341e-09 -5.032977e-09 -6.633980e-09 -3.332726e-09 -4.701711e-09 -2.596870e-09 -3.297093e-09
-3.891091e-09 -2.319291e-09 -2.209348e-09 -2.836740e-09 -1.500742e-09 -4.157397e-10 -1.933243e-09 -8.790785e-10 -1.049042e-09 -3.863389e-10
-3.991829e-11 -6.985629e-11 -4.196391e-10 9.386688e-11 1.879316e-09 1.501042e-09 2.151940e-09 7.657734e-10 3.543618e-09 3.078599e-09
2.765229e-09 3.075902e-09 3.551464e-09 5.692406e-09 2.653570e-09 4.343279e-09 4.559484e-09 7.534628e-09 5.971558e-09 6.623458e-09
6.488015e-09 6.920432e-09 6.168479e-09 8.991374e-09 9.195715e-09 8.427425e-09 8.087912e-09 9.713207e-09 1.174999e-08 8.439511e-09
1.146565e-08 1.106933e-08 1.050817e-08 1.122852e-08 1.099065e-08 1.212232e-08 1.234702e-08 1.220044e-08 1.411470e-08 1.497445e-08
1.309531e-08 1.465910e-08 1.440704e-08 1.369243e-08 1.418440e-08 1.560502e-08 1.523362e-08 1.616374e-08 1.668345e-08 1.627671e-08
1.737745e-08 1.645270e-08 1.564641e-08 1.605958e-08 1.660651e-08 1.637919e-08 1.723290e-08 1.648283e-08 1.693996e-08 1.904714e-08
1.747830e-08 1.754773e-08 1.814604e-08 1.889783e-08 1.865912e-08 1.773544e-08 1.886991e-08 1.810119e-08 1.971720e-08 1.867584e-08
1.831399e-08 1.811935e-08 1.908438e-08 1.897621e-08 1.911030e-08 1.845790e-08 2.045241e-08 1.896975e-08 1.930243e-08 1.877859e-08
1.883662e-08 1.938234e-08 1.872289e-08 1.854437e-08 1.923057e-08 1.978305e-08 1.794990e-08 1.811899e-08 1.825773e-08 1.828500e-08
1.811271e-08 1.750202e-08 1.889768e-08 1.784530e-08 1.994754e-08 1.950180e-08 1.927104e-08 1.842442e-08 2.008143e-08 1.826429e-08
1.870132e-08 1.858556e-08 1.848772e-08 1.821418e-08 1.906693e-08 2.005880e-08 1.934835e-08 1.821455e-08 1.778326e-08 1.951549e-08
1.750791e-08 1.865507e-08 1.840358e-08 1.822524e-08 1.906149e-08 1.775368e-08 1.977539e-08 1.784931e-08 1.800069e-08 1.766200e-08
1.712770e-08 1.784153e-08 1.719716e-08 1.630306e-08 1.668868e-08 1.608141e-08 1.548625e-08 1.670651e-08 1.549528e-08 1.576502e-08
1.497585e-08 1.526368e-08 1.589526e-08 1.522652e-08 1.473644e-08 1.516954e-08 1.527355e-08 1.337703e-08 1.478278e-08 1.250252e-08
1.237951e-08 1.229759e-08 1.203562e-08 1.188833e-08 1.066684e-08 1.074147e-08 1.112424e-08 1.099735e-08 1.078555e-08 9.381879e-09
8.714218e-09 1.010036e-08 8.944354e-09 8.921866e-09 9.460908e-09 7.013086e-09 7.033992e-09 6.868384e-09 5.321562e-09 7.895333e-09
7.564449e-09 4.291997e-09 4.248156e-09 6.923572e-09 4.559540e-09 3.897819e-09 3.681382e-09 3.749939e-09 4.400513e-09 3.781910e-09
7.729080e-10 2.711052e-09 3.227551e-09 1.761081e-09 2.074073e-09 1.763539e-09 -7.317627e-10 8.328978e-10 6.031378e-10 1.584304e-09
-6.827237e-10 8.085803e-10 -1.156453e-09 -1.860910e-09 -2.879948e-09 -1.273519e-09 1.517277e-10 -2.350617e-09 -3.395618e-09 -3.072183e-09
-5.771508e-09 -3.227612e-09 -3.996508e-09 -3.814453e-09 -7.038715e-09 -4.246573e-09 -4.355028e-09 -6.272129e-09 -6.500930e-09 -7.221416e-09
-6.162432e-09 -7.186255e-09 -8.000609e-09 -7.042664e-09 -7.505833e-09 -9.984160e-09 -7.972433e-09 -8.308130e-09 -1.006089e-08 -1.079179e-08
-8.328378e-09 -1.169578e-08 -1.325810e-08 -1.113308e-08 -1.009652e-08 -1.253167e-08 -1.178840e-08 -1.208211e-08 -1.281066e-08 -1.337241e-08
-1.218810e-08 -1.342349e-08 -1.344854e-08 -1.425226e-08 -1.530523e-08 -1.477452e-08 -1.517759e-08 -1.432749e-08 -1.571583e-08 -1.619093e-08
-1.630634e-08 -1.671694e-08 -1.648055e-08 -1.617051e-08 -1.797337e-08 -1.837805e-08 -1.736355e-08 -1.786749e-08 -1.720843e-08 -1.657012e-08
-1.703241e-08 -1.863667e-08 -1.784469e-08 -1.762656e-08 -1.773142e-08 -1.805425e-08 -1.773160e-08 -1.841530e-08 -1.955291e-08 -1.988948e-08
-1.849494e-08 -1.862785e-08 -2.052305e-08 -1.841980e-08 -1.823182e-08 -1.720030e-08 -1.786211e-08 -1.879853e-08 -1.784002e-08 -1.792742e-08
-1.862537e-08 -1.840435e-08 -1.926341e-08 -1.751483e-08 -1.928139e-08 -1.828613e-08 -1.970587e-08 -1.909893e-08 -1.894564e-08 -1.864665e-08
-1.845446e-08
-1.818153e-08 -1.883976e-08 -1.813204e-08 -1.803337e-08 -1.794828e-08 -1.901699e-08 -1.891368e-08 -1.896919e-08 -1.947472e-08 -1.888399e-08
-1.954399e-08 -1.903439e-08 -1.837304e-08 -2.016426e-08 -1.842912e-08 -1.772546e-08 -1.886131e-08 -1.863175e-08 -1.838755e-08 -1.864557e-08
-1.899847e-08 -1.790960e-08 -1.809080e-08 -1.923626e-08 -1.766740e-08 -1.722719e-08 -1.965945e-08 -1.747450e-08 -1.718294e-08 -1.705663e-08
-1.821748e-08 -1.651332e-08 -1.709503e-08 -1.608926e-08 -1.668455e-08 -1.795042e-08 -1.627399e-08 -1.691407e-08 -1.552960e-08 -1.561257e-08
-1.661576e-08 -1.571070e-08 -1.471879e-08 -1.421159e-08 -1.408859e-08 -1.482846e-08 -1.416455e-08 -1.432482e-08 -1.376634e-08 -1.295789e-08
-1.294062e-08 -1.254273e-08 -1.169602e-08 -1.153361e-08 -1.180688e-08 -1.209864e-08 -1.068253e-08 -1.018289e-08 -1.061892e-08 -1.181959e-08
-8.755436e-09 -9.289608e-09 -9.877043e-09 -9.373863e-09 -7.430552e-09 -7.399196e-09 -7.691472e-09 -6.024332e-09 -6.973456e-09 -7.503068e-09
-6.119396e-09 -8.252549e-09 -5.524248e-09 -5.548019e-09 -3.413783e-09 -4.613623e-09 -4.361599e-09 -4.262580e-09 -4.045690e-09 -1.999567e-09
-2.991185e-09 -2.671196e-09 -1.883486e-09 -5.349972e-10 -2.946223e-09 -6.971264e-10 -1.970079e-09 8.586540e-10 8.540458e-10 -1.370449e-09
-8.881503e-10 1.450190e-10 -1.174535e-10 2.882541e-09 2.201006e-09 1.805826e-09 7.248642e-10 4.227080e-09 2.504407e-09 3.158975e-09
4.609889e-09 4.979361e-09 4.002556e-09 4.249913e-09 6.258799e-09 4.530080e-09 5.463942e-09 7.695810e-09 6.965196e-09 5.881543e-09
6.095120e-09 6.999743e-09 7.270972e-09 7.868848e-09 8.314513e-09 9.940288e-09 8.825022e-09 9.481834e-09 1.100274e-08 1.095527e-08
1.034701e-08 1.087372e-08 1.018198e-08 1.135177e-08 1.128832e-08 1.263260e-08 1.342225e-08 1.229512e-08 1.284435e-08 1.317507e-08
1.369040e-08 1.318591e-08 1.390698e-08 1.550686e-08 1.571766e-08 1.485770e-08 1.476567e-08 1.731022e-08 1.500244e-08 1.617814e-08
1.578087e-08 1.569098e-08 1.648587e-08 1.785049e-08 1.617921e-08 1.734571e-08 1.792503e-08 1.896049e-08 1.753394e-08 1.927018e-08
1.807099e-08 1.759954e-08 1.736068e-08 1.855653e-08 1.765270e-08 1.881880e-08 2.029118e-08 2.085429e-08 2.023564e-08 1.910876e-08
1.875094e-08 1.968715e-08 1.823172e-08 1.938246e-08 1.929893e-08 1.875813e-08 1.982783e-08 2.043185e-08 1.808822e-08 1.897200e-08
1.904590e-08 1.841101e-08 1.874755e-08 1.963987e-08 1.878873e-08 1.908404e-08 1.858683e-08 1.867916e-08 1.773615e-08 1.876750e-08
1.844102e-08 1.836749e-08 1.957389e-08 1.780374e-08 1.913201e-08 1.823972e-08 1.808193e-08 1.904827e-08 1.875785e-08 1.916168e-08
1.922806e-08 1.961566e-08 2.015460e-08 1.853402e-08 1.881058e-08 1.896894e-08 1.885893e-08 1.836996e-08 1.932155e-08 1.800585e-08
1.899694e-08 1.856567e-08 1.758236e-08 1.830262e-08 1.788182e-08 1.737587e-08 1.762248e-08 1.839124e-08 1.694867e-08 1.654198e-08
1.802850e-08 1.762018e-08 1.717365e-08 1.697664e-08 1.711129e-08 1.705138e-08 1.779350e-08 1.544518e-08 1.598405e-08 1.499054e-08
1.528196e-08 1.566676e-08 1.430237e-08 1.476353e-08 1.459583e-08 1.406438e-08 1.322378e-08 1.315833e-08 1.382352e-08 1.337885e-08
1.418889e-08 1.440984e-08 1.182286e-08 1.210035e-08 1.266094e-08 9.681474e-09 1.154643e-08 1.107707e-08 9.794595e-09 9.284620e-09
1.084762e-08 8.338066e-09 9.101133e-09 7.529080e-09 9.044745e-09 7.743641e-09 8.245143e-09 7.155336e-09 6.518208e-09 5.115483e-09
7.307255e-09 8.381032e-09 5.061762e-09 6.186262e-09 3.932919e-09 3.415827e-09 5.046939e-09 6.543084e-09 3.391180e-09 1.280394e-09
2.187353e-09 2.589865e-09 3.308880e-09 1.026396e-09 9.756970e-10 2.928336e-09 2.513359e-09 2.013493e-09 7.913020e-10 1.494384e-10
7.906114e-10 -9.980123e-10 -3.174816e-09 -2.221886e-09 -1.588526e-09 -3.082346e-09 -9.586482e-10 -1.714169e-09 -2.878006e-09 -3.192260e-09
-5.844532e-09 -5.304864e-09 -4.565572e-09 -4.500459e-09 -3.654185e-09 -5.581494e-09 -4.415162e-09 -6.624447e-09 -7.833171e-09 -6.514512e-09
-7.434454e-09 -7.936475e-09 -6.670927e-09 -8.361777e-09 -8.719790e-09 -8.275395e-09 -9.116413e-09 -9.058103e-09 -9.362176e-09 -9.317033e-09
-1.082651e-08 -1.018748e-08 -1.139588e-08 -1.182744e-08 -1.279578e-08 -1.148982e-08 -1.129978e-08 -1.269714e-08 -1.355822e-08 -1.152570e-08
-1.404591e-08 -1.358551e-08 -1.484966e-08 -1.490446e-08 -1.422038e-08 -1.634819e-08 -1.481995e-08 -1.413198e-08 -1.564011e-08 -1.823704e-08
-1.490912e-08 -1.512438e-08 -1.714445e-08 -1.657953e-08 -1.698938e-08 -1.699745e-08 -1.725205e-08 -1.648927e-08 -1.662452e-08 -1.747565e-08
-1.734693e-08 -1.936240e-08 -1.799746e-08 -1.809146e-08 -1.906061e-08 -1.839236e-08 -1.844531e-08 -1.852576e-08 -1.961269e-08 -1.883765e-08
-1.906795e-08 -1.908188e-08 -1.865821e-08 -1.911667e-08 -1.797276e-08 -2.012393e-08 -1.862726e-08 -1.819788e-08 -1.877354e-08 -1.884911e-08
-1.771831e-08 -1.743442e-08 -1.889254e-08 -1.916562e-08 -1.814969e-08 -1.801172e-08 -1.955134e-08 -1.835851e-08 -1.793534e-08 -1.783279e-08
-1.818153e-08
-1.843546e-08 -1.911346e-08 -1.735402e-08 -1.772797e-08 -1.815248e-08 -1.972872e-08 -1.863174e-08 -1.812701e-08 -1.788919e-08 -1.900916e-08
-1.850754e-08 -1.821618e-08 -2.034370e-08 -1.965029e-08 -1.929012e-08 -1.951281e-08 -1.830685e-08 -2.034321e-08 -1.872980e-08 -1.829862e-08
-1.892676e-08 -1.829328e-08 -1.772994e-08 -1.791525e-08 -1.815556e-08 -1.903509e-08 -1.823536e-08 -1.965013e-08 -1.756689e-08 -1.853214e-08
-1.894745e-08 -1.696237e-08 -1.802949e-08 -1.718750e-08 -1.705343e-08 -1.634709e-08 -1.710323e-08 -1.724625e-08 -1.659563e-08 -1.599798e-08
-1.606348e-08 -1.568839e-08 -1.608328e-08 -1.637755e-08 -1.554913e-08 -1.494969e-08 -1.577220e-08 -1.419341e-08 -1.465407e-08 -1.353626e-08
-1.257045e-08 -1.194484e-08 -1.379673e-08 -1.273286e-08 -1.276845e-08 -1.157674e-08 -1.093121e-08 -1.212528e-08 -1.045119e-08 -1.199170e-08
-1.191362e-08 -1.057569e-08 -9.678420e-09 -1.050615e-08 -9.684684e-09 -8.958748e-09 -7.195414e-09 -8.038781e-09 -6.690065e-09 -5.514377e-09
-6.740866e-09 -5.732120e-09 -6.232062e-09 -6.059372e-09 -5.976262e-09 -5.911556e-09 -6.060112e-09 -4.287051e-09 -2.951451e-09 -1.137135e-09
-4.226614e-09 -2.453081e-09 -2.016410e-09 -3.516637e-09 -2.552171e-09 -2.107979e-09 -1.847114e-09 1.141315e-09 -8.071854e-10 -6.173101e-10
-1.286116e-11 1.684453e-11 -7.395718e-11 6.942782e-10 1.032729e-09 1.138843e-09 1.063708e-09 1.242795e-09 2.299820e-09 3.827076e-09
3.740556e-09 3.227030e-09 3.631931e-09 4.664991e-09 4.664181e-09 6.121966e-09 6.397499e-09 4.572521e-09 7.473012e-09 8.632228e-09
5.492809e-09 6.717727e-09 7.013489e-09 8.129104e-09 9.589159e-09 7.916770e-09 9.769297e-09 9.571593e-09 9.146521e-09 9.211362e-09
1.081254e-08 1.132688e-08 1.031420e-08 1.277387e-08 1.132214e-08 1.271170e-08 1.248215e-08 1.381444e-08 1.297084e-08 1.353753e-08
1.371863e-08 1.352345e-08 1.408345e-08 1.461381e-08 1.438633e-08 1.500962e-08 1.505395e-08 1.649685e-08 1.628615e-08 1.556253e-08
1.658133e-08 1.655392e-08 1.687234e-08 1.738472e-08 1.785684e-08 1.771798e-08 1.795048e-08 1.700472e-08 1.909668e-08 1.842303e-08
1.874346e-08 1.865683e-08 2.001652e-08 1.889338e-08 1.941344e-08 1.855050e-08 1.918320e-08 1.871438e-08 1.887517e-08 1.920987e-08
1.840060e-08 1.892292e-08 1.868667e-08 1.934548e-08 1.989275e-08 1.936293e-08 1.850065e-08 1.769965e-08 1.895142e-08 2.007432e-08
1.967904e-08 1.877053e-08 1.939037e-08 1.988573e-08 2.002777e-08 1.951138e-08 1.981751e-08 1.948753e-08 1.976839e-08 1.955288e-08
1.843407e-08 1.831567e-08 1.861447e-08 1.879832e-08 1.882170e-08 1.820241e-08 1.926861e-08 1.795432e-08 1.991202e-08 1.792858e-08
1.816394e-08 2.002944e-08 1.935932e-08 1.908632e-08 1.822667e-08 1.992826e-08 1.820399e-08 1.934220e-08 1.986511e-08 1.770146e-08
1.895718e-08 1.846081e-08 1.914386e-08 1.975551e-08 1.888009e-08 1.715456e-08 1.833195e-08 1.754658e-08 1.795362e-08 1.766791e-08
1.712945e-08 1.810391e-08 1.730941e-08 1.709265e-08 1.880726e-08 1.742715e-08 1.707258e-08 1.768975e-08 1.593715e-08 1.484445e-08
1.568387e-08 1.588713e-08 1.499006e-08 1.420422e-08 1.517213e-08 1.497588e-08 1.323248e-08 1.439942e-08 1.360773e-08 1.367077e-08
1.324137e-08 1.222330e-08 1.155115e-08 1.285751e-08 1.219823e-08 1.124743e-08 1.338542e-08 9.998757e-09 1.065345e-08 9.128286e-09
8.427064e-09 1.005535e-08 9.398322e-09 8.511620e-09 9.802725e-09 8.187246e-09 6.701802e-09 6.678277e-09 8.711766e-09 5.854143e-09
6.446946e-09 4.585260e-09 4.653215e-09 4.290614e-09 5.572707e-09 6.021383e-09 2.156277e-09 4.234098e-09 3.521599e-09 1.931371e-09
1.255407e-09 4.355992e-09 2.995478e-09 2.701828e-09 2.761172e-09 2.212247e-09 9.699629e-10 2.532612e-10 1.458567e-09 -5.727570e-10
9.173334e-11 -1.173948e-09 -1.394365e-09 -1.778376e-09 1.296863e-09 -8.651813e-10 -1.909557e-09 -2.878594e-09 -1.223912e-09 -2.256644e-09
-2.823896e-09 -4.556932e-09 -3.863444e-09 -3.269212e-09 -4.312178e-09 -4.978916e-09 -4.946641e-09 -4.488413e-09 -6.826413e-09 -6.783549e-09
-7.411560e-09 -6.970731e-09 -7.303529e-09 -1.014151e-08 -7.846670e-09 -8.023112e-09 -8.392204e-09 -9.430487e-09 -1.064876e-08 -1.053539e-08
-8.791409e-09 -1.100129e-08 -1.048024e-08 -1.070887e-08 -1.304484e-08 -1.221403e-08 -1.145271e-08 -1.304621e-08 -1.193369e-08 -1.361880e-08
-1.339821e-08 -1.339353e-08 -1.599609e-08 -1.521459e-08 -1.489901e-08 -1.439114e-08 -1.535770e-08 -1.473131e-08 -1.576199e-08 -1.663607e-08
-1.740100e-08 -1.708472e-08 -1.643259e-08 -1.761226e-08 -1.645653e-08 -1.606861e-08 -1.668198e-08 -1.802024e-08 -1.739952e-08 -1.832342e-08
-1.806124e-08 -1.808843e-08 -1.794143e-08 -1.965770e-08 -1.830771e-08 -1.864832e-08 -1.856476e-08 -1.883603e-08 -1.937549e-08 -1.813686e-08
-1.909683e-08 -1.910893e-08 -1.921651e-08 -1.921042e-08 -1.853746e-08 -1.983202e-08 -1.927029e-08 -1.859652e-08 -1.901379e-08 -1.853281e-08
-1.867319e-08 -1.929046e-08 -1.931286e-08 -1.823728e-08 -1.710221e-08 -1.915708e-08 -1.912306e-08 -1.819557e-08 -1.768952e-08 -1.793117e-08
-1.843546e-08
-1.886730e-08 -2.011378e-08 -1.816237e-08 -1.814405e-08 -1.825926e-08 -1.878630e-08 -1.767853e-08 -1.915006e-08 -1.829632e-08 -1.876320e-08
-1.890062e-08 -1.836312e-08 -1.898448e-08 -1.799565e-08 -1.905375e-08 -1.934084e-08 -1.850130e-08 -1.983946e-08 -2.034130e-08 -1.913186e-08
-1.847250e-08 -1.923170e-08 -1.892832e-08 -1.919014e-08 -1.981280e-08 -1.743785e-08 -1.839030e-08 -1.755336e-08 -1.688997e-08 -1.804481e-08
-1.703726e-08 -1.884128e-08 -1.833667e-08 -1.646769e-08 -1.768496e-08 -1.714567e-08 -1.702505e-08 -1.639841e-08 -1.533338e-08 -1.566897e-08
-1.688731e-08 -1.602736e-08 -1.509558e-08 -1.481285e-08 -1.469359e-08 -1.494566e-08 -1.505160e-08 -1.488323e-08 -1.389645e-08 -1.273613e-08
-1.319700e-08 -1.329873e-08 -1.216773e-08 -1.206519e-08 -1.163864e-08 -1.148082e-08 -1.117818e-08 -1.080049e-08 -1.127592e-08 -9.181378e-09
-8.934617e-09 -9.880434e-09 -9.732655e-09 -1.125140e-08 -7.510561e-09 -9.159294e-09 -7.201789e-09 -6.048554e-09 -5.533702e-09 -8.466759e-09
-6.368408e-09 -8.058613e-09 -5.633192e-09 -6.070083e-09 -6.681077e-09 -4.570448e-09 -5.144345e-09 -3.443086e-09 -2.777814e-09 -5.625214e-09
-2.783279e-09 -2.911205e-09 -3.157940e-09 -3.605752e-09 -1.665061e-09 -2.219772e-09 -1.184080e-09 -1.107054e-09 -2.091461e-09 -1.128604e-09
7.621423e-10 1.259365e-09 -2.799769e-10 2.912713e-10 2.322565e-10 1.392296e-09 2.208623e-09 3.267019e-09 3.542511e-09 2.779348e-09
4.070873e-09 4.946739e-09 3.504386e-09 4.787499e-09 6.941099e-09 5.577453e-09 7.205655e-09 4.046463e-09 5.956255e-09 6.255088e-09
8.053688e-09 5.953507e-09 6.332994e-09 7.686587e-09 8.575802e-09 9.353404e-09 9.383382e-09 8.935342e-09 1.094785e-08 1.113500e-08
9.611090e-09 1.051690e-08 1.038502e-08 1.166199e-08 1.214501e-08 1.284709e-08 1.115433e-08 1.427050e-08 1.328236e-08 1.353799e-08
1.393815e-08 1.332669e-08 1.509645e-08 1.442178e-08 1.395137e-08 1.571524e-08 1.472253e-08 1.474222e-08 1.536374e-08 1.722473e-08
1.576877e-08 1.681642e-08 1.614048e-08 1.652106e-08 1.738348e-08 1.657446e-08 1.810073e-08 1.834685e-08 1.809573e-08 1.914292e-08
1.754103e-08 2.006131e-08 1.845530e-08 1.826880e-08 1.881116e-08 1.833951e-08 1.967852e-08 1.868452e-08 1.898631e-08 2.039489e-08
1.993014e-08 1.883889e-08 1.866154e-08 2.154595e-08 1.933694e-08 1.885338e-08 1.999717e-08 1.935503e-08 1.792798e-08 1.886938e-08
1.972257e-08 2.032587e-08 1.898760e-08 1.947494e-08 1.869855e-08 1.894622e-08 1.935417e-08 1.937847e-08 1.912357e-08 1.832397e-08
1.846920e-08 1.956104e-08 1.806127e-08 1.921796e-08 1.890626e-08 1.891963e-08 1.768154e-08 1.908690e-08 1.949727e-08 1.926856e-08
1.965844e-08 1.935747e-08 2.020188e-08 2.001543e-08 1.953042e-08 1.990223e-08 1.849626e-08 1.882604e-08 1.871583e-08 1.864632e-08
1.933351e-08 2.010410e-08 1.786907e-08 1.794371e-08 1.804762e-08 1.796809e-08 1.868163e-08 1.771927e-08 1.772193e-08 1.821770e-08
1.881343e-08 1.780049e-08 1.672060e-08 1.677348e-08 1.811403e-08 1.745725e-08 1.637019e-08 1.557834e-08 1.611868e-08 1.737445e-08
1.574826e-08 1.485939e-08 1.559620e-08 1.399556e-08 1.415877e-08 1.411246e-08 1.376151e-08 1.485604e-08 1.479783e-08 1.255863e-08
1.285442e-08 1.252093e-08 1.184989e-08 1.485986e-08 1.197302e-08 1.091322e-08 1.131415e-08 1.079252e-08 1.144321e-08 9.344679e-09
9.851712e-09 1.095886e-08 8.093947e-09 9.827191e-09 8.087063e-09 7.787341e-09 9.273200e-09 8.642059e-09 8.013819e-09 6.296300e-09
4.475069e-09 6.230152e-09 6.255600e-09 6.398030e-09 4.741175e-09 4.678195e-09 3.839236e-09 3.011499e-09 4.849251e-09 3.868857e-09
2.717036e-09 2.271338e-09 -5.624477e-10 3.782174e-09 1.109864e-09 2.320607e-09 1.311424e-09 7.596814e-10 -5.133901e-11 -1.711967e-09
1.386657e-10 4.621599e-10 9.626206e-10 -1.388342e-09 -2.564602e-09 -1.247764e-09 -2.859739e-09 -1.775918e-09 -1.524756e-09 -4.086679e-09
-2.026177e-09 -3.791291e-09 -3.075773e-09 -5.254603e-09 -4.604623e-09 -6.269037e-09 -6.326621e-09 -5.784247e-09 -5.749039e-09 -6.491513e-09
-6.924790e-09 -7.678379e-09 -7.783830e-09 -8.158803e-09 -7.871677e-09 -7.710781e-09 -7.899101e-09 -1.053692e-08 -7.948516e-09 -9.626886e-09
-1.115894e-08 -8.973221e-09 -1.090678e-08 -1.163024e-08 -1.362448e-08 -1.202513e-08 -1.271187e-08 -1.184983e-08 -1.381883e-08 -1.327272e-08
-1.366830e-08 -1.333342e-08 -1.373932e-08 -1.460376e-08 -1.472999e-08 -1.391356e-08 -1.522199e-08 -1.522737e-08 -1.630453e-08 -1.581281e-08
-1.612500e-08 -1.743714e-08 -1.699415e-08 -1.782906e-08 -1.730277e-08 -1.817642e-08 -1.853825e-08 -1.777715e-08 -1.907200e-08 -1.918191e-08
-1.873508e-08 -1.747057e-08 -1.787855e-08 -1.856387e-08 -1.854596e-08 -1.852068e-08 -1.888533e-08 -1.806638e-08 -1.841997e-08 -1.911214e-08
-1.778379e-08 -1.855882e-08 -1.808471e-08 -1.914887e-08 -1.803249e-08 -1.933062e-08 -1.804778e-08 -1.869386e-08 -1.864968e-08 -1.903972e-08
-2.011475e-08 -1.847159e-08 -1.863529e-08 -1.840153e-08 -1.745113e-08 -1.856941e-08 -1.915296e-08 -1.796182e-08 -1.850158e-08 -1.827720e-08
-1.886730e-08
-1.775600e-08 -1.827961e-08 -1.896748e-08 -1.867934e-08 -1.870542e-08 -1.924115e-08 -1.862807e-08 -1.975300e-08 -1.889877e-08 -1.941101e-08
-1.871737e-08 -1.872935e-08 -2.051351e-08 -2.001540e-08 -1.932269e-08 -1.877988e-08 -1.817570e-08 -1.892794e-08 -1.908515e-08 -2.035745e-08
-1.947389e-08 -1.868798e-08 -1.865028e-08 -1.792422e-08 -1.892204e-08 -1.896374e-08 -1.969028e-08 -1.868644e-08 -1.820766e-08 -1.782020e-08
-1.893600e-08 -1.814250e-08 -1.757231e-08 -1.757398e-08 -1.700837e-08 -1.754854e-08 -1.661719e-08 -1.676585e-08 -1.680771e-08 -1.611431e-08
-1.614186e-08 -1.554696e-08 -1.755224e-08 -1.411203e-08 -1.515852e-08 -1.430682e-08 -1.513740e-08 -1.334512e-08 -1.279082e-08 -1.323469e-08
-1.408166e-08 -1.342385e-08 -1.382578e-08 -1.229455e-08 -1.141121e-08 -1.194452e-08 -1.337017e-08 -1.084997e-08 -1.098124e-08 -1.268849e-08
-1.024921e-08 -1.000689e-08 -8.525549e-09 -8.793539e-09 -8.108592e-09 -1.023065e-08 -7.137511e-09 -7.140718e-09 -8.047318e-09 -6.369225e-09
-7.244321e-09 -6.536276e-09 -6.287993e-09 -5.497350e-09 -5.326043e-09 -5.211974e-09 -4.670832e-09 -3.775210e-09 -3.728484e-09 -5.252118e-09
-3.341903e-09 -4.688044e-09 -8.859862e-10 -1.409953e-09 -1.089153e-09 -1.037596e-09 -2.540183e-09 -1.950222e-10 2.357939e-10 -6.390447e-10
-6.307756e-10 -4.688277e-10 1.773839e-09 1.188769e-09 3.760283e-10 1.095390e-09 2.453903e-09 1.480034e-09 1.414199e-09 3.938736e-09
2.477210e-09 3.575889e-09 2.861172e-09 4.932400e-09 5.688511e-09 3.455761e-09 4.069928e-09 5.475449e-09 4.842492e-09 6.571116e-09
8.448520e-09 6.896388e-09 8.042663e-09 8.131946e-09 7.157728e-09 8.804709e-09 9.203323e-09 1.011685e-08 9.829053e-09 1.182823e-08
1.011453e-08 1.033462e-08 1.136671e-08 9.920499e-09 1.254415e-08 1.182163e-08 1.321064e-08 1.169009e-08 1.352960e-08 1.498267e-08
1.440811e-08 1.409615e-08 1.464388e-08 1.461972e-08 1.575877e-08 1.620806e-08 1.492107e-08 1.562833e-08 1.730432e-08 1.587889e-08
1.719963e-08 1.747905e-08 1.680102e-08 1.814010e-08 1.685811e-08 1.714806e-08 1.883065e-08 1.888992e-08 1.835674e-08 1.855157e-08
1.741241e-08 1.851310e-08 1.842868e-08 1.917432e-08 1.991622e-08 1.940233e-08 1.966482e-08 1.914633e-08 1.870651e-08 1.909872e-08
1.885755e-08 1.872239e-08 1.915871e-08 1.905021e-08 1.929869e-08 1.865933e-08 1.932343e-08 1.940967e-08 1.927395e-08 2.049146e-08
1.895923e-08 1.922850e-08 2.056675e-08 1.885913e-08 1.859897e-08 1.978535e-08 1.903960e-08 1.810997e-08 1.825336e-08 1.913129e-08
1.974747e-08 1.964921e-08 1.889340e-08 1.907642e-08 1.907259e-08 1.863023e-08 1.892647e-08 1.949239e-08 1.959690e-08 1.964278e-08
1.862028e-08 1.860347e-08 1.831641e-08 1.873918e-08 1.875944e-08 1.908629e-08 2.015090e-08 1.881019e-08 1.891564e-08 2.025578e-08
1.919505e-08 1.889459e-08 1.858112e-08 1.834326e-08 1.792382e-08 1.796701e-08 1.784790e-08 1.788383e-08 1.883449e-08 1.760748e-08
1.839709e-08 1.664028e-08 1.732509e-08 1.803286e-08 1.645059e-08 1.612824e-08 1.576779e-08 1.827795e-08 1.626614e-08 1.543030e-08
1.538536e-08 1.506769e-08 1.456468e-08 1.628119e-08 1.500080e-08 1.418006e-08 1.447988e-08 1.298280e-08 1.407321e-08 1.317974e-08
1.298348e-08 1.256842e-08 1.403641e-08 1.238264e-08 1.175156e-08 1.180140e-08 1.189298e-08 1.132722e-08 1.045353e-08 1.049983e-08
8.990741e-09 8.597602e-09 1.044703e-08 8.789762e-09 7.611002e-09 7.408023e-09 9.545004e-09 7.681641e-09 9.199066e-09 7.611128e-09
5.062486e-09 7.563885e-09 6.411703e-09 4.406112e-09 4.475653e-09 4.597638e-09 3.774342e-09 3.095950e-09 3.452896e-09 3.927347e-09
3.671257e-09 1.551446e-09 1.776745e-09 2.094658e-09 2.868964e-09 2.103540e-10 -4.964995e-10 1.493650e-09 1.634801e-09 3.295295e-09
4.057124e-10 -2.225944e-09 9.736928e-10 -1.817665e-09 -1.276215e-09 -2.859850e-09 -4.625862e-09 -1.275117e-09 -3.270352e-09 -4.387178e-09
-3.685828e-09 -3.722940e-09 -3.537407e-09 -5.401265e-09 -4.600489e-09 -3.549476e-09 -4.665328e-09 -5.827074e-09 -6.485801e-09 -6.074636e-09
-5.870594e-09 -7.054368e-09 -8.491128e-09 -7.020083e-09 -9.161936e-09 -9.641727e-09 -8.772893e-09 -9.546737e-09 -9.121495e-09 -1.033315e-08
-1.242889e-08 -1.156684e-08 -1.111175e-08 -1.128181e-08 -1.211769e-08 -1.148324e-08 -1.163499e-08 -1.321871e-08 -1.265119e-08 -1.289858e-08
-1.376453e-08 -1.350428e-08 -1.479412e-08 -1.516475e-08 -1.412901e-08 -1.495484e-08 -1.422028e-08 -1.457058e-08 -1.587022e-08 -1.765934e-08
-1.588973e-08 -1.658237e-08 -1.694902e-08 -1.676704e-08 -1.805119e-08 -1.688461e-08 -1.722563e-08 -1.744028e-08 -1.768895e-08 -1.759737e-08
-1.788468e-08 -1.859393e-08 -1.739275e-08 -1.689877e-08 -1.827569e-08 -1.832922e-08 -1.907699e-08 -1.852782e-08 -1.829511e-08 -1.888438e-08
-1.833934e-08 -2.102690e-08 -1.888745e-08 -1.950266e-08 -1.841519e-08 -1.942205e-08 -2.086873e-08 -1.793235e-08 -1.945595e-08 -1.848791e-08
-1.789425e-08 -1.989801e-08 -1.851226e-08 -1.834259e-08 -1.896034e-08 -1.804358e-08 -1.796887e-08 -1.859916e-08 -1.740415e-08 -1.903619e-08
-1.775600e-08
-1.746838e-08 -1.795181e-08 -1.814653e-08 -1.868005e-08 -1.926259e-08 -1.843249e-08 -1.786911e-08 -1.804072e-08 -1.803730e-08 -1.833346e-08
-1.832991e-08 -1.894131e-08 -1.870447e-08 -1.952167e-08 -1.868982e-08 -2.020263e-08 -1.885149e-08 -1.924622e-08 -1.983445e-08 -1.923879e-08
-1.883232e-08 -1.983388e-08 -1.979603e-08 -1.909636e-08 -1.884325e-08 -1.908858e-08 -1.900877e-08 -1.965086e-08 -1.757442e-08 -1.766957e-08
-1.944208e-08 -1.881880e-08 -1.702662e-08 -1.789841e-08 -1.840585e-08 -1.765068e-08 -1.710679e-08 -1.685684e-08 -1.617330e-08 -1.648126e-08
-1.525302e-08 -1.583807e-08 -1.544476e-08 -1.448308e-08 -1.561498e-08 -1.450827e-08 -1.458967e-08 -1.442383e-08 -1.467256e-08 -1.405317e-08
-1.255858e-08 -1.235799e-08 -1.340531e-08 -1.221972e-08 -1.181994e-08 -1.235181e-08 -1.109909e-08 -1.007022e-08 -1.034917e-08 -1.091931e-08
-1.017856e-08 -9.519659e-09 -1.054901e-08 -8.694922e-09 -8.351291e-09 -8.361398e-09 -8.594996e-09 -8.719734e-09 -6.927079e-09 -6.188654e-09
-6.810828e-09 -6.574543e-09 -7.426807e-09 -6.136316e-09 -4.672447e-09 -5.185372e-09 -5.348499e-09 -4.561062e-09 -3.161869e-09 -2.700780e-09
-1.106030e-09 -2.063038e-09 -1.994313e-09 -2.213379e-09 -1.189573e-09 -1.487393e-09 -4.039969e-10 2.191031e-10 3.939441e-10 -2.844138e-10
-1.658257e-09 4.425289e-10 2.871434e-09 1.924021e-09 2.465371e-10 6.763050e-10 2.748125e-09 4.659693e-10 2.710687e-09 2.011146e-09
2.873442e-09 4.656134e-09 2.737606e-09 6.448364e-09 4.857737e-09 6.230140e-09 4.422345e-09 5.054954e-09 5.279514e-09 7.171197e-09
5.344085e-09 7.387238e-09 4.747872e-09 8.126836e-09 9.104087e-09 7.684307e-09 8.033179e-09 1.002520e-08 9.474491e-09 1.025094e-08
9.968232e-09 9.402505e-09 1.077388e-08 1.193572e-08 1.282223e-08 1.230144e-08 1.250638e-08 1.378974e-08 1.443949e-08 1.327868e-08
1.374489e-08 1.409022e-08 1.486750e-08 1.497954e-08 1.437786e-08 1.600815e-08 1.592516e-08 1.614762e-08 1.608007e-08 1.729879e-08
1.578951e-08 1.814556e-08 1.827198e-08 1.811736e-08 1.666698e-08 1.866138e-08 1.805834e-08 1.971926e-08 1.868230e-08 1.937232e-08
1.860404e-08 1.882518e-08 1.892572e-08 1.861282e-08 1.917946e-08 1.916127e-08 2.079615e-08 2.003461e-08 1.861370e-08 1.954661e-08
2.103177e-08 1.979721e-08 1.897061e-08 2.013896e-08 1.923524e-08 2.020174e-08 1.999930e-08 1.990520e-08 1.975966e-08 1.993311e-08
1.917557e-08 2.037095e-08 1.926760e-08 1.929524e-08 1.892789e-08 1.851598e-08 1.870498e-08 1.838274e-08 1.988193e-08 1.835785e-08
1.884609e-08 1.855379e-08 1.733798e-08 1.960029e-08 1.814953e-08 1.946842e-08 1.832499e-08 1.903328e-08 1.839391e-08 1.805834e-08
1.947458e-08 2.013130e-08 1.969154e-08 1.896459e-08 1.947769e-08 2.001740e-08 1.909294e-08 1.883844e-08 1.841628e-08 1.923744e-08
1.890128e-08 1.895343e-08 1.877131e-08 1.802442e-08 1.784737e-08 1.845372e-08 1.794431e-08 1.885922e-08 1.821876e-08 1.801838e-08
1.754390e-08 1.697178e-08 1.692211e-08 1.693449e-08 1.603124e-08 1.812371e-08 1.680233e-08 1.711656e-08 1.675691e-08 1.636985e-08
1.528167e-08 1.684919e-08 1.545877e-08 1.440371e-08 1.574583e-08 1.487995e-08 1.354449e-08 1.328423e-08 1.384338e-08 1.281991e-08
1.413107e-08 1.451963e-08 1.123099e-08 1.237013e-08 1.044081e-08 1.209003e-08 1.204710e-08 9.900312e-09 1.223935e-08 9.527716e-09
1.071663e-08 1.066365e-08 9.321528e-09 8.794214e-09 8.911500e-09 9.240518e-09 7.015220e-09 6.904569e-09 7.396110e-09 5.993072e-09
6.768742e-09 6.808612e-09 5.331100e-09 4.679899e-09 4.597753e-09 3.896255e-09 3.378185e-09 4.347147e-09 3.321148e-09 3.688187e-09
2.994190e-09 3.758227e-09 2.308606e-09 2.644790e-09 1.238610e-10 1.137988e-09 5.346646e-10 -1.065212e-09 1.228642e-09 7.866185e-10
-1.594544e-09 -7.289982e-10 -3.852931e-11 -1.405280e-09 -1.500713e-09 -1.483793e-09 -4.894586e-10 -2.605844e-09 -4.773001e-10 -4.092854e-09
-3.159894e-09 -3.898572e-09 -5.208639e-09 -4.833813e-09 -5.165583e-09 -4.519237e-09 -5.463133e-09 -8.191755e-09 -4.951404e-09 -5.941179e-09
-6.006796e-09 -7.448122e-09 -7.266989e-09 -9.558882e-09 -7.673414e-09 -9.203625e-09 -8.783213e-09 -1.009910e-08 -9.881588e-09 -1.120227e-08
-1.065563e-08 -1.145505e-08 -1.046578e-08 -1.132572e-08 -1.126147e-08 -1.225994e-08 -1.352776e-08 -1.314892e-08 -1.258033e-08 -1.403159e-08
-1.451978e-08 -1.496675e-08 -1.400146e-08 -1.365807e-08 -1.503843e-08 -1.627552e-08 -1.484556e-08 -1.488922e-08 -1.491534e-08 -1.614239e-08
-1.699658e-08 -1.572680e-08 -1.671164e-08 -1.723212e-08 -1.701215e-08 -1.678611e-08 -1.761754e-08 -1.765174e-08 -1.770836e-08 -1.906769e-08
-1.792611e-08 -1.788545e-08 -1.995098e-08 -1.834997e-08 -1.752172e-08 -1.858672e-08 -1.911736e-08 -1.908556e-08 -1.798936e-08 -1.924874e-08
-1.893178e-08 -1.883329e-08 -1.930115e-08 -1.973626e-08 -1.952501e-08 -2.000396e-08 -1.954003e-08 -1.824591e-08 -1.859573e-08 -1.998084e-08
-1.814144e-08 -1.939674e-08 -1.783772e-08 -1.898744e-08 -1.915028e-08 -1.949182e-08 -1.851151e-08 -1.797089e-08 -1.827164e-08 -1.747664e-08
-1.746838e-08
-1.779588e-08 -1.773281e-08 -1.822505e-08 -1.873727e-08 -1.849062e-08 -1.811768e-08 -1.908472e-08 -2.033206e-08 -1.922511e-08 -1.979903e-08
-2.084969e-08 -1.938551e-08 -1.818537e-08 -1.886395e-08 -1.842680e-08 -1.884944e-08 -1.871654e-08 -1.950393e-08 -1.817212e-08 -1.895726e-08
-1.824463e-08 -1.835364e-08 -1.977824e-08 -1.999889e-08 -1.806210e-08 -1.824216e-08 -1.916004e-08 -1.729922e-08 -1.854688e-08 -1.709253e-08
-1.824789e-08 -1.869786e-08 -1.782566e-08 -1.725408e-08 -1.802923e-08 -1.692840e-08 -1.674006e-08 -1.631773e-08 -1.645417e-08 -1.639810e-08
-1.491721e-08 -1.544571e-08 -1.634475e-08 -1.475934e-08 -1.494971e-08 -1.521873e-08 -1.362717e-08 -1.365602e-08 -1.410888e-08 -1.452106e-08
-1.476023e-08 -1.436231e-08 -1.198849e-08 -1.265088e-08 -1.303804e-08 -1.258947e-08 -1.154971e-08 -1.165611e-08 -1.274392e-08 -1.083617e-08
-1.092044e-08 -9.965906e-09 -1.055948e-08 -8.121137e-09 -8.657257e-09 -9.140862e-09 -6.493423e-09 -7.422766e-09 -7.566586e-09 -7.521437e-09
-6.594524e-09 -5.912485e-09 -6.159147e-09 -5.946411e-09 -5.101592e-09 -3.761591e-09 -6.248365e-09 -3.534975e-09 -2.142319e-09 -2.390995e-09
-3.870789e-09 -4.186584e-09 -1.988952e-09 -1.805749e-09 -3.170034e-09 -4.015861e-09 5.543025e-11 -1.500585e-09 8.972164e-11 -1.916005e-10
2.461555e-10 1.266752e-09 3.110257e-09 1.165966e-09 8.162903e-10 5.948299e-10 2.546821e-09 2.148259e-09 2.305553e-09 3.020919e-09
2.681893e-09 3.042191e-09 4.953483e-09 5.788687e-09 4.397218e-09 4.489041e-09 4.613824e-09 5.405806e-09 5.355412e-09 7.734065e-09
6.905866e-09 7.349199e-09 7.601119e-09 7.537555e-09 7.399525e-09 7.288705e-09 8.255971e-09 1.070339e-08 8.992988e-09 1.090426e-08
1.044881e-08 1.160575e-08 1.212750e-08 1.180959e-08 1.241840e-08 1.276479e-08 1.258563e-08 1.211088e-08 1.307976e-08 1.275437e-08
1.387842e-08 1.464142e-08 1.412277e-08 1.549586e-08 1.485372e-08 1.653014e-08 1.499640e-08 1.645530e-08 1.588037e-08 1.685482e-08
1.640477e-08 1.727027e-08 1.656611e-08 1.748547e-08 1.671599e-08 1.820363e-08 1.691862e-08 1.860533e-08 1.950052e-08 1.780016e-08
1.818794e-08 1.875815e-08 1.938353e-08 1.940882e-08 1.998971e-08 1.973108e-08 1.867848e-08 2.102782e-08 1.976048e-08 2.036895e-08
2.011089e-08 1.882798e-08 1.870733e-08 2.088441e-08 1.940965e-08 1.979415e-08 1.956821e-08 1.942971e-08 1.950045e-08 2.066163e-08
1.881241e-08 2.014444e-08 1.914094e-08 1.964797e-08 1.755192e-08 1.853325e-08 2.067532e-08 1.803622e-08 1.720990e-08 1.919627e-08
1.887978e-08 1.789833e-08 1.774521e-08 1.937507e-08 1.946564e-08 1.776349e-08 1.809733e-08 1.915748e-08 1.886973e-08 1.909113e-08
1.894709e-08 1.898921e-08 1.784611e-08 1.965852e-08 1.823155e-08 1.990510e-08 1.853290e-08 1.860918e-08 2.038187e-08 1.912284e-08
1.960976e-08 1.816909e-08 1.875600e-08 1.860009e-08 1.781021e-08 1.772340e-08 1.822600e-08 1.782445e-08 1.824354e-08 1.844189e-08
1.855697e-08 1.765568e-08 1.829702e-08 1.689414e-08 1.704841e-08 1.616883e-08 1.640321e-08 1.608154e-08 1.566361e-08 1.538078e-08
1.692516e-08 1.577467e-08 1.618997e-08 1.719281e-08 1.586510e-08 1.518613e-08 1.379775e-08 1.265998e-08 1.348313e-08 1.308147e-08
1.202060e-08 1.177724e-08 1.310999e-08 1.324744e-08 1.252562e-08 1.096997e-08 1.213235e-08 1.049483e-08 1.035152e-08 9.894364e-09
9.701598e-09 8.547629e-09 8.545169e-09 1.106508e-08 9.112763e-09 7.744035e-09 8.873974e-09 7.617738e-09 6.435857e-09 6.516082e-09
7.059274e-09 7.086725e-09 6.570462e-09 6.430893e-09 4.108436e-09 6.260821e-09 5.052701e-09 4.912717e-09 5.264230e-09 3.042173e-09
1.909549e-09 2.604120e-09 2.212802e-09 1.923231e-09 5.392869e-10 8.036408e-10 1.775338e-10 2.298873e-09 -1.063890e-12 -6.162959e-11
1.934615e-10 -2.189233e-10 -5.293019e-10 -7.684791e-10 -3.118164e-09 -2.072754e-09 -3.281831e-09 -1.385848e-09 -2.947782e-09 -5.176361e-09
-3.700482e-09 -2.949096e-09 -5.250879e-09 -3.740790e-09 -5.111549e-09 -5.214213e-09 -3.894927e-09 -6.700109e-09 -6.291175e-09 -6.116748e-09
-7.628032e-09 -7.765699e-09 -7.540286e-09 -9.340680e-09 -8.231718e-09 -1.019526e-08 -1.027701e-08 -1.037384e-08 -1.047834e-08 -9.014340e-09
-1.040030e-08 -1.014548e-08 -1.128544e-08 -1.234476e-08 -1.222860e-08 -1.145617e-08 -1.320243e-08 -1.393510e-08 -1.394098e-08 -1.467981e-08
-1.477558e-08 -1.391160e-08 -1.433048e-08 -1.470467e-08 -1.559393e-08 -1.456336e-08 -1.479306e-08 -1.457511e-08 -1.754997e-08 -1.592647e-08
-1.549374e-08 -1.819753e-08 -1.737810e-08 -1.695356e-08 -1.691742e-08 -1.795961e-08 -1.747492e-08 -1.834603e-08 -1.810462e-08 -1.895535e-08
-1.833293e-08 -1.817824e-08 -1.907347e-08 -1.848961e-08 -1.853929e-08 -1.924469e-08 -1.926171e-08 -1.841344e-08 -1.917896e-08 -1.939397e-08
-1.947001e-08 -1.946595e-08 -1.950740e-08 -1.816842e-08 -1.868418e-08 -1.974673e-08 -1.918656e-08 -1.910797e-08 -1.844210e-08 -1.852209e-08
-2.027760e-08 -1.943161e-08 -1.942573e-08 -1.820459e-08 -1.783694e-08 -1.989355e-08 -1.838138e-08 -1.842911e-08 -1.766048e-08 -1.887501e-08
-1.779588e-08
-1.829691e-08 -1.791351e-08 -1.823746e-08 -1.765169e-08 -1.897773e-08 -1.835277e-08 -1.892957e-08 -1.826497e-08 -1.829668e-08 -1.914521e-08
-1.782955e-08 -1.938787e-08 -1.910540e-08 -1.878633e-08 -1.936750e-08 -1.906628e-08 -1.879863e-08 -1.809520e-08 -2.006550e-08 -1.994225e-08
-1.930534e-08 -1.934949e-08 -1.924738e-08 -1.873496e-08 -1.908406e-08 -1.834761e-08 -1.843096e-08 -1.786234e-08 -1.869196e-08 -1.855697e-08
-1.862417e-08 -1.742998e-08 -1.822879e-08 -1.765503e-08 -1.687319e-08 -1.737403e-08 -1.755555e-08 -1.607695e-08 -1.652344e-08 -1.645382e-08
-1.578320e-08 -1.698564e-08 -1.611384e-08 -1.585013e-08 -1.630359e-08 -1.615618e-08 -1.399527e-08 -1.411039e-08 -1.389125e-08 -1.433852e-08
-1.455520e-08 -1.324812e-08 -1.191206e-08 -1.179146e-08 -1.184965e-08 -1.204743e-08 -1.096205e-08 -1.100691e-08 -1.047735e-08 -1.057751e-08
-9.812472e-09 -9.696143e-09 -9.214225e-09 -9.713788e-09 -8.878965e-09 -8.135724e-09 -9.105535e-09 -8.004974e-09 -8.501563e-09 -6.912693e-09
-6.151193e-09 -7.461572e-09 -6.766188e-09 -5.353071e-09 -4.274188e-09 -4.680051e-09 -4.684108e-09 -3.218962e-09 -3.630666e-09 -3.415387e-09
-2.411109e-09 -2.980137e-09 -2.347066e-09 -1.582650e-09 -3.998528e-09 -1.562646e-09 -7.509222e-10 -2.988260e-10 -1.347381e-09 2.995443e-10
-6.422243e-10 -1.419993e-09 -2.055045e-10 1.127443e-09 -1.992031e-09 2.109316e-09 1.056896e-09 2.309600e-09 2.217815e-09 1.950920e-09
2.895068e-09 4.374735e-09 2.292059e-09 5.432933e-09 4.332376e-09 3.770368e-09 5.870902e-09 6.523756e-09 6.383217e-09 6.053441e-09
7.693624e-09 6.913528e-09 8.299534e-09 8.342652e-09 7.866721e-09 1.043346e-08 9.884680e-09 1.096067e-08 8.931021e-09 9.889916e-09
1.080911e-08 1.083421e-08 1.154105e-08 1.071112e-08 1.215412e-08 1.260630e-08 1.384041e-08 1.251055e-08 1.347604e-08 1.306422e-08
1.435835e-08 1.454272e-08 1.492934e-08 1.430047e-08 1.495348e-08 1.502482e-08 1.627023e-08 1.567448e-08 1.781168e-08 1.628650e-08
1.751759e-08 1.829534e-08 1.785209e-08 1.736826e-08 1.774046e-08 1.931029e-08 1.901631e-08 1.754362e-08 1.796683e-08 1.928261e-08
1.902946e-08 1.887757e-08 1.919429e-08 1.975319e-08 1.934014e-08 1.993389e-08 1.981624e-08 1.931421e-08 2.030375e-08 2.132453e-08
1.965532e-08 1.993910e-08 1.884533e-08 1.951301e-08 2.026994e-08 2.016193e-08 2.068595e-08 1.990026e-08 2.094764e-08 1.929800e-08
2.038266e-08 2.022154e-08 2.014887e-08 1.950870e-08 2.096398e-08 1.841577e-08 1.846038e-08 1.809124e-08 1.846680e-08 1.902738e-08
1.921236e-08 1.924177e-08 1.890807e-08 1.867631e-08 1.761268e-08 1.969814e-08 1.876206e-08 1.916612e-08 1.966240e-08 1.840555e-08
2.006760e-08 1.880097e-08 1.946273e-08 1.820335e-08 1.868147e-08 1.830893e-08 1.932398e-08 1.895162e-08 1.926391e-08 1.818088e-08
1.881896e-08 1.879567e-08 1.925050e-08 2.086493e-08 1.865928e-08 1.881763e-08 1.773792e-08 1.794922e-08 1.775653e-08 1.876716e-08
1.860685e-08 1.805168e-08 1.710591e-08 1.670226e-08 1.747566e-08 1.633546e-08 1.789661e-08 1.663886e-08 1.688518e-08 1.568915e-08
1.578994e-08 1.526613e-08 1.544049e-08 1.419413e-08 1.495690e-08 1.487125e-08 1.473257e-08 1.390104e-08 1.444834e-08 1.279711e-08
1.455503e-08 1.284119e-08 1.361806e-08 1.144937e-08 1.138604e-08 1.191852e-08 1.211806e-08 1.126189e-08 1.089673e-08 1.045732e-08
1.020285e-08 8.156773e-09 8.276293e-09 1.001032e-08 7.224612e-09 7.198567e-09 9.731305e-09 7.512191e-09 7.123857e-09 5.274590e-09
6.094483e-09 5.643364e-09 4.650147e-09 7.025770e-09 5.012087e-09 5.116681e-09 3.435946e-09 4.648157e-09 4.460805e-09 4.801064e-09
2.675684e-09 2.855536e-09 2.097720e-09 2.178316e-09 1.997305e-09 -6.528985e-11 5.838940e-10 4.624106e-10 -6.264462e-10 5.223468e-10
-1.307134e-09 -1.004902e-09 -1.523571e-09 -3.042121e-09 -9.471596e-10 -1.880945e-09 -2.635436e-09 -2.881601e-09 -3.296203e-09 -4.200552e-09
-4.806395e-09 -4.183107e-09 -4.931330e-09 -5.144473e-09 -3.977275e-09 -5.442254e-09 -4.785797e-09 -6.273503e-09 -5.510406e-09 -5.406541e-09
-7.254978e-09 -6.096781e-09 -6.360872e-09 -7.490025e-09 -8.855094e-09 -7.329403e-09 -8.793691e-09 -8.439857e-09 -9.215191e-09 -1.247627e-08
-1.111910e-08 -1.081928e-08 -1.163896e-08 -1.115727e-08 -1.186880e-08 -1.357665e-08 -1.367733e-08 -1.293445e-08 -1.367254e-08 -1.267237e-08
-1.431910e-08 -1.399767e-08 -1.454655e-08 -1.554307e-08 -1.497687e-08 -1.563681e-08 -1.599036e-08 -1.660849e-08 -1.567100e-08 -1.591718e-08
-1.644767e-08 -1.814599e-08 -1.865331e-08 -1.677983e-08 -1.808153e-08 -1.801729e-08 -1.778795e-08 -1.901108e-08 -1.798465e-08 -1.714828e-08
-1.825880e-08 -1.940501e-08 -1.784945e-08 -1.882819e-08 -1.835741e-08 -1.933392e-08 -1.892942e-08 -1.964982e-08 -2.012357e-08 -1.865152e-08
-1.880730e-08 -1.936924e-08 -1.925608e-08 -1.869728e-08 -1.902463e-08 -1.861834e-08 -1.965860e-08 -1.811222e-08 -1.905362e-08 -1.888433e-08
-1.948673e-08 -1.913160e-08 -1.952952e-08 -2.093308e-08 -1.806770e-08 -1.849629e-08 -1.844666e-08 -1.839828e-08 -1.778895e-08 -1.782156e-08
-1.829691e-08
-1.756206e-08 -1.864676e-08 -1.869893e-08 -1.855867e-08 -1.809109e-08 -1.831289e-08 -1.801330e-08 -1.867291e-08 -1.855536e-08 -1.858540e-08
-1.954645e-08 -1.874229e-08 -1.899613e-08 -1.799466e-08 -1.845965e-08 -1.790133e-08 -1.921037e-08 -1.864668e-08 -1.811947e-08 -1.957416e-08
-1.915327e-08 -1.851269e-08 -1.786704e-08 -1.879700e-08 -1.897171e-08 -1.970626e-08 -1.835554e-08 -1.772504e-08 -1.890275e-08 -1.880166e-08
-1.792216e-08 -1.648070e-08 -1.738826e-08 -1.703699e-08 -1.735226e-08 -1.789915e-08 -1.689476e-08 -1.599803e-08 -1.597085e-08 -1.647461e-08
-1.718672e-08 -1.567051e-08 -1.672578e-08 -1.621855e-08 -1.556114e-08 -1.481146e-08 -1.512836e-08 -1.360364e-08 -1.449699e-08 -1.449284e-08
-1.434605e-08 -1.377015e-08 -1.273355e-08 -1.219444e-08 -1.140370e-08 -1.151060e-08 -1.087534e-08 -1.076033e-08 -1.130275e-08 -1.145004e-08
-1.141915e-08 -9.824282e-09 -8.929386e-09 -1.029887e-08 -7.360786e-09 -8.310388e-09 -7.801201e-09 -9.147219e-09 -8.122925e-09 -7.148833e-09
-6.778980e-09 -6.212866e-09 -5.952952e-09 -5.298733e-09 -5.059318e-09 -5.484571e-09 -5.745978e-09 -4.128458e-09 -5.595383e-09 -3.362495e-09
-2.943614e-09 -2.017957e-09 -3.001329e-09 -2.444497e-09 -5.585553e-10 -1.363889e-09 -1.423630e-09 -6.907090e-10 -4.477478e-10 -8.736905e-10
2.490995e-10 1.435359e-10 4.570709e-10 1.252068e-09 1.281768e-09 -2.906550e-10 2.834632e-09 2.706341e-09 2.279351e-09 3.105900e-09
1.814546e-09 5.002509e-09 4.865512e-09 2.824034e-09 6.530373e-09 5.664077e-09 3.507073e-09 5.565834e-09 6.622622e-09 5.747676e-09
8.049173e-09 5.965019e-09 7.433693e-09 8.581572e-09 9.445626e-09 7.861916e-09 8.960272e-09 8.969226e-09 9.300911e-09 1.044270e-08
9.420540e-09 9.877790e-09 1.126773e-08 1.250762e-08 1.236788e-08 1.222520e-08 1.303131e-08 1.324525e-08 1.305331e-08 1.407263e-08
1.463900e-08 1.544164e-08 1.410572e-08 1.633015e-08 1.415720e-08 1.501119e-08 1.533828e-08 1.575452e-08 1.810949e-08 1.599437e-08
1.672840e-08 1.717644e-08 1.684634e-08 1.827751e-08 1.675824e-08 1.885749e-08 1.729121e-08 1.863054e-08 1.780252e-08 1.839098e-08
2.092182e-08 1.898247e-08 1.910363e-08 1.866454e-08 1.821010e-08 1.870019e-08 1.987006e-08 1.987828e-08 1.970633e-08 1.952225e-08
2.056646e-08 2.010312e-08 1.952787e-08 1.987354e-08 1.980456e-08 1.903471e-08 2.096257e-08 1.970067e-08 1.883553e-08 2.023140e-08
1.889500e-08 2.096508e-08 2.004919e-08 1.915346e-08 1.972101e-08 2.018353e-08 1.796283e-08 1.989271e-08 1.807975e-08 1.899629e-08
1.833871e-08 1.916179e-08 1.861188e-08 1.890218e-08 1.883564e-08 1.956443e-08 1.978256e-08 2.065685e-08 1.918960e-08 2.057602e-08
1.975613e-08 1.815841e-08 1.875869e-08 1.859104e-08 1.939683e-08 1.922979e-08 1.875650e-08 1.980243e-08 1.829346e-08 1.805613e-08
1.902749e-08 1.787273e-08 1.858827e-08 1.837157e-08 1.874921e-08 1.890361e-08 1.840338e-08 1.926258e-08 1.754858e-08 1.828785e-08
1.802224e-08 1.780628e-08 1.851315e-08 1.703647e-08 1.712049e-08 1.662847e-08 1.749186e-08 1.820745e-08 1.644303e-08 1.613507e-08
1.618498e-08 1.481214e-08 1.513458e-08 1.465303e-08 1.536132e-08 1.570306e-08 1.576407e-08 1.358009e-08 1.341341e-08 1.350593e-08
1.297116e-08 1.410713e-08 1.182989e-08 1.165424e-08 1.263660e-08 1.041115e-08 1.073399e-08 1.110134e-08 1.133493e-08 1.119453e-08
9.490939e-09 9.495147e-09 8.712952e-09 9.827349e-09 6.725411e-09 7.991747e-09 8.228555e-09 7.797120e-09 8.696599e-09 7.809420e-09
6.031456e-09 5.532625e-09 5.564354e-09 6.977980e-09 7.671915e-09 4.948845e-09 4.894144e-09 4.273748e-09 4.208302e-09 2.504880e-09
2.341088e-09 2.552454e-10 2.641895e-09 1.578960e-09 2.220903e-09 -7.518876e-10 9.036872e-10 8.058906e-10 5.500050e-10 2.335809e-09
1.023316e-10 -3.207706e-10 -3.075034e-09 3.207286e-11 -2.018690e-09 -5.328524e-10 -2.540169e-09 -2.048524e-10 -3.679388e-09 -3.801023e-09
-3.771712e-09 -4.963541e-09 -4.854718e-09 -5.546182e-09 -5.656355e-09 -4.040501e-09 -5.150552e-09 -7.110662e-09 -5.955775e-09 -8.087941e-09
-6.313728e-09 -8.251358e-09 -7.527318e-09 -8.693303e-09 -8.758317e-09 -7.439321e-09 -9.224720e-09 -9.859542e-09 -1.008599e-08 -9.527297e-09
-1.176322e-08 -1.027848e-08 -1.014593e-08 -1.220609e-08 -1.276540e-08 -1.219413e-08 -1.155552e-08 -1.203029e-08 -1.275309e-08 -1.404343e-08
-1.383081e-08 -1.496527e-08 -1.527574e-08 -1.472835e-08 -1.523865e-08 -1.476085e-08 -1.599491e-08 -1.435991e-08 -1.534961e-08 -1.714166e-08
-1.622911e-08 -1.784097e-08 -1.805213e-08 -1.609514e-08 -1.747372e-08 -1.719266e-08 -1.808998e-08 -1.814488e-08 -1.863878e-08 -1.753904e-08
-1.942598e-08 -1.797055e-08 -1.953765e-08 -1.799851e-08 -1.964045e-08 -1.899162e-08 -1.887811e-08 -1.996453e-08 -1.985971e-08 -1.925902e-08
-1.877913e-08 -1.868418e-08 -1.784482e-08 -1.912849e-08 -1.976597e-08 -1.862836e-08 -1.880755e-08 -1.909100e-08 -1.963768e-08 -1.893335e-08
-1.992871e-08 -1.862393e-08 -1.903938e-08 -1.943679e-08 -1.933549e-08 -1.824187e-08 -1.889117e-08 -1.784792e-08 -1.870418e-08 -1.879499e-08
-1.756206e-08
-1.974931e-08 -1.770903e-08 -1.799078e-08 -1.878929e-08 -1.884540e-08 -1.711447e-08 -1.849307e-08 -1.802067e-08 -1.898202e-08 -1.877030e-08
-2.002455e-08 -1.838028e-08 -1.959049e-08 -1.906549e-08 -1.801470e-08 -1.954408e-08 -1.976117e-08 -1.915703e-08 -1.965253e-08 -1.921848e-08
-1.819536e-08 -1.833531e-08 -1.810985e-08 -1.859687e-08 -1.915805e-08 -1.845969e-08 -1.739696e-08 -1.876633e-08 -1.933247e-08 -1.801230e-08
-1.747774e-08 -1.825976e-08 -1.807556e-08 -1.701732e-08 -1.757762e-08 -1.771538e-08 -1.795050e-08 -1.713535e-08 -1.711261e-08 -1.813927e-08
-1.674373e-08 -1.693268e-08 -1.596872e-08 -1.541451e-08 -1.495696e-08 -1.519251e-08 -1.448374e-08 -1.469423e-08 -1.404009e-08 -1.275893e-08
-1.289119e-08 -1.391151e-08 -1.356664e-08 -1.379180e-08 -1.257280e-08 -1.117768e-08 -1.273735e-08 -1.182094e-08 -1.217547e-08 -1.055377e-08
-1.069081e-08 -1.004323e-08 -8.018879e-09 -9.738287e-09 -8.088726e-09 -8.332264e-09 -8.768120e-09 -8.784362e-09 -8.073807e-09 -7.730576e-09
-6.953857e-09 -7.580353e-09 -5.884176e-09 -5.146033e-09 -3.287682e-09 -3.534575e-09 -3.499455e-09 -4.849274e-09 -5.157703e-09 -2.623525e-09
-2.807610e-09 -4.000585e-09 -4.222252e-09 -6.948592e-10 -1.281146e-09 -1.259123e-09 7.585743e-10 2.178549e-10 -4.699455e-10 -1.757273e-10
1.319501e-09 -1.294083e-09 8.527264e-11 -2.443136e-10 1.917086e-09 1.403805e-09 2.202767e-09 2.869919e-09 3.254855e-09 3.068361e-09
3.252027e-09 4.048848e-09 5.971682e-09 4.086489e-09 7.281367e-09 5.192748e-09 7.570037e-09 7.835083e-09 4.978116e-09 7.175232e-09
7.660447e-09 7.692061e-09 7.888084e-09 8.132648e-09 9.779871e-09 8.929028e-09 9.808398e-09 9.623774e-09 1.024112e-08 1.230436e-08
1.058731e-08 1.239066e-08 1.098883e-08 1.072267e-08 1.157284e-08 1.241598e-08 1.311311e-08 1.373799e-08 1.394460e-08 1.338932e-08
1.460026e-08 1.419555e-08 1.422493e-08 1.439670e-08 1.628117e-08 1.547216e-08 1.504434e-08 1.573597e-08 1.639786e-08 1.537589e-08
1.600995e-08 1.858081e-08 1.682237e-08 1.745991e-08 1.701540e-08 1.792351e-08 1.730402e-08 1.791649e-08 1.890673e-08 1.855108e-08
1.909403e-08 1.979101e-08 1.923897e-08 1.969336e-08 1.886268e-08 2.002420e-08 1.897566e-08 2.016599e-08 1.892023e-08 1.938244e-08
1.898899e-08 1.899314e-08 1.947464e-08 1.975609e-08 1.965386e-08 2.077571e-08 2.060912e-08 1.971789e-08 1.876746e-08 1.904382e-08
1.959025e-08 1.934087e-08 2.001177e-08 1.928736e-08 2.022891e-08 1.922764e-08 1.798893e-08 1.812121e-08 1.803386e-08 1.769464e-08
1.938543e-08 1.813419e-08 1.947808e-08 1.815220e-08 1.788043e-08 1.968161e-08 1.843381e-08 1.850482e-08 1.968762e-08 1.873071e-08
1.976345e-08 1.831730e-08 2.073907e-08 1.965863e-08 2.043038e-08 1.863328e-08 1.876950e-08 1.985157e-08 1.885457e-08 2.012447e-08
1.786614e-08 1.936306e-08 1.910064e-08 1.895325e-08 1.829217e-08 1.818894e-08 1.878702e-08 1.787207e-08 1.820666e-08 1.795825e-08
1.741510e-08 1.726628e-08 1.729991e-08 1.804989e-08 1.763077e-08 1.707173e-08 1.602032e-08 1.679393e-08 1.684830e-08 1.561219e-08
1.776615e-08 1.518141e-08 1.594562e-08 1.553639e-08 1.494765e-08 1.416192e-08 1.377548e-08 1.477445e-08 1.358773e-08 1.280617e-08
1.379137e-08 1.329871e-08 1.450824e-08 1.308589e-08 1.221473e-08 1.118910e-08 1.285328e-08 1.212624e-08 1.113298e-08 1.061408e-08
9.654542e-09 9.806432e-09 1.056657e-08 9.021288e-09 9.610342e-09 8.958764e-09 7.563959e-09 8.018167e-09 8.710949e-09 7.897447e-09
6.421612e-09 6.592391e-09 6.212046e-09 5.573686e-09 3.126579e-09 5.554119e-09 3.398090e-09 2.679752e-09 3.928673e-09 2.923429e-09
3.868874e-09 1.128879e-09 3.348568e-09 1.486477e-09 3.782487e-09 1.861287e-09 3.432412e-09 9.759337e-10 2.014629e-10 -9.500822e-10
1.005939e-09 -1.901594e-10 -8.788195e-10 -1.330460e-09 -2.791788e-09 7.845289e-10 -1.649182e-10 -3.042499e-09 -1.606178e-09 -3.362124e-09
-3.649313e-09 -2.343711e-09 -2.762187e-09 -4.214208e-09 -6.816686e-09 -5.452287e-09 -6.128992e-09 -4.582889e-09 -7.162114e-09 -7.974941e-09
-8.799674e-09 -7.946852e-09 -8.744151e-09 -7.846729e-09 -7.301960e-09 -1.098028e-08 -1.015010e-08 -9.208389e-09 -9.797053e-09 -1.000650e-08
-1.072009e-08 -1.263719e-08 -9.723007e-09 -1.298839e-08 -1.194443e-08 -1.132421e-08 -1.212218e-08 -1.400889e-08 -1.275115e-08 -1.468721e-08
-1.395083e-08 -1.407408e-08 -1.555301e-08 -1.423004e-08 -1.609096e-08 -1.524702e-08 -1.484248e-08 -1.521253e-08 -1.610412e-08 -1.577136e-08
-1.629834e-08 -1.759483e-08 -1.686547e-08 -1.689588e-08 -1.962538e-08 -1.773118e-08 -1.760943e-08 -1.770139e-08 -1.794124e-08 -1.833359e-08
-1.823174e-08 -1.924307e-08 -1.944277e-08 -1.963406e-08 -1.862062e-08 -1.781963e-08 -1.888644e-08 -1.861081e-08 -1.908965e-08 -1.778629e-08
-1.938243e-08 -1.919417e-08 -1.986306e-08 -1.907440e-08 -2.089718e-08 -1.838336e-08 -2.072341e-08 -1.923393e-08 -1.894917e-08 -1.875526e-08
-1.817834e-08 -1.912425e-08 -1.853625e-08 -1.751060e-08 -1.950907e-08 -1.948953e-08 -1.916230e-08 -1.889782e-08 -1.860346e-08 -1.908702e-08
-1.974931e-08
-1.874877e-08 -1.823762e-08 -1.787817e-08 -1.841079e-08 -1.854423e-08 -1.860710e-08 -1.818620e-08 -1.795130e-08 -2.004752e-08 -1.962927e-08
-1.763685e-08 -2.083321e-08 -1.913328e-08 -1.806260e-08 -1.936761e-08 -1.869167e-08 -1.913259e-08 -1.986859e-08 -1.787792e-08 -2.060064e-08
-1.894377e-08 -1.730567e-08 -1.827975e-08 -2.046561e-08 -1.868690e-08 -1.741674e-08 -1.809868e-08 -1.941745e-08 -1.975308e-08 -1.871296e-08
-2.033372e-08 -1.826261e-08 -1.862931e-08 -1.706318e-08 -1.637891e-08 -1.637607e-08 -1.725924e-08 -1.724249e-08 -1.829523e-08 -1.596239e-08
-1.617710e-08 -1.652926e-08 -1.695438e-08 -1.593978e-08 -1.583107e-08 -1.550328e-08 -1.516242e-08 -1.465242e-08 -1.433597e-08 -1.307502e-08
-1.359749e-08 -1.436331e-08 -1.268429e-08 -1.365018e-08 -1.266405e-08 -1.168321e-08 -1.209690e-08 -1.222542e-08 -9.736365e-09 -9.559325e-09
-1.079473e-08 -1.005735e-08 -9.137239e-09 -1.009102e-08 -9.415420e-09 -7.163352e-09 -8.341490e-09 -7.654388e-09 -7.436046e-09 -6.237656e-09
-5.389632e-09 -7.814303e-09 -5.789564e-09 -6.507559e-09 -5.887684e-09 -4.181199e-09 -3.686470e-09 -2.267956e-09 -4.444744e-09 -3.526191e-09
-4.263180e-09 -9.534070e-10 -2.595130e-09 -2.671033e-09 -3.464227e-09 -2.564460e-09 -1.305399e-09 -7.530863e-10 -1.951200e-10 -4.598537e-10
-2.601641e-10 5.826467e-10 1.828156e-09 -2.529067e-10 -1.040675e-09 4.780036e-10 1.043447e-09 2.657037e-09 3.004563e-09 2.136938e-09
2.283543e-09 2.059930e-09 3.924032e-09 3.899605e-09 5.938583e-09 4.135524e-09 5.244100e-09 7.039251e-09 5.234499e-09 8.633083e-09
5.660314e-09 7.092964e-09 8.663683e-09 8.520998e-09 1.081937e-08 8.234028e-09 7.860395e-09 1.037445e-08 9.744036e-09 1.022554e-08
1.135759e-08 1.000392e-08 1.086024e-08 1.199765e-08 1.209450e-08 1.181361e-08 1.206598e-08 1.454972e-08 1.487941e-08 1.365972e-08
1.335249e-08 1.397967e-08 1.485316e-08 1.445283e-08 1.445693e-08 1.489529e-08 1.491910e-08 1.656498e-08 1.544042e-08 1.854413e-08
1.740235e-08 1.680861e-08 1.786977e-08 1.761598e-08 1.801679e-08 1.877636e-08 1.688592e-08 1.782619e-08 1.998629e-08 1.799511e-08
1.827114e-08 1.853325e-08 1.851024e-08 1.961809e-08 2.101417e-08 2.055126e-08 2.070850e-08 2.021651e-08 2.027256e-08 1.930621e-08
1.907565e-08 1.977780e-08 1.905525e-08 1.861338e-08 2.008526e-08 2.008522e-08 1.926096e-08 1.979360e-08 2.028971e-08 2.066222e-08
2.066984e-08 1.892298e-08 1.912715e-08 1.981301e-08 1.846698e-08 1.735431e-08 1.894542e-08 1.877444e-08 1.792855e-08 2.016826e-08
1.987318e-08 1.975274e-08 1.876502e-08 1.819604e-08 2.055955e-08 1.954598e-08 1.915154e-08 1.811098e-08 2.000557e-08 1.810428e-08
1.736994e-08 2.031382e-08 1.902630e-08 1.937020e-08 2.098083e-08 1.864572e-08 1.787179e-08 1.806719e-08 1.914407e-08 1.910576e-08
1.883901e-08 1.859532e-08 1.792804e-08 1.794239e-08 2.024521e-08 1.834564e-08 1.765292e-08 1.773944e-08 1.753910e-08 1.732003e-08
1.928030e-08 1.766981e-08 1.666861e-08 1.763153e-08 1.705661e-08 1.730407e-08 1.716821e-08 1.733663e-08 1.667827e-08 1.684994e-08
1.722012e-08 1.645214e-08 1.563931e-08 1.509151e-08 1.461082e-08 1.600650e-08 1.489456e-08 1.467163e-08 1.460362e-08 1.349183e-08
1.199769e-08 1.427530e-08 1.277248e-08 1.280120e-08 1.094669e-08 1.118889e-08 1.321173e-08 1.104060e-08 8.879002e-09 1.086050e-08
9.161325e-09 8.674411e-09 9.844173e-09 7.914688e-09 8.797092e-09 9.184441e-09 9.707553e-09 7.641995e-09 7.819807e-09 6.769212e-09
5.301995e-09 7.347966e-09 4.662451e-09 4.955580e-09 6.099635e-09 4.860119e-09 4.228999e-09 4.873893e-09 3.619028e-09 2.873114e-09
2.090046e-09 3.153531e-09 1.144743e-09 2.162777e-09 2.108052e-09 6.252424e-10 6.633620e-10 1.408086e-09 -4.143530e-10 -2.711444e-11
1.078806e-10 3.837433e-10 -1.304188e-09 -1.213832e-09 -4.114940e-10 -7.637093e-10 -2.200444e-09 -1.934060e-09 -1.837611e-09 -2.653564e-09
-4.067938e-09 -3.718079e-09 -4.571952e-09 -5.436808e-09 -4.591175e-09 -6.381264e-09 -5.046545e-09 -7.184455e-09 -7.474777e-09 -7.956550e-09
-6.304484e-09 -7.394673e-09 -7.749104e-09 -7.556373e-09 -9.796145e-09 -8.872468e-09 -8.081364e-09 -8.788355e-09 -8.919997e-09 -9.659768e-09
-1.335066e-08 -1.037479e-08 -1.209093e-08 -1.210491e-08 -1.095915e-08 -1.316726e-08 -1.199493e-08 -1.241671e-08 -1.294226e-08 -1.305906e-08
-1.297004e-08 -1.388132e-08 -1.425173e-08 -1.486797e-08 -1.549685e-08 -1.450478e-08 -1.483443e-08 -1.534315e-08 -1.551119e-08 -1.702243e-08
-1.614747e-08 -1.693599e-08 -1.801181e-08 -1.810101e-08 -1.847385e-08 -1.811568e-08 -1.819541e-08 -1.850301e-08 -1.769320e-08 -1.823477e-08
-1.805657e-08 -1.812208e-08 -1.947190e-08 -1.824458e-08 -1.826533e-08 -1.989273e-08 -1.925813e-08 -1.948671e-08 -1.894988e-08 -1.985555e-08
-1.904542e-08 -1.979205e-08 -1.880084e-08 -1.933540e-08 -2.015682e-08 -1.941645e-08 -1.865922e-08 -2.021138e-08 -1.921247e-08 -1.972106e-08
-1.931898e-08 -1.919523e-08 -1.982591e-08 -2.001773e-08 -1.789732e-08 -1.794561e-08 -1.893805e-08 -1.676357e-08 -1.850705e-08 -1.963069e-08
-1.874877e-08
-1.798423e-08 -1.882880e-08 -1.895444e-08 -1.854987e-08 -1.753076e-08 -1.875249e-08 -1.814900e-08 -1.811552e-08 -1.828788e-08 -1.911463e-08
-1.913358e-08 -1.825839e-08 -1.789278e-08 -2.035074e-08 -1.837254e-08 -1.835614e-08 -1.811533e-08 -1.970185e-08 -1.882473e-08 -1.933864e-08
-1.956627e-08 -1.929964e-08 -1.801443e-08 -2.007527e-08 -1.908414e-08 -1.903352e-08 -1.763949e-08 -1.913346e-08 -1.915032e-08 -1.785492e-08
-1.817413e-08 -1.809076e-08 -1.805688e-08 -1.816045e-08 -1.816844e-08 -1.710792e-08 -1.600266e-08 -1.760751e-08 -1.731617e-08 -1.636281e-08
-1.606017e-08 -1.572166e-08 -1.688657e-08 -1.554538e-08 -1.534434e-08 -1.596950e-08 -1.481451e-08 -1.578964e-08 -1.442732e-08 -1.405859e-08
-1.384607e-08 -1.355590e-08 -1.325697e-08 -1.405763e-08 -1.243112e-08 -1.124908e-08 -1.083527e-08 -1.287636e-08 -1.245898e-08 -1.111400e-08
-1.158065e-08 -1.011610e-08 -9.922679e-09 -9.316996e-09 -8.839696e-09 -7.957185e-09 -7.649906e-09 -7.661609e-09 -7.671694e-09 -7.597602e-09
-6.335389e-09 -6.422447e-09 -6.347841e-09 -4.622735e-09 -5.459463e-09 -4.708720e-09 -4.292996e-09 -2.885854e-09 -1.946564e-09 -3.183087e-09
-4.000028e-09 -3.857120e-09 -1.926708e-09 -2.584217e-09 -2.360072e-09 -1.525219e-09 -1.437228e-09 7.412380e-10 -1.068573e-09 -8.528924e-10
9.028442e-10 8.586394e-10 -7.315076e-10 9.202085e-10 3.550613e-09 2.243957e-09 2.997061e-09 7.151673e-10 2.187898e-09 2.796647e-09
3.460097e-09 3.224747e-09 3.220522e-09 4.089716e-09 4.283358e-09 4.870138e-09 5.738233e-09 5.822159e-09 5.247731e-09 7.291089e-09
6.525527e-09 6.672883e-09 7.098517e-09 8.671035e-09 8.134463e-09 8.904223e-09 8.787203e-09 8.834349e-09 1.082680e-08 1.030272e-08
1.031277e-08 1.094780e-08 1.323298e-08 1.097448e-08 1.152897e-08 1.265902e-08 1.265980e-08 1.244187e-08 1.250442e-08 1.439844e-08
1.464232e-08 1.423858e-08 1.433348e-08 1.505526e-08 1.459424e-08 1.507076e-08 1.642100e-08 1.690321e-08 1.605079e-08 1.592926e-08
1.767851e-08 1.615216e-08 1.827446e-08 1.784869e-08 1.785271e-08 1.774167e-08 1.904331e-08 1.785234e-08 1.915776e-08 1.843559e-08
1.910047e-08 1.881474e-08 1.975475e-08 1.976053e-08 1.964818e-08 1.969772e-08 2.048462e-08 1.939578e-08 2.002491e-08 1.909529e-08
1.998975e-08 2.146635e-08 1.845171e-08 2.119532e-08 1.993491e-08 2.109380e-08 2.045936e-08 1.939632e-08 2.001482e-08 1.982809e-08
1.882083e-08 1.975497e-08 1.912071e-08 2.011062e-08 2.008064e-08 1.857886e-08 1.815329e-08 1.870047e-08 1.875479e-08 1.917515e-08
1.844122e-08 1.996403e-08 1.873074e-08 1.978058e-08 1.871983e-08 1.835430e-08 1.885825e-08 2.102042e-08 1.822477e-08 1.806653e-08
1.920534e-08 2.032669e-08 2.021753e-08 1.931063e-08 1.885598e-08 1.935040e-08 1.922183e-08 2.096405e-08 1.877857e-08 2.035948e-08
1.970269e-08 1.877449e-08 1.761679e-08 1.790191e-08 1.907092e-08 1.861233e-08 1.830403e-08 1.943240e-08 1.749887e-08 1.879792e-08
1.793845e-08 1.833448e-08 1.712004e-08 1.669132e-08 1.688190e-08 1.633786e-08 1.876104e-08 1.618483e-08 1.779793e-08 1.775413e-08
1.594501e-08 1.778839e-08 1.602074e-08 1.537795e-08 1.542971e-08 1.531406e-08 1.493472e-08 1.392034e-08 1.343709e-08 1.323296e-08
1.332194e-08 1.310747e-08 1.189784e-08 1.264310e-08 1.275837e-08 1.188225e-08 1.235921e-08 1.053415e-08 1.004404e-08 1.028238e-08
9.541224e-09 9.385374e-09 9.643427e-09 1.120657e-08 9.533419e-09 8.582725e-09 9.643705e-09 6.951262e-09 6.193245e-09 6.855089e-09
5.868516e-09 6.669846e-09 5.486951e-09 5.913886e-09 6.644509e-09 5.038917e-09 1.046691e-09 2.966636e-09 3.353945e-09 2.965768e-09
2.264873e-09 2.673489e-09 2.701909e-09 4.668029e-10 3.950123e-10 1.319650e-09 5.929495e-10 1.254253e-09 1.377660e-09 2.363512e-10
-1.772581e-09 -9.340630e-10 3.668608e-10 -1.153609e-09 -1.015339e-09 -3.550998e-09 -9.070679e-10 -2.248511e-09 -2.131946e-09 -4.614299e-09
-3.268068e-09 -5.036679e-09 -2.910011e-09 -4.068393e-09 -3.363215e-09 -3.775557e-09 -7.749495e-09 -3.637157e-09 -7.493811e-09 -7.534557e-09
-6.769006e-09 -7.283726e-09 -8.749766e-09 -7.999101e-09 -8.514925e-09 -8.797062e-09 -1.201327e-08 -8.138294e-09 -1.064528e-08 -1.075825e-08
-1.079417e-08 -1.171754e-08 -1.134060e-08 -1.111679e-08 -1.199236e-08 -1.115411e-08 -1.405707e-08 -1.402865e-08 -1.246426e-08 -1.338443e-08
-1.416223e-08 -1.393031e-08 -1.445443e-08 -1.582314e-08 -1.510237e-08 -1.617168e-08 -1.713438e-08 -1.547497e-08 -1.554627e-08 -1.676553e-08
-1.703235e-08 -1.688589e-08 -1.674158e-08 -1.843735e-08 -1.815954e-08 -1.774761e-08 -1.878434e-08 -1.787026e-08 -1.828034e-08 -1.818125e-08
-1.849590e-08 -1.785955e-08 -1.870465e-08 -1.817966e-08 -1.780131e-08 -1.916506e-08 -2.000451e-08 -1.983529e-08 -1.891812e-08 -1.985825e-08
-1.978293e-08 -1.752891e-08 -1.894794e-08 -1.914603e-08 -1.922537e-08 -1.927731e-08 -1.900527e-08 -2.002715e-08 -1.843448e-08 -1.826150e-08
-1.913803e-08 -1.963261e-08 -1.907216e-08 -1.879858e-08 -1.962276e-08 -1.841739e-08 -1.883025e-08 -1.851208e-08 -1.804530e-08 -1.852327e-08
-1.798423e-08
-1.827480e-08 -1.812460e-08 -1.738850e-08 -1.839625e-08 -1.777146e-08 -1.884123e-08 -1.796384e-08 -1.787604e-08 -1.814943e-08 -1.913463e-08
-1.922959e-08 -2.069712e-08 -1.851535e-08 -1.940807e-08 -1.892907e-08 -1.896178e-08 -1.932094e-08 -1.860407e-08 -2.022036e-08 -1.879686e-08
-1.949612e-08 -1.930703e-08 -1.806897e-08 -1.896712e-08 -1.910380e-08 -1.944142e-08 -1.889803e-08 -1.830608e-08 -1.723662e-08 -1.891496e-08
-1.749066e-08 -1.837922e-08 -1.690977e-08 -1.657934e-08 -1.652076e-08 -1.824346e-08 -1.643654e-08 -1.647298e-08 -1.652037e-08 -1.612021e-08
-1.668329e-08 -1.679970e-08 -1.539992e-08 -1.539078e-08 -1.479639e-08 -1.659509e-08 -1.442087e-08 -1.485972e-08 -1.491967e-08 -1.542675e-08
-1.438398e-08 -1.258030e-08 -1.384952e-08 -1.360430e-08 -1.400232e-08 -1.284328e-08 -1.205790e-08 -1.112535e-08 -1.173920e-08 -1.029961e-08
-1.134462e-08 -1.038313e-08 -1.120581e-08 -8.312095e-09 -7.578023e-09 -7.050578e-09 -7.910257e-09 -7.296300e-09 -7.156041e-09 -7.655620e-09
-5.098105e-09 -5.362089e-09 -6.739308e-09 -4.741768e-09 -6.048891e-09 -4.563609e-09 -4.056480e-09 -3.805436e-09 -4.221241e-09 -2.811201e-09
-2.979094e-09 -3.924414e-09 -3.185077e-09 -1.078292e-09 -3.095614e-09 -4.415755e-09 1.407879e-09 -3.472043e-10 -5.713555e-10 -1.023898e-09
7.599677e-10 -2.216820e-10 1.558081e-09 2.259698e-09 1.984898e-09 2.334313e-10 2.229875e-09 4.260674e-09 4.158569e-09 2.451022e-09
4.303569e-09 3.356590e-09 4.337979e-09 4.879249e-09 4.009224e-09 3.980612e-09 4.979679e-09 4.827541e-09 4.614348e-09 6.872519e-09
7.982057e-09 7.464252e-09 8.416919e-09 7.546687e-09 8.407798e-09 1.043132e-08 8.712958e-09 8.504271e-09 1.016420e-08 1.000318e-08
1.178561e-08 9.176268e-09 1.114151e-08 1.361600e-08 1.247521e-08 1.246691e-08 1.277843e-08 1.282745e-08 1.349539e-08 1.544258e-08
1.364735e-08 1.355546e-08 1.548081e-08 1.495645e-08 1.651086e-08 1.517808e-08 1.559367e-08 1.603004e-08 1.599108e-08 1.648449e-08
1.806586e-08 1.741393e-08 1.786728e-08 1.742370e-08 1.805635e-08 1.936716e-08 1.825001e-08 1.904426e-08 1.817144e-08 1.941086e-08
1.986675e-08 1.949047e-08 2.070024e-08 1.887276e-08 1.784695e-08 1.939671e-08 1.910062e-08 1.876423e-08 1.959748e-08 1.910975e-08
1.938901e-08 1.940329e-08 1.932656e-08 1.859606e-08 1.966460e-08 1.895318e-08 1.982757e-08 1.952087e-08 2.005363e-08 1.944650e-08
2.028595e-08 1.921116e-08 2.063521e-08 1.908078e-08 1.929820e-08 1.966564e-08 1.845856e-08 1.910737e-08 1.987538e-08 1.906782e-08
1.775051e-08 1.951634e-08 1.900402e-08 1.944718e-08 2.019446e-08 1.873659e-08 1.818569e-08 2.051916e-08 1.962454e-08 2.011515e-08
1.919498e-08 1.886372e-08 1.934035e-08 1.870272e-08 1.907356e-08 1.910563e-08 1.815200e-08 1.819138e-08 1.859173e-08 1.841003e-08
1.896999e-08 1.896838e-08 1.887576e-08 1.843365e-08 1.954449e-08 1.805780e-08 1.784088e-08 1.882042e-08 1.735845e-08 1.752702e-08
1.824010e-08 1.725054e-08 1.796668e-08 1.741213e-08 1.716583e-08 1.719528e-08 1.684278e-08 1.743576e-08 1.590031e-08 1.715169e-08
1.567732e-08 1.645992e-08 1.588531e-08 1.629740e-08 1.451150e-08 1.498031e-08 1.448293e-08 1.563557e-08 1.449995e-08 1.364916e-08
1.487111e-08 1.405214e-08 1.367542e-08 1.112530e-08 1.127747e-08 1.281829e-08 1.110844e-08 1.300236e-08 1.267555e-08 1.057147e-08
9.922690e-09 9.884643e-09 1.004461e-08 9.314413e-09 8.691440e-09 6.693498e-09 7.584316e-09 7.737059e-09 7.150194e-09 5.681722e-09
6.973220e-09 5.000977e-09 5.427788e-09 4.649582e-09 3.526591e-09 2.703623e-09 5.082523e-09 3.926151e-09 2.758890e-09 3.629563e-09
3.555337e-09 1.389213e-09 1.462143e-10 2.334758e-09 3.481059e-09 1.792896e-09 -1.268142e-09 -2.722023e-10 6.718361e-10 1.845340e-09
5.699590e-10 8.145166e-11 -1.074197e-10 -8.506731e-10 -1.665842e-09 -8.188488e-10 -1.801385e-09 -2.141133e-09 -4.336156e-09 -2.328820e-09
-2.477113e-09 -3.786889e-09 -4.048752e-09 -5.054832e-09 -3.558256e-09 -4.911169e-09 -5.247664e-09 -6.329380e-09 -5.745225e-09 -5.504763e-09
-6.964980e-09 -8.966643e-09 -7.130156e-09 -7.835184e-09 -9.624586e-09 -8.613823e-09 -1.108347e-08 -1.007877e-08 -9.853625e-09 -9.215885e-09
-1.170033e-08 -1.049719e-08 -1.036832e-08 -1.116380e-08 -1.193459e-08 -1.231495e-08 -1.371169e-08 -1.295750e-08 -1.325451e-08 -1.276626e-08
-1.350157e-08 -1.362045e-08 -1.531535e-08 -1.405119e-08 -1.527752e-08 -1.490994e-08 -1.570009e-08 -1.701999e-08 -1.672576e-08 -1.757540e-08
-1.727185e-08 -1.704904e-08 -1.689344e-08 -1.793012e-08 -1.642523e-08 -1.699351e-08 -1.897934e-08 -1.729073e-08 -1.730242e-08 -1.933400e-08
-1.713433e-08 -1.778621e-08 -1.947514e-08 -1.855183e-08 -1.851224e-08 -1.930034e-08 -1.912856e-08 -1.842578e-08 -1.999972e-08 -2.007575e-08
-1.908549e-08 -1.865657e-08 -1.987029e-08 -1.900089e-08 -1.824851e-08 -1.822117e-08 -1.823054e-08 -1.852643e-08 -1.936174e-08 -1.922225e-08
-1.978967e-08 -1.916067e-08 -1.983598e-08 -1.893768e-08 -1.838926e-08 -2.005225e-08 -1.836885e-08 -1.894403e-08 -1.785765e-08 -1.852284e-08
-1.827480e-08
-1.846199e-08 -1.827489e-08 -1.830438e-08 -1.949155e-08 -1.759209e-08 -1.887989e-08 -1.818299e-08 -1.829785e-08 -1.935462e-08 -1.907839e-08
-1.937641e-08 -1.865839e-08 -1.925770e-08 -1.698463e-08 -1.883719e-08 -1.919211e-08 -1.927562e-08 -1.894891e-08 -1.868828e-08 -1.892747e-08
-1.776455e-08 -1.947110e-08 -1.733115e-08 -1.889471e-08 -1.876417e-08 -1.891969e-08 -1.839532e-08 -1.805961e-08 -1.838174e-08 -1.859720e-08
-1.876706e-08 -1.807879e-08 -1.839802e-08 -1.669658e-08 -1.648687e-08 -1.761597e-08 -1.718507e-08 -1.656216e-08 -1.780264e-08 -1.540858e-08
-1.593214e-08 -1.663487e-08 -1.603569e-08 -1.583302e-08 -1.480127e-08 -1.653128e-08 -1.395469e-08 -1.417488e-08 -1.527158e-08 -1.459717e-08
-1.260568e-08 -1.346246e-08 -1.217550e-08 -1.280586e-08 -1.328436e-08 -1.227907e-08 -1.163999e-08 -1.219280e-08 -1.241553e-08 -1.031337e-08
-9.482910e-09 -9.302990e-09 -1.013382e-08 -8.995763e-09 -9.557881e-09 -1.009282e-08 -9.057104e-09 -6.701073e-09 -7.284070e-09 -6.725955e-09
-7.315123e-09 -6.252025e-09 -7.520620e-09 -6.091748e-09 -5.825468e-09 -5.921096e-09 -1.817580e-09 -4.122894e-09 -4.239318e-09 -2.284194e-09
-2.883205e-09 -2.063737e-09 -2.688223e-09 -9.976745e-10 -2.020208e-09 1.620436e-09 -1.256332e-09 -3.463787e-09 4.762497e-10 -2.477352e-09
1.252186e-09 2.959588e-09 1.307552e-09 1.157113e-09 3.422958e-09 3.449882e-09 1.906231e-09 1.912688e-10 2.724615e-10 2.043236e-09
3.137150e-09 1.939525e-09 4.627521e-09 5.004456e-09 5.248186e-09 6.406262e-09 5.569804e-09 5.505691e-09 4.328084e-09 8.854283e-09
7.774805e-09 7.377221e-09 8.705439e-09 1.021107e-08 7.153257e-09 7.913935e-09 9.796270e-09 8.704904e-09 1.052538e-08 1.097817e-08
1.125357e-08 1.015465e-08 1.279371e-08 1.082755e-08 1.267912e-08 1.227490e-08 1.305132e-08 1.191907e-08 1.428452e-08 1.417278e-08
1.310046e-08 1.468923e-08 1.460731e-08 1.442370e-08 1.598455e-08 1.676765e-08 1.493401e-08 1.798773e-08 1.679103e-08 1.658456e-08
1.665907e-08 1.843155e-08 1.780867e-08 1.763091e-08 1.746295e-08 1.829005e-08 1.797322e-08 1.902315e-08 1.921214e-08 1.864386e-08
2.049060e-08 1.910871e-08 1.958905e-08 1.908654e-08 1.901843e-08 1.850209e-08 1.926545e-08 1.937119e-08 1.883502e-08 1.946035e-08
2.019048e-08 2.035254e-08 1.856664e-08 1.982941e-08 1.988777e-08 1.928820e-08 2.163939e-08 1.956180e-08 1.898108e-08 1.889997e-08
1.962076e-08 2.026098e-08 1.885931e-08 1.860372e-08 2.001278e-08 1.900723e-08 1.936042e-08 1.934677e-08 1.837207e-08 1.709633e-08
1.898593e-08 1.816769e-08 1.888405e-08 1.964483e-08 1.875869e-08 1.864263e-08 1.789437e-08 1.847343e-08 1.820523e-08 1.870161e-08
1.915794e-08 1.867129e-08 1.915572e-08 1.761408e-08 1.939065e-08 1.924962e-08 1.912601e-08 1.860275e-08 1.853153e-08 1.871295e-08
1.838346e-08 1.753580e-08 1.841688e-08 1.772882e-08 1.811552e-08 1.777482e-08 1.886776e-08 1.885324e-08 1.817778e-08 1.801017e-08
1.878508e-08 1.764340e-08 1.847127e-08 1.799645e-08 1.807082e-08 1.753678e-08 1.734959e-08 1.686587e-08 1.595401e-08 1.569232e-08
1.667439e-08 1.602520e-08 1.573714e-08 1.486479e-08 1.532098e-08 1.414507e-08 1.453263e-08 1.429151e-08 1.367772e-08 1.402392e-08
1.365101e-08 1.294996e-08 1.357687e-08 1.195705e-08 1.209192e-08 1.180927e-08 1.202002e-08 1.081743e-08 1.185366e-08 1.122376e-08
1.034089e-08 9.391666e-09 9.615380e-09 9.752203e-09 8.883432e-09 7.212875e-09 5.791563e-09 7.310678e-09 7.842069e-09 6.203733e-09
7.707817e-09 5.431644e-09 4.940780e-09 5.488635e-09 3.283243e-09 4.583185e-09 3.185352e-09 6.001179e-09 3.512315e-09 4.675957e-09
3.242594e-09 1.449478e-09 1.065799e-09 2.530987e-09 1.435154e-09 6.883734e-10 -5.961486e-10 1.286317e-09 -1.962013e-09 -2.168023e-10
-8.791190e-12 -2.515788e-11 -1.964108e-09 -2.099571e-09 -1.995889e-09 -3.390119e-09 -1.724367e-09 -2.235157e-09 -2.265060e-09 -2.462416e-09
-3.805745e-09 -4.356826e-09 -5.830575e-09 -4.273678e-09 -4.834412e-09 -5.255636e-09 -4.331457e-09 -7.014419e-09 -5.931527e-09 -6.297306e-09
-7.222903e-09 -7.403449e-09 -7.386467e-09 -7.595792e-09 -1.020842e-08 -9.361663e-09 -9.323134e-09 -8.179358e-09 -1.010917e-08 -1.015058e-08
-1.224895e-08 -1.027493e-08 -1.127242e-08 -1.171753e-08 -1.119185e-08 -1.139751e-08 -1.348294e-08 -1.333547e-08 -1.392969e-08 -1.336238e-08
-1.465351e-08 -1.433309e-08 -1.353269e-08 -1.591717e-08 -1.491230e-08 -1.454538e-08 -1.653554e-08 -1.741024e-08 -1.660121e-08 -1.646641e-08
-1.756225e-08 -1.734821e-08 -1.740843e-08 -1.679583e-08 -1.705740e-08 -1.715465e-08 -1.756736e-08 -1.820078e-08 -1.814999e-08 -1.937849e-08
-1.903808e-08 -1.866933e-08 -1.813362e-08 -1.897880e-08 -1.849027e-08 -1.972739e-08 -2.017883e-08 -1.947182e-08 -1.982154e-08 -1.823400e-08
-1.863292e-08 -1.807460e-08 -1.901728e-08 -1.813330e-08 -1.952237e-08 -1.914605e-08 -1.923334e-08 -1.974865e-08 -1.755899e-08 -1.995184e-08
-1.758390e-08 -2.044712e-08 -1.799483e-08 -1.829757e-08 -1.782189e-08 -1.865200e-08 -1.780180e-08 -1.860916e-08 -1.815458e-08 -1.808337e-08
-1.846199e-08
-1.678899e-08 -1.877385e-08 -1.845396e-08 -1.763649e-08 -1.844457e-08 -1.837004e-08 -1.766107e-08 -1.748081e-08 -1.912564e-08 -1.984077e-08
-1.842572e-08 -1.917623e-08 -1.924406e-08 -1.996276e-08 -1.883557e-08 -1.882825e-08 -1.939349e-08 -1.771582e-08 -1.840550e-08 -1.867928e-08
-1.888314e-08 -1.831806e-08 -1.901910e-08 -1.930128e-08 -1.950998e-08 -1.855585e-08 -1.957071e-08 -1.830105e-08 -1.866976e-08 -1.792489e-08
-1.779707e-08 -1.759548e-08 -1.852066e-08 -1.815688e-08 -1.757711e-08 -1.701048e-08 -1.676765e-08 -1.681326e-08 -1.688722e-08 -1.704194e-08
-1.526514e-08 -1.674207e-08 -1.704797e-08 -1.586621e-08 -1.518094e-08 -1.548449e-08 -1.468761e-08 -1.384905e-08 -1.445086e-08 -1.421252e-08
-1.376823e-08 -1.366196e-08 -1.457262e-08 -1.312370e-08 -1.107434e-08 -1.141778e-08 -1.233012e-08 -1.185149e-08 -1.134320e-08 -1.085904e-08
-1.149345e-08 -1.065546e-08 -9.213358e-09 -9.224023e-09 -9.196268e-09 -1.036258e-08 -9.658417e-09 -7.178888e-09 -6.714062e-09 -6.070959e-09
-6.941509e-09 -8.947168e-09 -6.651114e-09 -6.844232e-09 -6.619629e-09 -3.348630e-09 -3.842253e-09 -2.348108e-09 -6.420513e-09 -2.819146e-09
-3.229427e-09 -4.190934e-09 -2.261705e-09 -3.483073e-09 -1.716402e-09 -3.028898e-09 3.717584e-11 -1.102423e-09 -1.937201e-09 -1.268144e-09
6.463006e-10 -1.264186e-09 -3.150791e-11 -7.879512e-12 1.130354e-09 2.855751e-09 1.680717e-09 1.790271e-09 2.481455e-09 1.726238e-10
2.392535e-09 3.644603e-09 4.373029e-09 3.665853e-09 5.725932e-09 3.543607e-09 5.245688e-09 4.182340e-09 6.944811e-09 6.813062e-09
6.506054e-09 7.255081e-09 1.032515e-08 9.136511e-09 7.338878e-09 8.930253e-09 9.874650e-09 8.846133e-09 9.792136e-09 9.713437e-09
1.082532e-08 1.172018e-08 1.009421e-08 1.143494e-08 1.165330e-08 1.245996e-08 1.437946e-08 1.374071e-08 1.345702e-08 1.478879e-08
1.380038e-08 1.348993e-08 1.526750e-08 1.661028e-08 1.492864e-08 1.699433e-08 1.606141e-08 1.655747e-08 1.736762e-08 1.636417e-08
1.678073e-08 1.652388e-08 1.741665e-08 1.786258e-08 1.954415e-08 1.819412e-08 1.882837e-08 1.870554e-08 2.010868e-08 1.963102e-08
1.931402e-08 1.947546e-08 1.964854e-08 1.927241e-08 1.889094e-08 1.895405e-08 1.941259e-08 2.057756e-08 1.985135e-08 1.962138e-08
1.846864e-08 2.063138e-08 2.107817e-08 1.956054e-08 1.892830e-08 1.957646e-08 1.867486e-08 1.898531e-08 1.869255e-08 1.880494e-08
2.049397e-08 1.993228e-08 1.863824e-08 1.958696e-08 1.877512e-08 1.818371e-08 1.955433e-08 1.813635e-08 1.789487e-08 1.776139e-08
1.976340e-08 1.906993e-08 1.898280e-08 1.738922e-08 1.978585e-08 1.970185e-08 1.821806e-08 1.967339e-08 1.749986e-08 1.986106e-08
1.772555e-08 1.969126e-08 1.991564e-08 1.791818e-08 1.791753e-08 1.848863e-08 1.856568e-08 1.960982e-08 1.913875e-08 1.827452e-08
1.955749e-08 1.827196e-08 1.803997e-08 1.734912e-08 1.865765e-08 1.837770e-08 1.786864e-08 1.818851e-08 1.706964e-08 1.751401e-08
1.706761e-08 1.766710e-08 1.637687e-08 1.872208e-08 1.668224e-08 1.675429e-08 1.744318e-08 1.723825e-08 1.622088e-08 1.668333e-08
1.564225e-08 1.526358e-08 1.488743e-08 1.486978e-08 1.469557e-08 1.478422e-08 1.548281e-08 1.475844e-08 1.310490e-08 1.281971e-08
1.277956e-08 1.360208e-08 1.217385e-08 1.193679e-08 1.246185e-08 1.231369e-08 1.047748e-08 9.904927e-09 1.025487e-08 1.144355e-08
9.931167e-09 9.542283e-09 8.368668e-09 9.969977e-09 9.061442e-09 7.527530e-09 6.835691e-09 7.346800e-09 6.362753e-09 7.101634e-09
6.613933e-09 7.222788e-09 4.548117e-09 4.197396e-09 3.925030e-09 4.786866e-09 6.104602e-09 4.328137e-09 2.168599e-09 3.218042e-09
2.971867e-09 2.397444e-09 1.541795e-09 1.883735e-09 1.400673e-09 7.918105e-10 6.696529e-10 1.509878e-09 5.082965e-10 -7.880159e-10
-8.249238e-11 4.613253e-10 3.025563e-10 -6.651030e-10 -1.984280e-10 -1.084925e-09 -1.432348e-09 -1.924405e-09 -1.655583e-09 -1.906253e-09
-1.170528e-09 -5.498149e-09 -3.123577e-09 -5.131816e-09 -4.841795e-09 -4.925527e-09 -6.041152e-09 -5.269075e-09 -5.806653e-09 -6.190398e-09
-7.408616e-09 -6.270968e-09 -7.953730e-09 -7.151527e-09 -8.596589e-09 -8.922996e-09 -9.086520e-09 -9.504480e-09 -1.019713e-08 -1.029597e-08
-1.129979e-08 -1.197467e-08 -1.011744e-08 -1.187507e-08 -1.162846e-08 -1.236870e-08 -1.233723e-08 -1.401137e-08 -1.275622e-08 -1.331968e-08
-1.443331e-08 -1.415751e-08 -1.449316e-08 -1.411613e-08 -1.472117e-08 -1.595129e-08 -1.591713e-08 -1.520561e-08 -1.524922e-08 -1.594637e-08
-1.547012e-08 -1.714368e-08 -1.663009e-08 -1.724698e-08 -1.719091e-08 -1.767416e-08 -1.759597e-08 -1.742107e-08 -1.769901e-08 -1.739223e-08
-1.922528e-08 -1.924816e-08 -1.947653e-08 -1.880423e-08 -1.915622e-08 -2.016912e-08 -1.954856e-08 -1.844136e-08 -1.754320e-08 -1.859194e-08
-2.008911e-08 -1.854758e-08 -1.985438e-08 -1.972184e-08 -1.938956e-08 -1.932460e-08 -1.876028e-08 -1.781308e-08 -1.875301e-08 -1.903157e-08
-1.834411e-08 -1.757607e-08 -1.705594e-08 -1.974337e-08 -1.936302e-08 -1.934299e-08 -1.936001e-08 -1.773430e-08 -1.789703e-08 -1.859058e-08
-1.678899e-08
-1.958646e-08 -1.683833e-08 -1.786806e-08 -1.818428e-08 -1.900767e-08 -1.736367e-08 -1.786611e-08 -1.886749e-08 -1.909827e-08 -2.047742e-08
-1.929436e-08 -2.042194e-08 -1.818569e-08 -1.824701e-08 -1.890505e-08 -1.841307e-08 -1.868866e-08 -1.904822e-08 -1.966710e-08 -1.879045e-08
-1.817262e-08 -1.835194e-08 -1.788962e-08 -1.747107e-08 -1.823253e-08 -1.804282e-08 -1.915179e-08 -1.787494e-08 -1.720154e-08 -1.718734e-08
-1.837294e-08 -1.846357e-08 -1.771111e-08 -1.803134e-08 -1.753590e-08 -1.667660e-08 -1.681431e-08 -1.633147e-08 -1.640845e-08 -1.628488e-08
-1.619867e-08 -1.645481e-08 -1.677345e-08 -1.513735e-08 -1.542747e-08 -1.450385e-08 -1.492951e-08 -1.644108e-08 -1.341691e-08 -1.444091e-08
-1.315567e-08 -1.321174e-08 -1.303257e-08 -1.253165e-08 -1.261323e-08 -1.087609e-08 -1.180870e-08 -1.219484e-08 -1.007645e-08 -1.082294e-08
-1.057669e-08 -1.002423e-08 -9.236653e-09 -9.206410e-09 -8.019708e-09 -7.804700e-09 -8.702989e-09 -7.679168e-09 -7.585586e-09 -6.437169e-09
-7.509939e-09 -6.121671e-09 -6.341050e-09 -5.253864e-09 -5.824038e-09 -6.150172e-09 -4.574983e-09 -3.640288e-09 -3.719818e-09 -4.069459e-09
-2.031444e-09 -3.387502e-09 -2.383765e-09 -2.541331e-09 -1.301763e-09 -1.615172e-09 -8.244305e-10 -7.681836e-10 -2.618725e-09 -2.759265e-10
1.371793e-09 -3.226814e-10 6.724494e-10 7.943219e-10 1.559438e-09 3.402597e-09 2.373908e-09 9.202132e-10 3.501271e-09 3.527413e-09
2.314524e-09 1.865545e-09 1.648843e-09 5.789004e-09 4.326396e-09 4.160423e-09 5.301541e-09 3.872579e-09 3.943764e-09 7.117999e-09
6.117258e-09 9.307829e-09 8.069376e-09 8.112657e-09 8.371433e-09 9.922388e-09 9.741044e-09 1.047447e-08 9.450317e-09 1.087033e-08
1.106226e-08 1.068297e-08 1.203603e-08 1.087645e-08 1.240244e-08 1.224374e-08 1.201910e-08 1.205231e-08 1.376598e-08 1.392205e-08
1.447834e-08 1.380581e-08 1.439060e-08 1.601766e-08 1.462892e-08 1.589433e-08 1.618788e-08 1.628371e-08 1.771345e-08 1.772771e-08
1.731911e-08 1.845768e-08 1.762577e-08 1.794563e-08 1.777417e-08 1.846336e-08 1.757415e-08 1.740400e-08 1.820688e-08 1.888605e-08
1.905823e-08 1.837776e-08 1.826246e-08 1.890970e-08 1.868662e-08 2.029852e-08 2.106435e-08 1.915748e-08 1.894769e-08 1.978739e-08
1.906708e-08 1.927126e-08 1.972655e-08 1.904989e-08 2.061714e-08 1.961280e-08 1.940676e-08 1.934684e-08 1.968776e-08 1.876832e-08
1.998906e-08 1.843192e-08 1.906015e-08 1.985108e-08 1.810078e-08 1.842762e-08 1.959692e-08 1.901468e-08 1.910261e-08 1.842513e-08
1.799925e-08 1.767004e-08 1.811625e-08 1.893740e-08 1.911675e-08 1.897858e-08 1.932725e-08 1.855287e-08 2.014166e-08 1.751393e-08
1.883068e-08 1.835952e-08 1.851639e-08 1.799968e-08 1.868910e-08 1.926830e-08 1.840128e-08 1.830752e-08 1.775524e-08 1.962443e-08
1.820470e-08 1.872928e-08 1.819484e-08 1.897828e-08 1.871804e-08 1.726743e-08 1.864846e-08 1.753040e-08 1.799407e-08 1.838785e-08
1.844983e-08 1.771901e-08 1.732286e-08 1.722908e-08 1.848216e-08 1.677911e-08 1.730615e-08 1.591199e-08 1.698874e-08 1.551220e-08
1.613540e-08 1.748593e-08 1.515123e-08 1.567497e-08 1.483261e-08 1.586286e-08 1.313645e-08 1.442343e-08 1.496859e-08 1.262365e-08
1.282415e-08 1.253591e-08 1.238689e-08 1.330853e-08 1.386574e-08 1.218538e-08 1.226025e-08 1.124428e-08 1.000063e-08 9.627915e-09
1.024332e-08 9.121115e-09 7.959415e-09 8.632856e-09 9.190895e-09 1.004883e-08 7.702567e-09 5.734925e-09 6.383800e-09 5.835464e-09
6.844457e-09 4.881096e-09 7.828268e-09 4.465809e-09 4.574467e-09 5.541502e-09 5.308211e-09 3.598285e-09 3.046486e-09 4.038213e-09
4.582812e-09 3.944739e-09 2.506670e-09 2.653908e-09 3.614736e-09 1.029359e-09 3.377735e-10 3.957241e-10 5.085547e-10 -9.862683e-10
-4.722742e-10 -2.236601e-10 1.182699e-10 -1.121904e-09 -1.025286e-09 -2.375114e-09 -3.774471e-09 -1.095526e-09 -3.652539e-09 -1.863730e-09
-3.770847e-09 -2.991486e-09 -5.090775e-09 -3.901837e-09 -4.996625e-09 -4.504704e-09 -4.421187e-09 -5.564966e-09 -4.682944e-09 -6.281704e-09
-7.216193e-09 -7.917136e-09 -7.903483e-09 -8.215563e-09 -8.767205e-09 -9.057548e-09 -9.688322e-09 -9.581966e-09 -9.941645e-09 -1.115749e-08
-1.030228e-08 -1.055234e-08 -1.062667e-08 -1.291847e-08 -1.194182e-08 -1.212514e-08 -1.245038e-08 -1.234251e-08 -1.400099e-08 -1.395046e-08
-1.356656e-08 -1.410338e-08 -1.368385e-08 -1.483708e-08 -1.420476e-08 -1.528099e-08 -1.567461e-08 -1.703914e-08 -1.585846e-08 -1.644109e-08
-1.614051e-08 -1.692463e-08 -1.755670e-08 -1.671574e-08 -1.838199e-08 -1.759039e-08 -1.774209e-08 -1.806870e-08 -1.772973e-08 -1.886810e-08
-2.004819e-08 -1.809896e-08 -1.827557e-08 -2.025930e-08 -2.078937e-08 -1.761692e-08 -1.865923e-08 -1.866606e-08 -1.929394e-08 -1.839562e-08
-1.835099e-08 -1.863423e-08 -1.848464e-08 -2.009338e-08 -2.046835e-08 -1.841524e-08 -1.745088e-08 -1.867379e-08 -1.813006e-08 -1.824158e-08
-1.929188e-08 -1.849584e-08 -1.749323e-08 -1.846552e-08 -1.920863e-08 -1.866846e-08 -1.777292e-08 -1.693376e-08 -1.695858e-08 -1.861639e-08
-1.958646e-08
-1.670545e-08 -1.848925e-08 -1.784281e-08 -1.851632e-08 -1.797289e-08 -1.782451e-08 -1.796301e-08 -1.721725e-08 -1.764982e-08 -2.040986e-08
-1.856834e-08 -1.866979e-08 -2.015009e-08 -1.952449e-08 -1.841694e-08 -1.844040e-08 -1.813333e-08 -1.758620e-08 -1.754679e-08 -1.897810e-08
-1.797824e-08 -1.914786e-08 -1.760035e-08 -1.955439e-08 -1.901389e-08 -1.754324e-08 -1.998433e-08 -1.788259e-08 -1.894135e-08 -1.845354e-08
-1.700278e-08 -1.858919e-08 -1.727770e-08 -1.742067e-08 -1.733619e-08 -1.616493e-08 -1.877104e-08 -1.705051e-08 -1.615445e-08 -1.621456e-08
-1.668126e-08 -1.618771e-08 -1.644057e-08 -1.533203e-08 -1.682633e-08 -1.603684e-08 -1.372976e-08 -1.510762e-08 -1.403183e-08 -1.364128e-08
-1.312558e-08 -1.234604e-08 -1.278040e-08 -1.355164e-08 -1.218955e-08 -1.101914e-08 -1.071365e-08 -1.251035e-08 -1.114391e-08 -8.947337e-09
-1.080101e-08 -1.160105e-08 -9.660327e-09 -8.549122e-09 -8.805007e-09 -9.242047e-09 -9.311848e-09 -6.985504e-09 -7.391137e-09 -6.204141e-09
-6.747644e-09 -4.373549e-09 -5.819459e-09 -4.640547e-09 -5.058002e-09 -4.946722e-09 -1.995476e-09 -4.024270e-09 -3.961498e-09 -1.931740e-09
-4.565770e-09 -2.810230e-09 -9.428055e-10 -6.573489e-10 -2.484382e-09 -2.354322e-09 -2.463082e-10 -4.935772e-10 -3.352877e-10 8.817644e-10
-7.879215e-10 1.715607e-09 1.226643e-09 1.886594e-09 1.790976e-09 2.444965e-09 4.180888e-09 1.946638e-09 2.109412e-09 5.281444e-09
2.849059e-09 5.897826e-09 3.724155e-09 4.598477e-09 4.928266e-09 6.813478e-09 6.223736e-09 4.695439e-09 6.048858e-09 8.350636e-09
6.187353e-09 6.812515e-09 8.802062e-09 7.943997e-09 8.481719e-09 1.022976e-08 9.453744e-09 1.043753e-08 1.123556e-08 1.082381e-08
9.885210e-09 1.020894e-08 1.047791e-08 1.208770e-08 1.144414e-08 1.284413e-08 1.232520e-08 1.376648e-08 1.364255e-08 1.354583e-08
1.539166e-08 1.363531e-08 1.551732e-08 1.550181e-08 1.660633e-08 1.480172e-08 1.514421e-08 1.729563e-08 1.632267e-08 1.619509e-08
1.625408e-08 1.653143e-08 1.762926e-08 1.800036e-08 1.793757e-08 1.811135e-08 1.848315e-08 1.921435e-08 1.856597e-08 1.885062e-08
2.056515e-08 1.973191e-08 1.860198e-08 1.794680e-08 1.855844e-08 2.024583e-08 1.893738e-08 1.973598e-08 2.007243e-08 1.934855e-08
1.999791e-08 1.911737e-08 1.866143e-08 1.993308e-08 1.977109e-08 1.945972e-08 1.854822e-08 1.892425e-08 1.952538e-08 1.700347e-08
2.055073e-08 1.931935e-08 1.796073e-08 1.813602e-08 1.746343e-08 1.875241e-08 1.814468e-08 1.727727e-08 1.854218e-08 1.838991e-08
1.905731e-08 1.922574e-08 1.954073e-08 1.758369e-08 1.933891e-08 1.952073e-08 1.710827e-08 1.840582e-08 1.914947e-08 1.773316e-08
1.849402e-08 1.896153e-08 1.835958e-08 1.995968e-08 1.786612e-08 1.878716e-08 1.975040e-08 1.866175e-08 1.897452e-08 1.820286e-08
1.841481e-08 1.790351e-08 1.834098e-08 1.812922e-08 1.738568e-08 1.845176e-08 1.783369e-08 1.892120e-08 1.783370e-08 1.660285e-08
1.858348e-08 1.761826e-08 1.802249e-08 1.877244e-08 1.800251e-08 1.800330e-08 1.671077e-08 1.711068e-08 1.745958e-08 1.677091e-08
1.546730e-08 1.615793e-08 1.537450e-08 1.468636e-08 1.512670e-08 1.607142e-08 1.366126e-08 1.439984e-08 1.447703e-08 1.392213e-08
1.320509e-08 1.261324e-08 1.162150e-08 1.328407e-08 1.085657e-08 1.340696e-08 1.076027e-08 1.053872e-08 9.696325e-09 9.218128e-09
8.850960e-09 1.044631e-08 9.650065e-09 1.062999e-08 7.335637e-09 6.812347e-09 7.655035e-09 7.924315e-09 7.484858e-09 7.215243e-09
7.172708e-09 5.100496e-09 6.570119e-09 6.160238e-09 5.953831e-09 5.897789e-09 5.803932e-09 2.973291e-09 4.736306e-09 2.785531e-09
2.825523e-09 2.343727e-09 2.940269e-09 1.316699e-09 1.732700e-09 5.225358e-10 1.652924e-09 1.444047e-09 1.906049e-10 4.780930e-10
-2.157442e-10 -7.028386e-11 -5.595884e-10 -1.185056e-09 -2.399193e-10 -3.701418e-09 -2.333961e-09 -2.503364e-09 -2.695071e-09 -1.770004e-09
-2.740390e-09 -3.371385e-09 -4.887945e-09 -4.725071e-09 -3.795944e-09 -5.021375e-09 -6.350765e-09 -5.354098e-09 -7.200691e-09 -8.109412e-09
-7.571029e-09 -7.456715e-09 -7.262428e-09 -8.594433e-09 -7.026804e-09 -9.632348e-09 -9.639104e-09 -9.502145e-09 -9.612033e-09 -1.003747e-08
-1.039134e-08 -1.041612e-08 -1.119743e-08 -1.177848e-08 -1.176719e-08 -1.265371e-08 -1.128598e-08 -1.393917e-08 -1.340819e-08 -1.394700e-08
-1.373441e-08 -1.405083e-08 -1.462663e-08 -1.472444e-08 -1.518272e-08 -1.553864e-08 -1.527667e-08 -1.599283e-08 -1.594054e-08 -1.768572e-08
-1.575049e-08 -1.822188e-08 -1.673031e-08 -1.689464e-08 -1.718904e-08 -1.764751e-08 -1.811539e-08 -1.813376e-08 -1.895196e-08 -1.776289e-08
-1.779371e-08 -1.894599e-08 -2.007712e-08 -1.920834e-08 -1.940603e-08 -1.908926e-08 -1.779906e-08 -1.925946e-08 -1.883586e-08 -1.876619e-08
-1.909744e-08 -1.866351e-08 -1.931555e-08 -1.877120e-08 -1.909412e-08 -1.892546e-08 -1.927617e-08 -1.902902e-08 -1.796424e-08 -1.833896e-08
-1.861503e-08 -1.761211e-08 -1.953497e-08 -1.705170e-08 -1.824314e-08 -1.802116e-08 -1.807672e-08 -1.771878e-08 -1.820244e-08 -1.701349e-08
-1.670545e-08
-1.614646e-08 -1.768361e-08 -1.912168e-08 -1.750755e-08 -1.795696e-08 -1.766021e-08 -1.904331e-08 -1.817143e-08 -1.779314e-08 -1.843572e-08
-1.886168e-08 -1.795207e-08 -1.916752e-08 -1.710689e-08 -1.761600e-08 -1.813054e-08 -1.723177e-08 -1.921496e-08 -1.928393e-08 -1.850365e-08
-1.933866e-08 -1.891669e-08 -1.850575e-08 -1.784727e-08 -1.830286e-08 -1.712001e-08 -1.797965e-08 -1.864372e-08 -1.867208e-08 -1.781555e-08
-1.769439e-08 -1.801057e-08 -1.799979e-08 -1.693463e-08 -1.663782e-08 -1.760996e-08 -1.762052e-08 -1.583510e-08 -1.667848e-08 -1.690123e-08
-1.538246e-08 -1.505606e-08 -1.520052e-08 -1.526508e-08 -1.459127e-08 -1.484110e-08 -1.362443e-08 -1.470551e-08 -1.397750e-08 -1.340381e-08
-1.442912e-08 -1.345267e-08 -1.253897e-08 -1.231801e-08 -1.226190e-08 -1.215615e-08 -1.240663e-08 -1.087776e-08 -1.104035e-08 -1.141016e-08
-9.515664e-09 -1.070040e-08 -1.168050e-08 -1.125399e-08 -9.086413e-09 -8.602591e-09 -8.295509e-09 -6.418281e-09 -7.214644e-09 -6.909024e-09
-5.774597e-09 -4.912346e-09 -6.557916e-09 -5.942789e-09 -5.487288e-09 -3.537505e-09 -4.030057e-09 -5.472817e-09 -4.299997e-09 -3.663576e-09
-3.389180e-09 -3.875034e-09 -2.315539e-09 -1.040510e-09 -1.474818e-09 -1.035102e-09 -2.656380e-09 -8.505358e-10 8.387152e-10 -9.375656e-10
-3.030595e-10 -7.797298e-10 6.835527e-10 3.097065e-09 1.660776e-10 2.234492e-09 3.891516e-09 1.913828e-09 6.001576e-09 1.518681e-09
4.869014e-09 3.544222e-09 5.243793e-09 4.211901e-09 3.445184e-09 5.209611e-09 6.419175e-09 5.611068e-09 4.948539e-09 7.285669e-09
8.694236e-09 5.919549e-09 8.627615e-09 8.355950e-09 7.541860e-09 8.818478e-09 8.477277e-09 8.498905e-09 9.445277e-09 1.081723e-08
1.108847e-08 1.051041e-08 1.196380e-08 1.121510e-08 1.280066e-08 1.143036e-08 1.347656e-08 1.369002e-08 1.418103e-08 1.275814e-08
1.326111e-08 1.466649e-08 1.386848e-08 1.514085e-08 1.486172e-08 1.537092e-08 1.756685e-08 1.648535e-08 1.725579e-08 1.587929e-08
1.548121e-08 1.744336e-08 1.664310e-08 1.629100e-08 1.766190e-08 1.772302e-08 1.809462e-08 1.765637e-08 1.688252e-08 1.810534e-08
1.751016e-08 1.900862e-08 1.888982e-08 1.969435e-08 1.850910e-08 2.055623e-08 1.893453e-08 1.902355e-08 1.861140e-08 2.099539e-08
2.021524e-08 1.885056e-08 2.085345e-08 1.858637e-08 2.022728e-08 2.037154e-08 1.848343e-08 1.858105e-08 1.836945e-08 1.907488e-08
1.762244e-08 1.931019e-08 1.910133e-08 1.879416e-08 1.940441e-08 1.893989e-08 1.740436e-08 1.759980e-08 1.668110e-08 1.934776e-08
1.822082e-08 1.908726e-08 1.727245e-08 1.794442e-08 1.785373e-08 1.830940e-08 1.827604e-08 1.855435e-08 1.709481e-08 1.826282e-08
1.862855e-08 1.826574e-08 1.855133e-08 1.820626e-08 1.910685e-08 1.735615e-08 1.782480e-08 1.962472e-08 1.962544e-08 1.900637e-08
1.735177e-08 1.864989e-08 1.732280e-08 1.843420e-08 1.776686e-08 1.746903e-08 1.865325e-08 1.903935e-08 1.825243e-08 1.763934e-08
1.686211e-08 1.809881e-08 1.661710e-08 1.873107e-08 1.700799e-08 1.694088e-08 1.612986e-08 1.621953e-08 1.706860e-08 1.596303e-08
1.583274e-08 1.557108e-08 1.573737e-08 1.450268e-08 1.474257e-08 1.496651e-08 1.427478e-08 1.340574e-08 1.335053e-08 1.251235e-08
1.319254e-08 1.274526e-08 1.159823e-08 1.211922e-08 1.181317e-08 1.376840e-08 1.045839e-08 1.087379e-08 1.058080e-08 1.030691e-08
1.003116e-08 9.220951e-09 9.018087e-09 6.802151e-09 9.797970e-09 8.946674e-09 8.946679e-09 7.858502e-09 6.819020e-09 7.201253e-09
7.600581e-09 6.331168e-09 6.030190e-09 5.425466e-09 5.412217e-09 4.798725e-09 4.285698e-09 2.586651e-09 5.544436e-09 1.371015e-09
3.289240e-09 4.808233e-09 1.495007e-09 2.892667e-09 3.298076e-10 1.260363e-09 1.243990e-09 2.678686e-09 -9.712862e-10 1.397259e-09
8.131382e-11 -3.232100e-10 4.699855e-11 -1.226367e-09 -2.925253e-09 -2.772640e-09 -1.539187e-09 -1.262224e-09 -3.829022e-09 -3.846079e-09
-2.565766e-09 -7.207075e-09 -4.282743e-09 -2.820595e-09 -4.249035e-09 -6.649573e-09 -6.566129e-09 -5.567271e-09 -7.353959e-09 -8.044228e-09
-7.624732e-09 -8.081918e-09 -8.806022e-09 -8.861512e-09 -9.493304e-09 -8.992655e-09 -1.005510e-08 -9.745754e-09 -1.025259e-08 -1.096993e-08
-1.103491e-08 -1.133791e-08 -1.071541e-08 -1.131554e-08 -1.184752e-08 -1.135975e-08 -1.247296e-08 -1.250566e-08 -1.254962e-08 -1.259068e-08
-1.521696e-08 -1.388014e-08 -1.416948e-08 -1.524326e-08 -1.448375e-08 -1.524269e-08 -1.431966e-08 -1.531835e-08 -1.637545e-08 -1.584925e-08
-1.663627e-08 -1.545127e-08 -1.734718e-08 -1.647465e-08 -1.826584e-08 -1.817824e-08 -1.684969e-08 -1.814396e-08 -1.694454e-08 -1.784432e-08
-1.824026e-08 -1.773176e-08 -1.918937e-08 -1.897361e-08 -1.788396e-08 -1.954622e-08 -1.912134e-08 -1.920676e-08 -1.876151e-08 -1.871786e-08
-1.841759e-08 -1.961819e-08 -1.859884e-08 -1.927104e-08 -1.759008e-08 -1.924527e-08 -1.845206e-08 -1.804099e-08 -1.769973e-08 -1.782478e-08
-1.881762e-08 -1.837688e-08 -1.703413e-08 -1.808331e-08 -1.910137e-08 -1.786543e-08 -1.843155e-08 -1.824935e-08 -1.700718e-08 -1.594730e-08
-1.614646e-08
-1.857395e-08 -1.663970e-08 -1.811295e-08 -1.735040e-08 -1.893372e-08 -1.709669e-08 -1.891295e-08 -1.675227e-08 -1.703941e-08 -1.890247e-08
-1.918579e-08 -1.820988e-08 -1.969939e-08 -1.929988e-08 -1.914287e-08 -1.920657e-08 -1.978410e-08 -1.928845e-08 -1.995572e-08 -1.852998e-08
-1.748930e-08 -1.840478e-08 -1.835752e-08 -1.868513e-08 -1.803791e-08 -1.782348e-08 -1.808014e-08 -1.909954e-08 -1.735506e-08 -1.827851e-08
-1.890768e-08 -1.738841e-08 -1.749776e-08 -1.663645e-08 -1.826591e-08 -1.665851e-08 -1.764145e-08 -1.682676e-08 -1.751596e-08 -1.610686e-08
-1.572859e-08 -1.574380e-08 -1.491447e-08 -1.518273e-08 -1.475152e-08 -1.504477e-08 -1.429514e-08 -1.444559e-08 -1.493821e-08 -1.383971e-08
-1.313002e-08 -1.217105e-08 -1.388297e-08 -1.259624e-08 -1.190042e-08 -1.108566e-08 -1.146533e-08 -1.137405e-08 -1.069604e-08 -9.938667e-09
-1.059532e-08 -1.040155e-08 -9.920600e-09 -8.390913e-09 -9.331548e-09 -7.760428e-09 -7.120376e-09 -8.512610e-09 -6.385799e-09 -8.061216e-09
-5.155840e-09 -5.233626e-09 -7.061947e-09 -5.478782e-09 -4.653230e-09 -4.682175e-09 -4.042552e-09 -3.607411e-09 -4.474595e-09 -3.783072e-09
-2.633758e-09 -2.764150e-09 -2.140976e-09 -2.732670e-09 -1.389691e-10 -2.084257e-09 1.601580e-09 -7.673268e-10 -6.420391e-10 -2.683524e-09
9.193706e-10 -7.649320e-10 3.476585e-09 7.216378e-10 5.644765e-10 1.406928e-09 1.372691e-09 1.554027e-09 2.696991e-09 2.550187e-09
2.170416e-09 3.111130e-09 4.610564e-09 5.062392e-09 4.325781e-09 4.370321e-09 5.071359e-09 4.198686e-09 5.693733e-09 4.078171e-09
6.955233e-09 9.073543e-09 7.330433e-09 8.740943e-09 1.057492e-08 7.616308e-09 7.771015e-09 9.604576e-09 8.632793e-09 1.012897e-08
1.048164e-08 1.126868e-08 1.074164e-08 1.262682e-08 1.177767e-08 1.189592e-08 1.246687e-08 1.307633e-08 1.449864e-08 1.379845e-08
1.442063e-08 1.313966e-08 1.537548e-08 1.429330e-08 1.621239e-08 1.535598e-08 1.530556e-08 1.624211e-08 1.523924e-08 1.659223e-08
1.623557e-08 1.688380e-08 1.684059e-08 1.708745e-08 1.825208e-08 1.820644e-08 1.746013e-08 1.810112e-08 1.849348e-08 1.900792e-08
1.813725e-08 1.848502e-08 1.915549e-08 1.846526e-08 1.865234e-08 1.877864e-08 1.861838e-08 1.927962e-08 1.892137e-08 2.021381e-08
1.851732e-08 1.848222e-08 1.866529e-08 1.918144e-08 2.036312e-08 1.899588e-08 1.834358e-08 1.795370e-08 1.892299e-08 1.969083e-08
1.950308e-08 1.920555e-08 1.853833e-08 1.757996e-08 1.887148e-08 1.760364e-08 1.840308e-08 1.782706e-08 1.767305e-08 1.767896e-08
1.740400e-08 1.874413e-08 1.908340e-08 1.814557e-08 1.768913e-08 1.767241e-08 1.763586e-08 1.888590e-08 1.814635e-08 1.944889e-08
1.891653e-08 1.828806e-08 1.780303e-08 1.854595e-08 1.790555e-08 1.685514e-08 1.833268e-08 1.867229e-08 1.865013e-08 1.767370e-08
1.921516e-08 1.703311e-08 1.833762e-08 1.889087e-08 1.835340e-08 1.874434e-08 1.692410e-08 1.718624e-08 1.882082e-08 1.754315e-08
1.824239e-08 1.736217e-08 1.914290e-08 1.736236e-08 1.785360e-08 1.793871e-08 1.693068e-08 1.546247e-08 1.552594e-08 1.552299e-08
1.659348e-08 1.608555e-08 1.519983e-08 1.586177e-08 1.598942e-08 1.372832e-08 1.429977e-08 1.442582e-08 1.351987e-08 1.351034e-08
1.244214e-08 1.223017e-08 1.287007e-08 1.158374e-08 1.063691e-08 1.098386e-08 1.083961e-08 1.120334e-08 1.092085e-08 1.040637e-08
1.069667e-08 8.707301e-09 9.555273e-09 8.174305e-09 8.263137e-09 7.023528e-09 7.700602e-09 7.401296e-09 5.161834e-09 8.323654e-09
7.629395e-09 4.390416e-09 4.990242e-09 5.218717e-09 4.814426e-09 6.351028e-09 2.847455e-09 3.741052e-09 2.681830e-09 2.478218e-09
3.382824e-09 3.672141e-09 1.321586e-09 1.934883e-09 3.070000e-09 2.222390e-09 -2.095645e-10 -5.121681e-10 3.845922e-10 -6.013485e-10
-1.485266e-09 -1.307159e-09 -1.912789e-09 -5.951038e-10 -2.940381e-09 -5.054477e-10 -1.697913e-09 -2.671251e-09 -2.789555e-09 -3.488638e-09
-1.651899e-09 -5.040924e-09 -1.779798e-09 -4.542199e-09 -4.759567e-09 -6.347655e-09 -3.774931e-09 -5.942164e-09 -5.896842e-09 -6.337172e-09
-7.254885e-09 -9.007187e-09 -9.415328e-09 -8.189581e-09 -8.811375e-09 -9.175075e-09 -9.617673e-09 -9.871776e-09 -9.667381e-09 -1.073431e-08
-1.163908e-08 -1.184834e-08 -1.329367e-08 -1.094117e-08 -1.188170e-08 -1.158367e-08 -1.315405e-08 -1.275196e-08 -1.366249e-08 -1.358532e-08
-1.336399e-08 -1.450271e-08 -1.398123e-08 -1.477612e-08 -1.551519e-08 -1.472282e-08 -1.581740e-08 -1.503731e-08 -1.642410e-08 -1.539666e-08
-1.639299e-08 -1.639092e-08 -1.600765e-08 -1.714591e-08 -1.762700e-08 -1.689987e-08 -1.649999e-08 -1.950994e-08 -1.753221e-08 -1.874108e-08
-1.745935e-08 -1.806146e-08 -1.796079e-08 -1.928281e-08 -1.790350e-08 -1.972181e-08 -1.842970e-08 -1.730427e-08 -1.931309e-08 -1.769130e-08
-1.891539e-08 -1.838260e-08 -1.747588e-08 -1.801036e-08 -1.869566e-08 -1.939575e-08 -1.837997e-08 -1.933906e-08 -1.784450e-08 -1.748546e-08
-1.802404e-08 -1.710763e-08 -1.821470e-08 -1.641482e-08 -1.869787e-08 -1.813753e-08 -1.891758e-08 -1.813935e-08 -1.884953e-08 -1.732884e-08
-1.857395e-08
-1.830668e-08 -1.793048e-08 -1.635430e-08 -1.748293e-08 -1.746916e-08 -1.830957e-08 -1.639056e-08 -1.762592e-08 -1.772701e-08 -1.826126e-08
-1.862322e-08 -1.810269e-08 -1.748330e-08 -1.811711e-08 -1.824895e-08 -1.801541e-08 -1.990406e-08 -1.913959e-08 -1.724594e-08 -1.847479e-08
-1.876460e-08 -1.753541e-08 -1.860755e-08 -1.805759e-08 -1.867560e-08 -1.806226e-08 -1.794167e-08 -1.936060e-08 -1.732636e-08 -1.742195e-08
-1.713409e-08 -1.812719e-08 -1.751307e-08 -1.674972e-08 -1.726435e-08 -1.772691e-08 -1.690941e-08 -1.649719e-08 -1.682912e-08 -1.557811e-08
-1.675510e-08 -1.633638e-08 -1.577743e-08 -1.489346e-08 -1.507256e-08 -1.601592e-08 -1.465748e-08 -1.412096e-08 -1.403040e-08 -1.490419e-08
-1.371863e-08 -1.460298e-08 -1.252474e-08 -1.176858e-08 -1.283500e-08 -1.032110e-08 -1.145357e-08 -1.211927e-08 -1.191064e-08 -9.614411e-09
-1.065072e-08 -9.637088e-09 -9.070058e-09 -1.002289e-08 -7.573716e-09 -7.620696e-09 -8.341014e-09 -6.532812e-09 -7.057259e-09 -6.265923e-09
-5.888671e-09 -5.666548e-09 -4.896512e-09 -6.992527e-09 -6.294220e-09 -5.466966e-09 -4.595026e-09 -4.093046e-09 -4.334038e-09 -5.367339e-09
-2.592510e-09 -2.921370e-09 -2.530480e-09 -9.697728e-10 -4.923800e-10 -1.579179e-09 -1.736027e-09 -1.060011e-09 6.178129e-10 -1.973136e-10
-5.961404e-10 -2.668759e-10 4.299139e-10 -2.173590e-10 1.317535e-09 2.238456e-09 1.221624e-09 1.207262e-09 2.358014e-09 2.794122e-09
3.824274e-09 5.382164e-09 3.309361e-09 3.943629e-09 5.224168e-09 4.110217e-09 5.840798e-09 6.702385e-09 6.063994e-09 6.873952e-09
7.434411e-09 7.222667e-09 7.212201e-09 7.503286e-09 1.003146e-08 1.000395e-08 8.815706e-09 8.170677e-09 1.051474e-08 9.715246e-09
1.086960e-08 1.099138e-08 1.134430e-08 1.215954e-08 1.057822e-08 1.213895e-08 1.162101e-08 1.237978e-08 1.212621e-08 1.339222e-08
1.376092e-08 1.476191e-08 1.377127e-08 1.431746e-08 1.547338e-08 1.525061e-08 1.618668e-08 1.589407e-08 1.556971e-08 1.599885e-08
1.627879e-08 1.608704e-08 1.736978e-08 1.816729e-08 1.808950e-08 1.783261e-08 1.723731e-08 1.807850e-08 1.772967e-08 1.857500e-08
1.948229e-08 1.805306e-08 1.764072e-08 1.891017e-08 1.829003e-08 1.893383e-08 1.805754e-08 2.024485e-08 1.847074e-08 1.934126e-08
1.824549e-08 1.866469e-08 1.861333e-08 1.983270e-08 2.006054e-08 1.842499e-08 2.018874e-08 1.964209e-08 1.974193e-08 1.977229e-08
1.863149e-08 1.912891e-08 1.820487e-08 1.765954e-08 1.830045e-08 1.980260e-08 1.720651e-08 1.874775e-08 1.970059e-08 1.697149e-08
1.840198e-08 1.702361e-08 1.727957e-08 1.708405e-08 1.768798e-08 1.893796e-08 1.770668e-08 1.858757e-08 1.852614e-08 1.899123e-08
1.890003e-08 1.876178e-08 1.870655e-08 1.862132e-08 1.902081e-08 1.850870e-08 1.834655e-08 1.825147e-08 1.962587e-08 1.884688e-08
1.717198e-08 1.788670e-08 1.832459e-08 1.881420e-08 1.775053e-08 1.781856e-08 1.727199e-08 1.681559e-08 1.777259e-08 1.687201e-08
1.750687e-08 1.721878e-08 1.699789e-08 1.674921e-08 1.785477e-08 1.575976e-08 1.607258e-08 1.698687e-08 1.579891e-08 1.600923e-08
1.562000e-08 1.452422e-08 1.476502e-08 1.659898e-08 1.494232e-08 1.517426e-08 1.487528e-08 1.359134e-08 1.431004e-08 1.248000e-08
1.357131e-08 1.234780e-08 1.194879e-08 1.225376e-08 1.266777e-08 1.176722e-08 1.116465e-08 1.095815e-08 1.099007e-08 1.177343e-08
9.510333e-09 9.625904e-09 8.841563e-09 8.867620e-09 9.117255e-09 7.931006e-09 8.275356e-09 7.563512e-09 7.333029e-09 6.207523e-09
6.072272e-09 6.610798e-09 6.287590e-09 6.068356e-09 3.664610e-09 4.853641e-09 3.736289e-09 4.689925e-09 1.993575e-09 4.532382e-09
2.610778e-09 4.170507e-09 1.437644e-09 9.416535e-10 4.624909e-10 2.229825e-10 1.306743e-09 2.541147e-10 6.571659e-10 1.923070e-09
-1.649686e-10 -3.231297e-11 -6.311709e-10 -8.821818e-11 -2.581457e-09 -1.752155e-09 -1.869119e-09 -2.239060e-09 -1.993065e-09 -3.946490e-09
-3.590399e-09 -2.301712e-09 -5.404716e-09 -3.680760e-09 -4.134002e-09 -4.122394e-09 -5.694398e-09 -5.773188e-09 -6.935471e-09 -6.881205e-09
-8.772600e-09 -5.232784e-09 -6.299130e-09 -6.837267e-09 -7.118867e-09 -9.177838e-09 -8.758725e-09 -9.645989e-09 -1.109614e-08 -9.675575e-09
-1.034712e-08 -9.264386e-09 -1.238469e-08 -1.257744e-08 -1.080323e-08 -1.251926e-08 -1.253577e-08 -1.422178e-08 -1.276215e-08 -1.337390e-08
-1.281825e-08 -1.294684e-08 -1.434255e-08 -1.414658e-08 -1.644139e-08 -1.470048e-08 -1.482138e-08 -1.491238e-08 -1.505632e-08 -1.575243e-08
-1.720316e-08 -1.704468e-08 -1.603837e-08 -1.699900e-08 -1.740582e-08 -1.725340e-08 -1.709923e-08 -1.722488e-08 -1.760601e-08 -1.814946e-08
-1.838164e-08 -1.749508e-08 -1.698916e-08 -1.790727e-08 -1.967130e-08 -1.853428e-08 -1.811127e-08 -1.920037e-08 -1.828641e-08 -1.771360e-08
-1.788097e-08 -1.859793e-08 -1.941831e-08 -1.799099e-08 -1.994010e-08 -1.885755e-08 -1.809975e-08 -1.970801e-08 -1.951297e-08 -1.845876e-08
-1.858749e-08 -1.909565e-08 -1.873877e-08 -1.749554e-08 -1.871998e-08 -1.754855e-08 -1.662268e-08 -1.744488e-08 -1.810917e-08 -1.664668e-08
-1.830668e-08
-1.713000e-08 -1.805656e-08 -1.921809e-08 -1.646486e-08 -1.815339e-08 -1.724822e-08 -1.667432e-08 -1.868328e-08 -1.870559e-08 -1.820111e-08
-1.653330e-08 -1.837923e-08 -1.775636e-08 -1.857795e-08 -1.787609e-08 -1.758296e-08 -1.881649e-08 -1.717912e-08 -1.748223e-08 -1.851473e-08
-1.799247e-08 -1.826843e-08 -1.730148e-08 -1.743185e-08 -1.782652e-08 -1.789033e-08 -1.937431e-08 -1.759507e-08 -1.723152e-08 -1.702416e-08
-1.798319e-08 -1.779894e-08 -1.737963e-08 -1.623739e-08 -1.713649e-08 -1.622776e-08 -1.642150e-08 -1.585121e-08 -1.551623e-08 -1.713004e-08
-1.544967e-08 -1.628864e-08 -1.586487e-08 -1.466597e-08 -1.543638e-08 -1.464019e-08 -1.339048e-08 -1.444592e-08 -1.358660e-08 -1.324187e-08
-1.398446e-08 -1.257761e-08 -1.333861e-08 -1.201454e-08 -1.243152e-08 -1.144374e-08 -1.154347e-08 -1.156328e-08 -1.135675e-08 -9.683631e-09
-9.627780e-09 -8.765793e-09 -1.012375e-08 -8.928894e-09 -8.385199e-09 -9.527138e-09 -8.197605e-09 -9.021970e-09 -5.962832e-09 -5.134560e-09
-5.244286e-09 -6.694609e-09 -4.748764e-09 -5.991467e-09 -3.843953e-09 -5.301835e-09 -5.404084e-09 -4.226706e-09 -4.295399e-09 -1.100542e-09
-2.416152e-09 -1.609864e-09 -2.121437e-09 -3.393757e-09 -1.854991e-09 -2.236949e-09 1.240024e-09 -1.528727e-09 -1.885125e-09 1.477567e-10
6.225562e-10 2.328125e-10 1.546721e-09 1.595097e-09 1.587095e-09 1.282532e-09 7.665417e-10 3.553027e-09 3.500422e-09 4.049661e-09
4.120785e-09 4.833392e-09 3.165385e-09 4.638602e-09 5.452305e-09 5.102406e-09 6.041013e-09 5.929150e-09 5.573117e-09 5.114673e-09
6.887033e-09 7.657575e-09 7.178107e-09 8.469208e-09 8.438627e-09 9.976023e-09 9.419545e-09 1.092100e-08 9.959229e-09 9.291456e-09
1.010076e-08 1.081155e-08 1.095201e-08 1.085372e-08 1.282036e-08 1.212148e-08 1.267337e-08 1.245994e-08 1.380041e-08 1.298944e-08
1.350450e-08 1.423232e-08 1.334327e-08 1.409364e-08 1.559187e-08 1.471869e-08 1.528472e-08 1.545602e-08 1.616425e-08 1.658602e-08
1.708733e-08 1.571235e-08 1.671846e-08 1.651633e-08 1.764568e-08 1.729793e-08 1.737914e-08 1.911984e-08 1.711494e-08 1.767852e-08
1.768129e-08 1.888457e-08 1.958319e-08 1.783086e-08 1.852127e-08 1.905844e-08 2.019987e-08 1.989802e-08 1.734988e-08 1.904709e-08
1.918625e-08 1.869657e-08 1.984956e-08 1.872817e-08 1.968028e-08 1.811421e-08 1.883545e-08 1.885499e-08 1.866036e-08 1.860663e-08
1.909716e-08 1.758729e-08 1.904607e-08 1.899718e-08 1.867913e-08 1.807014e-08 1.917888e-08 1.770209e-08 1.911898e-08 1.833951e-08
1.701690e-08 1.805571e-08 1.727904e-08 1.726072e-08 1.771588e-08 1.819930e-08 1.834915e-08 1.867717e-08 1.964833e-08 1.808238e-08
1.820917e-08 1.784622e-08 1.908724e-08 1.851315e-08 1.875782e-08 1.877815e-08 1.832890e-08 1.753802e-08 1.782472e-08 1.754390e-08
1.845891e-08 1.886724e-08 1.807942e-08 1.793602e-08 1.747483e-08 1.864016e-08 1.733572e-08 1.693171e-08 1.611146e-08 1.725946e-08
1.724586e-08 1.770367e-08 1.666656e-08 1.755085e-08 1.718350e-08 1.547517e-08 1.686210e-08 1.698933e-08 1.544599e-08 1.637691e-08
1.851828e-08 1.464025e-08 1.501594e-08 1.648727e-08 1.440572e-08 1.444888e-08 1.501498e-08 1.366046e-08 1.277575e-08 1.247858e-08
1.285276e-08 1.249735e-08 1.220426e-08 1.165260e-08 1.119988e-08 1.324816e-08 1.039662e-08 1.064311e-08 1.080171e-08 9.546412e-09
8.840630e-09 8.876707e-09 8.154643e-09 9.118609e-09 7.509043e-09 8.565419e-09 8.604372e-09 7.750905e-09 6.652550e-09 7.158910e-09
6.760013e-09 5.917484e-09 5.679786e-09 5.696176e-09 6.305234e-09 5.509246e-09 5.742418e-09 4.061177e-09 1.818388e-09 3.275565e-09
1.072005e-09 1.999546e-09 1.886191e-09 2.905717e-09 1.123654e-09 1.084888e-09 7.363077e-10 2.278830e-09 8.151739e-10 9.549802e-10
3.370656e-10 1.023965e-09 -2.356571e-09 -1.181913e-09 -1.435303e-09 -1.851877e-09 -3.767836e-09 -2.487942e-09 -3.311734e-09 -2.907329e-09
-3.886202e-09 -1.517490e-09 -3.779667e-09 -5.977656e-09 -5.003779e-09 -5.661255e-09 -3.887430e-09 -5.286223e-09 -6.548593e-09 -6.009188e-09
-5.975194e-09 -7.110680e-09 -8.391040e-09 -8.767598e-09 -8.444246e-09 -8.682982e-09 -9.805873e-09 -8.545999e-09 -9.462204e-09 -9.200384e-09
-1.114472e-08 -1.104052e-08 -1.184679e-08 -1.108296e-08 -1.157859e-08 -1.276832e-08 -1.244884e-08 -1.265807e-08 -1.257323e-08 -1.241658e-08
-1.348193e-08 -1.357588e-08 -1.331990e-08 -1.397694e-08 -1.469739e-08 -1.394610e-08 -1.595275e-08 -1.512754e-08 -1.585268e-08 -1.621307e-08
-1.622261e-08 -1.712763e-08 -1.656380e-08 -1.588870e-08 -1.818847e-08 -1.735662e-08 -1.661165e-08 -1.746332e-08 -1.688820e-08 -1.902347e-08
-1.826309e-08 -1.752088e-08 -1.745198e-08 -1.955434e-08 -1.793709e-08 -1.954587e-08 -1.797440e-08 -1.865481e-08 -1.951819e-08 -1.893511e-08
-1.835043e-08 -1.877741e-08 -1.829633e-08 -1.758906e-08 -1.854391e-08 -1.915259e-08 -1.869160e-08 -1.873529e-08 -1.745114e-08 -1.859006e-08
-1.849100e-08 -1.683214e-08 -1.709657e-08 -1.837579e-08 -1.679650e-08 -1.732817e-08 -1.742772e-08 -1.733090e-08 -1.672825e-08 -1.829040e-08
-1.713000e-08
-1.627682e-08 -1.765626e-08 -1.839852e-08 -1.782164e-08 -1.752402e-08 -1.957279e-08 -1.810929e-08 -1.787666e-08 -1.754101e-08 -1.890738e-08
-1.663861e-08 -1.661001e-08 -1.781039e-08 -1.743415e-08 -1.801821e-08 -1.911268e-08 -1.741670e-08 -1.690675e-08 -1.865821e-08 -1.903627e-08
-1.805718e-08 -1.839491e-08 -1.770492e-08 -1.666090e-08 -1.752855e-08 -1.754684e-08 -1.744859e-08 -1.697067e-08 -1.635783e-08 -1.719877e-08
-1.950179e-08 -1.734813e-08 -1.689481e-08 -1.793832e-08 -1.713465e-08 -1.693829e-08 -1.551929e-08 -1.629802e-08 -1.605034e-08 -1.605106e-08
-1.653326e-08 -1.633612e-08 -1.436390e-08 -1.497267e-08 -1.504343e-08 -1.362337e-08 -1.467663e-08 -1.331816e-08 -1.396407e-08 -1.526847e-08
-1.302138e-08 -1.358369e-08 -1.225143e-08 -1.196512e-08 -1.220738e-08 -1.079965e-08 -1.151396e-08 -1.026313e-08 -1.015207e-08 -9.461898e-09
-9.016726e-09 -9.657817e-09 -9.939769e-09 -8.477389e-09 -8.718089e-09 -7.155389e-09 -7.357819e-09 -7.572400e-09 -7.079732e-09 -5.548370e-09
-7.782127e-09 -5.988436e-09 -6.896907e-09 -6.332327e-09 -6.177993e-09 -6.105930e-09 -5.115645e-09 -4.628001e-09 -3.790001e-09 -3.663059e-09
-3.308858e-09 -4.273449e-09 -2.207720e-09 -1.823729e-09 1.233980e-11 -2.524010e-09 6.148930e-10 -5.810925e-10 -1.047015e-09 2.429521e-09
3.887307e-10 2.074109e-09 6.688985e-10 1.066208e-09 2.471108e-09 -1.677309e-10 1.506985e-09 2.677736e-09 3.737452e-09 3.396202e-09
2.700419e-09 3.991155e-09 3.124247e-09 4.756021e-09 2.743978e-09 3.450239e-09 5.466919e-09 5.003248e-09 5.910505e-09 6.754014e-09
4.917956e-09 6.606538e-09 8.033454e-09 9.651431e-09 8.489683e-09 8.069648e-09 9.021634e-09 9.310660e-09 8.984966e-09 1.092118e-08
1.157549e-08 1.086479e-08 1.114182e-08 1.140514e-08 1.079792e-08 1.220133e-08 1.420822e-08 1.288703e-08 1.380652e-08 1.438706e-08
1.296933e-08 1.374397e-08 1.490869e-08 1.480644e-08 1.530256e-08 1.504735e-08 1.508638e-08 1.627640e-08 1.532494e-08 1.591888e-08
1.655218e-08 1.710184e-08 1.728982e-08 1.836994e-08 1.736493e-08 1.777745e-08 1.690514e-08 1.872698e-08 1.779951e-08 1.757193e-08
1.931342e-08 1.898930e-08 1.924501e-08 1.923517e-08 1.832183e-08 1.854366e-08 1.861101e-08 1.786498e-08 2.016723e-08 1.841236e-08
1.940857e-08 1.827461e-08 1.791292e-08 2.088568e-08 1.789210e-08 1.842248e-08 1.836165e-08 1.722960e-08 1.909318e-08 1.706529e-08
1.701788e-08 1.852034e-08 1.786905e-08 1.802427e-08 1.721291e-08 1.784426e-08 1.742772e-08 1.751427e-08 1.826212e-08 1.792381e-08
1.677424e-08 1.742900e-08 1.833173e-08 1.751827e-08 1.743311e-08 1.856771e-08 1.767029e-08 1.705558e-08 1.716318e-08 1.789976e-08
1.687808e-08 1.721453e-08 1.816028e-08 1.657004e-08 1.810539e-08 1.829716e-08 1.692214e-08 1.820404e-08 1.771070e-08 1.723242e-08
1.756975e-08 1.782909e-08 1.851747e-08 1.673640e-08 1.783615e-08 1.696977e-08 1.779583e-08 1.802131e-08 1.768808e-08 1.630770e-08
1.652502e-08 1.657035e-08 1.649478e-08 1.780606e-08 1.586688e-08 1.681242e-08 1.630336e-08 1.655633e-08 1.604836e-08 1.661980e-08
1.544471e-08 1.460667e-08 1.444617e-08 1.418150e-08 1.411586e-08 1.391968e-08 1.349350e-08 1.479364e-08 1.311952e-08 1.445139e-08
1.209642e-08 1.266454e-08 1.223542e-08 1.141227e-08 1.175805e-08 1.240622e-08 1.263344e-08 1.118601e-08 9.744846e-09 9.340845e-09
1.065487e-08 8.897139e-09 8.483177e-09 9.349155e-09 7.906057e-09 6.609936e-09 7.211625e-09 6.550953e-09 8.237130e-09 5.049935e-09
5.278937e-09 6.648156e-09 5.554272e-09 7.832221e-09 7.234461e-09 5.137437e-09 3.966667e-09 3.051822e-09 4.208447e-09 2.834384e-09
3.647773e-09 6.416319e-10 3.227456e-09 2.989670e-09 1.565224e-09 2.073241e-09 1.247062e-09 1.700965e-09 6.281139e-10 8.283867e-10
-4.083396e-10 2.273323e-10 3.721247e-11 -8.842950e-10 2.459553e-10 8.138991e-10 -2.057955e-09 -1.006793e-09 -3.677474e-09 -1.965556e-09
-3.856944e-09 -4.330313e-09 -3.402649e-09 -3.941425e-09 -4.110495e-09 -6.874544e-09 -5.335860e-09 -4.901570e-09 -6.329030e-09 -5.218802e-09
-6.927726e-09 -6.216688e-09 -8.045311e-09 -7.227648e-09 -9.136452e-09 -8.793719e-09 -9.618450e-09 -1.105579e-08 -8.596132e-09 -9.901060e-09
-9.802274e-09 -1.088965e-08 -1.042303e-08 -1.179682e-08 -1.121234e-08 -1.153270e-08 -1.229051e-08 -1.157005e-08 -1.215736e-08 -1.355180e-08
-1.431730e-08 -1.343001e-08 -1.426759e-08 -1.363359e-08 -1.507756e-08 -1.546130e-08 -1.520627e-08 -1.483312e-08 -1.498297e-08 -1.550676e-08
-1.592517e-08 -1.598023e-08 -1.737269e-08 -1.848525e-08 -1.901560e-08 -1.714108e-08 -1.665829e-08 -1.705875e-08 -1.652739e-08 -1.796830e-08
-1.712625e-08 -1.762969e-08 -1.839896e-08 -1.834506e-08 -1.760636e-08 -1.729699e-08 -1.826860e-08 -1.941375e-08 -1.857623e-08 -1.794058e-08
-1.764223e-08 -1.879778e-08 -1.786777e-08 -1.817985e-08 -1.834101e-08 -1.832421e-08 -1.729225e-08 -1.867186e-08 -1.881034e-08 -1.819112e-08
-1.733449e-08 -1.783081e-08 -1.819646e-08 -1.770528e-08 -1.635277e-08 -1.678043e-08 -1.737160e-08 -1.684581e-08 -1.780944e-08 -1.696618e-08
-1.627682e-08
-1.678955e-08 -1.681436e-08 -1.673957e-08 -1.664929e-08 -1.764285e-08 -1.812995e-08 -1.738590e-08 -1.795526e-08 -1.594036e-08 -1.683584e-08
-1.932495e-08 -1.623822e-08 -1.910331e-08 -1.675253e-08 -1.878222e-08 -1.731226e-08 -1.708855e-08 -1.883693e-08 -1.794470e-08 -1.721617e-08
-1.862120e-08 -1.861908e-08 -1.750724e-08 -1.825427e-08 -1.745248e-08 -1.827586e-08 -1.749414e-08 -1.707321e-08 -1.826411e-08 -1.728529e-08
-1.721760e-08 -1.675137e-08 -1.656147e-08 -1.686916e-08 -1.617119e-08 -1.739206e-08 -1.725066e-08 -1.541724e-08 -1.562768e-08 -1.665327e-08
-1.583203e-08 -1.565171e-08 -1.505304e-08 -1.391619e-08 -1.530428e-08 -1.438878e-08 -1.391214e-08 -1.434409e-08 -1.371644e-08 -1.347443e-08
-1.382043e-08 -1.184387e-08 -1.176853e-08 -1.144952e-08 -1.223947e-08 -1.166341e-08 -1.202478e-08 -1.032675e-08 -1.048610e-08 -1.163635e-08
-1.001024e-08 -9.322004e-09 -7.891114e-09 -8.097356e-09 -8.915184e-09 -9.696498e-09 -6.788864e-09 -8.300947e-09 -7.029592e-09 -7.012131e-09
-7.950163e-09 -5.705683e-09 -5.751121e-09 -3.882252e-09 -6.390234e-09 -3.352540e-09 -6.065702e-09 -3.433164e-09 -4.693071e-09 -4.563893e-09
-4.070778e-09 -5.041169e-09 -2.619557e-09 -1.685242e-09 -2.442403e-09 -1.488700e-09 -6.450449e-10 -1.140214e-09 -1.972069e-10 6.735921e-10
2.603931e-09 1.110125e-09 -3.882761e-10 3.332682e-10 1.563133e-09 1.125887e-09 8.336172e-10 1.947671e-09 1.546277e-09 2.130424e-09
1.133716e-09 4.474590e-09 3.624339e-09 3.041879e-09 3.473949e-09 5.611192e-09 6.649381e-09 6.003931e-09 5.171513e-09 5.603447e-09
6.981225e-09 6.898730e-09 7.651347e-09 8.149754e-09 7.192213e-09 7.647937e-09 8.386562e-09 9.708176e-09 1.004573e-08 1.104981e-08
1.008092e-08 1.104139e-08 1.046475e-08 1.103210e-08 1.186834e-08 1.292741e-08 1.289220e-08 1.273855e-08 1.214400e-08 1.323011e-08
1.320079e-08 1.381520e-08 1.345951e-08 1.477192e-08 1.579904e-08 1.477123e-08 1.558086e-08 1.474949e-08 1.706109e-08 1.484526e-08
1.570973e-08 1.613541e-08 1.638994e-08 1.637678e-08 1.729888e-08 1.749109e-08 1.710555e-08 1.770847e-08 1.802512e-08 1.856243e-08
1.858393e-08 1.734280e-08 1.774167e-08 1.848102e-08 1.814291e-08 1.838749e-08 1.744361e-08 1.946968e-08 1.972901e-08 1.690780e-08
1.842433e-08 1.947645e-08 1.923422e-08 1.880561e-08 1.869479e-08 1.819303e-08 1.923196e-08 1.880238e-08 1.738823e-08 1.864227e-08
1.798526e-08 1.821184e-08 1.747436e-08 1.777933e-08 1.861551e-08 1.733905e-08 1.701771e-08 1.711818e-08 1.579815e-08 1.719368e-08
1.721163e-08 1.842532e-08 1.805155e-08 1.805466e-08 1.655675e-08 1.642814e-08 1.900046e-08 1.767658e-08 1.774975e-08 1.787998e-08
1.860459e-08 1.757727e-08 1.827290e-08 1.842627e-08 1.918278e-08 1.788595e-08 1.639508e-08 1.871450e-08 1.853350e-08 1.851802e-08
1.847461e-08 1.679702e-08 1.716738e-08 1.847507e-08 1.760807e-08 1.676125e-08 1.751883e-08 1.851238e-08 1.677473e-08 1.816060e-08
1.689018e-08 1.649247e-08 1.687035e-08 1.830508e-08 1.729512e-08 1.697330e-08 1.550088e-08 1.549207e-08 1.770947e-08 1.593268e-08
1.492665e-08 1.479070e-08 1.584190e-08 1.521845e-08 1.533072e-08 1.453625e-08 1.581637e-08 1.405519e-08 1.501081e-08 1.475431e-08
1.187111e-08 1.163097e-08 1.194007e-08 1.222772e-08 1.187943e-08 1.067957e-08 1.089784e-08 1.170104e-08 1.184828e-08 1.017943e-08
9.649344e-09 9.097803e-09 7.959835e-09 9.352259e-09 6.786531e-09 8.978316e-09 7.749644e-09 7.070428e-09 5.740500e-09 5.951937e-09
6.747186e-09 6.227923e-09 5.299701e-09 4.613988e-09 5.851697e-09 4.907958e-09 5.825381e-09 3.924770e-09 3.281758e-09 3.029554e-09
2.703427e-09 3.285329e-09 2.537609e-09 1.031973e-09 2.381989e-09 2.725672e-10 1.684109e-09 2.585891e-09 -4.761443e-11 1.749765e-09
-9.262478e-10 -1.385790e-09 -2.944922e-10 3.714747e-10 -1.820288e-09 -1.519075e-09 -2.653217e-09 -2.434902e-09 -3.608409e-09 -1.264296e-09
-3.911790e-09 -4.048315e-09 -4.026111e-09 -3.921537e-09 -4.787867e-09 -5.184140e-09 -4.749418e-09 -6.556906e-09 -5.221072e-09 -6.033249e-09
-6.132338e-09 -7.116403e-09 -7.251028e-09 -8.407750e-09 -6.726423e-09 -7.804441e-09 -8.701901e-09 -8.528488e-09 -9.419385e-09 -9.648329e-09
-1.177899e-08 -9.605635e-09 -1.197420e-08 -1.110467e-08 -1.020356e-08 -1.265190e-08 -1.161883e-08 -1.269158e-08 -1.368531e-08 -1.196623e-08
-1.249158e-08 -1.350193e-08 -1.315251e-08 -1.574826e-08 -1.398447e-08 -1.435208e-08 -1.579789e-08 -1.558565e-08 -1.672876e-08 -1.656016e-08
-1.525593e-08 -1.784244e-08 -1.575704e-08 -1.693973e-08 -1.640691e-08 -1.704929e-08 -1.799092e-08 -1.691718e-08 -1.821865e-08 -1.807439e-08
-1.671301e-08 -1.790715e-08 -1.787835e-08 -1.834736e-08 -1.960989e-08 -1.852603e-08 -1.909108e-08 -1.713338e-08 -1.754390e-08 -1.914477e-08
-1.876201e-08 -1.762481e-08 -1.757007e-08 -1.785147e-08 -1.911224e-08 -1.872589e-08 -1.801309e-08 -1.824218e-08 -1.772948e-08 -1.781689e-08
-1.759425e-08 -1.849511e-08 -1.741309e-08 -1.858479e-08 -1.899407e-08 -1.718640e-08 -1.585738e-08 -1.636558e-08 -1.709519e-08 -1.482060e-08
-1.678955e-08
-1.819895e-08 -1.812570e-08 -1.708116e-08 -1.655896e-08 -1.640386e-08 -1.728043e-08 -1.811763e-08 -1.722018e-08 -1.734749e-08 -1.787047e-08
-1.719683e-08 -1.802731e-08 -1.600797e-08 -1.671274e-08 -1.649847e-08 -1.775754e-08 -1.881997e-08 -1.887846e-08 -1.797775e-08 -1.875569e-08
-1.712885e-08 -1.709302e-08 -1.707516e-08 -1.692302e-08 -1.809683e-08 -1.748469e-08 -1.639609e-08 -1.683328e-08 -1.812624e-08 -1.754639e-08
-1.657206e-08 -1.681260e-08 -1.667807e-08 -1.643067e-08 -1.668848e-08 -1.630389e-08 -1.726629e-08 -1.630563e-08 -1.593476e-08 -1.680823e-08
-1.610141e-08 -1.700839e-08 -1.538786e-08 -1.461651e-08 -1.600368e-08 -1.427587e-08 -1.354173e-08 -1.449663e-08 -1.376997e-08 -1.321230e-08
-1.222091e-08 -1.331303e-08 -1.205492e-08 -1.157647e-08 -1.376078e-08 -1.137335e-08 -1.089403e-08 -1.134614e-08 -9.799952e-09 -1.126876e-08
-9.045273e-09 -8.560544e-09 -9.367231e-09 -8.430443e-09 -8.726155e-09 -9.185082e-09 -7.677529e-09 -8.260201e-09 -6.090200e-09 -7.557419e-09
-5.897280e-09 -6.351951e-09 -5.402249e-09 -4.796282e-09 -5.611871e-09 -5.183029e-09 -2.548425e-09 -4.389311e-09 -2.955177e-09 -2.553839e-09
-2.554140e-09 -1.685756e-09 -2.596031e-09 -1.613060e-09 -4.906811e-10 -2.639720e-11 -1.133211e-09 -1.765982e-10 -4.990523e-10 2.427735e-10
-5.762059e-10 1.220369e-10 8.301045e-11 1.547319e-10 2.262236e-09 -1.685251e-10 3.279978e-09 2.057899e-09 1.881342e-09 4.052739e-09
4.043879e-09 2.515580e-09 2.357067e-09 4.510885e-09 3.649473e-09 2.487058e-09 5.923484e-09 6.455624e-09 4.398610e-09 4.193755e-09
7.348108e-09 6.113312e-09 8.558948e-09 9.789644e-09 8.150947e-09 7.555373e-09 9.494024e-09 9.918263e-09 9.180666e-09 9.536778e-09
8.767354e-09 9.996005e-09 1.103437e-08 1.199915e-08 1.224909e-08 1.265258e-08 1.293478e-08 1.333633e-08 1.349918e-08 1.260045e-08
1.338307e-08 1.326062e-08 1.507847e-08 1.390847e-08 1.429198e-08 1.475914e-08 1.583643e-08 1.494392e-08 1.541165e-08 1.569817e-08
1.671835e-08 1.603729e-08 1.624142e-08 1.604482e-08 1.654151e-08 1.754741e-08 1.651143e-08 1.774351e-08 1.706651e-08 1.836982e-08
1.885024e-08 1.878786e-08 1.859472e-08 1.864356e-08 1.780407e-08 1.830508e-08 1.737298e-08 1.786340e-08 1.727137e-08 1.748765e-08
1.993308e-08 1.782031e-08 1.787234e-08 1.705998e-08 1.855056e-08 1.911956e-08 1.877869e-08 1.919682e-08 1.822298e-08 1.679732e-08
1.882123e-08 1.874682e-08 1.826618e-08 1.716490e-08 1.782606e-08 1.682390e-08 1.828650e-08 1.705940e-08 1.905060e-08 1.621759e-08
1.528665e-08 1.713354e-08 1.620894e-08 1.755893e-08 1.648211e-08 1.793627e-08 1.688171e-08 1.818611e-08 1.752719e-08 1.607518e-08
1.897915e-08 1.853226e-08 1.733453e-08 1.786433e-08 1.729625e-08 1.747943e-08 1.618288e-08 1.821167e-08 1.751969e-08 1.833617e-08
1.781525e-08 1.643507e-08 1.804299e-08 1.791469e-08 1.694960e-08 1.643904e-08 1.769549e-08 1.713883e-08 1.750783e-08 1.704734e-08
1.706211e-08 1.714915e-08 1.745881e-08 1.569036e-08 1.796224e-08 1.556316e-08 1.658297e-08 1.560471e-08 1.568458e-08 1.623971e-08
1.465739e-08 1.422257e-08 1.536432e-08 1.491920e-08 1.431004e-08 1.441940e-08 1.340961e-08 1.321833e-08 1.261548e-08 1.334130e-08
1.241578e-08 1.213130e-08 1.137106e-08 1.228235e-08 1.050723e-08 1.156515e-08 9.831806e-09 9.449487e-09 1.075614e-08 9.900014e-09
9.559511e-09 7.108772e-09 1.066677e-08 7.131379e-09 7.313155e-09 7.639492e-09 7.811715e-09 7.612757e-09 6.191787e-09 5.510269e-09
4.234567e-09 5.041616e-09 3.660420e-09 6.431076e-09 4.769791e-09 4.372822e-09 3.127155e-09 9.003207e-10 3.743942e-09 2.991616e-09
2.228395e-09 2.940859e-09 1.410324e-09 5.950692e-10 2.721064e-09 6.376003e-10 1.557335e-09 6.453272e-10 -1.234286e-09 -4.991991e-10
8.754892e-10 -5.464818e-10 1.752118e-10 4.115440e-10 -1.268926e-09 -1.172828e-09 -1.530637e-09 -1.903864e-09 -2.132922e-09 -2.387571e-09
-3.427246e-09 -3.712091e-09 -2.682143e-09 -4.800709e-09 -4.343036e-09 -6.106200e-09 -4.269281e-09 -5.283714e-09 -6.315153e-09 -6.801949e-09
-6.477553e-09 -6.793060e-09 -6.841817e-09 -8.257321e-09 -8.075788e-09 -7.639930e-09 -7.751216e-09 -1.090180e-08 -9.977403e-09 -1.120447e-08
-1.010867e-08 -1.070641e-08 -9.438287e-09 -1.113816e-08 -1.142744e-08 -1.170451e-08 -1.110009e-08 -1.118778e-08 -1.322760e-08 -1.185833e-08
-1.321561e-08 -1.285525e-08 -1.375502e-08 -1.442791e-08 -1.596849e-08 -1.424382e-08 -1.439958e-08 -1.439980e-08 -1.585476e-08 -1.498964e-08
-1.533309e-08 -1.623691e-08 -1.650682e-08 -1.693280e-08 -1.697035e-08 -1.836500e-08 -1.719737e-08 -1.648681e-08 -1.793750e-08 -1.668946e-08
-1.712639e-08 -1.743052e-08 -1.787216e-08 -1.685842e-08 -1.760768e-08 -1.906240e-08 -1.694269e-08 -1.851605e-08 -1.872993e-08 -1.645820e-08
-1.883876e-08 -1.768791e-08 -1.794804e-08 -1.757195e-08 -1.886599e-08 -1.933845e-08 -1.757053e-08 -1.820400e-08 -1.695031e-08 -1.736889e-08
-1.750890e-08 -1.822193e-08 -1.802045e-08 -1.664929e-08 -1.745994e-08 -1.709786e-08 -1.610166e-08 -1.637225e-08 -1.680679e-08 -1.738123e-08
-1.819895e-08
-1.607977e-08 -1.687056e-08 -1.716404e-08 -1.681065e-08 -1.788702e-08 -1.566446e-08 -1.739821e-08 -1.776204e-08 -1.731212e-08 -1.809179e-08
-1.723503e-08 -1.675570e-08 -1.781993e-08 -1.768376e-08 -1.689860e-08 -1.597828e-08 -1.738309e-08 -1.751973e-08 -1.805486e-08 -1.850855e-08
-1.638819e-08 -1.805456e-08 -1.879822e-08 -1.688704e-08 -1.695314e-08 -1.754369e-08 -1.693808e-08 -1.750956e-08 -1.617382e-08 -1.654514e-08
-1.699983e-08 -1.602446e-08 -1.712729e-08 -1.631411e-08 -1.748717e-08 -1.667890e-08 -1.604461e-08 -1.579335e-08 -1.537924e-08 -1.625161e-08
-1.458155e-08 -1.571984e-08 -1.555193e-08 -1.476761e-08 -1.491627e-08 -1.343416e-08 -1.386259e-08 -1.360439e-08 -1.355505e-08 -1.347061e-08
-1.244680e-08 -1.268964e-08 -1.513675e-08 -1.157102e-08 -1.237957e-08 -1.185727e-08 -1.128446e-08 -1.150919e-08 -1.098037e-08 -8.587718e-09
-1.058152e-08 -9.962701e-09 -9.847132e-09 -9.003730e-09 -8.658561e-09 -8.103414e-09 -7.307011e-09 -7.916636e-09 -8.635166e-09 -5.897634e-09
-5.609808e-09 -6.756044e-09 -6.242136e-09 -5.549669e-09 -4.234476e-09 -3.264205e-09 -4.874943e-09 -3.558726e-09 -5.295977e-09 -4.143040e-09
-1.245897e-09 -1.801011e-09 -1.345371e-09 -1.222347e-09 -3.614417e-09 -1.240695e-09 -1.499388e-09 -1.340276e-09 -2.450821e-10 -1.093673e-09
-1.586511e-09 6.862604e-10 3.605839e-10 2.723222e-10 9.859997e-10 3.484687e-09 7.366041e-10 1.807186e-10 2.405719e-09 3.170976e-09
2.948996e-09 4.028660e-09 3.245672e-09 3.181390e-09 5.298106e-09 4.948057e-09 5.373024e-09 6.399482e-09 6.091209e-09 5.129134e-09
6.315404e-09 8.298080e-09 7.060150e-09 8.277724e-09 7.999661e-09 9.467817e-09 8.102631e-09 7.794323e-09 8.312099e-09 1.120723e-08
1.091153e-08 1.085406e-08 1.049450e-08 1.171968e-08 1.143346e-08 1.102419e-08 1.303875e-08 1.318161e-08 1.168200e-08 1.262936e-08
1.219817e-08 1.315743e-08 1.451023e-08 1.429247e-08 1.456783e-08 1.582367e-08 1.409262e-08 1.496892e-08 1.491505e-08 1.506142e-08
1.489785e-08 1.581450e-08 1.625022e-08 1.543586e-08 1.602010e-08 1.595395e-08 1.654226e-08 1.729831e-08 1.701841e-08 1.617646e-08
1.733411e-08 1.825182e-08 1.765606e-08 1.802380e-08 1.846967e-08 1.861219e-08 1.785832e-08 1.886202e-08 1.752657e-08 1.705168e-08
1.845042e-08 1.796705e-08 1.826073e-08 1.803568e-08 1.736579e-08 1.863394e-08 1.822836e-08 1.873281e-08 1.652592e-08 1.670752e-08
1.741454e-08 1.866803e-08 1.676557e-08 1.754168e-08 1.740686e-08 1.679074e-08 1.556836e-08 1.663835e-08 1.748848e-08 1.633265e-08
1.746096e-08 1.672126e-08 1.676536e-08 1.659047e-08 1.570634e-08 1.634419e-08 1.579708e-08 1.580070e-08 1.772614e-08 1.657175e-08
1.733791e-08 1.669422e-08 1.856195e-08 1.695062e-08 1.794401e-08 1.557035e-08 1.613760e-08 1.759427e-08 1.683101e-08 1.562556e-08
1.781308e-08 1.677840e-08 1.638171e-08 1.769962e-08 1.683024e-08 1.782174e-08 1.764561e-08 1.614692e-08 1.864238e-08 1.702004e-08
1.673382e-08 1.643425e-08 1.830161e-08 1.755656e-08 1.645254e-08 1.490276e-08 1.576602e-08 1.513037e-08 1.432723e-08 1.510698e-08
1.492452e-08 1.485110e-08 1.451739e-08 1.425868e-08 1.514620e-08 1.279631e-08 1.363339e-08 1.313395e-08 1.438384e-08 1.173791e-08
1.161325e-08 1.330220e-08 1.277246e-08 1.320357e-08 1.103346e-08 1.025538e-08 9.537726e-09 1.020931e-08 9.914658e-09 9.746974e-09
9.548072e-09 9.401146e-09 8.162211e-09 7.399241e-09 8.131317e-09 7.574275e-09 7.878436e-09 7.520719e-09 7.703488e-09 8.059053e-09
7.384708e-09 5.221590e-09 4.351983e-09 4.394809e-09 3.641739e-09 3.943406e-09 3.696244e-09 4.470814e-09 3.457262e-09 3.258772e-09
3.663131e-09 2.453865e-09 1.478875e-09 7.386798e-10 2.137123e-09 7.320478e-10 -2.823450e-10 3.986743e-10 -1.234135e-09 -6.636888e-10
3.578296e-10 -3.673690e-10 8.431856e-10 -6.849410e-10 -4.049459e-10 -2.425266e-09 -1.886957e-09 -3.223066e-09 -4.387868e-09 -2.201487e-09
-4.514912e-09 -4.328024e-09 -5.531720e-09 -3.456180e-09 -4.512946e-09 -4.784493e-09 -5.627105e-09 -5.630387e-09 -5.238333e-09 -4.852780e-09
-6.090202e-09 -6.037038e-09 -7.677909e-09 -9.249310e-09 -8.457853e-09 -7.433929e-09 -8.794681e-09 -8.364189e-09 -8.322200e-09 -9.392578e-09
-9.949801e-09 -9.472940e-09 -1.182293e-08 -1.007763e-08 -1.104708e-08 -1.092993e-08 -1.200866e-08 -1.198635e-08 -1.288192e-08 -1.274340e-08
-1.296888e-08 -1.279940e-08 -1.383768e-08 -1.427873e-08 -1.386311e-08 -1.386712e-08 -1.377886e-08 -1.476542e-08 -1.550353e-08 -1.524022e-08
-1.622320e-08 -1.591403e-08 -1.650302e-08 -1.690087e-08 -1.720549e-08 -1.625155e-08 -1.712361e-08 -1.617206e-08 -1.726237e-08 -1.645521e-08
-1.674384e-08 -1.734690e-08 -1.870670e-08 -1.820007e-08 -1.682524e-08 -1.805183e-08 -1.829130e-08 -1.774690e-08 -1.787208e-08 -1.776909e-08
-1.754175e-08 -1.887716e-08 -1.833405e-08 -1.916500e-08 -1.667609e-08 -1.859256e-08 -1.726281e-08 -1.702652e-08 -1.700270e-08 -1.732114e-08
-1.717794e-08 -1.682182e-08 -1.617157e-08 -1.675174e-08 -1.526731e-08 -1.640809e-08 -1.749647e-08 -1.631350e-08 -1.718460e-08 -1.666175e-08
-1.607977e-08
-1.704574e-08 -1.553908e-08 -1.653315e-08 -1.596584e-08 -1.699554e-08 -1.617173e-08 -1.601697e-08 -1.725379e-08 -1.719733e-08 -1.777841e-08
-1.833923e-08 -1.765105e-08 -1.674380e-08 -1.692530e-08 -1.726587e-08 -1.713241e-08 -1.838515e-08 -1.662623e-08 -1.643304e-08 -1.608019e-08
-1.697254e-08 -1.605777e-08 -1.698029e-08 -1.762421e-08 -1.782442e-08 -1.758716e-08 -1.654042e-08 -1.718936e-08 -1.680296e-08 -1.596280e-08
-1.729019e-08 -1.630926e-08 -1.709304e-08 -1.609526e-08 -1.609579e-08 -1.563652e-08 -1.745576e-08 -1.522511e-08 -1.534070e-08 -1.504993e-08
-1.457917e-08 -1.545815e-08 -1.473591e-08 -1.496880e-08 -1.499758e-08 -1.489624e-08 -1.488810e-08 -1.389743e-08 -1.343364e-08 -1.266374e-08
-1.255289e-08 -1.279208e-08 -1.252682e-08 -1.308328e-08 -1.147094e-08 -1.110482e-08 -1.168585e-08 -1.243690e-08 -1.113689e-08 -1.072230e-08
-1.050889e-08 -8.878119e-09 -8.084510e-09 -8.295799e-09 -7.217959e-09 -7.294332e-09 -7.228832e-09 -6.988881e-09 -7.754601e-09 -5.599973e-09
-8.105222e-09 -6.341681e-09 -5.308790e-09 -4.585683e-09 -4.545473e-09 -3.520459e-09 -5.958889e-09 -3.514044e-09 -2.136912e-09 -3.132338e-09
-2.652911e-09 -2.600236e-09 -1.547258e-09 -5.147561e-10 -2.383983e-09 4.176627e-10 -9.266966e-10 -2.479435e-10 -9.825700e-10 -1.508319e-09
6.176578e-10 1.787510e-09 7.531975e-11 1.439957e-09 1.713488e-09 8.930304e-10 1.825491e-09 1.619906e-09 3.196145e-09 2.754820e-09
3.568942e-09 4.391135e-09 4.549484e-09 3.243644e-09 1.905019e-09 5.695501e-09 3.060089e-09 4.816634e-09 5.757993e-09 6.752833e-09
6.281723e-09 5.889686e-09 6.822479e-09 8.161361e-09 6.882376e-09 8.763831e-09 9.102322e-09 9.017882e-09 1.069371e-08 1.102755e-08
1.017989e-08 1.026924e-08 9.703864e-09 9.981474e-09 1.173433e-08 1.033285e-08 1.103837e-08 1.296391e-08 1.287365e-08 1.257354e-08
1.380557e-08 1.388064e-08 1.443705e-08 1.304532e-08 1.412203e-08 1.387933e-08 1.386864e-08 1.698459e-08 1.481995e-08 1.455219e-08
1.482720e-08 1.527645e-08 1.596785e-08 1.632585e-08 1.723754e-08 1.694612e-08 1.660037e-08 1.591395e-08 1.617889e-08 1.781526e-08
1.728147e-08 1.780960e-08 1.611073e-08 1.698597e-08 1.854027e-08 1.722341e-08 1.839730e-08 1.815853e-08 1.770652e-08 1.673128e-08
1.827703e-08 1.795040e-08 1.633845e-08 1.867199e-08 1.816452e-08 1.761487e-08 1.852855e-08 1.836253e-08 1.760591e-08 1.765633e-08
1.772792e-08 1.702403e-08 1.676366e-08 1.680888e-08 1.655321e-08 1.834799e-08 1.552427e-08 1.817428e-08 1.722853e-08 1.698100e-08
1.670957e-08 1.638682e-08 1.693300e-08 1.726770e-08 1.672790e-08 1.624854e-08 1.636976e-08 1.775815e-08 1.627411e-08 1.663437e-08
1.807663e-08 1.779384e-08 1.683666e-08 1.631764e-08 1.661723e-08 1.629586e-08 1.815926e-08 1.724667e-08 1.799860e-08 1.778875e-08
1.760602e-08 1.654580e-08 1.628800e-08 1.656746e-08 1.725582e-08 1.599411e-08 1.796791e-08 1.754148e-08 1.750376e-08 1.628944e-08
1.598803e-08 1.581149e-08 1.592957e-08 1.579636e-08 1.613434e-08 1.510865e-08 1.632598e-08 1.656285e-08 1.558938e-08 1.537748e-08
1.430348e-08 1.399501e-08 1.399815e-08 1.332419e-08 1.403316e-08 1.305172e-08 1.440164e-08 1.267880e-08 1.299439e-08 1.213721e-08
1.200923e-08 1.211448e-08 1.129250e-08 1.323695e-08 1.139844e-08 1.090417e-08 1.035453e-08 1.028299e-08 9.636621e-09 1.101343e-08
8.583910e-09 9.293789e-09 8.570885e-09 8.192636e-09 7.110245e-09 7.274499e-09 8.566096e-09 5.857870e-09 7.133865e-09 6.811491e-09
6.692563e-09 6.043231e-09 7.405923e-09 4.101809e-09 5.318113e-09 5.544626e-09 3.611011e-09 3.858307e-09 3.407631e-09 3.343907e-09
2.917607e-09 3.414949e-09 2.004769e-09 3.471995e-09 2.410388e-09 1.057868e-09 2.612714e-09 1.457934e-09 1.233350e-10 -1.748469e-10
3.940727e-10 1.528285e-10 -7.240670e-10 -1.310118e-09 -3.261276e-09 3.543339e-10 -3.246823e-09 -1.444039e-09 -2.849133e-09 -1.659903e-09
-1.381011e-09 -4.556956e-09 -4.580070e-09 -3.913713e-09 -4.330384e-09 -4.134368e-09 -4.490635e-09 -4.694635e-09 -5.163397e-09 -5.444182e-09
-6.400728e-09 -5.419006e-09 -7.376037e-09 -7.589073e-09 -6.676834e-09 -8.513243e-09 -8.634422e-09 -1.097062e-08 -9.253831e-09 -9.009647e-09
-1.006567e-08 -1.094957e-08 -1.103589e-08 -1.113090e-08 -1.160475e-08 -1.183653e-08 -1.243593e-08 -1.201396e-08 -1.322413e-08 -1.269626e-08
-1.207636e-08 -1.344798e-08 -1.321166e-08 -1.398893e-08 -1.360022e-08 -1.470939e-08 -1.423179e-08 -1.526882e-08 -1.464104e-08 -1.526967e-08
-1.508146e-08 -1.711106e-08 -1.567732e-08 -1.522422e-08 -1.644649e-08 -1.639000e-08 -1.702435e-08 -1.697971e-08 -1.643281e-08 -1.736233e-08
-1.640432e-08 -1.656681e-08 -1.489211e-08 -1.737576e-08 -1.823250e-08 -1.712878e-08 -1.818188e-08 -1.835244e-08 -1.794013e-08 -1.757272e-08
-1.787326e-08 -1.629664e-08 -1.751660e-08 -1.650769e-08 -1.721611e-08 -1.844913e-08 -1.750813e-08 -1.709692e-08 -1.679597e-08 -1.704243e-08
-1.706485e-08 -1.601686e-08 -1.587134e-08 -1.594472e-08 -1.591428e-08 -1.587832e-08 -1.665979e-08 -1.588323e-08 -1.786789e-08 -1.552423e-08
-1.704574e-08
-1.617777e-08 -1.670147e-08 -1.460540e-08 -1.604907e-08 -1.583665e-08 -1.544625e-08 -1.567294e-08 -1.658638e-08 -1.696692e-08 -1.694643e-08
-1.731017e-08 -1.622841e-08 -1.698375e-08 -1.731046e-08 -1.657517e-08 -1.717741e-08 -1.830548e-08 -1.864603e-08 -1.689844e-08 -1.715352e-08
-1.853750e-08 -1.782258e-08 -1.754944e-08 -1.742952e-08 -1.567962e-08 -1.752527e-08 -1.754926e-08 -1.596269e-08 -1.649101e-08 -1.735558e-08
-1.629434e-08 -1.633180e-08 -1.683608e-08 -1.578718e-08 -1.595845e-08 -1.693020e-08 -1.570885e-08 -1.662318e-08 -1.617731e-08 -1.666717e-08
-1.514893e-08 -1.559020e-08 -1.424483e-08 -1.459411e-08 -1.379595e-08 -1.426443e-08 -1.476698e-08 -1.434310e-08 -1.251806e-08 -1.234288e-08
-1.263924e-08 -1.135392e-08 -1.081011e-08 -1.113537e-08 -1.083687e-08 -1.156801e-08 -1.072253e-08 -1.043423e-08 -1.027429e-08 -9.740709e-09
-1.076934e-08 -9.269571e-09 -9.997368e-09 -8.984036e-09 -9.334301e-09 -7.491736e-09 -8.764577e-09 -6.748760e-09 -7.761142e-09 -5.982773e-09
-6.517225e-09 -4.915973e-09 -4.917543e-09 -6.283727e-09 -4.866184e-09 -6.075700e-09 -4.639002e-09 -3.774276e-09 -1.281936e-09 -3.220794e-09
-3.166927e-09 -2.011884e-09 -5.141699e-10 -2.351332e-09 -1.588145e-09 -1.948854e-09 -1.067707e-09 -8.133059e-10 2.956589e-10 9.045514e-10
-5.076508e-11 1.083724e-09 1.398834e-09 1.041276e-09 6.051122e-10 1.540343e-09 1.279142e-09 1.388367e-09 4.841282e-09 2.545388e-09
1.370966e-09 3.570024e-09 3.183189e-09 3.537617e-09 4.464272e-09 5.716287e-09 6.832977e-09 5.066488e-09 5.617432e-09 6.563747e-09
5.593682e-09 6.293366e-09 8.182783e-09 7.177378e-09 7.310889e-09 7.750472e-09 7.566895e-09 9.180282e-09 8.336812e-09 9.842109e-09
9.542796e-09 9.318228e-09 1.035366e-08 1.093919e-08 1.253171e-08 1.134944e-08 1.214955e-08 1.232379e-08 1.238964e-08 1.233628e-08
1.306707e-08 1.393389e-08 1.252821e-08 1.477542e-08 1.408761e-08 1.431345e-08 1.362828e-08 1.361193e-08 1.372614e-08 1.500306e-08
1.571089e-08 1.590650e-08 1.569201e-08 1.539196e-08 1.610521e-08 1.582966e-08 1.575486e-08 1.682043e-08 1.506376e-08 1.698898e-08
1.714734e-08 1.654396e-08 1.714717e-08 1.670400e-08 1.793431e-08 1.709332e-08 1.634668e-08 1.787163e-08 1.849802e-08 1.840989e-08
1.797550e-08 1.663611e-08 1.679409e-08 1.586629e-08 1.702755e-08 1.741214e-08 1.822977e-08 1.807133e-08 1.693456e-08 1.732703e-08
1.706983e-08 1.700973e-08 1.706687e-08 1.717286e-08 1.770698e-08 1.616572e-08 1.697846e-08 1.675690e-08 1.602513e-08 1.556143e-08
1.597829e-08 1.538080e-08 1.656160e-08 1.460731e-08 1.619725e-08 1.603676e-08 1.626221e-08 1.690667e-08 1.707999e-08 1.802831e-08
1.807727e-08 1.884438e-08 1.814974e-08 1.708735e-08 1.540915e-08 1.571434e-08 1.670090e-08 1.761036e-08 1.666881e-08 1.704896e-08
1.651496e-08 1.623821e-08 1.695139e-08 1.706564e-08 1.709619e-08 1.629654e-08 1.791759e-08 1.733454e-08 1.712168e-08 1.672158e-08
1.581252e-08 1.674535e-08 1.559281e-08 1.645077e-08 1.607512e-08 1.695748e-08 1.516768e-08 1.502808e-08 1.433805e-08 1.496189e-08
1.636799e-08 1.484524e-08 1.487432e-08 1.317147e-08 1.324698e-08 1.365319e-08 1.266061e-08 1.340503e-08 1.255166e-08 1.293848e-08
1.238783e-08 1.179780e-08 1.079868e-08 1.301747e-08 1.131945e-08 1.159267e-08 1.174726e-08 9.148688e-09 1.023375e-08 1.035116e-08
8.585623e-09 8.893896e-09 8.642107e-09 6.893318e-09 7.773594e-09 7.532488e-09 7.384494e-09 7.841966e-09 6.648526e-09 5.109877e-09
5.037549e-09 8.539904e-09 3.896106e-09 3.539841e-09 3.727393e-09 3.993529e-09 3.287938e-09 4.017542e-09 1.996356e-09 4.955010e-09
1.596135e-09 1.886013e-09 2.740279e-09 4.267476e-09 1.779726e-09 -4.445095e-10 -7.877416e-10 9.745292e-10 1.165584e-09 8.887894e-10
-3.948794e-10 1.830921e-11 -6.530659e-11 -1.174341e-09 -1.066527e-09 -4.217444e-10 -3.453092e-10 -3.428828e-09 -2.840301e-09 -2.581594e-09
-1.527492e-09 -2.642879e-09 -2.415967e-09 -4.037296e-09 -4.812926e-09 -5.799457e-09 -5.198460e-09 -3.960142e-09 -4.614449e-09 -6.985529e-09
-6.739603e-09 -7.150709e-09 -5.735281e-09 -8.380760e-09 -7.417201e-09 -8.315530e-09 -8.645107e-09 -9.849265e-09 -1.017706e-08 -7.945473e-09
-9.328459e-09 -1.121454e-08 -9.259477e-09 -1.122056e-08 -1.224838e-08 -1.217245e-08 -1.180157e-08 -1.184184e-08 -1.216182e-08 -1.297610e-08
-1.144623e-08 -1.255171e-08 -1.433707e-08 -1.361365e-08 -1.401522e-08 -1.456299e-08 -1.433761e-08 -1.456318e-08 -1.537297e-08 -1.557137e-08
-1.601606e-08 -1.575435e-08 -1.729165e-08 -1.620001e-08 -1.646987e-08 -1.626105e-08 -1.676076e-08 -1.579095e-08 -1.609754e-08 -1.674665e-08
-1.660432e-08 -1.582186e-08 -1.695822e-08 -1.697403e-08 -1.702613e-08 -1.734294e-08 -1.847504e-08 -1.796160e-08 -1.741709e-08 -1.745306e-08
-1.711982e-08 -1.626388e-08 -1.686008e-08 -1.712398e-08 -1.685530e-08 -1.657198e-08 -1.625983e-08 -1.633142e-08 -1.623067e-08 -1.607554e-08
-1.750716e-08 -1.549343e-08 -1.659516e-08 -1.578834e-08 -1.624489e-08 -1.722335e-08 -1.620350e-08 -1.545909e-08 -1.649606e-08 -1.672864e-08
-1.617777e-08
-1.643632e-08 -1.662643e-08 -1.580764e-08 -1.568050e-08 -1.702326e-08 -1.659277e-08 -1.669177e-08 -1.616696e-08 -1.710581e-08 -1.517090e-08
-1.657701e-08 -1.626314e-08 -1.723594e-08 -1.709108e-08 -1.682697e-08 -1.666390e-08 -1.673926e-08 -1.648136e-08 -1.741556e-08 -1.745113e-08
-1.572252e-08 -1.757007e-08 -1.683719e-08 -1.722546e-08 -1.570293e-08 -1.728490e-08 -1.754665e-08 -1.562149e-08 -1.744519e-08 -1.647769e-08
-1.663736e-08 -1.547082e-08 -1.594699e-08 -1.661371e-08 -1.565093e-08 -1.590466e-08 -1.575354e-08 -1.527297e-08 -1.569122e-08 -1.662830e-08
-1.581217e-08 -1.398648e-08 -1.396311e-08 -1.504398e-08 -1.451683e-08 -1.414555e-08 -1.359953e-08 -1.469356e-08 -1.396887e-08 -1.323279e-08
-1.220485e-08 -1.307038e-08 -1.299023e-08 -1.038632e-08 -1.060679e-08 -1.081980e-08 -1.152498e-08 -1.141903e-08 -1.159321e-08 -9.143658e-09
-8.738884e-09 -9.919732e-09 -9.551094e-09 -8.519149e-09 -7.302867e-09 -7.801733e-09 -7.146607e-09 -6.720706e-09 -6.241672e-09 -8.057934e-09
-7.043797e-09 -4.458607e-09 -4.623633e-09 -3.610471e-09 -4.481436e-09 -4.316498e-09 -3.491183e-09 -5.154778e-09 -3.981530e-09 -1.863522e-09
-2.868954e-09 -1.817329e-09 -2.879131e-09 -2.453871e-09 3.066335e-10 -1.966124e-09 -3.982994e-10 -1.207434e-09 -1.510986e-09 -1.216068e-09
-8.423887e-11 -4.595097e-10 9.721176e-11 8.405361e-10 4.521145e-10 1.766371e-09 2.674785e-09 6.346665e-10 1.696691e-09 4.081407e-09
1.539917e-09 2.953043e-09 5.164180e-09 3.597280e-09 4.466269e-09 3.619451e-09 3.738843e-09 3.179843e-09 6.373556e-09 5.438834e-09
6.842209e-09 5.470147e-09 7.311016e-09 8.768255e-09 7.157384e-09 7.159437e-09 9.182792e-09 8.395195e-09 8.488830e-09 7.874888e-09
9.486738e-09 1.056883e-08 9.578251e-09 1.064915e-08 9.863528e-09 1.199278e-08 1.076596e-08 1.101742e-08 1.159982e-08 1.204015e-08
1.262351e-08 1.282203e-08 1.429947e-08 1.397655e-08 1.303091e-08 1.348653e-08 1.388220e-08 1.438015e-08 1.566297e-08 1.523066e-08
1.571122e-08 1.496645e-08 1.707247e-08 1.554024e-08 1.666911e-08 1.575837e-08 1.653704e-08 1.674647e-08 1.550598e-08 1.698819e-08
1.690607e-08 1.758176e-08 1.599555e-08 1.669941e-08 1.770865e-08 1.920683e-08 1.609267e-08 1.743628e-08 1.772091e-08 1.673366e-08
1.768879e-08 1.742160e-08 1.728618e-08 1.679153e-08 1.678838e-08 1.781752e-08 1.696387e-08 1.657146e-08 1.617559e-08 1.847971e-08
1.546906e-08 1.718854e-08 1.719111e-08 1.675816e-08 1.608883e-08 1.542031e-08 1.659246e-08 1.639754e-08 1.578175e-08 1.614500e-08
1.541295e-08 1.495875e-08 1.635022e-08 1.476617e-08 1.680414e-08 1.618643e-08 1.684964e-08 1.617124e-08 1.690869e-08 1.647525e-08
1.628412e-08 1.848617e-08 1.761550e-08 1.611207e-08 1.611122e-08 1.753944e-08 1.820854e-08 1.724699e-08 1.609845e-08 1.755257e-08
1.722199e-08 1.705579e-08 1.599724e-08 1.657031e-08 1.566806e-08 1.663999e-08 1.587306e-08 1.689663e-08 1.673695e-08 1.644918e-08
1.614383e-08 1.530174e-08 1.598572e-08 1.620624e-08 1.616210e-08 1.535086e-08 1.504590e-08 1.720143e-08 1.615473e-08 1.545048e-08
1.480015e-08 1.434399e-08 1.342188e-08 1.422648e-08 1.493495e-08 1.319571e-08 1.344016e-08 1.388738e-08 1.318634e-08 1.258815e-08
1.084662e-08 1.215888e-08 1.257206e-08 1.159715e-08 1.086261e-08 9.832874e-09 1.114447e-08 1.009787e-08 9.619022e-09 1.136915e-08
8.823849e-09 8.862156e-09 7.431176e-09 8.601720e-09 8.049600e-09 8.627379e-09 6.205485e-09 6.973535e-09 7.079298e-09 5.745145e-09
6.344246e-09 5.354812e-09 4.283506e-09 3.616790e-09 5.940196e-09 4.434761e-09 3.314359e-09 3.568676e-09 2.244020e-09 3.526985e-09
2.211057e-09 1.808062e-09 1.866865e-09 3.168730e-09 -3.381847e-10 2.375435e-09 -1.542190e-09 -8.530339e-10 2.246829e-09 1.541796e-09
-1.661968e-10 -8.829961e-10 1.074454e-09 -1.113482e-09 -2.841976e-09 -1.105894e-09 -1.463143e-09 -1.750624e-09 -3.778174e-09 -2.020353e-09
-5.101199e-09 -2.373584e-09 -1.760558e-09 -4.072846e-09 -4.326314e-09 -5.346541e-09 -4.880759e-09 -5.356961e-09 -5.353894e-09 -5.785999e-09
-7.405456e-09 -6.559667e-09 -5.810511e-09 -6.354863e-09 -7.831045e-09 -8.194278e-09 -7.824258e-09 -9.524033e-09 -1.092898e-08 -9.870512e-09
-9.456721e-09 -1.068118e-08 -9.660002e-09 -1.046388e-08 -1.117764e-08 -1.076005e-08 -1.107970e-08 -1.203099e-08 -1.212088e-08 -1.280780e-08
-1.215268e-08 -1.361038e-08 -1.387648e-08 -1.291305e-08 -1.392252e-08 -1.474235e-08 -1.459365e-08 -1.636501e-08 -1.445816e-08 -1.430876e-08
-1.570977e-08 -1.591542e-08 -1.460802e-08 -1.558823e-08 -1.637487e-08 -1.592476e-08 -1.710309e-08 -1.651835e-08 -1.671941e-08 -1.749101e-08
-1.688006e-08 -1.620397e-08 -1.817521e-08 -1.714636e-08 -1.669946e-08 -1.666189e-08 -1.739317e-08 -1.660815e-08 -1.760880e-08 -1.797100e-08
-1.663325e-08 -1.848876e-08 -1.792652e-08 -1.730687e-08 -1.742507e-08 -1.765827e-08 -1.658498e-08 -1.679925e-08 -1.670171e-08 -1.811218e-08
-1.743277e-08 -1.769909e-08 -1.740522e-08 -1.761614e-08 -1.709020e-08 -1.590861e-08 -1.584980e-08 -1.518500e-08 -1.538207e-08 -1.552999e-08
-1.643632e-08
-1.517926e-08 -1.453214e-08 -1.597717e-08 -1.701588e-08 -1.684349e-08 -1.654170e-08 -1.626228e-08 -1.714508e-08 -1.636239e-08 -1.772471e-08
-1.662554e-08 -1.686821e-08 -1.761111e-08 -1.763687e-08 -1.697944e-08 -1.707551e-08 -1.852799e-08 -1.681341e-08 -1.650905e-08 -1.699224e-08
-1.692071e-08 -1.679054e-08 -1.723260e-08 -1.659536e-08 -1.582253e-08 -1.696651e-08 -1.824071e-08 -1.562920e-08 -1.670895e-08 -1.761048e-08
-1.571008e-08 -1.690203e-08 -1.708342e-08 -1.727522e-08 -1.691836e-08 -1.484667e-08 -1.569179e-08 -1.604388e-08 -1.527347e-08 -1.512268e-08
-1.467735e-08 -1.410501e-08 -1.550087e-08 -1.417591e-08 -1.440699e-08 -1.395570e-08 -1.330230e-08 -1.420657e-08 -1.252809e-08 -1.351058e-08
-1.324195e-08 -1.136528e-08 -1.133883e-08 -1.123032e-08 -1.201540e-08 -1.117818e-08 -1.066642e-08 -8.888475e-09 -9.941304e-09 -9.785007e-09
-1.060563e-08 -8.738795e-09 -7.353923e-09 -8.737421e-09 -9.052016e-09 -7.577429e-09 -6.486256e-09 -5.989598e-09 -6.721474e-09 -4.457647e-09
-5.135112e-09 -6.789469e-09 -6.479986e-09 -3.445049e-09 -4.265558e-09 -6.033977e-09 -2.697834e-09 -3.318827e-09 -4.924578e-09 -1.188496e-09
-2.920650e-09 -3.002772e-09 -2.222935e-09 -6.821210e-10 -3.206577e-09 -7.734777e-10 -1.457580e-09 -2.463600e-09 2.191852e-09 4.544780e-10
-6.564793e-10 2.446458e-09 3.422626e-10 -2.440605e-10 1.004611e-09 8.689627e-10 2.618598e-09 2.074090e-11 2.912481e-09 3.339579e-09
2.110010e-09 2.595087e-09 4.073109e-09 5.192688e-09 4.048367e-09 4.739232e-09 5.199941e-09 5.956572e-09 3.846081e-09 7.104207e-09
7.563900e-09 7.590096e-09 7.016361e-09 8.281801e-09 7.597458e-09 7.775760e-09 8.337908e-09 8.086130e-09 9.196287e-09 8.179464e-09
9.531633e-09 1.121105e-08 1.075249e-08 1.002782e-08 1.141459e-08 1.079439e-08 1.206220e-08 1.219663e-08 1.386491e-08 1.274637e-08
1.230395e-08 1.275166e-08 1.325592e-08 1.266238e-08 1.307804e-08 1.476348e-08 1.370427e-08 1.528051e-08 1.513514e-08 1.489900e-08
1.451406e-08 1.559253e-08 1.546901e-08 1.493991e-08 1.632657e-08 1.603174e-08 1.743511e-08 1.722464e-08 1.706162e-08 1.706627e-08
1.696238e-08 1.634025e-08 1.780556e-08 1.654850e-08 1.602365e-08 1.664746e-08 1.599443e-08 1.778712e-08 1.640448e-08 1.653519e-08
1.661768e-08 1.777687e-08 1.689619e-08 1.621090e-08 1.660622e-08 1.694374e-08 1.717098e-08 1.569962e-08 1.803147e-08 1.587922e-08
1.660591e-08 1.709211e-08 1.543059e-08 1.627734e-08 1.519263e-08 1.622544e-08 1.520664e-08 1.596447e-08 1.511765e-08 1.566847e-08
1.564890e-08 1.480360e-08 1.669783e-08 1.661026e-08 1.655073e-08 1.463265e-08 1.653101e-08 1.735376e-08 1.717024e-08 1.607021e-08
1.513651e-08 1.583670e-08 1.780421e-08 1.689473e-08 1.607630e-08 1.644002e-08 1.559373e-08 1.712377e-08 1.612311e-08 1.741897e-08
1.754258e-08 1.588632e-08 1.622424e-08 1.671380e-08 1.686530e-08 1.715909e-08 1.718479e-08 1.682597e-08 1.691295e-08 1.680916e-08
1.639249e-08 1.616611e-08 1.525497e-08 1.553555e-08 1.548018e-08 1.551998e-08 1.698333e-08 1.528147e-08 1.625070e-08 1.456010e-08
1.605906e-08 1.349291e-08 1.447572e-08 1.528497e-08 1.348240e-08 1.396842e-08 1.414037e-08 1.446669e-08 1.195986e-08 1.205154e-08
1.239939e-08 1.330676e-08 1.109633e-08 1.189484e-08 1.043595e-08 1.143558e-08 1.188620e-08 9.265890e-09 9.094531e-09 9.736893e-09
8.954814e-09 8.938691e-09 9.418154e-09 8.742210e-09 8.038328e-09 7.562501e-09 6.368570e-09 7.099864e-09 5.988077e-09 4.609306e-09
5.993997e-09 4.121045e-09 4.592112e-09 3.790792e-09 4.800390e-09 4.374453e-09 5.920684e-09 3.037366e-09 2.608189e-09 1.923216e-09
3.419197e-09 3.061402e-09 1.351660e-09 2.360328e-09 1.761324e-09 3.146805e-09 3.747756e-10 1.363730e-10 -1.426201e-10 -1.109116e-10
-4.934129e-10 -1.010900e-09 -1.903921e-09 -3.885459e-10 -1.650213e-09 -1.447215e-09 -1.013311e-09 -2.705376e-09 -3.376247e-09 -2.499307e-09
-4.094161e-09 -2.879714e-09 -1.951405e-09 -4.958238e-09 -5.348818e-09 -5.429446e-09 -3.506741e-09 -6.167728e-09 -6.424308e-09 -5.577796e-09
-5.217741e-09 -6.554005e-09 -6.182184e-09 -6.430494e-09 -6.847328e-09 -7.949031e-09 -7.972756e-09 -8.814614e-09 -9.597443e-09 -1.086519e-08
-8.374688e-09 -1.052552e-08 -1.012142e-08 -1.133515e-08 -1.119396e-08 -1.162205e-08 -1.117362e-08 -1.312525e-08 -1.162028e-08 -1.276186e-08
-1.327838e-08 -1.325629e-08 -1.374169e-08 -1.292268e-08 -1.323592e-08 -1.421363e-08 -1.537360e-08 -1.460806e-08 -1.473086e-08 -1.444851e-08
-1.609601e-08 -1.505565e-08 -1.509858e-08 -1.564046e-08 -1.571552e-08 -1.609889e-08 -1.674211e-08 -1.697985e-08 -1.648233e-08 -1.749239e-08
-1.611084e-08 -1.663243e-08 -1.670859e-08 -1.773515e-08 -1.651973e-08 -1.700196e-08 -1.765862e-08 -1.636602e-08 -1.664231e-08 -1.729851e-08
-1.627659e-08 -1.722448e-08 -1.679662e-08 -1.703198e-08 -1.624318e-08 -1.673519e-08 -1.878748e-08 -1.636151e-08 -1.557926e-08 -1.739179e-08
-1.538196e-08 -1.610574e-08 -1.671994e-08 -1.641201e-08 -1.537940e-08 -1.742943e-08 -1.579866e-08 -1.557206e-08 -1.462507e-08 -1.620814e-08
-1.517926e-08
-1.547412e-08 -1.531142e-08 -1.688407e-08 -1.568087e-08 -1.696858e-08 -1.713488e-08 -1.614441e-08 -1.587374e-08 -1.597598e-08 -1.617032e-08
-1.598698e-08 -1.606181e-08 -1.758651e-08 -1.650564e-08 -1.727976e-08 -1.722703e-08 -1.686985e-08 -1.671159e-08 -1.699961e-08 -1.760934e-08
-1.829924e-08 -1.734349e-08 -1.639700e-08 -1.670859e-08 -1.751497e-08 -1.688158e-08 -1.576693e-08 -1.685861e-08 -1.731630e-08 -1.704069e-08
-1.559633e-08 -1.613276e-08 -1.595377e-08 -1.608012e-08 -1.588875e-08 -1.450337e-08 -1.509280e-08 -1.496699e-08 -1.592674e-08 -1.523342e-08
-1.472866e-08 -1.523244e-08 -1.435943e-08 -1.637604e-08 -1.402889e-08 -1.363885e-08 -1.366634e-08 -1.347495e-08 -1.367225e-08 -1.443014e-08
-1.310286e-08 -1.268631e-08 -1.187183e-08 -1.235057e-08 -1.038130e-08 -1.104020e-08 -1.079744e-08 -9.798380e-09 -1.009838e-08 -1.141352e-08
-7.668992e-09 -8.128489e-09 -7.886970e-09 -8.041640e-09 -7.943110e-09 -7.320452e-09 -7.572602e-09 -6.777396e-09 -7.201418e-09 -7.245513e-09
-5.605731e-09 -5.718738e-09 -6.908733e-09 -5.504026e-09 -5.312611e-09 -5.024056e-09 -4.661493e-09 -5.495614e-09 -3.987215e-09 -4.462103e-09
-1.693880e-09 -1.198808e-09 -2.739342e-09 1.032299e-10 -1.132681e-09 -1.926172e-09 -3.841200e-10 1.844185e-10 3.023807e-10 2.386382e-10
1.325831e-09 -1.211095e-10 -2.285943e-10 4.615872e-10 1.006918e-09 1.063463e-09 1.148650e-10 2.222382e-09 3.737312e-09 2.865481e-09
3.126749e-09 4.466609e-09 4.343507e-09 4.210227e-09 3.881823e-09 4.787498e-09 5.444143e-09 4.402382e-09 5.312625e-09 7.712615e-09
5.127321e-09 7.294858e-09 6.548202e-09 7.405562e-09 6.361548e-09 7.469393e-09 7.853280e-09 7.947150e-09 9.235290e-09 8.813086e-09
1.051734e-08 1.116151e-08 9.436179e-09 1.006108e-08 1.035402e-08 1.129410e-08 1.147865e-08 1.102765e-08 1.168783e-08 1.170393e-08
1.201844e-08 1.352066e-08 1.317730e-08 1.536823e-08 1.492193e-08 1.384038e-08 1.468559e-08 1.422321e-08 1.580270e-08 1.508786e-08
1.478505e-08 1.680255e-08 1.569422e-08 1.649564e-08 1.553645e-08 1.622097e-08 1.590114e-08 1.745932e-08 1.710144e-08 1.736261e-08
1.799970e-08 1.679875e-08 1.688066e-08 1.729175e-08 1.720638e-08 1.825921e-08 1.759700e-08 1.697532e-08 1.818224e-08 1.689174e-08
1.752091e-08 1.694105e-08 1.709350e-08 1.720393e-08 1.751230e-08 1.650409e-08 1.638739e-08 1.818707e-08 1.833899e-08 1.649782e-08
1.573681e-08 1.573749e-08 1.669057e-08 1.604390e-08 1.645086e-08 1.536051e-08 1.544113e-08 1.560536e-08 1.578381e-08 1.707864e-08
1.547321e-08 1.775305e-08 1.721466e-08 1.501226e-08 1.609912e-08 1.586983e-08 1.554978e-08 1.738337e-08 1.629564e-08 1.645812e-08
1.661008e-08 1.634662e-08 1.729001e-08 1.796857e-08 1.813328e-08 1.709174e-08 1.850144e-08 1.735028e-08 1.701303e-08 1.647966e-08
1.587835e-08 1.688700e-08 1.678304e-08 1.820478e-08 1.664603e-08 1.574802e-08 1.716449e-08 1.859149e-08 1.666433e-08 1.556653e-08
1.575119e-08 1.578251e-08 1.547528e-08 1.518905e-08 1.731035e-08 1.607999e-08 1.563665e-08 1.580382e-08 1.536647e-08 1.397108e-08
1.525692e-08 1.482542e-08 1.428001e-08 1.487476e-08 1.353127e-08 1.467905e-08 1.268143e-08 1.305528e-08 1.366337e-08 1.267742e-08
1.309620e-08 1.188344e-08 1.221045e-08 1.110506e-08 1.170211e-08 1.016075e-08 1.092305e-08 8.938294e-09 1.057025e-08 1.027359e-08
9.076873e-09 8.938475e-09 9.121823e-09 7.820709e-09 7.063820e-09 7.538132e-09 7.874514e-09 6.424017e-09 5.904299e-09 5.926676e-09
8.157479e-09 5.085390e-09 5.121210e-09 5.490365e-09 5.050408e-09 3.660275e-09 4.198303e-09 3.094411e-09 5.656352e-09 3.498403e-09
3.153820e-09 1.781544e-09 2.223475e-09 2.565978e-09 1.785271e-09 1.430534e-09 -2.174221e-10 -1.013680e-09 7.200032e-10 5.928180e-10
-1.686633e-10 1.350165e-09 -6.087804e-10 8.333208e-10 -3.435714e-10 -2.757203e-09 -1.793285e-09 -2.268482e-09 1.398594e-10 -2.697925e-09
-2.732124e-09 -3.798170e-09 -3.902406e-09 -4.409387e-09 -3.536537e-09 -4.694882e-09 -4.759196e-09 -6.885988e-09 -5.826276e-09 -5.431776e-09
-6.392208e-09 -8.395208e-09 -6.932995e-09 -7.429243e-09 -8.120916e-09 -9.006766e-09 -8.074711e-09 -8.533575e-09 -8.515875e-09 -9.196672e-09
-9.233236e-09 -1.031188e-08 -9.321753e-09 -1.018602e-08 -1.097277e-08 -1.126415e-08 -1.194028e-08 -1.270365e-08 -1.173040e-08 -1.286307e-08
-1.225993e-08 -1.365509e-08 -1.332135e-08 -1.422350e-08 -1.284513e-08 -1.471890e-08 -1.543353e-08 -1.457204e-08 -1.568088e-08 -1.554527e-08
-1.545999e-08 -1.564784e-08 -1.603636e-08 -1.763386e-08 -1.671970e-08 -1.696591e-08 -1.728382e-08 -1.657551e-08 -1.657005e-08 -1.768213e-08
-1.751769e-08 -1.740162e-08 -1.702052e-08 -1.665452e-08 -1.923522e-08 -1.668371e-08 -1.754502e-08 -1.646877e-08 -1.732384e-08 -1.671364e-08
-1.772877e-08 -1.770502e-08 -1.733329e-08 -1.706481e-08 -1.629871e-08 -1.773981e-08 -1.765173e-08 -1.703350e-08 -1.701885e-08 -1.730314e-08
-1.651720e-08 -1.720330e-08 -1.739062e-08 -1.702590e-08 -1.655297e-08 -1.589850e-08 -1.564161e-08 -1.661308e-08 -1.519881e-08 -1.552556e-08
-1.547412e-08
-1.491770e-08 -1.696176e-08 -1.768756e-08 -1.625799e-08 -1.642355e-08 -1.646565e-08 -1.555708e-08 -1.671177e-08 -1.740125e-08 -1.624124e-08
-1.759281e-08 -1.714691e-08 -1.566175e-08 -1.641504e-08 -1.819585e-08 -1.520753e-08 -1.681506e-08 -1.719752e-08 -1.841188e-08 -1.767340e-08
-1.722772e-08 -1.811927e-08 -1.660212e-08 -1.701011e-08 -1.676892e-08 -1.689235e-08 -1.731257e-08 -1.682142e-08 -1.758083e-08 -1.644279e-08
-1.699585e-08 -1.576288e-08 -1.757186e-08 -1.616829e-08 -1.509695e-08 -1.499434e-08 -1.639043e-08 -1.453543e-08 -1.685567e-08 -1.587911e-08
-1.529109e-08 -1.500083e-08 -1.449183e-08 -1.392484e-08 -1.535335e-08 -1.362306e-08 -1.394769e-08 -1.361164e-08 -1.284865e-08 -1.356473e-08
-1.376903e-08 -1.191747e-08 -1.228320e-08 -1.128753e-08 -1.161127e-08 -1.050052e-08 -1.011398e-08 -1.174559e-08 -9.834462e-09 -1.030945e-08
-9.864087e-09 -8.714090e-09 -7.462123e-09 -9.141599e-09 -7.268796e-09 -6.965930e-09 -6.820870e-09 -6.970575e-09 -7.355213e-09 -5.361060e-09
-4.760933e-09 -4.963663e-09 -5.603651e-09 -5.249342e-09 -3.833778e-09 -3.203467e-09 -4.486965e-09 -2.523523e-09 -4.207517e-09 -1.892145e-09
-2.251919e-09 -2.975732e-09 -3.484867e-09 -1.449422e-09 -4.883927e-10 -1.755450e-09 -5.957877e-10 -8.997239e-10 -8.640837e-10 -5.525926e-11
-1.247866e-09 1.128930e-09 -8.602624e-10 3.458399e-09 8.481180e-10 2.439912e-09 2.048540e-09 1.659373e-09 3.621934e-09 8.089152e-10
1.989610e-09 3.736105e-09 3.412585e-09 6.031506e-09 4.302648e-09 5.869437e-09 3.488787e-09 4.856317e-09 6.558301e-09 6.562340e-09
7.732071e-09 6.413399e-09 5.684286e-09 6.687797e-09 7.168058e-09 7.970709e-09 8.670276e-09 8.029144e-09 8.737602e-09 1.063987e-08
9.010567e-09 9.775358e-09 9.013305e-09 1.021705e-08 1.169865e-08 1.149144e-08 1.193899e-08 1.237370e-08 1.189521e-08 1.301869e-08
1.285225e-08 1.238197e-08 1.244063e-08 1.323818e-08 1.364777e-08 1.355665e-08 1.432044e-08 1.405007e-08 1.426274e-08 1.444842e-08
1.591079e-08 1.500237e-08 1.528534e-08 1.647344e-08 1.691450e-08 1.657407e-08 1.667265e-08 1.667070e-08 1.553418e-08 1.716550e-08
1.819592e-08 1.730668e-08 1.759886e-08 1.675754e-08 1.779618e-08 1.764811e-08 1.699538e-08 1.737389e-08 1.738619e-08 1.828750e-08
1.769798e-08 1.737047e-08 1.783884e-08 1.671120e-08 1.638851e-08 1.677981e-08 1.717013e-08 1.779134e-08 1.736795e-08 1.690407e-08
1.670401e-08 1.771063e-08 1.669362e-08 1.685507e-08 1.649244e-08 1.628806e-08 1.472761e-08 1.515160e-08 1.689446e-08 1.516087e-08
1.495667e-08 1.514311e-08 1.581442e-08 1.641835e-08 1.692208e-08 1.596976e-08 1.679726e-08 1.727849e-08 1.504946e-08 1.758320e-08
1.743047e-08 1.606734e-08 1.752577e-08 1.667418e-08 1.601859e-08 1.721464e-08 1.662834e-08 1.815988e-08 1.696500e-08 1.688807e-08
1.684849e-08 1.685243e-08 1.800633e-08 1.801543e-08 1.697164e-08 1.743866e-08 1.707880e-08 1.729075e-08 1.779139e-08 1.747153e-08
1.741782e-08 1.759052e-08 1.757025e-08 1.622885e-08 1.587148e-08 1.585913e-08 1.525004e-08 1.529675e-08 1.512736e-08 1.593660e-08
1.406479e-08 1.376844e-08 1.524947e-08 1.353142e-08 1.374350e-08 1.405907e-08 1.380862e-08 1.445074e-08 1.289199e-08 1.166474e-08
1.217360e-08 1.162269e-08 1.227354e-08 1.147360e-08 1.121617e-08 1.005922e-08 1.113785e-08 1.014804e-08 1.096566e-08 9.996434e-09
9.294356e-09 9.424149e-09 8.803410e-09 8.146348e-09 7.904823e-09 7.102454e-09 7.074441e-09 6.909891e-09 6.385608e-09 6.983193e-09
6.255094e-09 5.147003e-09 6.821299e-09 5.491220e-09 5.240674e-09 2.873385e-09 3.580923e-09 2.461944e-09 4.686150e-09 2.965267e-09
3.353486e-09 8.027981e-10 2.570143e-09 1.949612e-09 5.371368e-10 2.318993e-09 8.023557e-10 4.835107e-10 -3.544317e-10 1.025008e-10
-2.566763e-10 1.694796e-10 4.802348e-10 -3.558592e-09 -9.582471e-10 -2.538967e-10 -2.482225e-09 -1.832006e-09 -3.080577e-09 -4.433146e-09
-4.523169e-09 -4.870360e-09 -3.182898e-09 -4.561900e-09 -1.976892e-09 -5.028328e-09 -3.607028e-09 -5.314111e-09 -7.619779e-09 -4.598121e-09
-6.168369e-09 -7.952580e-09 -7.300776e-09 -6.509648e-09 -9.891031e-09 -7.896158e-09 -8.086896e-09 -8.028505e-09 -9.778190e-09 -9.403975e-09
-1.098728e-08 -1.065531e-08 -1.040397e-08 -9.952523e-09 -1.138976e-08 -1.037380e-08 -1.050689e-08 -1.172485e-08 -1.125583e-08 -1.350330e-08
-1.282881e-08 -1.312197e-08 -1.354505e-08 -1.358975e-08 -1.420249e-08 -1.426586e-08 -1.476919e-08 -1.537916e-08 -1.536752e-08 -1.700570e-08
-1.675807e-08 -1.636745e-08 -1.661841e-08 -1.527410e-08 -1.606196e-08 -1.662954e-08 -1.675893e-08 -1.674002e-08 -1.857839e-08 -1.636397e-08
-1.811233e-08 -1.711049e-08 -1.667739e-08 -1.757341e-08 -1.767745e-08 -1.703777e-08 -1.716643e-08 -1.799921e-08 -1.925595e-08 -1.746485e-08
-1.793492e-08 -1.840604e-08 -1.768393e-08 -1.791754e-08 -1.765621e-08 -1.762538e-08 -1.612925e-08 -1.701801e-08 -1.759209e-08 -1.670838e-08
-1.640595e-08 -1.756518e-08 -1.799116e-08 -1.674638e-08 -1.528543e-08 -1.621573e-08 -1.797609e-08 -1.680997e-08 -1.561017e-08 -1.628184e-08
-1.491770e-08
-1.539695e-08 -1.591390e-08 -1.813828e-08 -1.685260e-08 -1.716693e-08 -1.581949e-08 -1.769002e-08 -1.733186e-08 -1.665346e-08 -1.763050e-08
-1.815852e-08 -1.767587e-08 -1.717248e-08 -1.774397e-08 -1.718414e-08 -1.732674e-08 -1.624965e-08 -1.774277e-08 -1.834711e-08 -1.761720e-08
-1.763416e-08 -1.621190e-08 -1.657028e-08 -1.687271e-08 -1.715030e-08 -1.693850e-08 -1.678956e-08 -1.811408e-08 -1.648262e-08 -1.733950e-08
-1.687241e-08 -1.774732e-08 -1.837022e-08 -1.592800e-08 -1.700037e-08 -1.686856e-08 -1.605271e-08 -1.488422e-08 -1.646776e-08 -1.630964e-08
-1.587616e-08 -1.485230e-08 -1.503564e-08 -1.524655e-08 -1.406601e-08 -1.422154e-08 -1.370055e-08 -1.238039e-08 -1.290717e-08 -1.332199e-08
-1.452151e-08 -1.332417e-08 -1.334947e-08 -1.215434e-08 -1.189063e-08 -1.086473e-08 -1.210017e-08 -1.019478e-08 -1.026720e-08 -1.109391e-08
-9.877478e-09 -8.909248e-09 -8.678032e-09 -1.023600e-08 -8.402966e-09 -8.878939e-09 -6.990079e-09 -6.441546e-09 -6.319938e-09 -6.517073e-09
-5.032492e-09 -7.593995e-09 -4.584735e-09 -5.946740e-09 -4.724966e-09 -4.711628e-09 -3.872773e-09 -3.128798e-09 -3.812820e-09 -3.377111e-09
-1.420772e-09 -3.429369e-09 -2.079146e-09 -2.717379e-09 -9.129186e-10 4.580720e-10 -2.236829e-09 4.680972e-10 1.110055e-09 -8.594652e-10
9.512001e-10 3.459196e-09 1.162677e-09 -7.911901e-11 1.662579e-09 3.116416e-09 1.652562e-09 1.933579e-09 2.227372e-09 3.367722e-09
2.472308e-09 3.652183e-09 3.764363e-09 3.868544e-09 5.686771e-09 3.654989e-09 4.643470e-09 3.877846e-09 5.714016e-09 4.753211e-09
6.458416e-09 8.636269e-09 6.652380e-09 6.314429e-09 7.059408e-09 8.700984e-09 9.550887e-09 7.346136e-09 9.376754e-09 9.593310e-09
8.401943e-09 1.002693e-08 1.032887e-08 1.091689e-08 9.903022e-09 1.169490e-08 1.230096e-08 1.118371e-08 1.165625e-08 1.270399e-08
1.302191e-08 1.378202e-08 1.283917e-08 1.399851e-08 1.354419e-08 1.349249e-08 1.383239e-08 1.404094e-08 1.424417e-08 1.509718e-08
1.563272e-08 1.549733e-08 1.497660e-08 1.712856e-08 1.722818e-08 1.608021e-08 1.603471e-08 1.688436e-08 1.731084e-08 1.578279e-08
1.584579e-08 1.735309e-08 1.707292e-08 1.647695e-08 1.732603e-08 1.731868e-08 1.621430e-08 1.722927e-08 1.741647e-08 1.684990e-08
1.853555e-08 1.765196e-08 1.778861e-08 1.697996e-08 1.806365e-08 1.766542e-08 1.680492e-08 1.739875e-08 1.781702e-08 1.662355e-08
1.765120e-08 1.833593e-08 1.594886e-08 1.740381e-08 1.683662e-08 1.527972e-08 1.672708e-08 1.719882e-08 1.457217e-08 1.484558e-08
1.500024e-08 1.557717e-08 1.695702e-08 1.813161e-08 1.665034e-08 1.817491e-08 1.694759e-08 1.610816e-08 1.830250e-08 1.726030e-08
1.724379e-08 1.846723e-08 1.742905e-08 1.662262e-08 1.720441e-08 1.580567e-08 1.869078e-08 1.751179e-08 1.600091e-08 1.755683e-08
1.734802e-08 1.704882e-08 1.765053e-08 1.800681e-08 1.642557e-08 1.626106e-08 1.642353e-08 1.733282e-08 1.802412e-08 1.722523e-08
1.677443e-08 1.623732e-08 1.665246e-08 1.553965e-08 1.591570e-08 1.612696e-08 1.622132e-08 1.598761e-08 1.584978e-08 1.499745e-08
1.549398e-08 1.432953e-08 1.520952e-08 1.381635e-08 1.407504e-08 1.373767e-08 1.306429e-08 1.265646e-08 1.381285e-08 1.265903e-08
1.140338e-08 1.387045e-08 1.154073e-08 1.243091e-08 1.072155e-08 1.201695e-08 1.154631e-08 1.162367e-08 8.865775e-09 9.254210e-09
1.053286e-08 9.232274e-09 7.421785e-09 8.742709e-09 6.890472e-09 7.284816e-09 8.394544e-09 5.638839e-09 7.478910e-09 6.685989e-09
5.326000e-09 7.568269e-09 4.327114e-09 5.357235e-09 5.564971e-09 4.146971e-09 4.501350e-09 4.502529e-09 3.663398e-09 3.755246e-09
3.879734e-09 1.226436e-09 9.444269e-10 8.585813e-10 1.591746e-09 1.258374e-09 -9.514730e-11 9.062778e-10 2.205065e-09 8.925274e-10
-1.619715e-09 -1.024512e-09 2.393075e-10 -2.435591e-09 -4.310295e-10 -2.410599e-09 -2.802362e-09 -3.161264e-09 -1.466104e-09 -3.042169e-09
-2.743077e-09 -5.501800e-09 -5.676661e-09 -5.895338e-09 -4.265730e-09 -6.028086e-09 -3.132907e-09 -4.045286e-09 -6.539295e-09 -5.964752e-09
-4.933092e-09 -6.934227e-09 -8.526669e-09 -7.963433e-09 -8.748377e-09 -8.045289e-09 -8.892781e-09 -1.121768e-08 -9.098111e-09 -1.046247e-08
-1.068621e-08 -1.001670e-08 -9.864799e-09 -1.202189e-08 -1.248647e-08 -1.079810e-08 -1.134811e-08 -1.103283e-08 -1.318152e-08 -1.230225e-08
-1.289700e-08 -1.333947e-08 -1.292969e-08 -1.289522e-08 -1.339047e-08 -1.437548e-08 -1.465683e-08 -1.574319e-08 -1.484801e-08 -1.467689e-08
-1.571584e-08 -1.548799e-08 -1.472129e-08 -1.586129e-08 -1.682825e-08 -1.657313e-08 -1.691609e-08 -1.681958e-08 -1.625857e-08 -1.650147e-08
-1.808226e-08 -1.702556e-08 -1.731507e-08 -1.748808e-08 -1.746418e-08 -1.730127e-08 -1.788156e-08 -1.689911e-08 -1.686175e-08 -1.727963e-08
-1.773344e-08 -1.708367e-08 -1.746122e-08 -1.650923e-08 -1.611762e-08 -1.845296e-08 -1.768788e-08 -1.707112e-08 -1.809303e-08 -1.688730e-08
-1.747946e-08 -1.784704e-08 -1.669068e-08 -1.716479e-08 -1.631114e-08 -1.640669e-08 -1.731735e-08 -1.583518e-08 -1.720839e-08 -1.630178e-08
-1.539695e-08
-1.521649e-08 -1.634622e-08 -1.685203e-08 -1.619885e-08 -1.691231e-08 -1.783372e-08 -1.565607e-08 -1.685160e-08 -1.651058e-08 -1.640079e-08
-1.833003e-08 -1.704664e-08 -1.670281e-08 -1.837950e-08 -1.710804e-08 -1.693225e-08 -1.806079e-08 -1.797533e-08 -1.733593e-08 -1.816003e-08
-1.887535e-08 -1.732497e-08 -1.757579e-08 -1.745924e-08 -1.808336e-08 -1.797667e-08 -1.760336e-08 -1.696844e-08 -1.721650e-08 -1.777094e-08
-1.624806e-08 -1.668777e-08 -1.738213e-08 -1.614187e-08 -1.572583e-08 -1.619081e-08 -1.548247e-08 -1.561738e-08 -1.689391e-08 -1.606809e-08
-1.528223e-08 -1.491044e-08 -1.471493e-08 -1.462990e-08 -1.382999e-08 -1.435869e-08 -1.350784e-08 -1.460203e-08 -1.313229e-08 -1.286219e-08
-1.244819e-08 -1.213059e-08 -1.346538e-08 -1.199644e-08 -1.328108e-08 -1.220316e-08 -1.168803e-08 -1.029186e-08 -1.033170e-08 -9.265069e-09
-8.793456e-09 -8.563126e-09 -9.748236e-09 -8.504455e-09 -8.216269e-09 -8.208871e-09 -7.960896e-09 -6.641284e-09 -5.878622e-09 -5.255452e-09
-6.609929e-09 -5.702971e-09 -4.455152e-09 -7.438323e-09 -5.512596e-09 -5.089799e-09 -2.366350e-09 -2.151718e-09 -4.085010e-09 -3.678253e-09
-2.359500e-09 -2.427762e-09 -1.749397e-09 -2.834057e-09 -2.835950e-09 1.396742e-11 -7.505436e-10 6.270914e-10 -1.224012e-09 -4.733010e-10
4.061929e-10 1.062922e-09 -6.712050e-10 -8.952328e-10 1.543176e-09 1.225109e-09 1.675202e-09 2.280095e-09 4.285625e-09 3.145577e-09
3.401697e-09 2.629050e-09 4.905190e-09 4.184913e-09 5.044777e-09 3.893033e-09 4.796493e-09 5.653206e-09 6.270240e-09 5.774973e-09
5.700605e-09 7.655566e-09 7.139414e-09 7.785114e-09 9.234738e-09 8.539745e-09 9.734876e-09 9.134863e-09 8.191056e-09 9.117445e-09
1.235971e-08 1.107745e-08 9.442886e-09 1.053561e-08 1.058778e-08 1.109055e-08 1.278518e-08 1.335137e-08 1.167469e-08 1.320570e-08
1.224175e-08 1.257304e-08 1.386257e-08 1.364967e-08 1.451514e-08 1.502660e-08 1.415239e-08 1.456352e-08 1.492331e-08 1.543380e-08
1.498819e-08 1.567737e-08 1.509011e-08 1.587885e-08 1.607397e-08 1.639157e-08 1.816008e-08 1.752588e-08 1.591256e-08 1.658654e-08
1.635624e-08 1.797313e-08 1.847060e-08 1.731234e-08 1.782361e-08 1.808627e-08 1.754568e-08 1.770000e-08 1.688673e-08 1.777710e-08
1.762862e-08 1.850980e-08 1.735049e-08 1.717899e-08 1.662498e-08 1.688662e-08 1.815987e-08 1.810670e-08 1.708826e-08 1.733567e-08
1.724561e-08 1.755313e-08 1.818215e-08 1.592379e-08 1.589295e-08 1.639588e-08 1.543337e-08 1.605109e-08 1.671849e-08 1.682075e-08
1.647520e-08 1.604528e-08 1.738784e-08 1.666515e-08 1.680974e-08 1.722394e-08 1.848808e-08 1.694012e-08 1.758136e-08 1.681637e-08
1.731260e-08 1.793425e-08 1.732078e-08 1.762338e-08 1.613909e-08 1.665590e-08 1.807918e-08 1.783707e-08 1.719948e-08 1.642313e-08
1.717600e-08 1.759550e-08 1.699178e-08 1.663546e-08 1.773955e-08 1.749262e-08 1.808188e-08 1.660381e-08 1.760806e-08 1.646320e-08
1.744972e-08 1.685165e-08 1.602992e-08 1.703217e-08 1.647011e-08 1.649522e-08 1.637386e-08 1.553727e-08 1.682676e-08 1.512409e-08
1.509489e-08 1.478978e-08 1.526582e-08 1.347493e-08 1.331035e-08 1.422743e-08 1.315074e-08 1.493995e-08 1.238334e-08 1.223718e-08
1.130607e-08 1.214964e-08 1.212451e-08 1.155549e-08 1.065440e-08 1.260875e-08 1.110246e-08 1.078572e-08 1.109504e-08 1.069965e-08
1.037464e-08 9.372456e-09 8.933450e-09 8.894980e-09 6.668508e-09 9.660631e-09 8.271034e-09 8.431589e-09 5.204633e-09 7.707370e-09
6.350156e-09 4.857119e-09 4.445579e-09 4.757625e-09 4.282724e-09 3.925959e-09 4.770113e-09 3.900677e-09 3.615064e-09 1.853572e-09
3.408966e-09 4.099689e-09 1.236808e-09 1.661558e-09 6.636443e-10 5.330068e-11 9.789862e-10 5.246663e-10 2.981526e-10 -8.314556e-10
1.155273e-10 -7.629096e-10 6.816622e-10 -4.370716e-09 -7.302807e-10 -3.220563e-09 2.934437e-10 -1.258403e-09 -1.534310e-09 -2.831142e-09
-3.927878e-09 -4.584510e-09 -1.670240e-09 -3.234177e-09 -3.874737e-09 -5.234725e-09 -5.093245e-09 -6.071834e-09 -5.283735e-09 -7.581233e-09
-4.757025e-09 -6.916462e-09 -5.625441e-09 -7.956046e-09 -7.182572e-09 -9.084002e-09 -7.564277e-09 -8.601066e-09 -9.334628e-09 -8.989093e-09
-1.008001e-08 -9.770974e-09 -1.125550e-08 -1.109513e-08 -1.131039e-08 -1.136221e-08 -1.256970e-08 -1.170044e-08 -1.305550e-08 -1.315569e-08
-1.277869e-08 -1.392451e-08 -1.504437e-08 -1.449666e-08 -1.403097e-08 -1.534401e-08 -1.653322e-08 -1.523329e-08 -1.563539e-08 -1.551025e-08
-1.523755e-08 -1.490930e-08 -1.581246e-08 -1.572383e-08 -1.651704e-08 -1.707416e-08 -1.670276e-08 -1.687124e-08 -1.747424e-08 -1.676316e-08
-1.684702e-08 -1.808530e-08 -1.702534e-08 -1.756421e-08 -1.925665e-08 -1.889384e-08 -1.771981e-08 -1.777168e-08 -1.669881e-08 -1.764483e-08
-1.983613e-08 -1.801893e-08 -1.809313e-08 -1.887305e-08 -1.802973e-08 -1.785764e-08 -1.909390e-08 -1.771446e-08 -1.802605e-08 -1.862453e-08
-1.742556e-08 -1.747330e-08 -1.756706e-08 -1.725172e-08 -1.675223e-08 -1.804790e-08 -1.613153e-08 -1.730216e-08 -1.610364e-08 -1.700299e-08
-1.521649e-08
-1.719910e-08 -1.489438e-08 -1.594321e-08 -1.632743e-08 -1.696021e-08 -1.671784e-08 -1.878796e-08 -1.736674e-08 -1.789731e-08 -1.815197e-08
-1.790489e-08 -1.710683e-08 -1.637848e-08 -1.782110e-08 -1.726862e-08 -1.734338e-08 -1.680383e-08 -1.726077e-08 -1.674185e-08 -1.827926e-08
-1.739031e-08 -1.862309e-08 -1.862365e-08 -1.832405e-08 -1.794023e-08 -1.783406e-08 -1.688213e-08 -1.658792e-08 -1.730729e-08 -1.769781e-08
-1.672288e-08 -1.794801e-08 -1.781399e-08 -1.682658e-08 -1.708069e-08 -1.742566e-08 -1.549104e-08 -1.584418e-08 -1.664510e-08 -1.623720e-08
-1.536160e-08 -1.505863e-08 -1.567716e-08 -1.424208e-08 -1.568452e-08 -1.460007e-08 -1.413751e-08 -1.311090e-08 -1.415800e-08 -1.320609e-08
-1.283867e-08 -1.229520e-08 -1.346036e-08 -1.149444e-08 -1.102336e-08 -1.172655e-08 -1.178599e-08 -1.019268e-08 -1.003214e-08 -8.989372e-09
-9.371381e-09 -9.281214e-09 -1.006956e-08 -9.462997e-09 -8.987250e-09 -7.337950e-09 -8.737344e-09 -6.532182e-09 -7.049428e-09 -5.712545e-09
-4.757274e-09 -6.812487e-09 -3.427178e-09 -5.730557e-09 -3.940164e-09 -3.581811e-09 -4.996931e-09 -4.491559e-09 -3.854376e-09 -4.797511e-09
-2.467990e-09 -3.268513e-09 -1.877454e-09 -3.318834e-09 -2.005650e-09 -3.469008e-10 -1.137065e-09 -6.496077e-10 1.000693e-09 -4.319406e-10
-8.271135e-10 7.652639e-10 4.946665e-11 8.022248e-10 2.588571e-09 8.316177e-10 2.615981e-09 2.188180e-09 2.988904e-09 1.474837e-09
4.176734e-09 2.792698e-09 2.738409e-09 4.883506e-09 4.211568e-09 7.208989e-09 4.875500e-09 4.160897e-09 6.810537e-09 6.355679e-09
8.088792e-09 6.294849e-09 6.412710e-09 7.358024e-09 8.712781e-09 6.921059e-09 9.069989e-09 8.818497e-09 9.823632e-09 9.560767e-09
1.055294e-08 1.037236e-08 1.147340e-08 1.179595e-08 1.148249e-08 1.200305e-08 1.110055e-08 1.199303e-08 1.174651e-08 1.320335e-08
1.325995e-08 1.332755e-08 1.281584e-08 1.327455e-08 1.460659e-08 1.438508e-08 1.395828e-08 1.624432e-08 1.443784e-08 1.453185e-08
1.544756e-08 1.646604e-08 1.581900e-08 1.657139e-08 1.632183e-08 1.688852e-08 1.683834e-08 1.621944e-08 1.702594e-08 1.703345e-08
1.782408e-08 1.629833e-08 1.670111e-08 1.781146e-08 1.760573e-08 1.796225e-08 1.721550e-08 1.872365e-08 1.686713e-08 1.640382e-08
1.776795e-08 1.797687e-08 1.716500e-08 1.786294e-08 1.797714e-08 1.975169e-08 1.628940e-08 1.622952e-08 1.672074e-08 1.649642e-08
1.893722e-08 1.852158e-08 1.702633e-08 1.633734e-08 1.698023e-08 1.765509e-08 1.694563e-08 1.622090e-08 1.672316e-08 1.560354e-08
1.650676e-08 1.637818e-08 1.579245e-08 1.612881e-08 1.799234e-08 1.592458e-08 1.706537e-08 1.797439e-08 1.847725e-08 1.882530e-08
1.684922e-08 1.632711e-08 1.790000e-08 1.761069e-08 1.633498e-08 1.873912e-08 1.823956e-08 1.804568e-08 1.672185e-08 1.779278e-08
1.641305e-08 1.789598e-08 1.758008e-08 1.705170e-08 1.735686e-08 1.779075e-08 1.744684e-08 1.729269e-08 1.778959e-08 1.795139e-08
1.677810e-08 1.644186e-08 1.611084e-08 1.773066e-08 1.610779e-08 1.577720e-08 1.560841e-08 1.582900e-08 1.637711e-08 1.612188e-08
1.492818e-08 1.487464e-08 1.512456e-08 1.578001e-08 1.417783e-08 1.358027e-08 1.284636e-08 1.333549e-08 1.362265e-08 1.304877e-08
1.263075e-08 1.150619e-08 1.254433e-08 1.136949e-08 1.267669e-08 1.112387e-08 1.076190e-08 1.041382e-08 1.135873e-08 8.776667e-09
8.704408e-09 9.089869e-09 8.700756e-09 9.752490e-09 7.896195e-09 7.614505e-09 6.779826e-09 7.003282e-09 7.239132e-09 4.716647e-09
6.871780e-09 5.887097e-09 6.306310e-09 4.645925e-09 4.514074e-09 3.848170e-09 4.637723e-09 3.299373e-09 2.313582e-09 4.208796e-09
2.127050e-09 2.361221e-09 1.281722e-09 3.731025e-10 1.999781e-09 2.481721e-09 1.833002e-09 1.860362e-10 -1.894930e-10 4.617551e-11
-8.062361e-10 -7.608925e-10 2.907576e-10 -1.126746e-09 -9.218279e-10 -3.027166e-09 -3.200221e-09 -2.233477e-09 -3.666427e-09 -2.432573e-09
-4.758248e-09 -3.282569e-09 -3.449234e-09 -2.548547e-09 -4.855176e-09 -4.403423e-09 -5.861859e-09 -6.298295e-09 -7.296511e-09 -6.463020e-09
-6.022173e-09 -6.719490e-09 -5.868287e-09 -7.651646e-09 -6.538466e-09 -8.125919e-09 -7.905995e-09 -9.336644e-09 -9.683245e-09 -1.049790e-08
-8.238557e-09 -9.849012e-09 -1.039465e-08 -1.167939e-08 -1.144593e-08 -1.196872e-08 -1.171392e-08 -1.264208e-08 -1.222053e-08 -1.404726e-08
-1.312098e-08 -1.292711e-08 -1.317079e-08 -1.408209e-08 -1.436830e-08 -1.439309e-08 -1.596709e-08 -1.570147e-08 -1.535430e-08 -1.609704e-08
-1.521305e-08 -1.572808e-08 -1.675159e-08 -1.684324e-08 -1.725535e-08 -1.679395e-08 -1.787908e-08 -1.672476e-08 -1.714189e-08 -1.809759e-08
-1.813145e-08 -1.831768e-08 -1.828996e-08 -1.683581e-08 -1.797679e-08 -1.906940e-08 -1.764724e-08 -1.877135e-08 -1.858895e-08 -1.824245e-08
-1.917705e-08 -1.802024e-08 -1.822570e-08 -1.791359e-08 -1.740872e-08 -1.803586e-08 -1.763684e-08 -1.710606e-08 -1.791648e-08 -1.750897e-08
-1.819200e-08 -1.763853e-08 -1.680761e-08 -1.875978e-08 -1.679420e-08 -1.691813e-08 -1.582180e-08 -1.633865e-08 -1.636247e-08 -1.653148e-08
-1.719910e-08
-1.723719e-08 -1.705060e-08 -1.506907e-08 -1.744285e-08 -1.552437e-08 -1.720707e-08 -1.624976e-08 -1.837293e-08 -1.685160e-08 -1.803853e-08
-1.763468e-08 -1.881273e-08 -1.661701e-08 -1.864430e-08 -1.735541e-08 -1.756491e-08 -1.731786e-08 -1.825497e-08 -1.669837e-08 -1.679283e-08
-1.708605e-08 -1.709550e-08 -1.755415e-08 -1.634862e-08 -1.630080e-08 -1.798657e-08 -1.893696e-08 -1.675653e-08 -1.712845e-08 -1.761041e-08
-1.645706e-08 -1.647335e-08 -1.820126e-08 -1.739497e-08 -1.678901e-08 -1.627451e-08 -1.636724e-08 -1.618008e-08 -1.573079e-08 -1.595332e-08
-1.510462e-08 -1.472707e-08 -1.499596e-08 -1.493943e-08 -1.440252e-08 -1.449998e-08 -1.283219e-08 -1.446163e-08 -1.426720e-08 -1.343576e-08
-1.414560e-08 -1.291014e-08 -1.270817e-08 -1.305244e-08 -1.126761e-08 -1.298354e-08 -1.202791e-08 -1.094433e-08 -1.069791e-08 -1.019044e-08
-1.057448e-08 -1.003994e-08 -9.822489e-09 -9.522137e-09 -6.966036e-09 -7.818537e-09 -7.534518e-09 -7.726197e-09 -8.453297e-09 -6.193074e-09
-5.466476e-09 -5.578576e-09 -6.982761e-09 -6.499308e-09 -2.763933e-09 -3.667847e-09 -3.656458e-09 -3.440119e-09 -4.273611e-09 -2.383336e-09
-3.727094e-09 -2.068982e-09 -3.378964e-09 -2.677980e-09 -1.423945e-09 -1.216588e-09 -2.209289e-09 -8.995860e-10 1.661222e-10 -2.507599e-10
1.497819e-09 1.325868e-09 1.361885e-10 3.439801e-10 1.985634e-09 1.997042e-09 -6.531926e-10 1.038247e-09 1.125713e-09 2.940833e-09
3.332508e-09 4.070918e-09 3.762576e-09 3.555485e-09 4.814626e-09 4.111167e-09 4.299753e-09 5.626398e-09 6.510978e-09 7.069235e-09
6.105822e-09 7.384427e-09 6.534576e-09 7.949249e-09 7.611835e-09 7.278217e-09 8.844682e-09 8.737368e-09 8.865134e-09 9.377891e-09
9.820220e-09 9.677009e-09 9.866850e-09 1.122454e-08 1.111911e-08 1.278985e-08 1.101667e-08 1.168992e-08 1.301575e-08 1.246396e-08
1.411065e-08 1.398107e-08 1.413536e-08 1.478827e-08 1.298351e-08 1.407079e-08 1.490891e-08 1.463227e-08 1.492756e-08 1.573123e-08
1.547246e-08 1.556804e-08 1.555615e-08 1.726235e-08 1.596994e-08 1.676478e-08 1.635767e-08 1.772029e-08 1.681646e-08 1.749251e-08
1.761075e-08 1.677138e-08 1.686407e-08 1.736044e-08 1.807715e-08 1.890733e-08 1.782458e-08 1.826062e-08 1.862013e-08 1.868592e-08
1.700285e-08 1.776957e-08 2.040181e-08 1.667077e-08 1.918493e-08 1.759798e-08 1.810499e-08 1.797593e-08 1.673851e-08 1.822047e-08
1.697624e-08 1.805448e-08 1.604588e-08 1.632852e-08 1.732095e-08 1.580282e-08 1.814230e-08 1.677298e-08 1.664517e-08 1.692707e-08
1.703668e-08 1.580040e-08 1.559138e-08 1.710935e-08 1.666786e-08 1.621327e-08 1.662205e-08 1.744409e-08 1.824514e-08 1.839711e-08
1.885417e-08 1.662652e-08 1.683803e-08 1.754327e-08 1.806506e-08 1.819824e-08 1.701224e-08 1.763486e-08 1.719937e-08 1.716777e-08
1.765736e-08 1.690967e-08 1.675800e-08 1.759504e-08 1.833088e-08 1.738973e-08 1.792836e-08 1.881788e-08 1.751062e-08 1.613379e-08
1.800269e-08 1.721264e-08 1.686780e-08 1.687502e-08 1.651576e-08 1.727894e-08 1.610586e-08 1.605736e-08 1.584675e-08 1.522649e-08
1.580189e-08 1.544475e-08 1.496748e-08 1.581256e-08 1.493675e-08 1.523261e-08 1.383127e-08 1.272003e-08 1.386564e-08 1.265267e-08
1.234910e-08 1.235855e-08 1.154998e-08 1.200383e-08 1.191358e-08 1.098170e-08 9.848304e-09 9.892594e-09 1.063876e-08 1.037431e-08
9.947319e-09 8.830972e-09 7.593837e-09 8.473758e-09 1.070962e-08 8.625327e-09 7.067719e-09 7.047072e-09 5.603523e-09 7.272023e-09
5.809037e-09 7.813171e-09 4.754464e-09 7.206953e-09 4.196114e-09 2.920499e-09 3.207218e-09 3.772354e-09 4.421560e-09 4.827066e-09
2.220386e-09 2.230386e-09 2.989995e-09 5.629763e-10 1.968401e-09 1.872181e-09 2.728607e-09 1.649379e-10 5.099673e-10 9.535296e-10
1.500738e-09 -3.139025e-10 1.819098e-10 -1.350616e-09 -2.896875e-09 -1.263199e-09 -3.549148e-09 -1.976357e-09 -1.938011e-09 -1.527184e-09
-5.088457e-09 -3.572503e-09 -6.474050e-09 -4.453417e-09 -5.353495e-09 -5.602121e-09 -6.657629e-09 -5.123692e-09 -4.669196e-09 -6.854680e-09
-7.883680e-09 -8.414767e-09 -6.566957e-09 -8.348736e-09 -9.270819e-09 -8.683380e-09 -1.004157e-08 -1.042280e-08 -9.159152e-09 -1.056203e-08
-1.183823e-08 -1.091787e-08 -1.151103e-08 -1.117274e-08 -1.133406e-08 -1.178071e-08 -1.209456e-08 -1.275947e-08 -1.247148e-08 -1.413629e-08
-1.383861e-08 -1.462094e-08 -1.441926e-08 -1.401253e-08 -1.380069e-08 -1.464031e-08 -1.546217e-08 -1.559690e-08 -1.519248e-08 -1.550046e-08
-1.666903e-08 -1.688720e-08 -1.713177e-08 -1.854473e-08 -1.621410e-08 -1.727270e-08 -1.744525e-08 -1.796928e-08 -1.801752e-08 -1.749487e-08
-1.874174e-08 -1.662048e-08 -1.866731e-08 -1.748758e-08 -1.786310e-08 -1.831606e-08 -1.832899e-08 -1.811110e-08 -1.848568e-08 -1.893101e-08
-1.713943e-08 -1.809546e-08 -1.759388e-08 -1.798612e-08 -1.825655e-08 -1.881160e-08 -1.780557e-08 -1.810147e-08 -1.942020e-08 -1.749706e-08
-1.701820e-08 -1.739708e-08 -1.690869e-08 -1.927162e-08 -1.596214e-08 -1.633809e-08 -1.728981e-08 -1.621593e-08 -1.643992e-08 -1.532873e-08
-1.723719e-08
-1.556442e-08 -1.593566e-08 -1.688409e-08 -1.770968e-08 -1.690944e-08 -1.625416e-08 -1.739620e-08 -1.886286e-08 -1.773122e-08 -1.617732e-08
-1.733997e-08 -1.709884e-08 -1.743857e-08 -1.763394e-08 -1.738360e-08 -1.754556e-08 -1.742630e-08 -1.703889e-08 -1.844110e-08 -1.682778e-08
-1.754969e-08 -1.782483e-08 -1.817492e-08 -1.777449e-08 -1.744067e-08 -1.724063e-08 -1.743468e-08 -1.782799e-08 -1.684917e-08 -1.787941e-08
-1.622285e-08 -1.629198e-08 -1.781713e-08 -1.631204e-08 -1.664055e-08 -1.609183e-08 -1.671692e-08 -1.653691e-08 -1.558410e-08 -1.668047e-08
-1.513341e-08 -1.476532e-08 -1.539562e-08 -1.452517e-08 -1.465995e-08 -1.479904e-08 -1.370912e-08 -1.335964e-08 -1.387493e-08 -1.294725e-08
-1.475682e-08 -1.270125e-08 -1.159812e-08 -1.253118e-08 -1.252361e-08 -1.147770e-08 -1.050945e-08 -1.040383e-08 -1.082609e-08 -1.007071e-08
-9.527086e-09 -9.524318e-09 -8.320669e-09 -1.042080e-08 -7.628153e-09 -7.205897e-09 -8.562438e-09 -6.832581e-09 -7.409888e-09 -7.250625e-09
-4.322098e-09 -5.374326e-09 -4.782862e-09 -7.520599e-09 -4.239045e-09 -5.169315e-09 -4.372236e-09 -4.312354e-09 -3.840475e-09 -3.663538e-09
-4.185635e-09 -4.163502e-09 -1.180558e-09 -1.033947e-09 -2.506926e-09 -2.858264e-09 -8.200196e-10 -2.109548e-09 -4.843896e-10 -8.814607e-10
3.651990e-10 1.099787e-09 -5.572169e-10 1.356438e-10 3.529489e-09 2.892868e-09 3.862340e-10 3.321291e-09 1.794204e-09 2.365795e-09
5.238365e-09 3.079551e-09 2.161293e-09 4.461111e-09 6.698091e-09 3.821017e-09 5.047820e-09 5.108378e-09 4.743490e-09 6.461796e-09
5.496774e-09 6.803151e-09 7.393814e-09 7.625082e-09 8.081596e-09 7.689459e-09 9.143899e-09 9.206695e-09 8.862614e-09 9.743709e-09
8.608529e-09 1.055522e-08 1.059374e-08 1.087624e-08 1.172386e-08 1.098267e-08 1.180048e-08 1.150904e-08 1.204259e-08 1.243145e-08
1.357124e-08 1.287974e-08 1.298455e-08 1.403538e-08 1.362990e-08 1.453630e-08 1.546267e-08 1.449714e-08 1.478849e-08 1.574188e-08
1.606390e-08 1.786611e-08 1.631731e-08 1.703129e-08 1.563839e-08 1.665213e-08 1.701363e-08 1.705063e-08 1.598389e-08 1.677788e-08
1.808498e-08 1.744257e-08 1.645090e-08 1.776384e-08 1.832025e-08 1.729674e-08 1.850409e-08 1.757197e-08 1.804226e-08 1.752525e-08
1.774669e-08 1.795044e-08 1.873786e-08 1.885926e-08 1.812606e-08 1.746984e-08 1.840668e-08 1.823646e-08 1.679330e-08 1.813165e-08
1.800048e-08 1.716444e-08 1.746458e-08 1.834631e-08 1.687465e-08 1.740416e-08 1.707048e-08 1.730734e-08 1.615674e-08 1.543880e-08
1.642287e-08 1.700784e-08 1.768416e-08 1.640526e-08 1.732413e-08 1.680241e-08 1.688629e-08 1.716363e-08 1.759103e-08 1.769987e-08
1.827897e-08 1.694327e-08 1.745881e-08 1.701671e-08 1.891533e-08 1.766802e-08 1.791626e-08 1.660337e-08 1.733271e-08 1.848331e-08
1.841689e-08 1.783845e-08 1.909737e-08 1.711500e-08 1.790873e-08 1.903613e-08 1.696992e-08 1.724913e-08 1.734335e-08 1.813831e-08
1.721045e-08 1.667500e-08 1.832186e-08 1.709744e-08 1.594134e-08 1.690827e-08 1.680132e-08 1.629027e-08 1.748710e-08 1.509872e-08
1.531714e-08 1.475273e-08 1.485091e-08 1.433555e-08 1.338866e-08 1.361590e-08 1.370324e-08 1.318884e-08 1.345827e-08 1.388470e-08
1.355956e-08 1.193026e-08 1.242475e-08 1.386573e-08 1.222804e-08 1.048111e-08 1.117280e-08 9.827286e-09 9.823778e-09 1.132392e-08
9.349049e-09 9.366639e-09 1.075616e-08 1.020490e-08 7.047394e-09 7.097138e-09 8.224533e-09 7.866045e-09 7.359338e-09 4.560136e-09
4.354220e-09 5.123745e-09 5.634192e-09 5.865125e-09 5.021529e-09 4.837663e-09 4.432998e-09 5.216664e-09 2.304487e-09 1.271093e-09
3.294243e-09 2.980639e-09 1.334132e-09 2.001886e-09 -1.718047e-09 1.760396e-09 2.480055e-09 -8.555409e-10 5.938983e-10 -2.414840e-09
-2.212105e-11 2.663956e-10 -1.307540e-09 -1.327043e-09 -1.946411e-09 -1.682440e-09 -2.395350e-09 -1.128079e-09 -3.842249e-09 -2.929908e-09
-2.811274e-09 -2.443020e-09 -4.512405e-09 -5.359806e-09 -4.915582e-09 -4.198349e-09 -6.189760e-09 -6.744770e-09 -6.173774e-09 -7.772216e-09
-5.887184e-09 -7.171177e-09 -8.024181e-09 -6.759521e-09 -7.769908e-09 -8.713258e-09 -8.603988e-09 -8.415564e-09 -9.557141e-09 -9.991045e-09
-9.890506e-09 -9.909808e-09 -1.087025e-08 -1.086110e-08 -1.161547e-08 -1.185051e-08 -1.190632e-08 -1.133345e-08 -1.401022e-08 -1.356150e-08
-1.333431e-08 -1.379833e-08 -1.366158e-08 -1.420012e-08 -1.419371e-08 -1.507222e-08 -1.484673e-08 -1.587436e-08 -1.579125e-08 -1.565882e-08
-1.770222e-08 -1.698546e-08 -1.763195e-08 -1.713966e-08 -1.737060e-08 -1.673076e-08 -1.775602e-08 -1.765880e-08 -1.805118e-08 -1.800125e-08
-1.754353e-08 -1.727694e-08 -1.800344e-08 -1.884745e-08 -1.783881e-08 -1.922171e-08 -1.842688e-08 -1.909422e-08 -1.885361e-08 -1.840568e-08
-1.900470e-08 -1.936218e-08 -1.824450e-08 -1.866592e-08 -1.824610e-08 -1.791861e-08 -1.850026e-08 -1.874016e-08 -1.788420e-08 -1.725512e-08
-1.766306e-08 -1.859927e-08 -1.858622e-08 -1.749809e-08 -1.901738e-08 -1.788750e-08 -1.781924e-08 -1.731583e-08 -1.752540e-08 -1.671838e-08
-1.556442e-08
-1.708572e-08 -1.616269e-08 -1.742505e-08 -1.621506e-08 -1.653876e-08 -1.824676e-08 -1.632872e-08 -1.606533e-08 -1.667037e-08 -1.749710e-08
-1.727246e-08 -1.881279e-08 -1.779257e-08 -1.707208e-08 -1.843915e-08 -1.654019e-08 -1.728525e-08 -1.766187e-08 -1.835836e-08 -1.920276e-08
-1.755007e-08 -1.838339e-08 -1.782702e-08 -1.794881e-08 -1.780396e-08 -1.896719e-08 -1.872788e-08 -1.695852e-08 -1.820536e-08 -1.714064e-08
-1.637063e-08 -1.806214e-08 -1.718926e-08 -1.626433e-08 -1.699730e-08 -1.630922e-08 -1.706895e-08 -1.521797e-08 -1.638347e-08 -1.695125e-08
-1.605039e-08 -1.627408e-08 -1.531874e-08 -1.458271e-08 -1.421019e-08 -1.433821e-08 -1.370220e-08 -1.352622e-08 -1.399750e-08 -1.284050e-08
-1.274085e-08 -1.170055e-08 -1.321525e-08 -1.185010e-08 -1.208938e-08 -1.142263e-08 -1.063660e-08 -1.165724e-08 -1.122065e-08 -1.040081e-08
-1.036168e-08 -9.681328e-09 -9.573490e-09 -8.868103e-09 -9.860027e-09 -9.346770e-09 -8.747612e-09 -7.286635e-09 -7.120291e-09 -6.589195e-09
-6.426210e-09 -6.527844e-09 -5.042855e-09 -5.221164e-09 -6.097776e-09 -3.893469e-09 -4.916885e-09 -3.350831e-09 -3.107648e-09 -2.638349e-09
-2.633643e-09 -2.942633e-09 -2.052172e-09 -1.768097e-09 -2.018385e-09 -1.373388e-09 -1.265493e-09 -1.409742e-09 -1.514684e-09 8.224276e-10
-5.124621e-11 3.958815e-10 -1.506204e-09 1.123658e-09 2.108711e-09 -1.885767e-10 1.605965e-09 1.111247e-09 4.010380e-09 2.102183e-09
1.346841e-09 2.978664e-09 3.074549e-09 3.192646e-09 3.879101e-09 6.032751e-09 4.297392e-09 7.847769e-09 4.627150e-09 5.502020e-09
6.776606e-09 5.887882e-09 7.447214e-09 7.156624e-09 8.104472e-09 8.803529e-09 9.293584e-09 8.779017e-09 9.984987e-09 8.867677e-09
9.619241e-09 1.220683e-08 1.119290e-08 1.107477e-08 1.155163e-08 1.079200e-08 1.239006e-08 1.221083e-08 1.284280e-08 1.203443e-08
1.224235e-08 1.319753e-08 1.341048e-08 1.377447e-08 1.412848e-08 1.489701e-08 1.461662e-08 1.433366e-08 1.475192e-08 1.504694e-08
1.552984e-08 1.565233e-08 1.631909e-08 1.678143e-08 1.657245e-08 1.663147e-08 1.725877e-08 1.672528e-08 1.714560e-08 1.725982e-08
1.679487e-08 1.657616e-08 1.839775e-08 1.836260e-08 1.756530e-08 1.754615e-08 1.848649e-08 1.656814e-08 1.844259e-08 1.769271e-08
1.822595e-08 1.878970e-08 1.879473e-08 1.723012e-08 1.825729e-08 1.803640e-08 1.777622e-08 1.830377e-08 1.810388e-08 1.813215e-08
1.773157e-08 1.896698e-08 1.752706e-08 1.687875e-08 1.795321e-08 1.727554e-08 1.821240e-08 1.659780e-08 1.676323e-08 1.640956e-08
1.709217e-08 1.692254e-08 1.734734e-08 1.754066e-08 1.802264e-08 1.759692e-08 1.600619e-08 1.752727e-08 1.725345e-08 1.785186e-08
1.809008e-08 1.732750e-08 1.760431e-08 1.720032e-08 1.848483e-08 1.872577e-08 1.730035e-08 1.807647e-08 1.798269e-08 1.867657e-08
1.769734e-08 1.710143e-08 1.639999e-08 1.795442e-08 1.757769e-08 1.706657e-08 1.924155e-08 1.701941e-08 1.754884e-08 1.777698e-08
1.706790e-08 1.698607e-08 1.616076e-08 1.688898e-08 1.725778e-08 1.647284e-08 1.636158e-08 1.649813e-08 1.545578e-08 1.546712e-08
1.569433e-08 1.507635e-08 1.526725e-08 1.500830e-08 1.347378e-08 1.351312e-08 1.517503e-08 1.363328e-08 1.301352e-08 1.502001e-08
1.401697e-08 1.196140e-08 1.299066e-08 1.135187e-08 1.157874e-08 1.159985e-08 1.150480e-08 1.076094e-08 1.103937e-08 9.700258e-09
8.643364e-09 8.130320e-09 9.585352e-09 7.878789e-09 8.488687e-09 8.022249e-09 6.607470e-09 8.077599e-09 5.495254e-09 5.577826e-09
5.754677e-09 5.122956e-09 5.124831e-09 4.854396e-09 4.349229e-09 3.093900e-09 3.920421e-09 3.840621e-09 3.941509e-09 1.185512e-09
2.050752e-09 2.569796e-09 3.004242e-09 2.143935e-09 2.466621e-09 2.389108e-09 1.171029e-09 -1.289372e-10 8.447118e-10 7.722998e-10
5.388057e-10 6.453445e-10 -1.497738e-09 -6.728370e-11 -9.049330e-10 -3.156379e-09 -3.731919e-09 -1.064478e-09 -1.435012e-09 -3.670275e-09
-9.131734e-10 -3.871724e-09 -2.470364e-09 -3.440342e-09 -4.381569e-09 -5.268941e-09 -6.012341e-09 -5.683576e-09 -7.883156e-09 -6.418936e-09
-5.865607e-09 -6.823385e-09 -7.582629e-09 -7.613581e-09 -7.689224e-09 -9.252842e-09 -8.045281e-09 -9.378890e-09 -9.188579e-09 -1.047779e-08
-1.096523e-08 -9.691767e-09 -1.118840e-08 -1.134726e-08 -1.153739e-08 -1.241278e-08 -1.285488e-08 -1.244776e-08 -1.441159e-08 -1.291623e-08
-1.441740e-08 -1.291775e-08 -1.417063e-08 -1.440887e-08 -1.639426e-08 -1.538851e-08 -1.643083e-08 -1.616876e-08 -1.603610e-08 -1.582883e-08
-1.710450e-08 -1.707097e-08 -1.604330e-08 -1.754175e-08 -1.741891e-08 -1.806351e-08 -1.688669e-08 -1.712126e-08 -1.741987e-08 -1.879208e-08
-1.789606e-08 -1.964262e-08 -1.843115e-08 -1.889695e-08 -1.942328e-08 -1.778687e-08 -1.852168e-08 -1.757954e-08 -1.842102e-08 -1.736913e-08
-1.881386e-08 -1.965621e-08 -1.693168e-08 -1.725958e-08 -1.872721e-08 -1.951186e-08 -1.770282e-08 -1.897252e-08 -1.809183e-08 -1.842976e-08
-1.893991e-08 -1.904286e-08 -1.903288e-08 -1.917060e-08 -1.693656e-08 -1.720427e-08 -1.810716e-08 -1.750384e-08 -1.660119e-08 -1.812129e-08
-1.708572e-08
-1.853979e-08 -1.841146e-08 -1.742610e-08 -1.737935e-08 -1.652643e-08 -1.738114e-08 -1.738818e-08 -1.696481e-08 -1.841657e-08 -1.707835e-08
-1.868936e-08 -1.781885e-08 -1.776215e-08 -1.836392e-08 -1.817324e-08 -1.711627e-08 -1.674066e-08 -1.806138e-08 -1.729113e-08 -1.718638e-08
-1.896095e-08 -1.824257e-08 -1.868851e-08 -1.909702e-08 -1.764348e-08 -1.798232e-08 -1.772866e-08 -1.737599e-08 -1.754191e-08 -1.782924e-08
-1.705517e-08 -1.594925e-08 -1.658496e-08 -1.789670e-08 -1.637402e-08 -1.575530e-08 -1.661728e-08 -1.617324e-08 -1.732318e-08 -1.583149e-08
-1.611793e-08 -1.563029e-08 -1.511120e-08 -1.467060e-08 -1.641256e-08 -1.458763e-08 -1.396388e-08 -1.553756e-08 -1.338365e-08 -1.278736e-08
-1.261790e-08 -1.243089e-08 -1.227762e-08 -1.236570e-08 -1.168713e-08 -1.133835e-08 -1.194206e-08 -1.117620e-08 -9.906176e-09 -1.094982e-08
-1.046579e-08 -9.134958e-09 -8.251983e-09 -8.489914e-09 -8.886325e-09 -7.652471e-09 -6.375231e-09 -7.334408e-09 -6.714692e-09 -6.114981e-09
-6.765204e-09 -6.574759e-09 -6.394027e-09 -4.352042e-09 -4.480725e-09 -4.934613e-09 -4.488045e-09 -2.479698e-09 -2.207493e-09 -3.582573e-09
-2.609537e-09 -3.090539e-09 -2.406213e-09 -1.382964e-09 -7.720529e-10 -1.877910e-09 -1.195447e-09 -1.471450e-09 -1.742074e-09 6.902216e-10
3.957495e-10 -5.543052e-10 -5.428226e-10 1.738398e-09 6.148864e-10 1.933849e-09 4.320266e-10 3.009857e-09 2.346941e-09 1.996621e-09
2.439165e-09 3.101265e-09 3.848344e-09 4.765960e-09 4.676860e-09 5.498901e-09 6.887021e-09 6.044338e-09 4.881302e-09 7.235762e-09
6.561338e-09 6.116492e-09 8.092485e-09 6.727534e-09 8.158268e-09 8.448919e-09 8.628291e-09 9.689409e-09 1.137934e-08 1.023036e-08
9.868259e-09 9.275684e-09 9.780841e-09 1.089084e-08 1.053183e-08 1.265812e-08 1.145571e-08 1.228275e-08 1.209013e-08 1.280463e-08
1.420063e-08 1.372939e-08 1.370017e-08 1.459036e-08 1.459657e-08 1.402332e-08 1.427375e-08 1.429672e-08 1.511085e-08 1.639854e-08
1.579884e-08 1.574666e-08 1.622389e-08 1.568744e-08 1.720294e-08 1.701332e-08 1.817737e-08 1.647977e-08 1.772173e-08 1.625158e-08
1.830646e-08 1.705159e-08 1.862377e-08 1.795447e-08 1.762344e-08 1.813260e-08 1.741953e-08 1.782698e-08 1.756961e-08 1.874827e-08
1.882673e-08 1.826241e-08 1.834918e-08 1.803495e-08 1.764361e-08 1.792880e-08 1.860417e-08 1.787877e-08 1.721638e-08 1.691257e-08
1.611350e-08 1.794143e-08 1.838033e-08 1.860092e-08 1.662992e-08 1.710231e-08 1.747017e-08 1.755208e-08 1.794583e-08 1.619040e-08
1.703462e-08 1.644378e-08 1.689473e-08 1.749341e-08 1.738128e-08 1.781304e-08 1.705098e-08 1.807803e-08 1.631309e-08 1.791592e-08
1.829541e-08 1.829265e-08 1.800946e-08 1.908981e-08 1.662354e-08 1.751368e-08 1.890021e-08 1.839261e-08 1.784786e-08 1.753479e-08
1.721778e-08 1.822587e-08 1.765892e-08 1.736320e-08 1.864155e-08 1.719411e-08 1.803727e-08 1.720849e-08 1.761261e-08 1.694626e-08
1.622925e-08 1.774586e-08 1.622402e-08 1.662925e-08 1.653120e-08 1.606429e-08 1.690838e-08 1.523297e-08 1.546372e-08 1.543272e-08
1.586492e-08 1.552438e-08 1.492420e-08 1.494922e-08 1.480116e-08 1.430540e-08 1.434082e-08 1.446871e-08 1.282852e-08 1.340805e-08
1.271055e-08 1.419215e-08 1.130906e-08 1.141960e-08 1.104017e-08 1.247624e-08 1.008822e-08 1.149322e-08 1.002396e-08 8.772894e-09
8.858732e-09 9.346271e-09 8.720956e-09 9.074475e-09 7.411662e-09 7.387249e-09 6.668665e-09 8.582411e-09 6.021898e-09 6.333396e-09
4.384447e-09 7.890855e-09 6.537892e-09 6.408369e-09 5.129716e-09 3.989981e-09 3.741683e-09 2.986176e-09 4.317577e-09 4.599087e-09
1.619182e-09 4.371195e-09 2.171920e-09 1.983471e-09 8.895766e-10 2.171739e-10 1.469637e-09 1.936666e-09 -1.296552e-10 9.436896e-13
-8.118859e-10 1.128401e-09 -2.325515e-09 -1.062741e-09 -1.832072e-09 -3.743043e-10 -2.424087e-09 -3.798936e-10 -3.221656e-09 -3.477306e-09
-2.832791e-09 -1.816448e-09 -3.120338e-09 -4.472600e-09 -6.338478e-09 -3.282452e-09 -3.917557e-09 -7.526716e-09 -7.206310e-09 -7.424029e-09
-6.649145e-09 -6.406406e-09 -6.748875e-09 -7.769572e-09 -8.517237e-09 -9.384973e-09 -8.471068e-09 -1.005724e-08 -1.058607e-08 -1.094338e-08
-1.094491e-08 -1.104430e-08 -1.126482e-08 -1.190424e-08 -1.124317e-08 -1.299390e-08 -1.285456e-08 -1.363672e-08 -1.398056e-08 -1.264839e-08
-1.344770e-08 -1.331947e-08 -1.459296e-08 -1.406799e-08 -1.533111e-08 -1.518086e-08 -1.571195e-08 -1.553597e-08 -1.626070e-08 -1.580090e-08
-1.702718e-08 -1.727759e-08 -1.617487e-08 -1.625603e-08 -1.756356e-08 -1.694634e-08 -1.691916e-08 -1.762751e-08 -1.764496e-08 -1.819761e-08
-1.881859e-08 -1.824719e-08 -1.742308e-08 -1.862697e-08 -1.818568e-08 -1.898858e-08 -1.758128e-08 -1.919962e-08 -1.867801e-08 -1.820302e-08
-1.888206e-08 -1.904634e-08 -1.982178e-08 -1.961553e-08 -1.867421e-08 -1.879285e-08 -1.778635e-08 -1.904881e-08 -1.890861e-08 -1.938165e-08
-1.701506e-08 -1.896349e-08 -1.777134e-08 -1.770250e-08 -1.676921e-08 -1.903518e-08 -1.691357e-08 -1.616715e-08 -1.883329e-08 -1.691693e-08
-1.853979e-08
-1.918964e-08 -1.841943e-08 -1.758468e-08 -1.765167e-08 -1.827617e-08 -1.899460e-08 -1.955221e-08 -1.747553e-08 -1.928230e-08 -1.671606e-08
-1.824490e-08 -1.733698e-08 -1.815127e-08 -1.868885e-08 -1.895418e-08 -1.883922e-08 -1.652936e-08 -1.833618e-08 -1.732070e-08 -1.845157e-08
-1.896800e-08 -1.877765e-08 -1.631568e-08 -1.811364e-08 -1.834960e-08 -1.645269e-08 -1.736537e-08 -1.791440e-08 -1.816433e-08 -1.762051e-08
-1.650191e-08 -1.810367e-08 -1.754227e-08 -1.713951e-08 -1.575039e-08 -1.627800e-08 -1.640342e-08 -1.610120e-08 -1.612816e-08 -1.590217e-08
-1.491422e-08 -1.528062e-08 -1.521980e-08 -1.489907e-08 -1.526434e-08 -1.397495e-08 -1.495434e-08 -1.341404e-08 -1.525362e-08 -1.335853e-08
-1.310714e-08 -1.290767e-08 -1.223516e-08 -1.316975e-08 -1.149469e-08 -1.134369e-08 -1.072803e-08 -1.148164e-08 -1.026951e-08 -9.640192e-09
-9.799529e-09 -9.316149e-09 -9.548395e-09 -8.041472e-09 -8.172928e-09 -8.919432e-09 -7.087419e-09 -8.259351e-09 -7.204414e-09 -5.648535e-09
-6.182473e-09 -3.895781e-09 -6.725200e-09 -5.601253e-09 -4.184611e-09 -3.702710e-09 -4.071128e-09 -3.896212e-09 -3.840398e-09 -3.718589e-09
-3.413886e-09 -3.022007e-09 -3.211014e-09 -1.908507e-09 -2.348753e-09 -1.782636e-09 -1.897017e-09 8.718244e-10 -1.853933e-09 -1.601139e-09
-3.872274e-10 3.445327e-10 1.827583e-09 6.106116e-10 1.505193e-09 1.123293e-10 3.204024e-09 1.226595e-09 2.495145e-09 2.214249e-09
2.417360e-09 4.226228e-09 2.793425e-09 6.434140e-09 3.961282e-09 5.552030e-09 5.480400e-09 5.371321e-09 4.665824e-09 7.318828e-09
6.443372e-09 5.120353e-09 7.187484e-09 8.996899e-09 8.199443e-09 6.785254e-09 9.100558e-09 9.445481e-09 8.929794e-09 9.413674e-09
9.618657e-09 1.017561e-08 1.005877e-08 1.077361e-08 1.051140e-08 1.255924e-08 1.229731e-08 1.149152e-08 1.215426e-08 1.351445e-08
1.404029e-08 1.214848e-08 1.336698e-08 1.403889e-08 1.357257e-08 1.416439e-08 1.482943e-08 1.504660e-08 1.640601e-08 1.573103e-08
1.648704e-08 1.524451e-08 1.578456e-08 1.542216e-08 1.666766e-08 1.691859e-08 1.615279e-08 1.749864e-08 1.669614e-08 1.694799e-08
1.711411e-08 1.780595e-08 1.794661e-08 1.807853e-08 1.850314e-08 1.729641e-08 1.861517e-08 1.826246e-08 1.811881e-08 1.710302e-08
1.826509e-08 1.842784e-08 1.903572e-08 1.866793e-08 1.864951e-08 1.677958e-08 1.783208e-08 1.804234e-08 1.809064e-08 1.844733e-08
1.841404e-08 1.853500e-08 1.786723e-08 1.723536e-08 1.765566e-08 1.768773e-08 1.787478e-08 1.637997e-08 1.686137e-08 1.696758e-08
1.771344e-08 1.687736e-08 1.663622e-08 1.541164e-08 1.784980e-08 1.746633e-08 1.630052e-08 1.728515e-08 1.654591e-08 1.799199e-08
1.805063e-08 1.761298e-08 1.719197e-08 1.698264e-08 1.959645e-08 1.658187e-08 1.768159e-08 1.840629e-08 1.822988e-08 1.748694e-08
1.886318e-08 1.808145e-08 1.668601e-08 1.723759e-08 1.753993e-08 1.788864e-08 1.757226e-08 1.778641e-08 1.667136e-08 1.805541e-08
1.702051e-08 1.715715e-08 1.688828e-08 1.738836e-08 1.642263e-08 1.676757e-08 1.673921e-08 1.612493e-08 1.560309e-08 1.710393e-08
1.642061e-08 1.563319e-08 1.597021e-08 1.434352e-08 1.477058e-08 1.472846e-08 1.474813e-08 1.353316e-08 1.297408e-08 1.343753e-08
1.281756e-08 1.247674e-08 1.236361e-08 1.254589e-08 1.110405e-08 1.167422e-08 1.049622e-08 1.163127e-08 1.133039e-08 1.146376e-08
9.221051e-09 8.339074e-09 1.041584e-08 8.676476e-09 8.049122e-09 9.464265e-09 8.454608e-09 9.418325e-09 7.314163e-09 6.491887e-09
6.134766e-09 6.435524e-09 4.209711e-09 4.545286e-09 5.698907e-09 2.936740e-09 6.508674e-09 3.245322e-09 5.167585e-09 4.403257e-09
4.104315e-09 3.116565e-09 5.975251e-10 1.961745e-10 7.300338e-10 2.996898e-09 2.661236e-10 2.541223e-10 -1.275256e-09 2.167422e-10
-7.447440e-10 -3.663860e-09 4.602820e-10 -1.459273e-09 -1.704957e-09 -1.749146e-09 -1.866182e-09 -1.317057e-09 -2.366464e-09 -1.360315e-09
-2.815636e-09 -3.490371e-09 -3.950950e-09 -3.856736e-09 -3.478883e-09 -6.582853e-09 -5.179984e-09 -5.622148e-09 -4.388368e-09 -5.717177e-09
-5.765048e-09 -7.875257e-09 -7.502695e-09 -6.898624e-09 -1.009432e-08 -9.124480e-09 -9.339239e-09 -8.491928e-09 -9.600472e-09 -1.138309e-08
-1.062461e-08 -1.144195e-08 -1.052966e-08 -1.038802e-08 -1.252915e-08 -1.167963e-08 -1.196091e-08 -1.334008e-08 -1.247619e-08 -1.291096e-08
-1.323242e-08 -1.450219e-08 -1.532538e-08 -1.576044e-08 -1.379292e-08 -1.492298e-08 -1.570853e-08 -1.532904e-08 -1.685480e-08 -1.638008e-08
-1.703154e-08 -1.748389e-08 -1.764021e-08 -1.766443e-08 -1.755632e-08 -1.822285e-08 -1.686927e-08 -1.815833e-08 -1.775549e-08 -1.948603e-08
-1.831491e-08 -1.825709e-08 -1.847987e-08 -1.903058e-08 -1.842713e-08 -1.902228e-08 -1.794788e-08 -1.773181e-08 -1.774044e-08 -1.906049e-08
-1.889063e-08 -2.012928e-08 -1.759002e-08 -1.891209e-08 -1.922708e-08 -1.791818e-08 -1.934618e-08 -1.736860e-08 -1.711810e-08 -1.889813e-08
-1.685168e-08 -1.887649e-08 -1.885856e-08 -1.712227e-08 -1.701534e-08 -1.619477e-08 -1.724047e-08 -1.820296e-08 -1.696819e-08 -1.847914e-08
-1.918964e-08
-1.658189e-08 -1.638147e-08 -1.768844e-08 -1.645269e-08 -1.788966e-08 -1.806178e-08 -1.903962e-08 -1.921523e-08 -1.756962e-08 -1.919178e-08
-1.769214e-08 -1.815847e-08 -1.798865e-08 -1.794487e-08 -1.841602e-08 -1.666436e-08 -1.626250e-08 -1.791780e-08 -1.721761e-08 -1.787457e-08
-1.719680e-08 -1.854239e-08 -1.829168e-08 -1.756023e-08 -1.827406e-08 -1.784246e-08 -1.721084e-08 -1.895059e-08 -1.663097e-08 -1.720118e-08
-1.768442e-08 -1.885427e-08 -1.697550e-08 -1.724384e-08 -1.655195e-08 -1.693803e-08 -1.713284e-08 -1.646386e-08 -1.540589e-08 -1.601993e-08
-1.658333e-08 -1.620737e-08 -1.526863e-08 -1.473849e-08 -1.389899e-08 -1.415632e-08 -1.432014e-08 -1.330529e-08 -1.368495e-08 -1.251724e-08
-1.434265e-08 -1.224044e-08 -1.211064e-08 -1.185867e-08 -1.199482e-08 -1.196271e-08 -1.012661e-08 -1.080201e-08 -9.531843e-09 -1.009060e-08
-8.917906e-09 -9.099441e-09 -8.802868e-09 -9.353021e-09 -7.518486e-09 -8.703939e-09 -8.930137e-09 -6.907824e-09 -5.990576e-09 -6.934559e-09
-5.676493e-09 -5.318585e-09 -6.024055e-09 -4.985453e-09 -4.293269e-09 -5.710378e-09 -3.912022e-09 -4.689291e-09 -2.818898e-09 -2.793780e-09
-2.778178e-09 -3.405078e-09 -9.505482e-10 -1.359458e-09 -1.308146e-09 2.639469e-10 8.618189e-10 -7.465834e-10 -2.348433e-09 9.092130e-10
1.708367e-10 2.238741e-09 -3.657262e-10 1.124591e-09 1.411015e-09 1.878640e-09 1.712382e-09 4.811183e-10 2.938591e-09 2.697622e-09
5.072784e-09 3.049829e-09 2.317556e-09 3.324852e-09 3.980440e-09 5.189767e-09 4.208404e-09 4.841709e-09 5.674269e-09 6.618333e-09
5.662271e-09 6.474183e-09 7.250724e-09 7.450872e-09 8.638132e-09 8.313221e-09 9.608510e-09 9.021697e-09 9.754868e-09 8.751793e-09
1.113612e-08 9.835941e-09 9.779568e-09 1.178640e-08 1.154475e-08 1.172688e-08 1.118831e-08 1.261331e-08 1.219546e-08 1.296445e-08
1.302758e-08 1.348966e-08 1.365325e-08 1.423275e-08 1.422866e-08 1.414057e-08 1.487442e-08 1.565055e-08 1.517383e-08 1.509725e-08
1.595652e-08 1.490794e-08 1.633490e-08 1.647296e-08 1.692423e-08 1.759995e-08 1.677136e-08 1.764454e-08 1.665336e-08 1.807163e-08
1.820475e-08 1.835292e-08 1.753166e-08 1.714941e-08 1.765468e-08 1.777531e-08 1.861596e-08 1.770962e-08 1.824362e-08 1.731637e-08
1.816886e-08 1.880982e-08 1.909127e-08 1.926971e-08 1.938191e-08 1.818831e-08 1.734759e-08 1.657973e-08 1.783753e-08 1.808947e-08
1.735237e-08 1.796481e-08 1.816802e-08 1.682765e-08 1.681442e-08 1.815640e-08 1.711321e-08 1.782732e-08 1.713688e-08 1.719980e-08
1.726714e-08 1.612906e-08 1.790257e-08 1.764345e-08 1.781524e-08 1.653948e-08 1.733447e-08 1.834430e-08 1.893937e-08 1.746175e-08
1.849543e-08 1.763881e-08 1.851816e-08 1.857737e-08 1.776104e-08 1.744126e-08 1.758700e-08 1.883767e-08 1.839570e-08 1.766003e-08
1.771970e-08 1.789365e-08 1.761025e-08 1.798507e-08 1.739133e-08 1.851998e-08 1.689746e-08 1.751248e-08 1.761128e-08 1.770287e-08
1.775298e-08 1.772642e-08 1.696180e-08 1.757502e-08 1.671083e-08 1.589687e-08 1.752288e-08 1.792514e-08 1.507719e-08 1.720240e-08
1.561221e-08 1.529397e-08 1.477430e-08 1.478358e-08 1.554332e-08 1.461646e-08 1.518048e-08 1.457892e-08 1.483588e-08 1.225441e-08
1.269374e-08 1.300179e-08 1.204385e-08 1.204408e-08 1.198402e-08 1.119462e-08 1.068307e-08 1.248654e-08 1.089050e-08 1.007419e-08
1.020585e-08 8.513887e-09 9.581657e-09 8.506681e-09 6.986525e-09 8.553911e-09 7.068330e-09 7.691736e-09 8.969805e-09 6.705120e-09
5.358518e-09 5.452090e-09 6.159489e-09 4.428043e-09 5.821930e-09 5.169072e-09 3.403495e-09 3.167517e-09 2.443303e-09 1.550648e-09
2.907027e-09 2.551121e-09 3.830531e-09 3.260978e-09 2.013328e-09 6.211366e-10 7.409910e-10 7.158179e-10 9.971344e-10 -1.266692e-09
-4.567373e-10 -8.605141e-11 -1.148651e-09 -1.030069e-10 -1.906028e-09 -1.999578e-09 -1.834495e-09 -1.825259e-09 -2.875123e-09 -3.316630e-09
-2.795231e-09 -2.878671e-09 -3.200482e-09 -3.820827e-09 -3.454605e-09 -5.254079e-09 -5.206934e-09 -7.536667e-09 -5.965457e-09 -7.359942e-09
-8.083432e-09 -6.097173e-09 -6.829291e-09 -7.307818e-09 -9.245176e-09 -9.532410e-09 -9.345979e-09 -9.493495e-09 -1.008843e-08 -1.082476e-08
-1.092240e-08 -1.014285e-08 -1.234092e-08 -1.007619e-08 -1.192149e-08 -1.225546e-08 -1.291532e-08 -1.242290e-08 -1.404237e-08 -1.345198e-08
-1.457761e-08 -1.351718e-08 -1.452015e-08 -1.397708e-08 -1.540147e-08 -1.489973e-08 -1.719331e-08 -1.630383e-08 -1.674542e-08 -1.581541e-08
-1.608238e-08 -1.608338e-08 -1.667269e-08 -1.813470e-08 -1.847299e-08 -1.718511e-08 -1.674746e-08 -1.758880e-08 -1.793087e-08 -1.743009e-08
-1.853858e-08 -1.774220e-08 -1.862785e-08 -1.783022e-08 -1.777556e-08 -1.768338e-08 -1.954730e-08 -1.750215e-08 -1.867141e-08 -1.875086e-08
-1.869286e-08 -1.728083e-08 -1.926884e-08 -1.834714e-08 -1.809864e-08 -1.861059e-08 -1.978840e-08 -1.865384e-08 -1.770911e-08 -1.758248e-08
-1.790688e-08 -1.874225e-08 -1.767723e-08 -1.700373e-08 -1.955319e-08 -1.756461e-08 -1.840279e-08 -1.756686e-08 -1.799989e-08 -1.721631e-08
-1.658189e-08
-1.730643e-08 -1.674378e-08 -1.781063e-08 -1.622658e-08 -1.756979e-08 -1.741058e-08 -1.796991e-08 -1.766406e-08 -1.708233e-08 -1.883250e-08
-1.739728e-08 -1.749298e-08 -1.794394e-08 -1.920278e-08 -1.791419e-08 -1.760983e-08 -1.777688e-08 -1.842179e-08 -1.803345e-08 -1.873741e-08
-1.736389e-08 -1.812150e-08 -1.732843e-08 -1.662664e-08 -1.697201e-08 -1.802038e-08 -1.731589e-08 -1.684970e-08 -1.762035e-08 -1.633153e-08
-1.634475e-08 -1.693894e-08 -1.751420e-08 -1.753064e-08 -1.641812e-08 -1.697902e-08 -1.605798e-08 -1.628610e-08 -1.578905e-08 -1.619982e-08
-1.537551e-08 -1.600423e-08 -1.499647e-08 -1.497936e-08 -1.418605e-08 -1.459325e-08 -1.450733e-08 -1.390937e-08 -1.382282e-08 -1.383975e-08
-1.421766e-08 -1.312515e-08 -1.257929e-08 -1.295385e-08 -1.158258e-08 -1.076023e-08 -1.339554e-08 -9.813909e-09 -1.177944e-08 -9.478176e-09
-9.666311e-09 -8.720522e-09 -9.220831e-09 -9.146803e-09 -9.764679e-09 -8.051044e-09 -7.940091e-09 -6.919270e-09 -7.716760e-09 -6.352252e-09
-6.728246e-09 -6.903354e-09 -4.784551e-09 -5.569748e-09 -5.053657e-09 -3.819816e-09 -3.253589e-09 -4.515393e-09 -3.473977e-09 -3.573967e-09
-2.071464e-09 -1.642323e-09 -1.114712e-09 -2.654885e-09 -8.227579e-10 -2.637610e-09 1.013980e-10 -1.561162e-09 -1.110658e-09 -1.211809e-09
6.259129e-10 -1.585234e-09 -1.789798e-10 1.552943e-09 1.773248e-09 2.449861e-09 2.247755e-09 1.769937e-09 2.906505e-09 3.894324e-09
2.406889e-09 2.663781e-09 3.629281e-09 5.680569e-09 4.770598e-09 4.744199e-09 3.918154e-09 5.909140e-09 6.730550e-09 6.308213e-09
5.193037e-09 7.390820e-09 7.543025e-09 7.258087e-09 8.058159e-09 8.597073e-09 8.556700e-09 8.840974e-09 9.830161e-09 1.041850e-08
8.203505e-09 1.033238e-08 9.564911e-09 1.135099e-08 1.112677e-08 1.232933e-08 1.203381e-08 1.234277e-08 1.297848e-08 1.228307e-08
1.374984e-08 1.345944e-08 1.334850e-08 1.495235e-08 1.424575e-08 1.457665e-08 1.531346e-08 1.556474e-08 1.539390e-08 1.617302e-08
1.624820e-08 1.501436e-08 1.654917e-08 1.651174e-08 1.608626e-08 1.824462e-08 1.729011e-08 1.813564e-08 1.672656e-08 1.701093e-08
1.778007e-08 1.767165e-08 1.771549e-08 1.750668e-08 1.795822e-08 1.835831e-08 1.851525e-08 1.796268e-08 1.856409e-08 1.816493e-08
1.835437e-08 1.817103e-08 1.912649e-08 1.867993e-08 1.871744e-08 1.877682e-08 1.801257e-08 1.660719e-08 1.844113e-08 1.784483e-08
1.741437e-08 1.835149e-08 1.821254e-08 1.830602e-08 1.871906e-08 1.802966e-08 1.650239e-08 1.813807e-08 1.589614e-08 1.745390e-08
1.716209e-08 1.718131e-08 1.744693e-08 1.598038e-08 1.798004e-08 1.784254e-08 1.708651e-08 1.773146e-08 1.688718e-08 1.881013e-08
1.668947e-08 1.787633e-08 1.841453e-08 1.769740e-08 1.911139e-08 1.838868e-08 1.937421e-08 1.810279e-08 1.824896e-08 1.918462e-08
1.786353e-08 1.832568e-08 1.754671e-08 1.795505e-08 1.772683e-08 1.803989e-08 1.728455e-08 1.817378e-08 1.751942e-08 1.674113e-08
1.779017e-08 1.683955e-08 1.683261e-08 1.602843e-08 1.700716e-08 1.605716e-08 1.637431e-08 1.649561e-08 1.570642e-08 1.582891e-08
1.597366e-08 1.619853e-08 1.508827e-08 1.468509e-08 1.397262e-08 1.508588e-08 1.381712e-08 1.389458e-08 1.504738e-08 1.388247e-08
1.337752e-08 1.197157e-08 1.142485e-08 1.255081e-08 1.243753e-08 1.072271e-08 1.130590e-08 1.073164e-08 1.008737e-08 9.320448e-09
9.681045e-09 9.682915e-09 9.518942e-09 7.779609e-09 8.839514e-09 9.325841e-09 8.609802e-09 6.477242e-09 5.412704e-09 7.042025e-09
5.019281e-09 6.382924e-09 4.734796e-09 4.861274e-09 4.021197e-09 6.272905e-09 2.943908e-09 2.216512e-09 3.749172e-09 3.427191e-09
1.456968e-09 2.869034e-09 2.544501e-09 2.466067e-09 1.366721e-09 9.250121e-10 7.141219e-10 1.057437e-09 3.806600e-10 2.624057e-10
1.003209e-09 -1.252326e-09 -1.603020e-09 -1.124157e-09 -1.643131e-09 -3.268031e-09 -7.767970e-10 -1.583289e-09 -2.765803e-09 -6.189532e-11
-4.131446e-09 -4.078057e-09 -4.168148e-09 -2.843259e-09 -3.972636e-09 -3.755577e-09 -5.239591e-09 -5.590440e-09 -7.174246e-09 -7.202480e-09
-4.762240e-09 -6.738934e-09 -7.809217e-09 -8.118135e-09 -7.092483e-09 -8.204143e-09 -9.696195e-09 -9.848868e-09 -9.622306e-09 -9.183613e-09
-9.566066e-09 -1.022085e-08 -1.017974e-08 -1.246458e-08 -1.093940e-08 -1.165721e-08 -1.166839e-08 -1.416087e-08 -1.211194e-08 -1.324369e-08
-1.487725e-08 -1.427548e-08 -1.407221e-08 -1.680169e-08 -1.463047e-08 -1.422758e-08 -1.540292e-08 -1.554682e-08 -1.611802e-08 -1.694936e-08
-1.819023e-08 -1.719047e-08 -1.610720e-08 -1.635363e-08 -1.747377e-08 -1.659301e-08 -1.711125e-08 -1.859163e-08 -1.889009e-08 -1.797863e-08
-1.864579e-08 -1.783764e-08 -1.800118e-08 -1.740877e-08 -1.794587e-08 -1.838476e-08 -2.012232e-08 -1.925262e-08 -1.901564e-08 -1.937817e-08
-1.942287e-08 -1.892658e-08 -1.820392e-08 -2.065693e-08 -1.885531e-08 -1.960340e-08 -1.936915e-08 -1.911159e-08 -1.812477e-08 -1.735671e-08
-1.838081e-08 -1.788052e-08 -1.803942e-08 -1.799225e-08 -1.742303e-08 -1.684198e-08 -1.783308e-08 -1.797624e-08 -1.704712e-08 -1.633397e-08
-1.730643e-08
-1.793815e-08 -1.703536e-08 -1.814772e-08 -1.879419e-08 -1.691895e-08 -1.871376e-08 -1.826506e-08 -1.797821e-08 -1.823756e-08 -1.783972e-08
-1.841659e-08 -1.817090e-08 -1.860886e-08 -1.881024e-08 -1.761684e-08 -1.750083e-08 -1.892002e-08 -1.778099e-08 -1.713989e-08 -1.766102e-08
-1.786217e-08 -1.846730e-08 -1.743467e-08 -1.798833e-08 -1.669502e-08 -1.682086e-08 -1.819524e-08 -1.669054e-08 -1.765418e-08 -1.738024e-08
-1.719650e-08 -1.757721e-08 -1.700814e-08 -1.782922e-08 -1.632144e-08 -1.695872e-08 -1.631433e-08 -1.592340e-08 -1.673314e-08 -1.608621e-08
-1.490375e-08 -1.580441e-08 -1.546669e-08 -1.469500e-08 -1.448519e-08 -1.532871e-08 -1.536153e-08 -1.321531e-08 -1.429676e-08 -1.313955e-08
-1.254957e-08 -1.358220e-08 -1.188263e-08 -1.255060e-08 -1.133805e-08 -1.129917e-08 -1.070056e-08 -1.183728e-08 -1.054929e-08 -1.044111e-08
-9.807759e-09 -9.351473e-09 -8.097286e-09 -9.423108e-09 -8.276571e-09 -9.465889e-09 -7.847999e-09 -6.475802e-09 -6.581112e-09 -6.222580e-09
-5.735124e-09 -5.116609e-09 -6.389572e-09 -4.782737e-09 -4.044072e-09 -3.783078e-09 -3.534552e-09 -2.008588e-09 -3.636628e-09 -3.840098e-09
-1.969175e-09 -1.479735e-09 -3.061391e-09 -3.108559e-09 -2.287787e-09 -1.411387e-09 -2.936701e-09 -3.040288e-10 2.407829e-10 6.069156e-11
3.084177e-10 -2.904420e-10 2.077666e-09 -9.378416e-10 9.315223e-10 2.877636e-09 2.841153e-09 2.763564e-09 3.360533e-09 3.029507e-09
4.090818e-09 3.152596e-09 3.632865e-09 3.176097e-09 5.354212e-09 5.511296e-09 5.506660e-09 5.382240e-09 5.423107e-09 8.675687e-09
6.547720e-09 6.821805e-09 8.080987e-09 7.945776e-09 8.684590e-09 7.271002e-09 8.285219e-09 9.937875e-09 9.970935e-09 1.029635e-08
1.072850e-08 1.023709e-08 1.213053e-08 1.019755e-08 1.160941e-08 1.157262e-08 1.237817e-08 1.171440e-08 1.315401e-08 1.237657e-08
1.353686e-08 1.377538e-08 1.433572e-08 1.364864e-08 1.414927e-08 1.440249e-08 1.554169e-08 1.523891e-08 1.510142e-08 1.486066e-08
1.610522e-08 1.597759e-08 1.515608e-08 1.624033e-08 1.581637e-08 1.727815e-08 1.628649e-08 1.820775e-08 1.780807e-08 1.848834e-08
1.635520e-08 1.770517e-08 1.718914e-08 1.788573e-08 1.755949e-08 1.719936e-08 1.853118e-08 1.719734e-08 1.998617e-08 1.729472e-08
1.900465e-08 1.839616e-08 1.888847e-08 1.826945e-08 1.734376e-08 1.780895e-08 1.836085e-08 1.747465e-08 1.805885e-08 1.798194e-08
1.830778e-08 1.653969e-08 1.794105e-08 1.671642e-08 1.655185e-08 1.859263e-08 1.651347e-08 1.669648e-08 1.634490e-08 1.801525e-08
1.659596e-08 1.651349e-08 1.758277e-08 1.763918e-08 1.730872e-08 1.712530e-08 1.862149e-08 1.753109e-08 1.734117e-08 1.729409e-08
1.850624e-08 1.863923e-08 1.835702e-08 1.884090e-08 1.832400e-08 1.841116e-08 1.828485e-08 1.793797e-08 1.824774e-08 1.726619e-08
1.839164e-08 1.729611e-08 1.776068e-08 1.901304e-08 1.797170e-08 1.714446e-08 1.796771e-08 1.734780e-08 1.633089e-08 1.732613e-08
1.607475e-08 1.701629e-08 1.716021e-08 1.694002e-08 1.607349e-08 1.652455e-08 1.658116e-08 1.628039e-08 1.662985e-08 1.548815e-08
1.621516e-08 1.624102e-08 1.453708e-08 1.401715e-08 1.395173e-08 1.401402e-08 1.349871e-08 1.398841e-08 1.306790e-08 1.346077e-08
1.350599e-08 1.311834e-08 1.203466e-08 1.108663e-08 1.140596e-08 1.075937e-08 1.011209e-08 1.039559e-08 1.081507e-08 1.046173e-08
9.878708e-09 9.126852e-09 9.430930e-09 9.851602e-09 7.765848e-09 8.664665e-09 8.232961e-09 7.864188e-09 7.081729e-09 6.604049e-09
6.529693e-09 7.061988e-09 5.701863e-09 4.402690e-09 4.802713e-09 4.930020e-09 5.159159e-09 3.708925e-09 4.240400e-09 3.634822e-09
3.415337e-09 2.244575e-09 1.943716e-09 1.260427e-09 2.032423e-09 1.121561e-09 1.119150e-09 1.011593e-11 -8.296974e-10 -7.549575e-10
2.375734e-09 -1.067475e-09 -1.384621e-09 -1.857971e-09 -2.382508e-10 -1.764648e-09 -2.715027e-09 -2.403341e-09 -2.953376e-09 -2.607031e-09
-2.719893e-09 -3.593434e-09 -2.636376e-09 -3.893687e-09 -5.689385e-09 -5.612823e-09 -5.278805e-09 -4.840663e-09 -7.069101e-09 -7.133770e-09
-7.195875e-09 -7.835222e-09 -8.202711e-09 -7.618198e-09 -8.615969e-09 -9.491612e-09 -8.373791e-09 -8.304699e-09 -9.176341e-09 -1.023336e-08
-9.885858e-09 -1.078265e-08 -1.304655e-08 -1.173334e-08 -1.114434e-08 -1.201650e-08 -1.316336e-08 -1.219894e-08 -1.316609e-08 -1.293269e-08
-1.329487e-08 -1.457317e-08 -1.437230e-08 -1.535694e-08 -1.517253e-08 -1.613927e-08 -1.581575e-08 -1.490025e-08 -1.580759e-08 -1.606195e-08
-1.641673e-08 -1.568477e-08 -1.672818e-08 -1.693702e-08 -1.749974e-08 -1.768560e-08 -1.714336e-08 -1.788657e-08 -1.700365e-08 -1.757745e-08
-1.786094e-08 -1.835314e-08 -1.890006e-08 -1.808579e-08 -1.839435e-08 -1.953008e-08 -1.865569e-08 -1.873649e-08 -1.942123e-08 -1.795045e-08
-1.767230e-08 -1.926966e-08 -2.037174e-08 -1.816117e-08 -1.777157e-08 -1.831278e-08 -1.765748e-08 -1.919151e-08 -1.903921e-08 -1.844569e-08
-1.767604e-08 -1.954563e-08 -1.906175e-08 -1.937355e-08 -1.882812e-08 -1.829824e-08 -1.743969e-08 -1.753333e-08 -1.648749e-08 -1.716807e-08
-1.793815e-08
-1.839514e-08 -1.689414e-08 -1.908112e-08 -1.704223e-08 -1.730852e-08 -1.847530e-08 -1.717856e-08 -1.844970e-08 -1.807235e-08 -1.823712e-08
-1.754842e-08 -1.741047e-08 -1.840832e-08 -1.705475e-08 -1.896502e-08 -1.836293e-08 -1.763898e-08 -1.817290e-08 -1.723607e-08 -1.969102e-08
-1.875439e-08 -1.839020e-08 -1.785379e-08 -1.687742e-08 -1.886805e-08 -1.675997e-08 -1.773797e-08 -1.841958e-08 -1.784040e-08 -1.807645e-08
-1.739451e-08 -1.658632e-08 -1.725207e-08 -1.642278e-08 -1.769606e-08 -1.636005e-08 -1.662740e-08 -1.628045e-08 -1.530495e-08 -1.652393e-08
-1.617855e-08 -1.533895e-08 -1.476688e-08 -1.463798e-08 -1.458693e-08 -1.364030e-08 -1.412219e-08 -1.482072e-08 -1.405827e-08 -1.345185e-08
-1.272720e-08 -1.335884e-08 -1.299796e-08 -1.191119e-08 -1.228842e-08 -1.121803e-08 -1.131495e-08 -1.006072e-08 -1.085364e-08 -9.798760e-09
-9.916955e-09 -9.903881e-09 -8.442723e-09 -9.558071e-09 -7.800208e-09 -8.260912e-09 -8.427359e-09 -7.137249e-09 -7.256136e-09 -6.576244e-09
-6.555267e-09 -5.845338e-09 -4.790856e-09 -4.823419e-09 -4.707993e-09 -4.770444e-09 -4.444227e-09 -3.628606e-09 -2.242389e-09 -2.152942e-09
-4.411054e-09 -4.581146e-09 -2.649038e-10 -1.662425e-09 -1.506361e-09 -9.398532e-10 -1.475035e-09 -1.575461e-09 -1.214790e-09 8.315237e-10
1.525016e-09 -1.662107e-10 5.594844e-10 1.555959e-09 1.845638e-09 2.518957e-09 1.618161e-09 2.238671e-09 3.783200e-10 3.446644e-09
2.956197e-09 5.213578e-09 4.164191e-09 4.439857e-09 5.485018e-09 4.456593e-09 4.929823e-09 6.773802e-09 5.675673e-09 6.067198e-09
6.757488e-09 8.025948e-09 9.796714e-09 7.231092e-09 9.098781e-09 9.925613e-09 8.566355e-09 9.016124e-09 9.291121e-09 8.533424e-09
9.770052e-09 1.170007e-08 1.098583e-08 1.031027e-08 1.071564e-08 1.092377e-08 1.174067e-08 1.244728e-08 1.290193e-08 1.294247e-08
1.315455e-08 1.322025e-08 1.363402e-08 1.442179e-08 1.454505e-08 1.401989e-08 1.411747e-08 1.433431e-08 1.505757e-08 1.690130e-08
1.636927e-08 1.656510e-08 1.583640e-08 1.680183e-08 1.714264e-08 1.681840e-08 1.665990e-08 1.756431e-08 1.718067e-08 1.729605e-08
1.879920e-08 1.829566e-08 1.814129e-08 1.897500e-08 1.855485e-08 1.849107e-08 1.806812e-08 1.772792e-08 1.861681e-08 1.812135e-08
1.793684e-08 1.752637e-08 1.749255e-08 1.760547e-08 1.787226e-08 1.890745e-08 1.846941e-08 1.894680e-08 1.843208e-08 1.818926e-08
1.827721e-08 1.769369e-08 1.846061e-08 1.758568e-08 1.722067e-08 1.862393e-08 1.789115e-08 1.705328e-08 1.831056e-08 1.740589e-08
1.731785e-08 1.754501e-08 1.653762e-08 1.709630e-08 1.920253e-08 1.838274e-08 1.820473e-08 1.756641e-08 1.728180e-08 1.813722e-08
1.819489e-08 1.908559e-08 1.786249e-08 1.786694e-08 1.928905e-08 1.789849e-08 1.838741e-08 1.729433e-08 1.737738e-08 1.815518e-08
1.820699e-08 1.744370e-08 1.785811e-08 1.865128e-08 1.775524e-08 1.796028e-08 1.769886e-08 1.781224e-08 1.808944e-08 1.773903e-08
1.724980e-08 1.664585e-08 1.776833e-08 1.803984e-08 1.751003e-08 1.630369e-08 1.672326e-08 1.604886e-08 1.574836e-08 1.538591e-08
1.535098e-08 1.524620e-08 1.455811e-08 1.515017e-08 1.485004e-08 1.384707e-08 1.468859e-08 1.468991e-08 1.285437e-08 1.398688e-08
1.320192e-08 1.270126e-08 1.260755e-08 1.305506e-08 1.166214e-08 1.089559e-08 1.170319e-08 1.083773e-08 1.115421e-08 9.856339e-09
9.751116e-09 1.047963e-08 8.862838e-09 8.432100e-09 9.745929e-09 7.161390e-09 8.814362e-09 8.416998e-09 6.671688e-09 5.396082e-09
6.112436e-09 6.627833e-09 4.474269e-09 4.369658e-09 4.658909e-09 4.698431e-09 3.618252e-09 4.245312e-09 3.905358e-09 2.067780e-09
3.224224e-09 2.026711e-09 8.124446e-10 2.240310e-09 9.323494e-10 6.985898e-10 1.713975e-09 1.726307e-09 -1.667169e-09 -3.033021e-10
1.733663e-10 -1.330444e-09 -1.293598e-09 -1.199369e-09 -1.179451e-09 -2.423528e-09 -4.661356e-09 -3.475792e-09 -2.970183e-09 -2.275300e-09
-1.847533e-09 -3.520642e-09 -4.273776e-09 -3.109668e-09 -3.832411e-09 -5.541478e-09 -4.996604e-09 -6.311539e-09 -6.653608e-09 -6.101537e-09
-7.819526e-09 -1.033177e-08 -7.988169e-09 -9.493809e-09 -8.283529e-09 -9.049525e-09 -9.361862e-09 -1.010058e-08 -9.362689e-09 -9.889598e-09
-9.879639e-09 -1.024706e-08 -1.145322e-08 -1.252801e-08 -1.136184e-08 -1.160822e-08 -1.174949e-08 -1.155641e-08 -1.271093e-08 -1.292656e-08
-1.322554e-08 -1.429158e-08 -1.474464e-08 -1.475212e-08 -1.455932e-08 -1.489944e-08 -1.654795e-08 -1.553278e-08 -1.647257e-08 -1.602343e-08
-1.625291e-08 -1.639248e-08 -1.594591e-08 -1.700001e-08 -1.732403e-08 -1.808461e-08 -1.815474e-08 -1.809022e-08 -1.862641e-08 -1.768780e-08
-1.825906e-08 -1.824559e-08 -1.856632e-08 -1.755728e-08 -1.756966e-08 -1.851816e-08 -1.932023e-08 -1.948240e-08 -1.872608e-08 -1.875725e-08
-1.769478e-08 -1.838046e-08 -1.884233e-08 -1.887995e-08 -2.042191e-08 -1.829169e-08 -2.059006e-08 -1.849323e-08 -1.866126e-08 -1.773464e-08
-1.879929e-08 -1.814153e-08 -1.772574e-08 -1.737037e-08 -1.835836e-08 -1.858032e-08 -1.772245e-08 -1.933102e-08 -1.739426e-08 -1.748014e-08
-1.839514e-08
-1.748758e-08 -1.721204e-08 -1.772769e-08 -1.837600e-08 -1.714914e-08 -1.882931e-08 -1.880875e-08 -1.805331e-08 -1.854218e-08 -1.674545e-08
-1.771083e-08 -1.707116e-08 -1.842249e-08 -1.819352e-08 -1.920843e-08 -1.904261e-08 -1.956256e-08 -1.808094e-08 -1.907038e-08 -1.868109e-08
-1.854817e-08 -1.883278e-08 -1.733682e-08 -1.705079e-08 -1.750306e-08 -1.816375e-08 -1.715388e-08 -1.782677e-08 -1.850460e-08 -1.716171e-08
-1.712844e-08 -1.740506e-08 -1.630836e-08 -1.808765e-08 -1.724818e-08 -1.615782e-08 -1.620487e-08 -1.588691e-08 -1.599724e-08 -1.610675e-08
-1.582908e-08 -1.490508e-08 -1.593768e-08 -1.451750e-08 -1.564829e-08 -1.512422e-08 -1.363342e-08 -1.414983e-08 -1.351311e-08 -1.467846e-08
-1.287620e-08 -1.262084e-08 -1.383330e-08 -1.147790e-08 -1.234263e-08 -1.128447e-08 -1.075046e-08 -1.022349e-08 -1.088379e-08 -1.023271e-08
-9.597744e-09 -9.773299e-09 -9.417852e-09 -9.137335e-09 -9.217827e-09 -9.040703e-09 -7.825117e-09 -6.604335e-09 -5.964951e-09 -7.179414e-09
-6.248331e-09 -6.228734e-09 -4.181400e-09 -4.660621e-09 -4.704850e-09 -5.573150e-09 -4.175165e-09 -3.189315e-09 -5.196964e-09 -3.996760e-09
-3.034929e-09 -2.737269e-09 -2.138105e-09 -2.877154e-09 -9.940538e-10 -2.731758e-09 -1.688285e-10 -1.231370e-09 6.181850e-10 5.349136e-11
-1.963299e-10 1.118550e-09 3.193534e-11 -5.674305e-11 2.859049e-09 1.403008e-09 1.925641e-09 4.467093e-09 2.580382e-09 3.682418e-09
2.122380e-09 3.264428e-09 2.992447e-09 5.267536e-09 3.707035e-09 6.436272e-09 5.868216e-09 6.759282e-09 5.656691e-09 7.222608e-09
6.202223e-09 7.180469e-09 7.500390e-09 6.363071e-09 9.051750e-09 8.761794e-09 7.775562e-09 7.832276e-09 9.410372e-09 1.046170e-08
1.025129e-08 1.169792e-08 1.072776e-08 1.109634e-08 1.149412e-08 1.217109e-08 1.200000e-08 1.187046e-08 1.410911e-08 1.263804e-08
1.341570e-08 1.328372e-08 1.440493e-08 1.406131e-08 1.359307e-08 1.372326e-08 1.462484e-08 1.506647e-08 1.508209e-08 1.482672e-08
1.519474e-08 1.559038e-08 1.595761e-08 1.726673e-08 1.656067e-08 1.673275e-08 1.671354e-08 1.764825e-08 1.742311e-08 1.724465e-08
1.764281e-08 1.753581e-08 1.649514e-08 1.677670e-08 1.871229e-08 1.732211e-08 1.795080e-08 1.738606e-08 1.807999e-08 1.857801e-08
1.881165e-08 1.819101e-08 1.774124e-08 1.887193e-08 1.789768e-08 1.794661e-08 1.702576e-08 1.772197e-08 1.846580e-08 1.778439e-08
1.810688e-08 1.776844e-08 1.672893e-08 1.763491e-08 1.768399e-08 1.797075e-08 1.754920e-08 1.747905e-08 1.648630e-08 1.852876e-08
1.806541e-08 1.690453e-08 1.797797e-08 1.711994e-08 1.726515e-08 1.790412e-08 1.758242e-08 1.806340e-08 1.797645e-08 1.843442e-08
1.898413e-08 1.740642e-08 1.796082e-08 1.723064e-08 1.804892e-08 1.763819e-08 1.835900e-08 1.887321e-08 1.848290e-08 1.800479e-08
1.863694e-08 1.826118e-08 1.890616e-08 1.883046e-08 1.703516e-08 1.640841e-08 1.848781e-08 1.719529e-08 1.692727e-08 1.769237e-08
1.737102e-08 1.740026e-08 1.755152e-08 1.649354e-08 1.661599e-08 1.673065e-08 1.594611e-08 1.601767e-08 1.588125e-08 1.629751e-08
1.494266e-08 1.529469e-08 1.592512e-08 1.564560e-08 1.417289e-08 1.398350e-08 1.333734e-08 1.251129e-08 1.348511e-08 1.250769e-08
1.300206e-08 1.155920e-08 1.338445e-08 1.177421e-08 1.105351e-08 1.257215e-08 1.130094e-08 1.111822e-08 1.100217e-08 1.143571e-08
1.047644e-08 9.529580e-09 9.212478e-09 8.797621e-09 7.760690e-09 7.716530e-09 7.977669e-09 9.364640e-09 5.613224e-09 5.829830e-09
6.504971e-09 7.772647e-09 6.377450e-09 5.489802e-09 4.873800e-09 5.095642e-09 4.282020e-09 5.089872e-09 4.301684e-09 4.378698e-09
3.152345e-09 3.128942e-09 2.001257e-09 3.454282e-09 8.859621e-10 1.606162e-09 1.317826e-10 -1.581091e-10 1.031116e-09 -2.912318e-10
-4.438242e-11 3.598807e-10 -2.086419e-09 -2.089700e-11 -2.075405e-09 -1.081779e-09 -2.423380e-09 -2.938439e-09 -2.447012e-09 -2.389769e-09
-2.016448e-09 -3.199962e-09 -4.418582e-09 -4.213007e-09 -4.568832e-09 -4.995164e-09 -5.090045e-09 -5.470285e-09 -5.995453e-09 -6.950049e-09
-5.808455e-09 -7.895570e-09 -6.838983e-09 -7.366058e-09 -8.118592e-09 -7.670482e-09 -8.582176e-09 -7.899123e-09 -1.029908e-08 -1.037565e-08
-9.766733e-09 -1.145056e-08 -1.020723e-08 -1.058791e-08 -1.119019e-08 -1.246611e-08 -1.213777e-08 -1.257555e-08 -1.355871e-08 -1.288803e-08
-1.326852e-08 -1.450832e-08 -1.536135e-08 -1.507991e-08 -1.457663e-08 -1.643419e-08 -1.643716e-08 -1.583036e-08 -1.518266e-08 -1.658046e-08
-1.617171e-08 -1.658989e-08 -1.686364e-08 -1.733624e-08 -1.752117e-08 -1.693813e-08 -1.706277e-08 -1.671128e-08 -1.807353e-08 -1.795316e-08
-1.805899e-08 -1.841350e-08 -1.920003e-08 -1.919882e-08 -1.819001e-08 -1.868770e-08 -1.871473e-08 -1.866033e-08 -1.858131e-08 -1.762348e-08
-1.949360e-08 -1.903909e-08 -1.962032e-08 -1.834183e-08 -1.954869e-08 -2.006746e-08 -1.797939e-08 -1.848873e-08 -1.902448e-08 -1.766196e-08
-1.984289e-08 -1.788757e-08 -1.807927e-08 -1.662311e-08 -1.841872e-08 -1.792927e-08 -1.829580e-08 -1.620393e-08 -1.891124e-08 -1.787137e-08
-1.748758e-08
-1.646441e-08 -1.856469e-08 -1.784740e-08 -1.698939e-08 -1.822246e-08 -1.801780e-08 -1.772761e-08 -1.814229e-08 -1.687622e-08 -1.834385e-08
-1.837737e-08 -1.916668e-08 -1.859420e-08 -1.828036e-08 -1.737241e-08 -1.865935e-08 -1.788820e-08 -1.916283e-08 -1.732313e-08 -1.901363e-08
-1.841161e-08 -1.847666e-08 -1.748636e-08 -1.683593e-08 -1.869227e-08 -1.821377e-08 -1.771222e-08 -1.772940e-08 -1.700660e-08 -1.805781e-08
-1.651635e-08 -1.670542e-08 -1.705119e-08 -1.756786e-08 -1.655860e-08 -1.640885e-08 -1.800180e-08 -1.595518e-08 -1.566828e-08 -1.566706e-08
-1.538210e-08 -1.549753e-08 -1.538993e-08 -1.453947e-08 -1.427275e-08 -1.434332e-08 -1.364676e-08 -1.365890e-08 -1.480219e-08 -1.378864e-08
-1.365562e-08 -1.387810e-08 -1.289670e-08 -1.223573e-08 -1.185127e-08 -1.144806e-08 -1.175300e-08 -1.187256e-08 -1.048955e-08 -9.804682e-09
-1.064105e-08 -9.694049e-09 -9.215675e-09 -9.762119e-09 -9.564811e-09 -9.521017e-09 -7.764409e-09 -7.328719e-09 -7.176560e-09 -6.132491e-09
-5.966305e-09 -5.986426e-09 -5.115703e-09 -4.841396e-09 -5.473723e-09 -4.811085e-09 -5.163985e-09 -4.709771e-09 -2.494286e-09 -3.606912e-09
-2.209829e-09 -2.120821e-09 -2.782435e-09 -1.081318e-09 -1.949825e-09 -7.280186e-10 6.885574e-10 -6.156616e-11 -2.645595e-09 4.070788e-10
5.955883e-10 -2.066647e-11 1.937148e-09 2.340509e-09 7.313191e-10 3.500901e-09 8.602276e-10 8.698972e-10 2.145882e-09 2.374016e-09
2.534985e-09 2.613638e-09 3.410075e-09 4.829124e-09 3.158223e-09 4.311196e-09 6.426085e-09 5.998924e-09 6.037403e-09 6.677585e-09
6.781528e-09 7.607842e-09 6.103728e-09 7.224253e-09 8.734168e-09 1.028998e-08 7.550728e-09 1.004681e-08 8.451142e-09 8.736679e-09
9.054220e-09 1.014688e-08 1.023292e-08 1.097910e-08 1.034558e-08 1.240287e-08 1.188374e-08 1.176332e-08 1.275545e-08 1.341035e-08
1.311594e-08 1.339939e-08 1.419946e-08 1.361314e-08 1.430322e-08 1.487975e-08 1.526637e-08 1.467492e-08 1.504127e-08 1.631585e-08
1.585580e-08 1.626818e-08 1.684138e-08 1.556042e-08 1.649011e-08 1.657909e-08 1.743713e-08 1.686521e-08 1.724199e-08 1.781883e-08
1.710051e-08 1.817305e-08 1.819194e-08 1.730308e-08 1.952389e-08 1.760506e-08 1.799573e-08 1.971033e-08 1.758952e-08 1.813047e-08
1.891614e-08 1.795198e-08 1.879114e-08 1.820878e-08 1.782129e-08 1.851374e-08 1.752522e-08 1.841746e-08 1.799268e-08 1.884054e-08
1.882882e-08 1.742981e-08 1.704923e-08 1.669587e-08 1.771391e-08 1.756818e-08 1.732618e-08 1.682328e-08 1.802871e-08 1.724090e-08
1.858900e-08 1.748519e-08 1.688566e-08 1.663705e-08 1.718910e-08 1.762154e-08 1.854874e-08 1.809255e-08 1.810635e-08 1.731574e-08
1.756086e-08 1.851031e-08 1.765365e-08 1.847076e-08 1.989259e-08 1.963607e-08 1.805492e-08 1.730619e-08 1.831225e-08 1.848129e-08
1.785978e-08 1.845530e-08 1.771713e-08 1.766107e-08 1.746048e-08 1.770481e-08 1.747955e-08 1.719051e-08 1.680836e-08 1.742501e-08
1.693697e-08 1.621531e-08 1.631423e-08 1.782593e-08 1.747755e-08 1.619769e-08 1.654251e-08 1.597825e-08 1.560674e-08 1.609814e-08
1.469478e-08 1.554793e-08 1.528186e-08 1.497519e-08 1.476154e-08 1.423238e-08 1.370699e-08 1.458877e-08 1.318775e-08 1.230312e-08
1.224666e-08 1.379034e-08 1.202439e-08 1.329930e-08 1.239041e-08 1.234368e-08 1.185530e-08 1.198165e-08 1.083271e-08 9.560090e-09
9.260656e-09 9.536969e-09 8.242508e-09 7.537535e-09 8.671132e-09 8.368365e-09 8.086595e-09 6.923487e-09 6.501267e-09 5.931162e-09
7.327836e-09 5.430996e-09 5.434109e-09 7.076494e-09 5.663696e-09 3.316597e-09 4.557238e-09 3.933257e-09 4.777606e-09 2.167397e-09
3.598812e-09 2.986168e-09 1.839420e-09 2.704640e-09 1.503604e-09 1.996196e-09 3.139532e-09 2.081499e-09 1.673052e-09 -3.682758e-11
5.793235e-10 -1.611490e-10 -2.000923e-09 -1.923188e-09 1.394495e-10 -9.938378e-10 -3.220668e-09 -2.756448e-09 -2.048568e-09 -3.307981e-09
-3.144941e-09 -3.537685e-09 -3.478124e-09 -3.602908e-09 -5.296541e-09 -4.534227e-09 -4.463347e-09 -6.506259e-09 -6.025806e-09 -6.498295e-09
-5.826724e-09 -7.390903e-09 -6.702977e-09 -7.271545e-09 -9.172645e-09 -8.647781e-09 -7.350236e-09 -8.223117e-09 -9.173106e-09 -1.128419e-08
-9.607552e-09 -9.896841e-09 -1.130703e-08 -1.119383e-08 -1.134566e-08 -1.190759e-08 -1.172806e-08 -1.229805e-08 -1.330418e-08 -1.387002e-08
-1.295049e-08 -1.438815e-08 -1.397098e-08 -1.400492e-08 -1.501888e-08 -1.390541e-08 -1.594157e-08 -1.568445e-08 -1.608045e-08 -1.608654e-08
-1.733626e-08 -1.628639e-08 -1.624168e-08 -1.682327e-08 -1.772771e-08 -1.764312e-08 -1.744532e-08 -1.852827e-08 -1.754566e-08 -1.823850e-08
-1.671374e-08 -1.888284e-08 -1.814199e-08 -1.690315e-08 -1.784422e-08 -1.842415e-08 -1.832137e-08 -1.805563e-08 -1.873448e-08 -1.848964e-08
-1.964280e-08 -1.928756e-08 -1.874555e-08 -1.947861e-08 -1.794731e-08 -1.970420e-08 -1.954068e-08 -1.840050e-08 -1.825727e-08 -1.856384e-08
-1.737873e-08 -1.763780e-08 -1.819460e-08 -1.781082e-08 -1.872217e-08 -1.835483e-08 -1.797837e-08 -1.810187e-08 -1.774714e-08 -1.779236e-08
-1.646441e-08
-1.718410e-08 -1.760345e-08 -1.753387e-08 -1.839443e-08 -1.729814e-08 -1.886598e-08 -1.705994e-08 -1.841450e-08 -1.708464e-08 -1.782013e-08
-1.756306e-08 -1.755286e-08 -1.760310e-08 -1.899384e-08 -1.808501e-08 -1.778388e-08 -1.783130e-08 -1.821593e-08 -1.861295e-08 -1.841853e-08
-1.806197e-08 -1.785280e-08 -1.858588e-08 -1.740557e-08 -1.795522e-08 -1.764527e-08 -1.797640e-08 -1.732473e-08 -1.836170e-08 -1.680372e-08
-1.815080e-08 -1.766548e-08 -1.674448e-08 -1.708752e-08 -1.577034e-08 -1.626241e-08 -1.670102e-08 -1.620660e-08 -1.557790e-08 -1.502267e-08
-1.561743e-08 -1.534410e-08 -1.511733e-08 -1.479841e-08 -1.418955e-08 -1.482248e-08 -1.415691e-08 -1.401200e-08 -1.374893e-08 -1.345962e-08
-1.411426e-08 -1.226142e-08 -1.255024e-08 -1.251731e-08 -1.271491e-08 -1.162887e-08 -1.065348e-08 -1.144726e-08 -1.083555e-08 -1.090897e-08
-1.008585e-08 -1.041385e-08 -9.176323e-09 -9.410580e-09 -7.680364e-09 -8.830923e-09 -7.596618e-09 -7.895047e-09 -8.354429e-09 -6.391723e-09
-6.318078e-09 -5.135764e-09 -6.444731e-09 -5.553538e-09 -5.183551e-09 -3.868997e-09 -4.129533e-09 -5.313923e-09 -3.890817e-09 -3.488589e-09
-2.696649e-09 -1.691475e-09 -2.130574e-09 -2.486714e-09 -1.609226e-09 -1.935224e-10 -2.592039e-10 5.736505e-10 -1.082893e-09 4.158266e-10
-8.985638e-10 2.165519e-10 3.220720e-11 1.751603e-09 1.726620e-09 1.170944e-09 1.813115e-09 2.352413e-09 2.615372e-09 3.888317e-09
2.370876e-09 2.867818e-09 3.342496e-09 4.306595e-09 4.036520e-09 5.271376e-09 5.336021e-09 6.364043e-09 7.286765e-09 6.091047e-09
5.303315e-09 6.618320e-09 7.710567e-09 8.093856e-09 7.341718e-09 8.609157e-09 8.091916e-09 8.262461e-09 9.869608e-09 1.077935e-08
1.074424e-08 1.010044e-08 1.010720e-08 1.093669e-08 1.119811e-08 1.206815e-08 1.278734e-08 1.201239e-08 1.313111e-08 1.368399e-08
1.358809e-08 1.293708e-08 1.340234e-08 1.474161e-08 1.411208e-08 1.411793e-08 1.474364e-08 1.503344e-08 1.543088e-08 1.567600e-08
1.539158e-08 1.621158e-08 1.566440e-08 1.607889e-08 1.656005e-08 1.585638e-08 1.612106e-08 1.704922e-08 1.741322e-08 1.826596e-08
1.707676e-08 1.784706e-08 1.765282e-08 1.770538e-08 1.805547e-08 1.806823e-08 1.796243e-08 1.785854e-08 1.709982e-08 1.823123e-08
1.747791e-08 1.707747e-08 1.864937e-08 1.919959e-08 1.774512e-08 1.820741e-08 1.843552e-08 1.851162e-08 1.799910e-08 1.935239e-08
1.891243e-08 1.812895e-08 1.792676e-08 1.824421e-08 1.688913e-08 1.667493e-08 1.706506e-08 1.791751e-08 1.784968e-08 1.820003e-08
1.683230e-08 1.837467e-08 1.653927e-08 1.787446e-08 1.747581e-08 1.845671e-08 1.653828e-08 1.786488e-08 1.715868e-08 1.669394e-08
1.881380e-08 1.849970e-08 1.886790e-08 1.789735e-08 1.807366e-08 1.812563e-08 1.693274e-08 1.811876e-08 1.720150e-08 1.824161e-08
1.817041e-08 1.831777e-08 1.813598e-08 1.715891e-08 1.771021e-08 1.859544e-08 1.700096e-08 1.646706e-08 1.710854e-08 1.714321e-08
1.648058e-08 1.731664e-08 1.614316e-08 1.665375e-08 1.649511e-08 1.617907e-08 1.578802e-08 1.522994e-08 1.619288e-08 1.512759e-08
1.504962e-08 1.438469e-08 1.496683e-08 1.583047e-08 1.401323e-08 1.455607e-08 1.482889e-08 1.366383e-08 1.403486e-08 1.345342e-08
1.241904e-08 1.185146e-08 1.235305e-08 1.226053e-08 1.134346e-08 1.144260e-08 1.021985e-08 1.137809e-08 1.042936e-08 1.048181e-08
1.012470e-08 9.079781e-09 8.085491e-09 9.913347e-09 8.797996e-09 9.066704e-09 7.655736e-09 7.463180e-09 7.098773e-09 5.153648e-09
5.961306e-09 5.946472e-09 5.219090e-09 4.264545e-09 3.350210e-09 3.337918e-09 4.039448e-09 4.412887e-09 3.145125e-09 2.804287e-09
1.314825e-09 2.866394e-09 2.310330e-09 2.106207e-09 8.261693e-10 9.013674e-10 1.316284e-09 9.135100e-11 1.328910e-09 5.674221e-10
-3.567854e-10 9.998269e-10 -1.471564e-09 -1.152216e-09 -1.424769e-10 -3.089819e-09 -2.979138e-09 -1.866851e-09 -3.854118e-09 -2.759398e-09
-2.416833e-09 -2.654902e-09 -4.134542e-09 -4.460467e-09 -3.858311e-09 -2.219537e-09 -5.367259e-09 -4.943056e-09 -5.305738e-09 -5.655326e-09
-7.957801e-09 -6.217704e-09 -7.710592e-09 -7.439417e-09 -7.744050e-09 -9.738735e-09 -7.879959e-09 -8.623759e-09 -9.516707e-09 -9.102571e-09
-1.027052e-08 -1.162223e-08 -1.217689e-08 -1.036999e-08 -1.129830e-08 -1.175629e-08 -1.177189e-08 -1.358806e-08 -1.319997e-08 -1.265518e-08
-1.414168e-08 -1.371623e-08 -1.446177e-08 -1.488560e-08 -1.429320e-08 -1.547728e-08 -1.526995e-08 -1.506527e-08 -1.615678e-08 -1.629041e-08
-1.503034e-08 -1.629102e-08 -1.685126e-08 -1.806665e-08 -1.730294e-08 -1.665494e-08 -1.746909e-08 -1.749359e-08 -1.773702e-08 -1.805643e-08
-1.806733e-08 -1.745540e-08 -1.858327e-08 -1.803095e-08 -1.888537e-08 -1.799624e-08 -1.896852e-08 -1.843419e-08 -1.872412e-08 -1.947615e-08
-1.768744e-08 -1.977006e-08 -1.929504e-08 -1.867035e-08 -1.916836e-08 -1.832362e-08 -1.764046e-08 -1.888023e-08 -1.793916e-08 -1.738687e-08
-1.770517e-08 -1.662970e-08 -1.790044e-08 -1.859337e-08 -1.771107e-08 -1.802454e-08 -1.706656e-08 -1.772632e-08 -1.786471e-08 -1.977818e-08
-1.718410e-08
-1.659063e-08 -1.854118e-08 -1.824299e-08 -1.796173e-08 -1.718565e-08 -1.803981e-08 -1.870509e-08 -1.775495e-08 -1.768043e-08 -1.914106e-08
-1.712048e-08 -1.792418e-08 -1.853820e-08 -1.875271e-08 -1.827493e-08 -1.827717e-08 -1.934260e-08 -1.817015e-08 -1.842492e-08 -1.804900e-08
-1.781375e-08 -1.837616e-08 -1.718519e-08 -1.792741e-08 -1.867885e-08 -1.735881e-08 -1.712555e-08 -1.697932e-08 -1.798106e-08 -1.733262e-08
-1.748218e-08 -1.631567e-08 -1.663259e-08 -1.688700e-08 -1.711562e-08 -1.577941e-08 -1.601248e-08 -1.603073e-08 -1.654603e-08 -1.705895e-08
-1.594074e-08 -1.568225e-08 -1.598424e-08 -1.442857e-08 -1.497120e-08 -1.496958e-08 -1.488889e-08 -1.377407e-08 -1.418146e-08 -1.307715e-08
-1.262282e-08 -1.304062e-08 -1.182469e-08 -1.226408e-08 -1.123477e-08 -1.121842e-08 -1.223450e-08 -1.031716e-08 -1.096163e-08 -1.061509e-08
-9.862841e-09 -9.861658e-09 -8.674330e-09 -9.256802e-09 -8.529461e-09 -7.336989e-09 -7.065195e-09 -7.735392e-09 -7.050453e-09 -6.524953e-09
-6.254500e-09 -6.106937e-09 -5.258331e-09 -5.194841e-09 -5.510080e-09 -4.115108e-09 -5.254457e-09 -4.077270e-09 -4.835703e-09 -4.735398e-09
-3.464498e-09 -1.473514e-09 -2.029733e-09 -3.038313e-09 -2.348839e-09 -2.843036e-10 -1.382274e-10 -2.954167e-10 -3.073939e-10 -5.826735e-10
-1.275580e-11 -1.217387e-09 9.603619e-10 3.332373e-10 4.627774e-10 1.616128e-09 1.520370e-09 1.290173e-09 1.769127e-09 3.409741e-09
3.241146e-09 5.481910e-09 3.132023e-09 3.795822e-09 3.161077e-09 4.743127e-09 5.951140e-09 6.034217e-09 4.797665e-09 5.470557e-09
6.392436e-09 5.947262e-09 7.585952e-09 7.800590e-09 8.569279e-09 8.957942e-09 8.178572e-09 8.201180e-09 8.929635e-09 9.154737e-09
9.983306e-09 9.901737e-09 9.913471e-09 1.102515e-08 1.129799e-08 1.194780e-08 1.186707e-08 1.135889e-08 1.192253e-08 1.338012e-08
1.430514e-08 1.305507e-08 1.398866e-08 1.461590e-08 1.416638e-08 1.434138e-08 1.457689e-08 1.568970e-08 1.536252e-08 1.547522e-08
1.580822e-08 1.563777e-08 1.639997e-08 1.597332e-08 1.621570e-08 1.609174e-08 1.711593e-08 1.626605e-08 1.717367e-08 1.754423e-08
1.696384e-08 1.837248e-08 1.747906e-08 1.757203e-08 1.803784e-08 1.763823e-08 1.785898e-08 1.849314e-08 1.809348e-08 1.809223e-08
1.784136e-08 1.898349e-08 1.810236e-08 1.821028e-08 1.896864e-08 1.774493e-08 1.775940e-08 1.921626e-08 1.806709e-08 1.758552e-08
1.762811e-08 1.878189e-08 1.800174e-08 1.833427e-08 1.773456e-08 1.639988e-08 1.772180e-08 1.805433e-08 1.887687e-08 1.658144e-08
1.684897e-08 1.632263e-08 1.728922e-08 1.703676e-08 1.780177e-08 1.724307e-08 1.838766e-08 1.815177e-08 1.929462e-08 1.977940e-08
1.873082e-08 1.804514e-08 1.812509e-08 1.707137e-08 1.795171e-08 1.856011e-08 1.853169e-08 1.889701e-08 1.698969e-08 1.777806e-08
1.695951e-08 1.792107e-08 1.717014e-08 1.800278e-08 1.755375e-08 1.796703e-08 1.708944e-08 1.726734e-08 1.796274e-08 1.782703e-08
1.634333e-08 1.628753e-08 1.747728e-08 1.683881e-08 1.583632e-08 1.574085e-08 1.567609e-08 1.524827e-08 1.550627e-08 1.485823e-08
1.516272e-08 1.459804e-08 1.395429e-08 1.355359e-08 1.386206e-08 1.448083e-08 1.397979e-08 1.410671e-08 1.317567e-08 1.375700e-08
1.235347e-08 1.183853e-08 1.235030e-08 1.283645e-08 1.218090e-08 1.130808e-08 1.214121e-08 1.243994e-08 9.538163e-09 1.048311e-08
8.606547e-09 9.621814e-09 8.229403e-09 7.956808e-09 8.252495e-09 7.809244e-09 7.180852e-09 7.305333e-09 7.541470e-09 6.856354e-09
6.560054e-09 6.438617e-09 4.501953e-09 5.503747e-09 5.782054e-09 4.014588e-09 4.631167e-09 3.063448e-09 2.389453e-09 1.911603e-09
2.834643e-09 -3.274336e-10 2.061040e-09 2.368749e-09 1.880423e-09 2.139867e-09 1.129241e-09 -1.385477e-09 1.006326e-09 -4.364995e-10
-2.911859e-10 -2.022653e-10 -9.114200e-10 -5.927997e-10 -2.210284e-09 -1.673521e-09 -3.148720e-09 -3.164387e-09 -3.678737e-09 -3.220828e-09
-4.544114e-09 -2.307639e-09 -4.013896e-09 -4.835034e-09 -4.373308e-09 -5.790695e-09 -6.435768e-09 -6.309177e-09 -4.661790e-09 -7.941609e-09
-5.345786e-09 -6.106488e-09 -7.583313e-09 -7.786912e-09 -8.819744e-09 -7.675198e-09 -8.761047e-09 -9.162606e-09 -9.443585e-09 -9.329407e-09
-1.187628e-08 -1.095718e-08 -1.144702e-08 -1.153851e-08 -1.198736e-08 -1.138045e-08 -1.304220e-08 -1.291981e-08 -1.352578e-08 -1.229688e-08
-1.283112e-08 -1.511607e-08 -1.394241e-08 -1.501800e-08 -1.702057e-08 -1.532738e-08 -1.540697e-08 -1.525530e-08 -1.615611e-08 -1.561488e-08
-1.566703e-08 -1.611007e-08 -1.661238e-08 -1.659531e-08 -1.658626e-08 -1.795755e-08 -1.767583e-08 -1.920348e-08 -1.766207e-08 -1.743506e-08
-1.699518e-08 -1.836994e-08 -1.859155e-08 -1.881982e-08 -1.872804e-08 -1.909827e-08 -1.889957e-08 -1.828388e-08 -1.937041e-08 -1.909384e-08
-1.849988e-08 -1.765788e-08 -1.926748e-08 -1.786229e-08 -1.857798e-08 -1.789686e-08 -1.912292e-08 -1.886321e-08 -1.834582e-08 -1.780760e-08
-1.755887e-08 -1.851538e-08 -1.854215e-08 -1.789368e-08 -1.893505e-08 -1.798670e-08 -1.712997e-08 -1.766734e-08 -1.832283e-08 -1.785743e-08
-1.659063e-08
-1.738758e-08 -1.837319e-08 -1.802745e-08 -1.662291e-08 -1.803042e-08 -1.845215e-08 -1.716637e-08 -1.804172e-08 -1.886085e-08 -1.844662e-08
-1.863875e-08 -1.756680e-08 -1.694565e-08 -1.805123e-08 -1.936760e-08 -1.799761e-08 -1.804526e-08 -1.836123e-08 -1.762041e-08 -1.931848e-08
-1.947828e-08 -1.865231e-08 -1.804361e-08 -1.719950e-08 -1.835183e-08 -1.709041e-08 -1.734843e-08 -1.843467e-08 -1.783794e-08 -1.759259e-08
-1.701869e-08 -1.743090e-08 -1.738467e-08 -1.673745e-08 -1.704567e-08 -1.646701e-08 -1.515198e-08 -1.532668e-08 -1.503174e-08 -1.549619e-08
-1.569893e-08 -1.522146e-08 -1.518421e-08 -1.397014e-08 -1.429231e-08 -1.417497e-08 -1.334737e-08 -1.335293e-08 -1.418868e-08 -1.326015e-08
-1.199466e-08 -1.240457e-08 -1.240265e-08 -1.197768e-08 -1.179465e-08 -1.141409e-08 -1.096873e-08 -1.064036e-08 -1.125668e-08 -1.055407e-08
-1.020874e-08 -9.932054e-09 -7.811736e-09 -8.845665e-09 -8.165114e-09 -7.765553e-09 -7.844496e-09 -6.640770e-09 -7.232481e-09 -6.087371e-09
-6.567793e-09 -6.036023e-09 -5.561642e-09 -5.388940e-09 -6.005042e-09 -5.221231e-09 -5.665418e-09 -3.390679e-09 -3.154735e-09 -2.567625e-09
-2.760536e-09 -3.518450e-09 -2.781305e-09 -2.708380e-09 -2.569414e-09 -5.413618e-10 -3.492589e-10 -2.305624e-09 -4.205606e-10 1.635482e-09
2.683814e-10 -1.994790e-10 5.973463e-12 5.658656e-10 5.765370e-10 2.327245e-09 1.305125e-09 3.395071e-09 1.721407e-09 2.801758e-09
3.833936e-09 3.355570e-09 4.831326e-09 4.148035e-09 4.067411e-09 5.713127e-09 5.849698e-09 5.729158e-09 4.876526e-09 5.617059e-09
6.416004e-09 6.016308e-09 6.752854e-09 8.443112e-09 7.034977e-09 9.341147e-09 9.198351e-09 9.802798e-09 1.087496e-08 9.922915e-09
1.049532e-08 9.884141e-09 1.065289e-08 1.211231e-08 1.142000e-08 1.144470e-08 1.177512e-08 1.198641e-08 1.271354e-08 1.313055e-08
1.299880e-08 1.335350e-08 1.313398e-08 1.329860e-08 1.368812e-08 1.433203e-08 1.568308e-08 1.480737e-08 1.449884e-08 1.586594e-08
1.563920e-08 1.614477e-08 1.576768e-08 1.581427e-08 1.626320e-08 1.729611e-08 1.589484e-08 1.585125e-08 1.707779e-08 1.775407e-08
1.701793e-08 1.733243e-08 1.740242e-08 1.727065e-08 1.747263e-08 1.789783e-08 1.813554e-08 1.755670e-08 1.725974e-08 1.755478e-08
1.830694e-08 1.890954e-08 1.853957e-08 1.778683e-08 1.794815e-08 1.920348e-08 1.785997e-08 1.835304e-08 1.778415e-08 1.693030e-08
1.826268e-08 1.689352e-08 1.899475e-08 1.693672e-08 1.889863e-08 1.741272e-08 1.700326e-08 1.665165e-08 1.862554e-08 1.794976e-08
1.767841e-08 1.812576e-08 1.758143e-08 1.681345e-08 1.818646e-08 1.712598e-08 1.801204e-08 1.803356e-08 1.881296e-08 1.858511e-08
1.791489e-08 1.793663e-08 1.759473e-08 1.787964e-08 1.889823e-08 1.817626e-08 1.892960e-08 1.847197e-08 1.741674e-08 1.741106e-08
1.809241e-08 1.950645e-08 1.877861e-08 1.702635e-08 1.698608e-08 1.688115e-08 1.732323e-08 1.708934e-08 1.742722e-08 1.803029e-08
1.684769e-08 1.643290e-08 1.739787e-08 1.595766e-08 1.627571e-08 1.596670e-08 1.606824e-08 1.601404e-08 1.522902e-08 1.491058e-08
1.550359e-08 1.494269e-08 1.478930e-08 1.462585e-08 1.438249e-08 1.479642e-08 1.337127e-08 1.334426e-08 1.347454e-08 1.270469e-08
1.306019e-08 1.163924e-08 1.252985e-08 1.073916e-08 1.315518e-08 1.067325e-08 1.156545e-08 1.148003e-08 1.155342e-08 1.052318e-08
9.149148e-09 9.489492e-09 9.034029e-09 8.449901e-09 8.919546e-09 8.379520e-09 6.951840e-09 7.792241e-09 7.190670e-09 7.145255e-09
6.586291e-09 6.585628e-09 6.317607e-09 3.354892e-09 4.570793e-09 4.125650e-09 3.678699e-09 2.903307e-09 4.332786e-09 3.471742e-09
3.328835e-09 2.889761e-09 2.109599e-09 2.011379e-09 1.733382e-09 2.616751e-09 4.792944e-12 8.879331e-10 -3.848892e-11 -2.359749e-09
-1.341037e-10 -1.821496e-09 2.850367e-10 -8.978114e-10 -2.457386e-09 -2.465231e-09 -1.399120e-09 -2.509727e-09 -8.030565e-10 -5.267927e-09
-4.847124e-09 -2.756385e-09 -2.939100e-09 -3.791814e-09 -3.965095e-09 -3.375511e-09 -6.011775e-09 -5.420644e-09 -5.469493e-09 -5.456306e-09
-6.700655e-09 -6.954982e-09 -8.839564e-09 -8.180334e-09 -9.395582e-09 -8.739820e-09 -9.345329e-09 -8.109423e-09 -8.468447e-09 -1.179713e-08
-1.010590e-08 -1.035413e-08 -1.078338e-08 -1.191507e-08 -1.237590e-08 -1.168327e-08 -1.268105e-08 -1.269690e-08 -1.411883e-08 -1.343779e-08
-1.454374e-08 -1.403691e-08 -1.467330e-08 -1.425784e-08 -1.495064e-08 -1.431464e-08 -1.491756e-08 -1.466622e-08 -1.649115e-08 -1.553303e-08
-1.600220e-08 -1.658939e-08 -1.704440e-08 -1.612650e-08 -1.760237e-08 -1.783286e-08 -1.704910e-08 -1.761934e-08 -1.772870e-08 -1.884281e-08
-1.811455e-08 -1.771466e-08 -1.805143e-08 -1.868997e-08 -1.889916e-08 -1.847172e-08 -1.932118e-08 -1.811246e-08 -1.847684e-08 -1.810368e-08
-1.972320e-08 -1.870732e-08 -1.804515e-08 -1.857282e-08 -1.936820e-08 -1.839611e-08 -1.741709e-08 -1.875782e-08 -1.856698e-08 -1.932991e-08
-1.814035e-08 -1.840436e-08 -1.966701e-08 -1.809725e-08 -1.701980e-08 -1.720576e-08 -1.753968e-08 -1.869304e-08 -1.760136e-08 -1.763315e-08
-1.738758e-08
-1.753222e-08 -1.675955e-08 -1.689326e-08 -1.882883e-08 -1.834841e-08 -1.756995e-08 -1.876997e-08 -1.686249e-08 -1.807822e-08 -1.799565e-08
-1.781230e-08 -1.758415e-08 -1.867926e-08 -1.797734e-08 -1.807677e-08 -1.754944e-08 -1.827779e-08 -1.892795e-08 -1.854377e-08 -1.791586e-08
-1.892761e-08 -1.730150e-08 -1.907527e-08 -1.691158e-08 -1.699513e-08 -1.751324e-08 -1.661635e-08 -1.803111e-08 -1.809705e-08 -1.758950e-08
-1.729414e-08 -1.648334e-08 -1.660599e-08 -1.638577e-08 -1.665632e-08 -1.662911e-08 -1.674899e-08 -1.594943e-08 -1.592671e-08 -1.496099e-08
-1.515550e-08 -1.495840e-08 -1.506784e-08 -1.507212e-08 -1.506232e-08 -1.389805e-08 -1.392908e-08 -1.367818e-08 -1.386920e-08 -1.340426e-08
-1.397482e-08 -1.201227e-08 -1.253832e-08 -1.215402e-08 -1.302736e-08 -1.119247e-08 -1.058059e-08 -1.065906e-08 -1.071577e-08 -1.031779e-08
-9.621737e-09 -9.521766e-09 -7.960527e-09 -1.012194e-08 -8.016136e-09 -8.910159e-09 -7.397949e-09 -7.754049e-09 -5.805892e-09 -5.226100e-09
-6.281581e-09 -4.899529e-09 -4.907271e-09 -6.158084e-09 -4.505897e-09 -4.546548e-09 -3.793932e-09 -4.708449e-09 -3.763886e-09 -3.296925e-09
-2.894711e-09 -1.252155e-09 -3.565445e-09 -1.910452e-09 -2.115982e-09 -2.175955e-09 -2.564752e-09 -1.410031e-09 -1.098482e-09 -5.062999e-10
-1.062577e-09 1.066108e-09 1.443161e-09 1.896781e-10 1.246148e-09 9.917446e-10 2.288204e-09 1.143215e-09 2.733199e-09 2.824359e-09
3.741404e-09 2.039655e-09 3.585903e-09 4.055773e-09 4.814419e-09 3.405209e-09 3.792953e-09 5.339813e-09 5.374364e-09 6.739409e-09
6.379770e-09 6.884144e-09 8.068313e-09 8.263124e-09 8.828125e-09 8.060286e-09 8.542458e-09 8.513972e-09 9.531479e-09 9.389694e-09
1.084088e-08 9.772591e-09 1.051772e-08 1.077426e-08 1.091240e-08 1.096490e-08 1.137388e-08 1.183130e-08 1.174533e-08 1.249287e-08
1.366189e-08 1.296506e-08 1.324428e-08 1.329685e-08 1.353264e-08 1.437734e-08 1.519140e-08 1.404592e-08 1.464140e-08 1.546266e-08
1.577130e-08 1.634750e-08 1.532678e-08 1.594195e-08 1.662609e-08 1.646430e-08 1.698398e-08 1.650256e-08 1.723809e-08 1.830233e-08
1.717007e-08 1.796759e-08 1.820196e-08 1.832034e-08 1.816735e-08 1.778751e-08 1.751540e-08 1.749308e-08 1.835159e-08 1.806042e-08
1.991757e-08 1.811357e-08 1.907522e-08 1.722596e-08 1.849362e-08 1.727625e-08 1.828070e-08 1.804113e-08 1.783512e-08 1.765096e-08
1.781254e-08 1.669416e-08 1.911935e-08 1.838702e-08 1.725216e-08 1.736287e-08 1.774398e-08 1.679187e-08 1.618546e-08 1.840175e-08
1.721135e-08 1.560854e-08 1.674768e-08 1.589980e-08 1.845074e-08 1.670565e-08 1.849672e-08 1.720868e-08 1.865748e-08 1.652464e-08
1.901716e-08 1.750296e-08 1.782569e-08 1.807333e-08 1.773136e-08 1.744869e-08 1.794180e-08 1.776160e-08 1.717402e-08 1.844254e-08
1.751856e-08 1.789295e-08 1.732383e-08 1.692626e-08 1.831164e-08 1.793866e-08 1.753681e-08 1.735147e-08 1.764324e-08 1.691605e-08
1.777330e-08 1.684846e-08 1.750360e-08 1.654661e-08 1.683281e-08 1.596890e-08 1.598328e-08 1.583840e-08 1.514603e-08 1.589757e-08
1.509210e-08 1.599635e-08 1.558346e-08 1.473550e-08 1.402230e-08 1.463150e-08 1.384531e-08 1.331946e-08 1.298234e-08 1.322674e-08
1.317903e-08 1.447746e-08 1.210494e-08 1.230898e-08 1.188721e-08 1.166282e-08 1.062549e-08 9.403578e-09 1.006917e-08 9.748427e-09
9.319425e-09 9.623860e-09 8.735914e-09 8.214293e-09 7.958136e-09 7.627668e-09 7.980835e-09 6.431875e-09 5.881742e-09 6.753837e-09
5.410061e-09 6.087120e-09 3.830884e-09 6.568632e-09 4.730885e-09 5.634762e-09 5.173375e-09 4.278837e-09 3.512401e-09 4.730393e-09
1.378683e-09 2.107426e-09 2.462201e-09 8.119689e-10 1.201306e-09 3.089571e-10 -2.466073e-10 1.424867e-09 2.006780e-09 2.810896e-10
5.333961e-10 -2.671098e-10 9.977608e-11 -2.494045e-09 -5.297566e-10 -3.163086e-09 -1.316168e-09 -9.552857e-10 -1.319638e-09 -3.236445e-09
-3.488480e-09 -3.812571e-09 -4.277179e-09 -3.651599e-09 -4.491213e-09 -4.778201e-09 -4.159928e-09 -5.636668e-09 -6.312154e-09 -6.596810e-09
-6.830299e-09 -7.369492e-09 -7.111789e-09 -1.005881e-08 -7.659676e-09 -8.475447e-09 -9.306323e-09 -9.463741e-09 -8.239948e-09 -9.687593e-09
-1.105228e-08 -9.868010e-09 -1.112098e-08 -1.185065e-08 -1.138613e-08 -1.142287e-08 -1.218555e-08 -1.217536e-08 -1.285956e-08 -1.341416e-08
-1.412937e-08 -1.351509e-08 -1.475974e-08 -1.349880e-08 -1.540178e-08 -1.475708e-08 -1.469675e-08 -1.610016e-08 -1.558484e-08 -1.539457e-08
-1.626784e-08 -1.679136e-08 -1.663454e-08 -1.725925e-08 -1.631996e-08 -1.798135e-08 -1.892851e-08 -1.744449e-08 -1.862560e-08 -1.830914e-08
-1.799978e-08 -1.788329e-08 -1.774665e-08 -1.787505e-08 -1.936903e-08 -1.865978e-08 -1.892370e-08 -1.764752e-08 -1.840433e-08 -1.894203e-08
-1.797337e-08 -1.881201e-08 -1.909785e-08 -1.837281e-08 -1.855665e-08 -1.956249e-08 -1.903883e-08 -1.943019e-08 -1.790254e-08 -1.776191e-08
-1.924655e-08 -1.938396e-08 -1.904303e-08 -1.864179e-08 -1.811679e-08 -1.731624e-08 -1.847988e-08 -1.701288e-08 -1.652115e-08 -1.785846e-08
-1.753222e-08
-1.688935e-08 -1.779689e-08 -1.723225e-08 -1.802102e-08 -1.769298e-08 -1.720673e-08 -1.742008e-08 -1.770618e-08 -1.852546e-08 -1.859114e-08
-1.823718e-08 -1.790350e-08 -1.909869e-08 -1.800328e-08 -1.743377e-08 -1.749360e-08 -1.784011e-08 -1.812239e-08 -1.830196e-08 -1.739191e-08
-1.781722e-08 -1.672729e-08 -1.845032e-08 -1.879929e-08 -1.762648e-08 -1.757785e-08 -1.762930e-08 -1.700052e-08 -1.695584e-08 -1.749787e-08
-1.679993e-08 -1.678496e-08 -1.621911e-08 -1.656991e-08 -1.679843e-08 -1.533548e-08 -1.582663e-08 -1.554720e-08 -1.642436e-08 -1.628587e-08
-1.506589e-08 -1.518714e-08 -1.418941e-08 -1.449513e-08 -1.459148e-08 -1.419461e-08 -1.394532e-08 -1.375828e-08 -1.320813e-08 -1.328280e-08
-1.250576e-08 -1.191364e-08 -1.174094e-08 -1.220984e-08 -1.099098e-08 -1.134641e-08 -1.086718e-08 -1.062798e-08 -1.068785e-08 -1.102525e-08
-9.057857e-09 -9.268189e-09 -9.494616e-09 -8.510354e-09 -8.830976e-09 -8.297718e-09 -6.857890e-09 -6.519770e-09 -6.095257e-09 -7.390686e-09
-7.104492e-09 -4.854144e-09 -6.137630e-09 -5.648232e-09 -5.256004e-09 -5.344128e-09 -4.648911e-09 -5.023273e-09 -2.815634e-09 -3.205153e-09
-3.022495e-09 -2.815568e-09 -2.098260e-09 -3.821500e-10 -1.561871e-09 -2.250801e-09 3.739825e-10 -7.653942e-10 -7.936306e-10 4.131143e-10
6.540717e-10 -1.023682e-09 8.350631e-10 3.574703e-10 1.462212e-09 1.150381e-09 2.072576e-09 1.993823e-09 2.577005e-09 4.234608e-09
2.566531e-09 4.489345e-09 2.663805e-09 2.882754e-09 3.629561e-09 4.899551e-09 5.499384e-09 4.165920e-09 6.194400e-09 6.817613e-09
6.277421e-09 6.028111e-09 7.862922e-09 7.354136e-09 7.996333e-09 8.762865e-09 9.901219e-09 8.859193e-09 1.027537e-08 1.129427e-08
1.020987e-08 1.023042e-08 1.090202e-08 1.018957e-08 1.078443e-08 1.105339e-08 1.201211e-08 1.162915e-08 1.320524e-08 1.336039e-08
1.270602e-08 1.385688e-08 1.286953e-08 1.425795e-08 1.361494e-08 1.475955e-08 1.469817e-08 1.464969e-08 1.450525e-08 1.472374e-08
1.531800e-08 1.607313e-08 1.528031e-08 1.546999e-08 1.548852e-08 1.550973e-08 1.621800e-08 1.602791e-08 1.637841e-08 1.721878e-08
1.773335e-08 1.714531e-08 1.688599e-08 1.786169e-08 1.775210e-08 1.673575e-08 1.756415e-08 1.839301e-08 1.800287e-08 1.792158e-08
1.789667e-08 1.861326e-08 1.798229e-08 1.828168e-08 1.757550e-08 1.775333e-08 1.667675e-08 1.856882e-08 1.833214e-08 1.783738e-08
1.685112e-08 1.737839e-08 1.730534e-08 1.729275e-08 1.834239e-08 1.639743e-08 1.712225e-08 1.655032e-08 1.855857e-08 1.707208e-08
1.752444e-08 1.586506e-08 1.703085e-08 1.670230e-08 1.705052e-08 1.798948e-08 1.657220e-08 1.874030e-08 1.708793e-08 1.838093e-08
1.702149e-08 1.797233e-08 1.715019e-08 1.893260e-08 1.718490e-08 1.890446e-08 1.808172e-08 1.803187e-08 1.839599e-08 1.836146e-08
1.690486e-08 1.723388e-08 1.762281e-08 1.678936e-08 1.764386e-08 1.768933e-08 1.700028e-08 1.624717e-08 1.738528e-08 1.584498e-08
1.685412e-08 1.727575e-08 1.711349e-08 1.663076e-08 1.685652e-08 1.621572e-08 1.583040e-08 1.527419e-08 1.502782e-08 1.537619e-08
1.562433e-08 1.452792e-08 1.465351e-08 1.449561e-08 1.378051e-08 1.402183e-08 1.365349e-08 1.310230e-08 1.283172e-08 1.238295e-08
1.266737e-08 1.175041e-08 1.215593e-08 1.203619e-08 1.111654e-08 1.145248e-08 1.145518e-08 1.091032e-08 9.052219e-09 9.019591e-09
9.412627e-09 9.551935e-09 8.109542e-09 6.965396e-09 7.981029e-09 6.698523e-09 6.740539e-09 7.043216e-09 7.195432e-09 6.717007e-09
5.253672e-09 5.959234e-09 5.750437e-09 5.467710e-09 5.019311e-09 4.304167e-09 5.664964e-09 4.177263e-09 1.783727e-09 2.505519e-09
4.451016e-09 1.878677e-09 1.616580e-09 1.134896e-09 2.074246e-09 -2.101077e-10 2.165848e-09 6.899439e-10 -1.813291e-09 7.409794e-10
-5.090509e-10 5.069960e-10 -1.344958e-09 -5.506336e-10 -6.296668e-10 -2.248198e-09 -1.304436e-09 -1.510215e-09 -2.572984e-09 -4.039147e-09
-2.464944e-09 -3.094488e-09 -3.722908e-09 -4.550709e-09 -3.975696e-09 -4.150297e-09 -5.644819e-09 -6.518931e-09 -4.330035e-09 -6.266838e-09
-6.849177e-09 -6.102553e-09 -7.067024e-09 -8.095609e-09 -8.443119e-09 -8.140814e-09 -8.828071e-09 -9.118822e-09 -1.074510e-08 -9.801142e-09
-1.006147e-08 -1.011815e-08 -1.106087e-08 -1.239994e-08 -1.129208e-08 -1.136935e-08 -1.216712e-08 -1.175801e-08 -1.391537e-08 -1.420790e-08
-1.271125e-08 -1.386918e-08 -1.423407e-08 -1.404115e-08 -1.467185e-08 -1.456420e-08 -1.471635e-08 -1.549698e-08 -1.513329e-08 -1.584713e-08
-1.594708e-08 -1.630440e-08 -1.600819e-08 -1.572879e-08 -1.709598e-08 -1.728903e-08 -1.650855e-08 -1.739713e-08 -1.736187e-08 -1.663921e-08
-1.803964e-08 -1.926763e-08 -1.730973e-08 -1.731589e-08 -1.806523e-08 -1.895900e-08 -1.844874e-08 -1.697720e-08 -1.854356e-08 -1.860192e-08
-1.931893e-08 -1.840261e-08 -1.834188e-08 -1.977762e-08 -1.898223e-08 -1.770855e-08 -1.883673e-08 -1.734513e-08 -1.866614e-08 -1.811916e-08
-1.745172e-08 -1.750822e-08 -1.744433e-08 -1.941189e-08 -1.757261e-08 -1.658589e-08 -1.784446e-08 -1.759580e-08 -1.831575e-08 -1.623128e-08
-1.688935e-08
-1.810189e-08 -1.819372e-08 -1.768561e-08 -1.726630e-08 -1.661840e-08 -1.864471e-08 -1.750400e-08 -1.874533e-08 -1.875204e-08 -1.603413e-08
-1.799423e-08 -1.765935e-08 -1.722726e-08 -1.801205e-08 -1.744091e-08 -1.845005e-08 -1.765299e-08 -1.743803e-08 -1.686927e-08 -1.914311e-08
-1.794781e-08 -1.829042e-08 -1.739512e-08 -1.798090e-08 -1.698494e-08 -1.803173e-08 -1.826868e-08 -1.710407e-08 -1.692035e-08 -1.698279e-08
-1.704763e-08 -1.716105e-08 -1.594162e-08 -1.579571e-08 -1.673945e-08 -1.603042e-08 -1.624148e-08 -1.616979e-08 -1.542509e-08 -1.583383e-08
-1.524774e-08 -1.486504e-08 -1.505082e-08 -1.446450e-08 -1.425512e-08 -1.470269e-08 -1.412451e-08 -1.455218e-08 -1.337665e-08 -1.292745e-08
-1.284632e-08 -1.305163e-08 -1.186263e-08 -1.221275e-08 -1.161974e-08 -1.140501e-08 -1.056421e-08 -1.075764e-08 -1.134853e-08 -1.084807e-08
-9.857875e-09 -8.787117e-09 -9.136367e-09 -8.511226e-09 -8.377597e-09 -6.918503e-09 -9.007248e-09 -6.527619e-09 -7.666604e-09 -7.232787e-09
-5.956994e-09 -5.223929e-09 -4.964114e-09 -5.019674e-09 -5.728969e-09 -4.373542e-09 -3.802327e-09 -4.108643e-09 -3.719138e-09 -2.154767e-09
-2.568892e-09 -2.953046e-09 -3.038846e-09 -1.940499e-09 -7.718313e-10 -1.683229e-09 9.335155e-10 6.153940e-10 -9.987685e-10 -1.252195e-09
3.011390e-10 -7.407245e-10 2.095781e-10 1.110120e-09 1.213193e-09 2.021371e-09 1.506251e-09 2.041483e-09 1.753343e-09 1.925430e-09
2.524846e-09 2.575607e-09 3.315570e-09 3.922110e-09 5.573942e-09 4.130980e-09 5.365908e-09 4.884802e-09 4.860218e-09 6.843734e-09
6.916843e-09 6.480615e-09 8.336834e-09 7.742094e-09 7.948086e-09 8.192280e-09 7.735448e-09 9.204381e-09 8.742649e-09 9.279677e-09
9.930311e-09 9.421807e-09 9.635671e-09 1.017670e-08 1.020254e-08 1.214205e-08 1.080514e-08 1.124537e-08 1.358293e-08 1.251217e-08
1.241180e-08 1.264114e-08 1.296448e-08 1.397750e-08 1.398802e-08 1.480079e-08 1.584234e-08 1.466292e-08 1.412456e-08 1.472060e-08
1.552163e-08 1.523851e-08 1.551074e-08 1.550093e-08 1.557324e-08 1.588465e-08 1.719691e-08 1.786109e-08 1.754074e-08 1.669339e-08
1.808322e-08 1.715156e-08 1.704825e-08 1.642322e-08 1.730699e-08 1.762967e-08 1.763413e-08 1.831141e-08 1.775199e-08 1.809743e-08
1.776837e-08 1.737499e-08 1.749036e-08 1.774993e-08 1.799292e-08 1.705636e-08 1.878912e-08 1.893383e-08 1.836849e-08 1.671927e-08
1.773085e-08 1.726302e-08 1.675927e-08 1.881921e-08 1.793242e-08 1.735430e-08 1.790433e-08 1.739138e-08 1.686971e-08 1.845036e-08
1.691860e-08 1.800280e-08 1.791169e-08 1.707113e-08 1.667418e-08 1.789036e-08 1.776793e-08 1.719774e-08 1.771791e-08 1.762031e-08
1.910080e-08 1.837169e-08 1.876903e-08 1.734033e-08 1.741638e-08 1.881849e-08 1.786501e-08 1.730258e-08 1.748504e-08 1.844347e-08
1.851434e-08 1.791637e-08 1.686161e-08 1.784711e-08 1.791001e-08 1.592073e-08 1.717974e-08 1.685551e-08 1.639207e-08 1.711910e-08
1.700233e-08 1.662095e-08 1.618985e-08 1.641664e-08 1.639113e-08 1.557989e-08 1.492602e-08 1.585952e-08 1.668192e-08 1.504742e-08
1.491737e-08 1.418510e-08 1.441948e-08 1.467897e-08 1.430828e-08 1.433080e-08 1.368478e-08 1.281057e-08 1.243260e-08 1.311474e-08
1.382282e-08 1.203688e-08 1.247475e-08 1.260307e-08 1.082192e-08 1.092387e-08 1.158721e-08 1.048297e-08 1.000891e-08 1.024361e-08
8.143361e-09 9.976137e-09 1.012080e-08 8.209754e-09 7.748333e-09 7.631257e-09 6.689626e-09 7.811423e-09 6.813409e-09 5.316185e-09
5.041294e-09 6.310100e-09 6.000155e-09 4.562764e-09 5.498257e-09 3.767535e-09 4.116959e-09 3.811957e-09 3.999396e-09 2.856271e-09
1.383287e-09 3.296235e-09 1.391238e-09 1.998346e-09 6.120344e-10 2.745870e-09 -8.816702e-10 3.866336e-10 1.724367e-09 6.404977e-10
-7.035534e-10 -1.469820e-09 -1.196385e-09 -1.849673e-09 1.844881e-10 -2.679960e-09 -8.899295e-10 -2.535357e-09 -1.571276e-09 -2.584001e-09
-2.687110e-09 -3.059246e-09 -3.622657e-09 -3.100407e-09 -4.475224e-09 -5.004351e-09 -5.890616e-09 -5.055032e-09 -5.361373e-09 -6.288514e-09
-7.017817e-09 -6.736085e-09 -7.381080e-09 -6.838119e-09 -7.815269e-09 -7.991901e-09 -7.918435e-09 -7.778218e-09 -9.170289e-09 -1.044378e-08
-9.215156e-09 -1.029379e-08 -1.045120e-08 -1.094331e-08 -1.071225e-08 -1.241347e-08 -1.190630e-08 -1.248673e-08 -1.253345e-08 -1.241479e-08
-1.357027e-08 -1.274472e-08 -1.373725e-08 -1.396482e-08 -1.375752e-08 -1.385786e-08 -1.496800e-08 -1.506580e-08 -1.517681e-08 -1.666671e-08
-1.584974e-08 -1.677927e-08 -1.617167e-08 -1.572007e-08 -1.615141e-08 -1.688971e-08 -1.713852e-08 -1.707205e-08 -1.693596e-08 -1.715406e-08
-1.707857e-08 -1.759835e-08 -1.789425e-08 -1.730763e-08 -1.742877e-08 -1.794898e-08 -1.833430e-08 -1.834032e-08 -1.822573e-08 -1.859333e-08
-1.753096e-08 -1.766524e-08 -1.790063e-08 -1.841152e-08 -1.742885e-08 -1.863043e-08 -1.773539e-08 -1.808009e-08 -1.883963e-08 -1.807813e-08
-1.827366e-08 -1.915753e-08 -1.761561e-08 -1.736258e-08 -1.640671e-08 -1.693413e-08 -1.743796e-08 -1.675012e-08 -1.726330e-08 -1.715877e-08
-1.810189e-08
-1.647543e-08 -1.757827e-08 -1.737207e-08 -1.742554e-08 -1.912676e-08 -1.704324e-08 -1.723829e-08 -1.772636e-08 -1.622846e-08 -1.799612e-08
-1.692730e-08 -1.819693e-08 -1.808032e-08 -1.793520e-08 -1.726876e-08 -1.833104e-08 -1.781379e-08 -1.717042e-08 -1.835171e-08 -1.750094e-08
-1.773347e-08 -1.780774e-08 -1.822150e-08 -1.818142e-08 -1.827108e-08 -1.727669e-08 -1.783246e-08 -1.724741e-08 -1.644740e-08 -1.805105e-08
-1.599568e-08 -1.681306e-08 -1.681252e-08 -1.730304e-08 -1.685427e-08 -1.635292e-08 -1.596577e-08 -1.616018e-08 -1.601693e-08 -1.523865e-08
-1.560364e-08 -1.470931e-08 -1.519575e-08 -1.424962e-08 -1.376348e-08 -1.351561e-08 -1.356000e-08 -1.360306e-08 -1.314907e-08 -1.284297e-08
-1.286032e-08 -1.210433e-08 -1.148466e-08 -1.128228e-08 -1.163813e-08 -1.116715e-08 -1.077180e-08 -1.106604e-08 -9.362622e-09 -1.003386e-08
-1.010134e-08 -9.487565e-09 -8.956182e-09 -8.312295e-09 -8.426909e-09 -7.722172e-09 -6.715042e-09 -7.407406e-09 -5.962586e-09 -6.864096e-09
-6.394269e-09 -6.546007e-09 -7.032805e-09 -6.161159e-09 -3.878750e-09 -5.354156e-09 -4.460167e-09 -4.169441e-09 -4.604697e-09 -2.822900e-09
-1.248312e-09 -3.069552e-09 -1.757576e-09 -1.544697e-09 -2.269726e-09 -6.439946e-10 -1.023072e-09 -1.244519e-09 -6.471274e-10 2.962515e-10
1.581281e-09 9.475721e-10 2.366339e-10 4.943132e-10 2.289190e-09 1.147075e-09 7.176711e-10 2.876486e-09 2.046011e-09 1.545899e-09
1.770479e-09 1.389942e-09 5.217055e-09 2.309388e-09 4.609387e-09 4.971710e-09 4.696751e-09 5.256007e-09 5.684474e-09 5.374412e-09
7.297411e-09 6.874073e-09 7.182992e-09 7.556523e-09 8.747292e-09 8.012625e-09 7.338690e-09 8.728777e-09 8.571944e-09 8.743952e-09
9.660526e-09 9.304454e-09 1.099530e-08 9.938735e-09 1.093966e-08 1.078602e-08 1.149486e-08 1.265994e-08 1.240686e-08 1.226317e-08
1.326415e-08 1.253887e-08 1.296733e-08 1.303059e-08 1.439612e-08 1.424462e-08 1.411268e-08 1.356428e-08 1.483482e-08 1.512397e-08
1.516824e-08 1.455406e-08 1.491287e-08 1.633875e-08 1.499957e-08 1.690875e-08 1.735948e-08 1.628489e-08 1.662508e-08 1.727945e-08
1.669505e-08 1.748806e-08 1.797183e-08 1.795036e-08 1.696790e-08 1.802320e-08 1.723114e-08 1.933368e-08 1.834495e-08 1.706555e-08
1.763705e-08 1.745868e-08 1.838241e-08 1.673192e-08 1.865691e-08 1.763202e-08 1.730967e-08 1.843694e-08 1.764642e-08 1.737322e-08
1.580854e-08 1.832468e-08 1.803377e-08 1.738192e-08 1.736964e-08 1.759265e-08 1.636529e-08 1.647678e-08 1.775037e-08 1.616905e-08
1.739049e-08 1.849261e-08 1.673725e-08 1.768336e-08 1.729906e-08 1.649595e-08 1.779343e-08 1.753585e-08 1.785037e-08 1.741762e-08
1.828131e-08 1.788641e-08 1.650715e-08 1.809400e-08 1.695518e-08 1.771532e-08 1.859185e-08 1.856499e-08 1.715641e-08 1.731295e-08
1.837194e-08 1.685673e-08 1.845189e-08 1.814543e-08 1.809712e-08 1.689381e-08 1.701814e-08 1.703585e-08 1.671460e-08 1.728158e-08
1.728988e-08 1.685048e-08 1.642089e-08 1.592140e-08 1.523790e-08 1.702366e-08 1.596676e-08 1.687273e-08 1.466170e-08 1.623311e-08
1.449927e-08 1.423045e-08 1.527079e-08 1.386560e-08 1.424083e-08 1.317123e-08 1.382223e-08 1.445069e-08 1.217804e-08 1.305027e-08
1.344609e-08 1.251339e-08 1.123256e-08 1.191329e-08 1.134207e-08 1.105276e-08 9.843842e-09 9.984785e-09 1.062591e-08 8.413231e-09
9.322815e-09 9.880062e-09 8.140675e-09 7.572613e-09 9.723948e-09 9.125515e-09 6.873565e-09 7.669571e-09 5.855871e-09 4.390204e-09
4.752907e-09 5.531648e-09 6.556244e-09 5.086143e-09 5.923134e-09 3.750687e-09 4.102978e-09 3.489340e-09 2.227937e-09 2.866595e-09
2.358221e-09 2.204399e-09 2.218975e-09 2.367754e-09 2.284378e-09 1.138220e-09 1.955522e-09 -7.299877e-10 -2.918560e-10 -1.039396e-09
-6.699736e-10 -3.504126e-10 4.264087e-10 -1.914194e-09 -1.055187e-09 -9.844962e-10 -1.457793e-09 -2.666974e-09 -4.026527e-09 -3.596914e-09
-2.886807e-09 -3.561713e-09 -1.732301e-09 -4.268164e-09 -5.903702e-09 -6.106653e-09 -5.963549e-09 -6.945675e-09 -6.869407e-09 -6.535397e-09
-6.281695e-09 -6.729282e-09 -7.706927e-09 -7.409150e-09 -6.942569e-09 -9.011850e-09 -1.042166e-08 -9.363393e-09 -1.071650e-08 -1.092463e-08
-1.042139e-08 -1.052930e-08 -1.034925e-08 -1.033531e-08 -1.065433e-08 -1.108182e-08 -1.261028e-08 -1.198781e-08 -1.165971e-08 -1.320415e-08
-1.333775e-08 -1.291067e-08 -1.429818e-08 -1.428689e-08 -1.368804e-08 -1.395999e-08 -1.478924e-08 -1.533176e-08 -1.517915e-08 -1.584626e-08
-1.535749e-08 -1.560149e-08 -1.628366e-08 -1.644897e-08 -1.691523e-08 -1.683996e-08 -1.700383e-08 -1.738759e-08 -1.699315e-08 -1.684564e-08
-1.797087e-08 -1.787529e-08 -1.758158e-08 -1.897159e-08 -1.831287e-08 -1.826788e-08 -1.809193e-08 -1.855082e-08 -1.795510e-08 -1.846820e-08
-1.805743e-08 -1.817665e-08 -1.705419e-08 -1.980350e-08 -1.803773e-08 -1.887431e-08 -1.766447e-08 -1.823617e-08 -1.964885e-08 -1.869467e-08
-1.785077e-08 -1.807661e-08 -1.698772e-08 -1.792396e-08 -1.809960e-08 -1.725020e-08 -1.847229e-08 -1.862734e-08 -1.721641e-08 -1.663117e-08
-1.647543e-08
-1.657693e-08 -1.820340e-08 -1.875222e-08 -1.830268e-08 -1.868235e-08 -1.734841e-08 -1.747373e-08 -1.797174e-08 -1.726979e-08 -1.672474e-08
-1.682276e-08 -1.847873e-08 -1.721341e-08 -1.767922e-08 -1.726631e-08 -1.829806e-08 -1.686170e-08 -1.763736e-08 -1.775255e-08 -1.788746e-08
-1.785988e-08 -1.789361e-08 -1.623840e-08 -1.834048e-08 -1.842565e-08 -1.838158e-08 -1.798730e-08 -1.835173e-08 -1.727232e-08 -1.714027e-08
-1.668547e-08 -1.712204e-08 -1.636589e-08 -1.645570e-08 -1.613853e-08 -1.574114e-08 -1.525469e-08 -1.543778e-08 -1.578900e-08 -1.406970e-08
-1.487656e-08 -1.454444e-08 -1.447931e-08 -1.461436e-08 -1.414636e-08 -1.426552e-08 -1.361254e-08 -1.370837e-08 -1.291877e-08 -1.299663e-08
-1.260706e-08 -1.170790e-08 -1.180800e-08 -1.183880e-08 -1.135227e-08 -1.132197e-08 -1.010325e-08 -1.005237e-08 -1.003605e-08 -9.955691e-09
-9.175195e-09 -8.703966e-09 -8.644288e-09 -8.388196e-09 -8.567341e-09 -7.457637e-09 -6.938871e-09 -7.562098e-09 -7.100800e-09 -7.306094e-09
-5.922772e-09 -6.488287e-09 -5.765516e-09 -4.247681e-09 -4.542016e-09 -4.973000e-09 -3.696039e-09 -3.724839e-09 -3.964876e-09 -3.251949e-09
-4.001152e-09 -2.637622e-09 -1.768306e-09 -2.031473e-09 -1.257718e-09 -1.485348e-09 -1.315289e-09 -7.285453e-10 -2.108757e-09 9.530975e-10
3.995733e-10 1.292145e-09 1.860030e-09 2.379738e-09 1.435432e-09 1.463972e-09 3.545702e-09 1.451842e-09 2.997982e-09 3.040044e-09
3.653023e-09 3.698365e-09 3.242498e-09 3.783672e-09 4.180206e-09 5.201051e-09 4.074933e-09 4.747347e-09 6.156181e-09 6.279485e-09
7.276880e-09 6.182969e-09 6.466566e-09 8.018267e-09 7.084939e-09 8.947242e-09 8.339131e-09 9.131132e-09 9.834223e-09 9.230903e-09
1.095729e-08 1.098194e-08 1.103406e-08 1.088652e-08 1.124981e-08 1.220645e-08 1.142225e-08 1.210548e-08 1.305335e-08 1.240187e-08
1.201977e-08 1.289895e-08 1.329159e-08 1.346811e-08 1.341870e-08 1.376244e-08 1.464520e-08 1.428318e-08 1.524844e-08 1.464657e-08
1.505065e-08 1.541288e-08 1.589337e-08 1.659783e-08 1.602453e-08 1.695175e-08 1.672989e-08 1.670204e-08 1.690637e-08 1.640206e-08
1.704967e-08 1.718686e-08 1.724983e-08 1.687550e-08 1.641703e-08 1.644611e-08 1.777224e-08 1.772508e-08 1.793251e-08 1.788453e-08
1.724617e-08 1.743863e-08 1.826624e-08 1.778415e-08 1.810438e-08 1.883372e-08 1.763998e-08 1.754332e-08 1.745621e-08 1.699111e-08
1.764380e-08 1.751426e-08 1.712524e-08 1.820119e-08 1.733714e-08 1.800621e-08 1.518952e-08 1.687642e-08 1.793349e-08 1.576892e-08
1.654210e-08 1.682619e-08 1.687243e-08 1.750230e-08 1.738037e-08 1.764790e-08 1.816183e-08 1.627367e-08 1.672082e-08 1.775288e-08
1.816039e-08 1.707021e-08 1.746762e-08 1.749936e-08 1.684422e-08 1.801359e-08 1.699676e-08 1.826600e-08 1.796151e-08 1.853659e-08
1.758828e-08 1.728252e-08 1.713279e-08 1.785218e-08 1.787575e-08 1.725621e-08 1.748137e-08 1.708464e-08 1.765300e-08 1.699792e-08
1.722388e-08 1.640213e-08 1.658697e-08 1.658479e-08 1.621492e-08 1.549418e-08 1.613085e-08 1.528289e-08 1.564027e-08 1.490066e-08
1.461285e-08 1.478831e-08 1.458493e-08 1.465534e-08 1.343396e-08 1.331875e-08 1.322028e-08 1.274294e-08 1.346225e-08 1.190000e-08
1.210052e-08 1.198484e-08 1.167812e-08 1.091889e-08 1.114618e-08 1.069140e-08 9.868319e-09 1.001403e-08 9.523049e-09 1.026126e-08
9.832090e-09 8.307278e-09 8.957166e-09 9.414449e-09 7.667883e-09 8.281705e-09 6.734484e-09 6.585768e-09 7.272560e-09 5.750016e-09
6.910271e-09 5.792710e-09 5.071096e-09 5.425664e-09 4.226390e-09 4.489598e-09 3.917533e-09 3.989183e-09 2.500384e-09 3.032955e-09
3.753909e-09 3.575470e-09 2.818023e-09 9.374830e-10 1.590214e-09 1.353132e-09 1.096106e-09 8.817115e-10 8.357976e-10 7.155304e-11
-3.562387e-10 -2.160173e-10 -1.511088e-12 -1.030712e-09 -1.118360e-09 -1.442971e-09 -3.254672e-09 -3.278523e-09 -3.156989e-09 -1.976986e-09
-2.762081e-09 -3.550221e-09 -4.120846e-09 -3.370805e-09 -5.695111e-09 -4.896342e-09 -4.218406e-09 -4.908282e-09 -5.614846e-09 -5.330963e-09
-5.751828e-09 -6.812550e-09 -7.564483e-09 -7.923040e-09 -8.453857e-09 -7.562307e-09 -8.590741e-09 -8.823278e-09 -8.663560e-09 -9.057278e-09
-9.728454e-09 -1.016873e-08 -1.067758e-08 -1.107524e-08 -1.144915e-08 -1.254859e-08 -1.117374e-08 -1.181955e-08 -1.227392e-08 -1.256287e-08
-1.317308e-08 -1.309471e-08 -1.313052e-08 -1.421847e-08 -1.372272e-08 -1.478438e-08 -1.512042e-08 -1.431743e-08 -1.562027e-08 -1.494936e-08
-1.539413e-08 -1.508227e-08 -1.562967e-08 -1.674608e-08 -1.671361e-08 -1.637523e-08 -1.694174e-08 -1.614688e-08 -1.822112e-08 -1.747621e-08
-1.798271e-08 -1.782415e-08 -1.700063e-08 -1.835503e-08 -1.684790e-08 -1.882680e-08 -1.793314e-08 -1.758439e-08 -1.762092e-08 -1.744092e-08
-1.697242e-08 -1.913390e-08 -1.741100e-08 -1.811457e-08 -1.799799e-08 -1.766617e-08 -1.855086e-08 -1.857364e-08 -1.843718e-08 -1.747870e-08
-1.848020e-08 -1.842623e-08 -1.783920e-08 -1.835848e-08 -1.739066e-08 -1.742684e-08 -1.913454e-08 -1.826402e-08 -1.680850e-08 -1.651840e-08
-1.657693e-08
-1.838676e-08 -1.846895e-08 -1.706791e-08 -1.720757e-08 -1.804271e-08 -1.692963e-08 -1.670501e-08 -1.728033e-08 -1.772178e-08 -1.682985e-08
-1.753870e-08 -1.702696e-08 -1.935995e-08 -1.892098e-08 -1.801900e-08 -1.692130e-08 -1.808600e-08 -1.838974e-08 -1.721628e-08 -1.751593e-08
-1.856687e-08 -1.669330e-08 -1.795849e-08 -1.719174e-08 -1.748960e-08 -1.778584e-08 -1.691573e-08 -1.680541e-08 -1.679071e-08 -1.586952e-08
-1.630767e-08 -1.681892e-08 -1.576276e-08 -1.570155e-08 -1.560433e-08 -1.478936e-08 -1.601185e-08 -1.594418e-08 -1.486730e-08 -1.507552e-08
-1.451498e-08 -1.491047e-08 -1.464026e-08 -1.423829e-08 -1.420584e-08 -1.397021e-08 -1.355439e-08 -1.393277e-08 -1.248053e-08 -1.231214e-08
-1.247296e-08 -1.278613e-08 -1.174442e-08 -1.141006e-08 -1.143780e-08 -1.034476e-08 -1.011610e-08 -1.124068e-08 -9.696378e-09 -9.824905e-09
-8.529731e-09 -8.294598e-09 -7.825530e-09 -8.865463e-09 -8.282760e-09 -6.931575e-09 -7.536456e-09 -6.020656e-09 -7.364961e-09 -5.704836e-09
-6.433313e-09 -5.027356e-09 -5.546148e-09 -5.247101e-09 -5.183581e-09 -4.146761e-09 -3.337204e-09 -3.831287e-09 -3.683453e-09 -3.081730e-09
-3.018791e-09 -2.469501e-09 -3.573278e-09 -1.167329e-09 -1.577856e-09 -1.879476e-09 -1.384247e-09 -4.349578e-10 -1.660659e-09 -7.170053e-10
-4.981069e-10 -5.379925e-10 4.516073e-11 2.017588e-09 1.828523e-09 1.483836e-09 9.952817e-10 2.908888e-09 2.668282e-09 3.222506e-09
1.654228e-09 3.034511e-09 4.856500e-09 5.308786e-09 4.883205e-09 6.143250e-09 4.675338e-09 5.529718e-09 5.759123e-09 6.398865e-09
6.482805e-09 6.062454e-09 7.343210e-09 6.976550e-09 7.185234e-09 8.720107e-09 9.232488e-09 8.831512e-09 8.274639e-09 8.671957e-09
8.914077e-09 9.757414e-09 1.068444e-08 1.188425e-08 1.133222e-08 1.099480e-08 1.179487e-08 1.167296e-08 1.199747e-08 1.199963e-08
1.258062e-08 1.255257e-08 1.254330e-08 1.348300e-08 1.317109e-08 1.359272e-08 1.326771e-08 1.393440e-08 1.470726e-08 1.486812e-08
1.488565e-08 1.497262e-08 1.520361e-08 1.614937e-08 1.551815e-08 1.606255e-08 1.578952e-08 1.671219e-08 1.588695e-08 1.642816e-08
1.739845e-08 1.653209e-08 1.710828e-08 1.689127e-08 1.729159e-08 1.677970e-08 1.758423e-08 1.761369e-08 1.752361e-08 1.710617e-08
1.796835e-08 1.742659e-08 1.787966e-08 1.835606e-08 1.795465e-08 1.724908e-08 1.805014e-08 1.657384e-08 1.686063e-08 1.699926e-08
1.657899e-08 1.743614e-08 1.766868e-08 1.671969e-08 1.779101e-08 1.738470e-08 1.732983e-08 1.724393e-08 1.674410e-08 1.769003e-08
1.740580e-08 1.609015e-08 1.706373e-08 1.698289e-08 1.828198e-08 1.861117e-08 1.689393e-08 1.653243e-08 1.745567e-08 1.742474e-08
1.776906e-08 1.786846e-08 1.716582e-08 1.723822e-08 1.715592e-08 1.761350e-08 1.777274e-08 1.836540e-08 1.683406e-08 1.802195e-08
1.743332e-08 1.757530e-08 1.720674e-08 1.818367e-08 1.648875e-08 1.775061e-08 1.705563e-08 1.661810e-08 1.642652e-08 1.543226e-08
1.719570e-08 1.682732e-08 1.634079e-08 1.582878e-08 1.536671e-08 1.629116e-08 1.552994e-08 1.488791e-08 1.520993e-08 1.486655e-08
1.460462e-08 1.432890e-08 1.518942e-08 1.484333e-08 1.369530e-08 1.353940e-08 1.356861e-08 1.292122e-08 1.462528e-08 1.244577e-08
1.377192e-08 1.131137e-08 1.117816e-08 1.147503e-08 1.083936e-08 1.200431e-08 1.078061e-08 9.731263e-09 1.124433e-08 9.180813e-09
9.775690e-09 9.172324e-09 7.791154e-09 7.339658e-09 7.603870e-09 7.651214e-09 7.573481e-09 6.988853e-09 5.576890e-09 5.423097e-09
5.204767e-09 6.243186e-09 6.222725e-09 5.387252e-09 4.426127e-09 4.029378e-09 4.549157e-09 3.691654e-09 3.313954e-09 2.306016e-09
2.561438e-09 2.383323e-09 4.064138e-10 1.817184e-09 6.822611e-10 2.085739e-09 -5.140841e-10 -5.305585e-10 1.135331e-09 3.199056e-10
2.017431e-10 8.208815e-10 -1.210671e-10 -2.334010e-09 -2.134252e-09 -3.132490e-09 -7.254385e-10 -2.352301e-09 -1.311259e-09 -3.593783e-09
-3.429665e-09 -3.790293e-09 -4.616756e-09 -4.164533e-09 -3.717664e-09 -4.170194e-09 -4.756981e-09 -5.824079e-09 -5.439052e-09 -6.957360e-09
-7.084999e-09 -6.456370e-09 -7.366947e-09 -7.560348e-09 -7.810672e-09 -8.698557e-09 -7.834569e-09 -8.637632e-09 -8.656201e-09 -8.838818e-09
-1.118181e-08 -1.057250e-08 -1.053077e-08 -1.108526e-08 -1.111370e-08 -1.213968e-08 -1.297608e-08 -1.219346e-08 -1.238462e-08 -1.266051e-08
-1.357520e-08 -1.286362e-08 -1.370459e-08 -1.460209e-08 -1.470205e-08 -1.392169e-08 -1.422889e-08 -1.506346e-08 -1.568212e-08 -1.549113e-08
-1.516290e-08 -1.595489e-08 -1.599242e-08 -1.691396e-08 -1.722640e-08 -1.603657e-08 -1.654514e-08 -1.706307e-08 -1.754379e-08 -1.778888e-08
-1.787169e-08 -1.803144e-08 -1.798688e-08 -1.728806e-08 -1.851277e-08 -1.774074e-08 -1.823819e-08 -1.761025e-08 -1.897978e-08 -1.826114e-08
-1.748209e-08 -1.901282e-08 -1.795490e-08 -1.848640e-08 -1.752300e-08 -1.689428e-08 -1.691664e-08 -1.755557e-08 -1.767770e-08 -1.904843e-08
-1.724528e-08 -1.804822e-08 -1.774138e-08 -1.627384e-08 -1.793209e-08 -1.752681e-08 -1.745223e-08 -1.640766e-08 -1.784722e-08 -1.813810e-08
-1.838676e-08
-1.746000e-08 -1.862669e-08 -1.706606e-08 -1.705965e-08 -1.676606e-08 -1.884597e-08 -1.691390e-08 -1.747240e-08 -1.750538e-08 -1.792600e-08
-1.791324e-08 -1.749819e-08 -1.713209e-08 -1.772416e-08 -1.654289e-08 -1.683655e-08 -1.768711e-08 -1.896137e-08 -1.700827e-08 -1.777341e-08
-1.723020e-08 -1.752275e-08 -1.772242e-08 -1.737171e-08 -1.663911e-08 -1.637882e-08 -1.708923e-08 -1.786189e-08 -1.671533e-08 -1.671871e-08
-1.681325e-08 -1.663963e-08 -1.607721e-08 -1.573224e-08 -1.515838e-08 -1.600957e-08 -1.560349e-08 -1.509134e-08 -1.600363e-08 -1.469106e-08
-1.492364e-08 -1.461412e-08 -1.444489e-08 -1.339926e-08 -1.384247e-08 -1.310234e-08 -1.308915e-08 -1.376463e-08 -1.290382e-08 -1.316205e-08
-1.324902e-08 -1.176048e-08 -1.117701e-08 -1.170155e-08 -1.205332e-08 -1.127843e-08 -1.090095e-08 -1.026105e-08 -9.601032e-09 -9.524729e-09
-8.720939e-09 -9.521089e-09 -9.144734e-09 -9.188478e-09 -7.527188e-09 -7.604759e-09 -8.315509e-09 -7.185630e-09 -6.613712e-09 -6.667665e-09
-5.889129e-09 -5.431858e-09 -4.824225e-09 -4.397283e-09 -4.990822e-09 -4.142087e-09 -4.110077e-09 -4.091933e-09 -4.963644e-09 -2.223722e-09
-3.542506e-09 -3.145994e-09 -2.903717e-09 -1.710926e-09 -1.731599e-09 -1.145468e-09 -1.438874e-09 -1.713095e-09 -1.325165e-09 -1.544418e-09
-1.034058e-10 -9.267657e-11 4.310189e-10 1.436509e-09 4.719375e-10 1.250555e-09 4.337877e-10 1.496919e-09 2.299236e-09 2.576428e-09
2.300513e-09 3.175376e-09 3.091054e-09 4.296790e-09 4.492393e-09 5.243300e-09 4.674589e-09 4.539320e-09 6.505859e-09 5.874512e-09
6.492145e-09 6.490945e-09 6.738166e-09 8.104172e-09 8.361607e-09 7.874053e-09 8.728674e-09 8.363037e-09 8.813918e-09 9.066174e-09
9.476461e-09 9.366267e-09 1.049945e-08 1.130457e-08 1.119450e-08 1.157825e-08 1.168486e-08 1.133639e-08 1.153221e-08 1.283160e-08
1.264489e-08 1.269400e-08 1.338729e-08 1.251231e-08 1.359292e-08 1.395699e-08 1.373116e-08 1.467516e-08 1.457296e-08 1.505682e-08
1.471713e-08 1.601796e-08 1.491273e-08 1.497985e-08 1.564348e-08 1.592315e-08 1.589204e-08 1.611990e-08 1.679861e-08 1.673755e-08
1.634768e-08 1.634985e-08 1.613532e-08 1.708339e-08 1.728837e-08 1.699370e-08 1.666921e-08 1.742021e-08 1.682985e-08 1.679390e-08
1.764929e-08 1.726252e-08 1.831197e-08 1.850062e-08 1.663598e-08 1.745894e-08 1.788720e-08 1.795155e-08 1.869920e-08 1.738974e-08
1.781102e-08 1.660301e-08 1.733026e-08 1.733488e-08 1.608502e-08 1.705156e-08 1.657558e-08 1.587810e-08 1.688430e-08 1.645152e-08
1.730168e-08 1.679682e-08 1.616280e-08 1.693184e-08 1.770279e-08 1.649866e-08 1.754253e-08 1.847229e-08 1.736497e-08 1.660928e-08
1.734693e-08 1.747012e-08 1.668867e-08 1.670062e-08 1.704706e-08 1.807690e-08 1.684619e-08 1.698915e-08 1.729838e-08 1.741701e-08
1.856363e-08 1.697653e-08 1.700509e-08 1.824838e-08 1.650609e-08 1.652178e-08 1.653680e-08 1.691911e-08 1.714647e-08 1.681451e-08
1.698483e-08 1.578744e-08 1.596796e-08 1.605049e-08 1.615738e-08 1.539411e-08 1.572897e-08 1.510324e-08 1.451154e-08 1.466800e-08
1.475070e-08 1.454688e-08 1.431275e-08 1.365295e-08 1.326539e-08 1.377277e-08 1.303635e-08 1.366880e-08 1.276266e-08 1.269501e-08
1.264189e-08 1.246460e-08 1.070478e-08 1.056637e-08 1.262779e-08 1.071689e-08 1.041436e-08 1.037350e-08 9.328978e-09 9.535445e-09
9.709036e-09 1.031203e-08 7.876710e-09 8.385522e-09 8.343565e-09 7.370822e-09 6.157994e-09 7.189586e-09 6.496872e-09 5.782679e-09
5.692625e-09 6.321320e-09 4.186612e-09 5.151748e-09 4.677912e-09 4.533286e-09 4.314141e-09 2.749190e-09 2.864818e-09 3.427783e-09
2.155623e-09 1.455254e-09 2.814470e-09 1.584907e-09 1.702496e-09 1.541459e-10 7.213931e-10 9.173417e-10 -1.718129e-11 -4.352254e-10
-8.544874e-10 9.985590e-10 -5.046604e-10 -2.652651e-09 3.832722e-10 -1.066550e-09 -2.696944e-09 -1.557029e-09 -3.497577e-09 -2.786717e-09
-4.751138e-09 -4.186658e-09 -4.288296e-09 -3.456844e-09 -6.533968e-09 -4.864317e-09 -5.003951e-09 -5.666447e-09 -6.855466e-09 -7.126931e-09
-6.476382e-09 -6.892078e-09 -7.264914e-09 -6.633163e-09 -8.272401e-09 -8.701901e-09 -8.974117e-09 -8.493465e-09 -8.224657e-09 -9.625960e-09
-1.023282e-08 -9.916493e-09 -1.058822e-08 -1.000069e-08 -1.122736e-08 -1.217982e-08 -1.187854e-08 -1.215723e-08 -1.208252e-08 -1.224478e-08
-1.264136e-08 -1.328129e-08 -1.281481e-08 -1.344123e-08 -1.541622e-08 -1.467952e-08 -1.642111e-08 -1.424740e-08 -1.496679e-08 -1.491008e-08
-1.580299e-08 -1.601178e-08 -1.543133e-08 -1.632557e-08 -1.648593e-08 -1.580110e-08 -1.617994e-08 -1.657593e-08 -1.700228e-08 -1.625607e-08
-1.723571e-08 -1.669931e-08 -1.777845e-08 -1.846466e-08 -1.716737e-08 -1.699577e-08 -1.826331e-08 -1.767888e-08 -1.810631e-08 -1.751668e-08
-1.836102e-08 -1.709620e-08 -1.748191e-08 -1.755184e-08 -1.806966e-08 -1.783796e-08 -1.821122e-08 -1.779493e-08 -1.785402e-08 -1.823622e-08
-1.650801e-08 -1.702817e-08 -1.713983e-08 -1.787634e-08 -1.752839e-08 -1.652521e-08 -1.870830e-08 -1.844039e-08 -1.735767e-08 -1.585093e-08
-1.746000e-08
-1.653551e-08 -1.752012e-08 -1.714892e-08 -1.755717e-08 -1.622233e-08 -1.736096e-08 -1.647273e-08 -1.810302e-08 -1.863126e-08 -1.752619e-08
-1.665756e-08 -1.630207e-08 -1.835613e-08 -1.637778e-08 -1.726735e-08 -1.705113e-08 -1.692613e-08 -1.731206e-08 -1.781879e-08 -1.698869e-08
-1.705146e-08 -1.790781e-08 -1.693668e-08 -1.652464e-08 -1.738132e-08 -1.632971e-08 -1.710855e-08 -1.573390e-08 -1.678400e-08 -1.637186e-08
-1.595018e-08 -1.749157e-08 -1.593480e-08 -1.497645e-08 -1.604365e-08 -1.604075e-08 -1.581465e-08 -1.581689e-08 -1.451469e-08 -1.535969e-08
-1.536399e-08 -1.432030e-08 -1.425940e-08 -1.320079e-08 -1.320245e-08 -1.298505e-08 -1.331583e-08 -1.295426e-08 -1.241529e-08 -1.229947e-08
-1.286155e-08 -1.158357e-08 -1.209274e-08 -1.059767e-08 -1.143596e-08 -1.046808e-08 -9.497021e-09 -1.000402e-08 -1.089928e-08 -1.082439e-08
-8.945080e-09 -8.741558e-09 -8.774127e-09 -7.828707e-09 -8.105212e-09 -7.731238e-09 -7.425187e-09 -6.066762e-09 -7.132202e-09 -6.324884e-09
-6.485500e-09 -5.667330e-09 -5.939365e-09 -4.875426e-09 -5.019276e-09 -3.796063e-09 -3.332402e-09 -3.610219e-09 -4.677901e-09 -3.578317e-09
-2.299492e-09 -2.836525e-09 -2.642349e-09 -2.325860e-09 -1.067852e-09 -1.262428e-09 -1.706783e-09 -1.371657e-09 -2.034943e-11 2.326720e-10
2.915132e-10 -1.096352e-09 7.556462e-10 6.254892e-10 2.646160e-09 1.546919e-09 1.838091e-09 2.773298e-09 1.533352e-09 2.906362e-09
2.730153e-09 3.767218e-09 3.746243e-09 3.555659e-09 4.607690e-09 3.884649e-09 4.048277e-09 6.171175e-09 5.313979e-09 6.674862e-09
6.827669e-09 6.119853e-09 6.024711e-09 7.480931e-09 6.720699e-09 7.892368e-09 8.123995e-09 9.613074e-09 8.526898e-09 8.907801e-09
1.021522e-08 9.885723e-09 1.001011e-08 9.948464e-09 1.009527e-08 1.039200e-08 1.072717e-08 1.160576e-08 1.113022e-08 1.143755e-08
1.241032e-08 1.251163e-08 1.274532e-08 1.377409e-08 1.291048e-08 1.320628e-08 1.382868e-08 1.448366e-08 1.462457e-08 1.463424e-08
1.473935e-08 1.435822e-08 1.542907e-08 1.557166e-08 1.556346e-08 1.533865e-08 1.673932e-08 1.570390e-08 1.659116e-08 1.642287e-08
1.603676e-08 1.623569e-08 1.647459e-08 1.662414e-08 1.735037e-08 1.644103e-08 1.785913e-08 1.702924e-08 1.611376e-08 1.662963e-08
1.603507e-08 1.686909e-08 1.657996e-08 1.727324e-08 1.627625e-08 1.656996e-08 1.598495e-08 1.817869e-08 1.573804e-08 1.752202e-08
1.695942e-08 1.722732e-08 1.820904e-08 1.667804e-08 1.761910e-08 1.671344e-08 1.602450e-08 1.667195e-08 1.757807e-08 1.643199e-08
1.609754e-08 1.732193e-08 1.706194e-08 1.663870e-08 1.825356e-08 1.712726e-08 1.669217e-08 1.696969e-08 1.640084e-08 1.715823e-08
1.712850e-08 1.718379e-08 1.731286e-08 1.719799e-08 1.844448e-08 1.799032e-08 1.710672e-08 1.662510e-08 1.718101e-08 1.670408e-08
1.681555e-08 1.672936e-08 1.642236e-08 1.612573e-08 1.676979e-08 1.689549e-08 1.681946e-08 1.697279e-08 1.725576e-08 1.758200e-08
1.633886e-08 1.579446e-08 1.639897e-08 1.589617e-08 1.580317e-08 1.550755e-08 1.522106e-08 1.492751e-08 1.493266e-08 1.406204e-08
1.452905e-08 1.438028e-08 1.379622e-08 1.322403e-08 1.362622e-08 1.324918e-08 1.258868e-08 1.346443e-08 1.232703e-08 1.199261e-08
1.184566e-08 1.186196e-08 1.112542e-08 1.214873e-08 1.146332e-08 1.032647e-08 1.119452e-08 9.514571e-09 1.015462e-08 9.125138e-09
9.819261e-09 9.445080e-09 9.611703e-09 7.044733e-09 7.717264e-09 9.155951e-09 7.484185e-09 6.575627e-09 7.379447e-09 5.655242e-09
6.307508e-09 6.698063e-09 4.720222e-09 6.054786e-09 4.735551e-09 5.444420e-09 4.641952e-09 4.093396e-09 2.504851e-09 3.485632e-09
1.943016e-09 1.512914e-09 1.701279e-09 2.455254e-09 1.814398e-09 1.075338e-09 1.672944e-09 2.109239e-09 9.174543e-10 2.499312e-11
-2.558587e-10 -7.444261e-10 -1.090632e-09 3.783934e-11 -2.278675e-09 -3.459534e-09 -2.708679e-09 -2.187847e-09 -1.321302e-09 -1.984417e-09
-3.016953e-09 -3.703182e-09 -4.460620e-09 -4.344289e-09 -5.019771e-09 -4.461296e-09 -5.602647e-09 -5.153773e-09 -4.851037e-09 -5.000658e-09
-6.320500e-09 -6.899613e-09 -7.427348e-09 -7.374535e-09 -7.635502e-09 -9.194220e-09 -9.303645e-09 -8.921503e-09 -9.319467e-09 -8.967563e-09
-1.009993e-08 -1.021461e-08 -1.081059e-08 -1.041671e-08 -1.061281e-08 -1.150250e-08 -1.220176e-08 -1.175221e-08 -1.214647e-08 -1.191918e-08
-1.222109e-08 -1.259846e-08 -1.373394e-08 -1.390260e-08 -1.446401e-08 -1.467333e-08 -1.408466e-08 -1.422768e-08 -1.433769e-08 -1.478710e-08
-1.634545e-08 -1.605716e-08 -1.610828e-08 -1.614965e-08 -1.600842e-08 -1.582370e-08 -1.630932e-08 -1.605181e-08 -1.784520e-08 -1.597979e-08
-1.672703e-08 -1.660946e-08 -1.721890e-08 -1.671230e-08 -1.677500e-08 -1.703009e-08 -1.715529e-08 -1.894215e-08 -1.927806e-08 -1.676779e-08
-1.819512e-08 -1.930949e-08 -1.699385e-08 -1.740852e-08 -1.900983e-08 -1.721772e-08 -1.756428e-08 -1.653175e-08 -1.697667e-08 -1.784797e-08
-1.739687e-08 -1.667658e-08 -1.689487e-08 -1.692474e-08 -1.814638e-08 -1.735720e-08 -1.641375e-08 -1.739159e-08 -1.723168e-08 -1.717522e-08
-1.653551e-08
-1.554609e-08 -1.735646e-08 -1.611865e-08 -1.728481e-08 -1.619058e-08 -1.798140e-08 -1.707085e-08 -1.615975e-08 -1.778384e-08 -1.734258e-08
-1.719094e-08 -1.623088e-08 -1.698368e-08 -1.706636e-08 -1.840060e-08 -1.612928e-08 -1.748599e-08 -1.754274e-08 -1.741753e-08 -1.746894e-08
-1.695407e-08 -1.907048e-08 -1.760271e-08 -1.638317e-08 -1.772289e-08 -1.685695e-08 -1.663118e-08 -1.698507e-08 -1.675079e-08 -1.643657e-08
-1.639183e-08 -1.657752e-08 -1.585128e-08 -1.652557e-08 -1.525233e-08 -1.534034e-08 -1.582215e-08 -1.500523e-08 -1.511377e-08 -1.467396e-08
-1.461998e-08 -1.433254e-08 -1.346608e-08 -1.359574e-08 -1.354337e-08 -1.349018e-08 -1.340902e-08 -1.304504e-08 -1.255096e-08 -1.266252e-08
-1.232265e-08 -1.293120e-08 -1.146683e-08 -1.093023e-08 -1.124526e-08 -1.092393e-08 -1.000964e-08 -1.027748e-08 -1.002027e-08 -8.965457e-09
-8.747230e-09 -8.774177e-09 -8.289216e-09 -9.000622e-09 -9.412495e-09 -7.454454e-09 -6.637883e-09 -8.023245e-09 -6.285858e-09 -6.904948e-09
-5.431936e-09 -5.404045e-09 -5.292717e-09 -3.990722e-09 -4.190158e-09 -5.193999e-09 -3.728398e-09 -3.503793e-09 -3.010813e-09 -2.512627e-09
-3.465081e-09 -2.818066e-09 -1.908659e-09 -2.118530e-09 -1.826358e-09 -1.641935e-09 -4.865564e-10 -1.300059e-09 -1.014037e-09 -1.195366e-09
-2.605950e-10 -6.985013e-10 1.909962e-10 3.893611e-10 2.182308e-09 2.454672e-09 1.284779e-09 1.605333e-09 2.332755e-09 2.592645e-09
3.758928e-09 3.030086e-09 4.449444e-09 3.406162e-09 4.725673e-09 3.504814e-09 4.511222e-09 5.840087e-09 5.988273e-09 5.794482e-09
5.465937e-09 6.385774e-09 7.143850e-09 7.599735e-09 7.889634e-09 6.615412e-09 8.796274e-09 9.233631e-09 8.901076e-09 9.059143e-09
8.585409e-09 9.767397e-09 1.010398e-08 1.007236e-08 1.069131e-08 1.075713e-08 1.139005e-08 1.215318e-08 1.143639e-08 1.277977e-08
1.168183e-08 1.242413e-08 1.256104e-08 1.239197e-08 1.301087e-08 1.346951e-08 1.370658e-08 1.399732e-08 1.455384e-08 1.453311e-08
1.432082e-08 1.439358e-08 1.531685e-08 1.545265e-08 1.610550e-08 1.565876e-08 1.624649e-08 1.585754e-08 1.628451e-08 1.563255e-08
1.711608e-08 1.658577e-08 1.616058e-08 1.587919e-08 1.594385e-08 1.695987e-08 1.728640e-08 1.656514e-08 1.606078e-08 1.716873e-08
1.737501e-08 1.626750e-08 1.761195e-08 1.823837e-08 1.705735e-08 1.695655e-08 1.691358e-08 1.727240e-08 1.770763e-08 1.723439e-08
1.764317e-08 1.626250e-08 1.650364e-08 1.691451e-08 1.718152e-08 1.640531e-08 1.555672e-08 1.644421e-08 1.645592e-08 1.668431e-08
1.680900e-08 1.593164e-08 1.731236e-08 1.769496e-08 1.697811e-08 1.663944e-08 1.685501e-08 1.706525e-08 1.512933e-08 1.778383e-08
1.740671e-08 1.612248e-08 1.714434e-08 1.700259e-08 1.723447e-08 1.684735e-08 1.813019e-08 1.705089e-08 1.653129e-08 1.742153e-08
1.737066e-08 1.679724e-08 1.634265e-08 1.618923e-08 1.741621e-08 1.648486e-08 1.688599e-08 1.687725e-08 1.639247e-08 1.648293e-08
1.615936e-08 1.551574e-08 1.527194e-08 1.634937e-08 1.520588e-08 1.563327e-08 1.456574e-08 1.518277e-08 1.465903e-08 1.421675e-08
1.455134e-08 1.430900e-08 1.346817e-08 1.363264e-08 1.315903e-08 1.361310e-08 1.289813e-08 1.316364e-08 1.237778e-08 1.208540e-08
1.266614e-08 1.166085e-08 1.112187e-08 1.108241e-08 1.117402e-08 1.079268e-08 9.751433e-09 9.127393e-09 9.764178e-09 9.970684e-09
9.799499e-09 9.044130e-09 7.640719e-09 7.863087e-09 5.946124e-09 7.909967e-09 6.798224e-09 7.806402e-09 6.899385e-09 6.103772e-09
5.551189e-09 6.429718e-09 4.982126e-09 4.068878e-09 4.966646e-09 4.080419e-09 3.797471e-09 3.627187e-09 3.355304e-09 2.635876e-09
1.182669e-09 1.969939e-09 3.485185e-09 1.263046e-09 1.560443e-09 6.063549e-10 1.330939e-09 1.691824e-09 1.138443e-09 -1.207026e-09
-1.020322e-09 -5.337050e-10 1.289282e-10 -7.734593e-10 -9.660105e-10 -2.499181e-09 -2.385914e-09 -1.937434e-09 -1.367613e-09 -2.897493e-09
-4.198184e-09 -4.429168e-09 -3.396533e-09 -3.737775e-09 -4.159616e-09 -4.322370e-09 -4.511381e-09 -6.337505e-09 -6.482833e-09 -4.564651e-09
-6.333388e-09 -7.047461e-09 -6.868833e-09 -7.638576e-09 -9.057132e-09 -7.615858e-09 -8.544938e-09 -9.441162e-09 -9.468809e-09 -1.082612e-08
-9.957241e-09 -9.226979e-09 -1.070012e-08 -9.963657e-09 -1.121401e-08 -1.089108e-08 -1.167872e-08 -1.216879e-08 -1.261367e-08 -1.178087e-08
-1.211114e-08 -1.324353e-08 -1.375681e-08 -1.375311e-08 -1.363807e-08 -1.410445e-08 -1.441801e-08 -1.530377e-08 -1.460707e-08 -1.394169e-08
-1.553474e-08 -1.561213e-08 -1.616690e-08 -1.546816e-08 -1.587577e-08 -1.605782e-08 -1.662307e-08 -1.693087e-08 -1.680650e-08 -1.583810e-08
-1.575008e-08 -1.712756e-08 -1.700341e-08 -1.722486e-08 -1.733390e-08 -1.649849e-08 -1.781135e-08 -1.744552e-08 -1.696815e-08 -1.822449e-08
-1.859140e-08 -1.872968e-08 -1.689629e-08 -1.756143e-08 -1.728849e-08 -1.822773e-08 -1.790104e-08 -1.776618e-08 -1.728708e-08 -1.760990e-08
-1.790428e-08 -1.832035e-08 -1.741267e-08 -1.774997e-08 -1.710025e-08 -1.781865e-08 -1.755908e-08 -1.711884e-08 -1.680575e-08 -1.567380e-08
-1.554609e-08
-1.769498e-08 -1.585163e-08 -1.804386e-08 -1.627175e-08 -1.714641e-08 -1.621628e-08 -1.650682e-08 -1.710202e-08 -1.659889e-08 -1.730871e-08
-1.759797e-08 -1.642225e-08 -1.794413e-08 -1.786983e-08 -1.714656e-08 -1.834821e-08 -1.621708e-08 -1.805493e-08 -1.671911e-08 -1.755968e-08
-1.724862e-08 -1.700182e-08 -1.744180e-08 -1.719415e-08 -1.742133e-08 -1.720070e-08 -1.698900e-08 -1.637409e-08 -1.689378e-08 -1.576038e-08
-1.611011e-08 -1.591194e-08 -1.640820e-08 -1.611104e-08 -1.565603e-08 -1.561987e-08 -1.461005e-08 -1.500543e-08 -1.515808e-08 -1.495019e-08
-1.459615e-08 -1.460057e-08 -1.466828e-08 -1.365974e-08 -1.357950e-08 -1.327104e-08 -1.269683e-08 -1.311012e-08 -1.241867e-08 -1.241410e-08
-1.193296e-08 -1.130466e-08 -1.129784e-08 -1.081037e-08 -1.083973e-08 -1.083202e-08 -1.019177e-08 -1.049848e-08 -1.012748e-08 -9.710092e-09
-9.032744e-09 -8.116829e-09 -7.909884e-09 -7.809200e-09 -7.938826e-09 -7.284273e-09 -7.222038e-09 -6.659427e-09 -5.713133e-09 -6.187870e-09
-6.522661e-09 -5.816494e-09 -4.405345e-09 -5.533550e-09 -3.420003e-09 -3.916203e-09 -4.127288e-09 -4.816688e-09 -2.844367e-09 -2.555440e-09
-3.040175e-09 -2.052335e-09 -1.003336e-09 -2.082296e-09 -2.656915e-09 -2.098471e-09 -4.884039e-10 -7.978875e-11 -3.976593e-10 -7.599996e-10
-2.359238e-10 9.085421e-10 -7.123814e-10 1.690724e-09 1.388060e-09 6.806459e-10 2.241922e-09 2.268728e-09 2.407539e-09 2.322882e-09
2.445598e-09 2.872065e-09 3.336703e-09 4.047571e-09 3.399488e-09 5.287209e-09 5.164782e-09 4.242894e-09 4.918962e-09 4.470078e-09
6.310859e-09 6.736474e-09 7.044147e-09 7.079578e-09 7.052546e-09 8.701836e-09 7.481989e-09 7.886835e-09 8.408673e-09 1.000592e-08
8.599565e-09 9.382203e-09 9.870964e-09 1.053410e-08 1.062267e-08 1.130171e-08 1.142944e-08 1.165026e-08 1.134471e-08 1.258788e-08
1.241702e-08 1.216928e-08 1.244941e-08 1.275358e-08 1.288381e-08 1.305553e-08 1.392754e-08 1.339432e-08 1.437170e-08 1.412784e-08
1.487927e-08 1.526178e-08 1.488043e-08 1.485984e-08 1.550575e-08 1.529941e-08 1.508016e-08 1.518292e-08 1.578123e-08 1.546616e-08
1.625833e-08 1.624557e-08 1.676321e-08 1.661585e-08 1.719375e-08 1.618761e-08 1.625873e-08 1.592017e-08 1.621871e-08 1.747354e-08
1.675715e-08 1.724305e-08 1.663835e-08 1.788537e-08 1.768396e-08 1.698662e-08 1.608626e-08 1.785824e-08 1.706564e-08 1.675590e-08
1.744167e-08 1.653717e-08 1.729555e-08 1.750275e-08 1.610327e-08 1.712165e-08 1.587842e-08 1.710410e-08 1.612691e-08 1.691821e-08
1.604832e-08 1.756138e-08 1.628958e-08 1.652599e-08 1.551595e-08 1.625819e-08 1.654835e-08 1.638630e-08 1.701761e-08 1.671994e-08
1.688052e-08 1.621465e-08 1.650469e-08 1.761624e-08 1.702178e-08 1.672402e-08 1.702497e-08 1.689739e-08 1.644230e-08 1.822911e-08
1.758942e-08 1.692418e-08 1.674792e-08 1.697312e-08 1.703453e-08 1.600860e-08 1.616046e-08 1.635434e-08 1.630428e-08 1.650692e-08
1.604668e-08 1.574952e-08 1.561952e-08 1.571176e-08 1.562904e-08 1.506880e-08 1.492736e-08 1.540937e-08 1.507670e-08 1.405521e-08
1.377574e-08 1.377114e-08 1.372745e-08 1.314382e-08 1.336426e-08 1.271092e-08 1.276978e-08 1.251483e-08 1.194489e-08 1.209770e-08
1.211057e-08 1.118572e-08 1.106449e-08 1.131433e-08 1.092498e-08 1.002998e-08 1.073634e-08 9.416808e-09 1.045399e-08 9.049363e-09
9.317734e-09 9.026375e-09 8.006907e-09 7.443381e-09 8.980922e-09 7.583544e-09 7.105198e-09 7.513581e-09 6.068808e-09 5.609713e-09
6.118109e-09 5.206486e-09 5.214176e-09 4.067803e-09 4.958582e-09 4.494833e-09 5.547456e-09 4.434095e-09 3.063178e-09 2.396242e-09
3.090650e-09 1.722896e-09 2.236604e-09 1.320985e-09 1.629677e-09 1.001114e-09 4.514429e-10 1.365531e-09 5.279890e-10 1.218872e-09
-3.275458e-10 2.893383e-10 -1.579069e-10 -1.045680e-09 -5.756809e-10 -2.510295e-09 -2.588758e-09 -1.845720e-09 -2.889023e-09 -1.755441e-09
-4.044412e-09 -3.324068e-09 -2.746218e-09 -4.542376e-09 -4.197156e-09 -4.080656e-09 -4.815431e-09 -5.483885e-09 -5.008768e-09 -6.087370e-09
-6.062809e-09 -6.470698e-09 -6.946820e-09 -6.903404e-09 -7.413060e-09 -8.085828e-09 -8.277215e-09 -8.164771e-09 -8.035264e-09 -9.532432e-09
-1.082304e-08 -1.029472e-08 -9.728325e-09 -1.107412e-08 -1.044521e-08 -1.065823e-08 -1.096250e-08 -1.125201e-08 -1.180851e-08 -1.268964e-08
-1.261933e-08 -1.367663e-08 -1.257823e-08 -1.356906e-08 -1.358937e-08 -1.438729e-08 -1.366301e-08 -1.457495e-08 -1.463655e-08 -1.413923e-08
-1.515203e-08 -1.560041e-08 -1.618921e-08 -1.558520e-08 -1.479147e-08 -1.597278e-08 -1.677914e-08 -1.699810e-08 -1.759716e-08 -1.643802e-08
-1.665121e-08 -1.666726e-08 -1.721144e-08 -1.688538e-08 -1.723705e-08 -1.727454e-08 -1.683843e-08 -1.720569e-08 -1.793485e-08 -1.614664e-08
-1.679635e-08 -1.775765e-08 -1.710561e-08 -1.668752e-08 -1.646506e-08 -1.749094e-08 -1.743465e-08 -1.707232e-08 -1.768007e-08 -1.735476e-08
-1.603046e-08 -1.689321e-08 -1.755780e-08 -1.666211e-08 -1.692267e-08 -1.718008e-08 -1.851798e-08 -1.660548e-08 -1.663916e-08 -1.575578e-08
-1.769498e-08
-1.717147e-08 -1.669433e-08 -1.720939e-08 -1.567577e-08 -1.548241e-08 -1.592897e-08 -1.699107e-08 -1.743017e-08 -1.638424e-08 -1.649469e-08
-1.671306e-08 -1.734813e-08 -1.693884e-08 -1.799748e-08 -1.688140e-08 -1.635994e-08 -1.660901e-08 -1.721542e-08 -1.666140e-08 -1.632128e-08
-1.671884e-08 -1.685269e-08 -1.717022e-08 -1.590227e-08 -1.679636e-08 -1.595704e-08 -1.626002e-08 -1.704691e-08 -1.616927e-08 -1.633285e-08
-1.636699e-08 -1.508124e-08 -1.556893e-08 -1.584330e-08 -1.568939e-08 -1.459345e-08 -1.472660e-08 -1.470048e-08 -1.415523e-08 -1.378826e-08
-1.421504e-08 -1.378124e-08 -1.360097e-08 -1.348320e-08 -1.366547e-08 -1.279439e-08 -1.292991e-08 -1.266849e-08 -1.193460e-08 -1.165089e-08
-1.231004e-08 -1.171828e-08 -1.157298e-08 -1.087141e-08 -1.037173e-08 -1.041299e-08 -1.054267e-08 -9.473317e-09 -9.900556e-09 -8.953424e-09
-9.233690e-09 -8.514745e-09 -8.211906e-09 -8.595234e-09 -8.200901e-09 -7.177859e-09 -7.729283e-09 -7.280187e-09 -6.365358e-09 -7.590389e-09
-6.276907e-09 -6.292256e-09 -5.190584e-09 -4.096508e-09 -5.178813e-09 -4.801594e-09 -3.151346e-09 -4.251270e-09 -2.881865e-09 -2.083114e-09
-2.642737e-09 -1.711588e-09 -1.825535e-09 -1.362491e-09 -1.116040e-09 -1.606751e-09 -1.276200e-09 -7.146419e-10 -1.488963e-09 -1.143622e-09
-2.145818e-10 -2.673415e-10 -3.269806e-11 1.201123e-09 1.448485e-09 1.367341e-09 1.865305e-09 2.270063e-09 2.177748e-09 3.066423e-09
1.664952e-09 5.025919e-09 3.126191e-09 4.743150e-09 4.749348e-09 4.317319e-09 4.242065e-09 6.157350e-09 5.650721e-09 4.863633e-09
5.770648e-09 6.393799e-09 6.868841e-09 7.157629e-09 7.346513e-09 6.876171e-09 7.839412e-09 7.530775e-09 8.681788e-09 8.212950e-09
8.868883e-09 9.598538e-09 9.097216e-09 9.869194e-09 1.020850e-08 1.076010e-08 1.056245e-08 1.077300e-08 1.092752e-08 1.137679e-08
1.239951e-08 1.214445e-08 1.245591e-08 1.342220e-08 1.265689e-08 1.288492e-08 1.366619e-08 1.367774e-08 1.353951e-08 1.417221e-08
1.499831e-08 1.396301e-08 1.597918e-08 1.500136e-08 1.545352e-08 1.617617e-08 1.449840e-08 1.549498e-08 1.632648e-08 1.572266e-08
1.556415e-08 1.628074e-08 1.605879e-08 1.590693e-08 1.592450e-08 1.700193e-08 1.658474e-08 1.695886e-08 1.841239e-08 1.666587e-08
1.632350e-08 1.667384e-08 1.656055e-08 1.814313e-08 1.729530e-08 1.630207e-08 1.658460e-08 1.575373e-08 1.724934e-08 1.614534e-08
1.746976e-08 1.614038e-08 1.609237e-08 1.669662e-08 1.661270e-08 1.686580e-08 1.688823e-08 1.747833e-08 1.616994e-08 1.648201e-08
1.667855e-08 1.648776e-08 1.612994e-08 1.675010e-08 1.573294e-08 1.675915e-08 1.714841e-08 1.693456e-08 1.683576e-08 1.649057e-08
1.645146e-08 1.614160e-08 1.634890e-08 1.603405e-08 1.637870e-08 1.626712e-08 1.677186e-08 1.679584e-08 1.621680e-08 1.616676e-08
1.654188e-08 1.608735e-08 1.691378e-08 1.674788e-08 1.694614e-08 1.597848e-08 1.546386e-08 1.593820e-08 1.657170e-08 1.540425e-08
1.675276e-08 1.607596e-08 1.555926e-08 1.504078e-08 1.463853e-08 1.467957e-08 1.432710e-08 1.467148e-08 1.531446e-08 1.373599e-08
1.418394e-08 1.389809e-08 1.361060e-08 1.392122e-08 1.383633e-08 1.223106e-08 1.236314e-08 1.251280e-08 1.209678e-08 1.232858e-08
1.115325e-08 1.167301e-08 1.153889e-08 1.083721e-08 1.044701e-08 1.030335e-08 1.014160e-08 9.536109e-09 9.691045e-09 9.860123e-09
8.527029e-09 8.536498e-09 8.541437e-09 7.533115e-09 6.830502e-09 6.349417e-09 6.632400e-09 7.874847e-09 6.194121e-09 7.238368e-09
5.863850e-09 6.638011e-09 4.754328e-09 5.202515e-09 4.453238e-09 4.004961e-09 3.073653e-09 3.884689e-09 3.295406e-09 2.388269e-09
1.540513e-09 1.307437e-09 1.238761e-09 1.121374e-09 2.714893e-09 1.736365e-09 8.114847e-10 8.401320e-10 -1.185681e-09 -8.462775e-10
6.412360e-11 3.244585e-10 -5.977883e-10 -4.191411e-10 -9.768952e-10 -2.014134e-09 -1.157380e-09 -2.524883e-09 -3.015977e-09 -3.660605e-09
-2.635802e-09 -2.943228e-09 -3.158895e-09 -3.554676e-09 -4.909365e-09 -5.100492e-09 -3.952860e-09 -5.248680e-09 -5.975456e-09 -5.274283e-09
-5.168877e-09 -6.554030e-09 -5.686477e-09 -5.958171e-09 -6.887326e-09 -8.580824e-09 -7.537541e-09 -7.913157e-09 -9.738049e-09 -9.326556e-09
-1.043246e-08 -9.143744e-09 -9.280550e-09 -1.029609e-08 -1.140169e-08 -1.064265e-08 -1.107074e-08 -1.170829e-08 -1.203445e-08 -1.173214e-08
-1.351435e-08 -1.290159e-08 -1.336886e-08 -1.301949e-08 -1.314638e-08 -1.374949e-08 -1.386263e-08 -1.366636e-08 -1.409295e-08 -1.510910e-08
-1.419276e-08 -1.516287e-08 -1.603567e-08 -1.566618e-08 -1.569657e-08 -1.635144e-08 -1.580475e-08 -1.631262e-08 -1.626127e-08 -1.622435e-08
-1.674655e-08 -1.768482e-08 -1.640842e-08 -1.646857e-08 -1.551746e-08 -1.779374e-08 -1.722635e-08 -1.735907e-08 -1.666857e-08 -1.703506e-08
-1.795941e-08 -1.780102e-08 -1.722022e-08 -1.680422e-08 -1.724691e-08 -1.695261e-08 -1.794159e-08 -1.743573e-08 -1.695378e-08 -1.783103e-08
-1.763148e-08 -1.687615e-08 -1.634884e-08 -1.759330e-08 -1.612267e-08 -1.767839e-08 -1.833684e-08 -1.740944e-08 -1.780240e-08 -1.688582e-08
-1.717147e-08
-1.700808e-08 -1.626840e-08 -1.725082e-08 -1.702281e-08 -1.711577e-08 -1.691821e-08 -1.767510e-08 -1.613506e-08 -1.759673e-08 -1.627134e-08
-1.642584e-08 -1.712639e-08 -1.693553e-08 -1.590134e-08 -1.706323e-08 -1.776039e-08 -1.689316e-08 -1.672007e-08 -1.716094e-08 -1.647568e-08
-1.666648e-08 -1.681047e-08 -1.674022e-08 -1.640362e-08 -1.690456e-08 -1.669778e-08 -1.576518e-08 -1.708077e-08 -1.611777e-08 -1.566167e-08
-1.609087e-08 -1.509095e-08 -1.544078e-08 -1.510671e-08 -1.501781e-08 -1.525628e-08 -1.492598e-08 -1.465563e-08 -1.391782e-08 -1.472155e-08
-1.395992e-08 -1.341037e-08 -1.378961e-08 -1.345701e-08 -1.292853e-08 -1.260751e-08 -1.203157e-08 -1.230793e-08 -1.168702e-08 -1.203510e-08
-1.179170e-08 -1.086050e-08 -1.105996e-08 -1.076485e-08 -1.074261e-08 -1.074407e-08 -1.019564e-08 -9.918538e-09 -9.634196e-09 -9.764676e-09
-9.030055e-09 -8.632054e-09 -9.286697e-09 -7.866407e-09 -7.394332e-09 -7.548160e-09 -6.885680e-09 -6.795839e-09 -6.152679e-09 -6.008782e-09
-5.927154e-09 -5.997621e-09 -5.343426e-09 -5.298130e-09 -4.109821e-09 -3.597891e-09 -3.685828e-09 -3.294198e-09 -4.237611e-09 -3.383389e-09
-2.789263e-09 -1.981593e-09 -2.280933e-09 -1.116095e-09 -1.343234e-09 -1.779064e-09 -4.736833e-10 -6.082950e-10 -5.678174e-10 3.697189e-10
3.760409e-10 -4.313575e-10 3.812827e-10 9.944889e-10 1.461362e-09 1.353459e-09 2.163412e-09 2.463774e-09 2.714254e-09 1.867125e-09
2.170450e-09 3.556484e-09 4.357250e-09 4.193513e-09 4.058337e-09 4.281417e-09 4.250107e-09 5.706065e-09 6.373381e-09 6.714284e-09
5.927542e-09 7.058770e-09 6.813339e-09 7.402608e-09 7.205328e-09 7.110772e-09 7.835287e-09 8.469977e-09 7.637632e-09 8.984194e-09
8.937760e-09 1.024359e-08 8.913630e-09 9.490175e-09 1.020094e-08 1.054178e-08 1.079852e-08 1.117839e-08 1.077728e-08 1.105903e-08
1.124978e-08 1.196556e-08 1.237746e-08 1.315664e-08 1.323207e-08 1.313926e-08 1.312911e-08 1.335995e-08 1.339343e-08 1.411985e-08
1.370777e-08 1.355168e-08 1.449416e-08 1.532093e-08 1.531727e-08 1.552508e-08 1.516052e-08 1.499378e-08 1.627930e-08 1.612302e-08
1.557979e-08 1.633143e-08 1.554897e-08 1.581360e-08 1.600273e-08 1.607740e-08 1.734087e-08 1.686962e-08 1.605832e-08 1.729419e-08
1.624783e-08 1.800580e-08 1.765592e-08 1.669270e-08 1.720218e-08 1.707058e-08 1.632124e-08 1.678841e-08 1.737175e-08 1.544872e-08
1.713214e-08 1.687081e-08 1.628579e-08 1.745140e-08 1.669168e-08 1.620646e-08 1.630011e-08 1.656982e-08 1.645011e-08 1.598744e-08
1.574775e-08 1.517334e-08 1.644686e-08 1.582330e-08 1.674065e-08 1.635144e-08 1.724161e-08 1.693433e-08 1.646697e-08 1.681867e-08
1.619186e-08 1.546039e-08 1.694920e-08 1.710549e-08 1.712273e-08 1.569658e-08 1.581912e-08 1.591366e-08 1.608386e-08 1.552899e-08
1.648785e-08 1.700827e-08 1.638031e-08 1.653006e-08 1.541866e-08 1.687614e-08 1.593607e-08 1.595892e-08 1.568835e-08 1.618492e-08
1.564306e-08 1.526056e-08 1.555677e-08 1.508477e-08 1.521365e-08 1.520917e-08 1.459161e-08 1.433764e-08 1.503131e-08 1.449973e-08
1.457670e-08 1.342431e-08 1.337260e-08 1.323782e-08 1.323163e-08 1.265991e-08 1.187809e-08 1.179696e-08 1.234961e-08 1.150962e-08
1.201540e-08 1.051793e-08 1.112736e-08 1.002242e-08 1.116371e-08 9.993520e-09 1.013003e-08 9.822814e-09 8.807135e-09 9.732216e-09
8.239858e-09 8.417021e-09 8.517975e-09 7.718436e-09 7.052655e-09 6.874245e-09 5.911935e-09 6.933187e-09 5.665291e-09 5.495841e-09
5.613317e-09 5.678957e-09 5.535262e-09 5.231021e-09 4.261515e-09 4.616055e-09 3.340432e-09 4.863133e-09 2.886797e-09 2.413860e-09
3.009015e-09 2.125915e-09 1.690965e-09 1.437663e-09 6.723513e-10 7.602297e-10 2.256424e-10 2.612823e-10 3.355577e-10 3.902453e-10
-4.888366e-11 8.464349e-10 -8.080573e-10 -6.538650e-10 -1.831325e-09 -1.902629e-09 -2.159015e-09 -1.745033e-09 -2.012484e-09 -2.320357e-09
-2.854367e-09 -2.695922e-09 -3.993019e-09 -3.386190e-09 -3.172581e-09 -4.535660e-09 -5.020584e-09 -5.122301e-09 -5.327812e-09 -5.813973e-09
-6.106255e-09 -6.325227e-09 -6.074076e-09 -6.363864e-09 -6.874326e-09 -7.945296e-09 -7.451892e-09 -7.715744e-09 -8.705904e-09 -8.518778e-09
-8.674149e-09 -8.985211e-09 -9.859581e-09 -1.067791e-08 -1.044833e-08 -1.134420e-08 -1.113392e-08 -1.146112e-08 -1.169142e-08 -1.187884e-08
-1.181589e-08 -1.198121e-08 -1.271450e-08 -1.275704e-08 -1.360405e-08 -1.406000e-08 -1.412968e-08 -1.416463e-08 -1.361610e-08 -1.447719e-08
-1.463210e-08 -1.395198e-08 -1.524656e-08 -1.540443e-08 -1.545336e-08 -1.594677e-08 -1.579019e-08 -1.585916e-08 -1.636371e-08 -1.532018e-08
-1.604112e-08 -1.594857e-08 -1.719612e-08 -1.684232e-08 -1.770943e-08 -1.690765e-08 -1.663725e-08 -1.723260e-08 -1.778776e-08 -1.817240e-08
-1.677932e-08 -1.668226e-08 -1.631530e-08 -1.642453e-08 -1.639368e-08 -1.647391e-08 -1.620614e-08 -1.726848e-08 -1.777596e-08 -1.766235e-08
-1.660496e-08 -1.771192e-08 -1.650334e-08 -1.718074e-08 -1.729628e-08 -1.730365e-08 -1.592181e-08 -1.598293e-08 -1.640284e-08 -1.676229e-08
-1.700808e-08
-1.684507e-08 -1.662082e-08 -1.655902e-08 -1.642288e-08 -1.627902e-08 -1.708515e-08 -1.684466e-08 -1.717929e-08 -1.590457e-08 -1.733286e-08
-1.778271e-08 -1.617834e-08 -1.715116e-08 -1.709844e-08 -1.636001e-08 -1.638291e-08 -1.680492e-08 -1.651436e-08 -1.609406e-08 -1.589624e-08
-1.599382e-08 -1.630948e-08 -1.716059e-08 -1.622137e-08 -1.679845e-08 -1.559399e-08 -1.580465e-08 -1.653883e-08 -1.634129e-08 -1.487095e-08
-1.533573e-08 -1.592390e-08 -1.473735e-08 -1.490722e-08 -1.486155e-08 -1.543458e-08 -1.434035e-08 -1.413437e-08 -1.462999e-08 -1.384097e-08
-1.446929e-08 -1.442498e-08 -1.365961e-08 -1.333405e-08 -1.266184e-08 -1.314101e-08 -1.251374e-08 -1.214234e-08 -1.207241e-08 -1.184912e-08
-1.163284e-08 -1.196671e-08 -1.056789e-08 -1.150915e-08 -1.082464e-08 -1.018321e-08 -9.714909e-09 -9.458272e-09 -9.420014e-09 -8.509655e-09
-8.547896e-09 -8.649391e-09 -9.302297e-09 -7.673309e-09 -7.961787e-09 -7.253057e-09 -7.734477e-09 -6.635027e-09 -6.803590e-09 -6.772062e-09
-5.792426e-09 -4.850047e-09 -4.934514e-09 -4.998598e-09 -3.943487e-09 -3.094504e-09 -4.885894e-09 -3.402124e-09 -3.275679e-09 -2.780739e-09
-3.469209e-09 -2.656962e-09 -2.495236e-09 -3.107121e-09 -2.379745e-09 -8.003728e-10 -8.524544e-10 -5.924238e-10 -1.277090e-09 -1.054331e-10
6.483054e-10 1.189434e-09 1.016396e-09 1.773997e-09 4.736904e-10 1.556740e-09 1.764414e-09 2.168654e-09 1.924749e-09 3.148711e-09
3.233068e-09 2.337846e-09 3.220056e-09 3.509381e-09 2.890038e-09 4.797029e-09 5.061480e-09 4.030318e-09 5.077970e-09 6.357169e-09
5.758762e-09 6.688622e-09 5.892609e-09 7.089842e-09 7.153288e-09 7.217553e-09 7.171469e-09 8.393198e-09 8.993080e-09 8.475272e-09
8.839378e-09 9.597323e-09 8.768346e-09 9.734008e-09 9.810763e-09 1.030218e-08 1.113517e-08 1.070514e-08 1.084508e-08 1.117378e-08
1.188070e-08 1.174385e-08 1.188550e-08 1.287243e-08 1.274733e-08 1.327353e-08 1.331078e-08 1.293335e-08 1.421946e-08 1.346233e-08
1.376221e-08 1.372149e-08 1.435032e-08 1.475586e-08 1.471513e-08 1.507209e-08 1.507498e-08 1.529683e-08 1.547355e-08 1.530120e-08
1.557351e-08 1.510145e-08 1.605275e-08 1.554728e-08 1.618368e-08 1.621801e-08 1.610538e-08 1.601998e-08 1.645897e-08 1.638428e-08
1.550737e-08 1.684797e-08 1.630865e-08 1.665246e-08 1.579315e-08 1.692037e-08 1.652018e-08 1.583101e-08 1.606404e-08 1.750999e-08
1.595388e-08 1.623223e-08 1.787284e-08 1.599461e-08 1.646024e-08 1.653084e-08 1.694603e-08 1.698671e-08 1.612099e-08 1.569681e-08
1.689148e-08 1.624831e-08 1.554789e-08 1.632054e-08 1.567543e-08 1.641837e-08 1.587869e-08 1.735482e-08 1.705555e-08 1.603569e-08
1.698337e-08 1.617935e-08 1.711833e-08 1.491528e-08 1.664183e-08 1.674332e-08 1.664855e-08 1.787841e-08 1.658304e-08 1.569309e-08
1.605609e-08 1.656516e-08 1.576717e-08 1.566720e-08 1.583073e-08 1.538685e-08 1.480943e-08 1.579092e-08 1.642929e-08 1.549172e-08
1.573507e-08 1.547022e-08 1.539165e-08 1.457222e-08 1.465883e-08 1.434627e-08 1.472648e-08 1.441203e-08 1.397124e-08 1.356206e-08
1.377348e-08 1.280778e-08 1.321346e-08 1.298992e-08 1.218404e-08 1.258854e-08 1.235847e-08 1.297367e-08 1.224826e-08 1.141940e-08
1.148367e-08 1.097521e-08 1.112582e-08 9.837287e-09 1.042172e-08 1.081082e-08 9.390299e-09 9.637861e-09 1.073338e-08 9.031288e-09
8.736222e-09 8.124587e-09 8.555423e-09 6.922853e-09 7.583060e-09 6.903596e-09 6.451893e-09 6.105394e-09 5.733287e-09 6.268786e-09
5.565254e-09 6.049579e-09 5.386468e-09 2.884933e-09 4.366917e-09 4.921524e-09 3.156087e-09 3.732274e-09 2.671818e-09 3.701846e-09
1.512701e-09 3.270723e-09 2.506512e-09 1.828310e-09 2.233062e-09 1.390278e-09 3.602243e-10 1.594049e-09 1.187233e-10 4.162956e-10
3.889556e-10 -2.993782e-10 -3.843003e-10 -6.368883e-10 -1.129272e-09 -8.540132e-10 -2.066016e-09 -2.780775e-09 -3.757517e-09 -2.550266e-09
-2.049592e-09 -2.338030e-09 -3.371198e-09 -4.027209e-09 -3.470171e-09 -4.703327e-09 -5.187923e-09 -5.103943e-09 -4.731964e-09 -4.872387e-09
-6.828682e-09 -6.291280e-09 -6.661221e-09 -7.437495e-09 -7.991930e-09 -7.431703e-09 -8.072930e-09 -8.485331e-09 -8.559302e-09 -8.739771e-09
-1.021156e-08 -9.482195e-09 -9.495920e-09 -1.046742e-08 -9.982903e-09 -1.080737e-08 -1.081524e-08 -1.073487e-08 -1.128268e-08 -1.243111e-08
-1.172428e-08 -1.262571e-08 -1.266642e-08 -1.316972e-08 -1.299989e-08 -1.311259e-08 -1.373010e-08 -1.374350e-08 -1.449386e-08 -1.525345e-08
-1.402767e-08 -1.575223e-08 -1.470741e-08 -1.484479e-08 -1.501211e-08 -1.484196e-08 -1.532292e-08 -1.583705e-08 -1.490970e-08 -1.571172e-08
-1.611572e-08 -1.594200e-08 -1.622354e-08 -1.677131e-08 -1.563253e-08 -1.641664e-08 -1.714128e-08 -1.754738e-08 -1.603432e-08 -1.660826e-08
-1.776545e-08 -1.666846e-08 -1.714462e-08 -1.681222e-08 -1.674532e-08 -1.645186e-08 -1.751282e-08 -1.676251e-08 -1.693918e-08 -1.629362e-08
-1.663401e-08 -1.757000e-08 -1.630802e-08 -1.698451e-08 -1.692355e-08 -1.726269e-08 -1.682576e-08 -1.660233e-08 -1.527851e-08 -1.587551e-08
-1.684507e-08
-1.617980e-08 -1.606346e-08 -1.685746e-08 -1.566518e-08 -1.604686e-08 -1.653372e-08 -1.587554e-08 -1.675060e-08 -1.725803e-08 -1.738579e-08
-1.744367e-08 -1.652307e-08 -1.626541e-08 -1.576859e-08 -1.559843e-08 -1.659618e-08 -1.582394e-08 -1.677492e-08 -1.656309e-08 -1.649932e-08
-1.578643e-08 -1.553965e-08 -1.602761e-08 -1.572515e-08 -1.634841e-08 -1.592545e-08 -1.626712e-08 -1.584786e-08 -1.524996e-08 -1.597581e-08
-1.592275e-08 -1.512077e-08 -1.615744e-08 -1.525592e-08 -1.441648e-08 -1.471204e-08 -1.454969e-08 -1.493956e-08 -1.464812e-08 -1.432203e-08
-1.292755e-08 -1.359545e-08 -1.313331e-08 -1.330733e-08 -1.346486e-08 -1.217880e-08 -1.243389e-08 -1.244530e-08 -1.218399e-08 -1.191281e-08
-1.109373e-08 -1.152603e-08 -1.120025e-08 -1.144512e-08 -1.029791e-08 -1.009736e-08 -9.956008e-09 -9.250289e-09 -9.626866e-09 -8.563116e-09
-8.313205e-09 -8.432385e-09 -8.138204e-09 -7.831329e-09 -7.916469e-09 -7.274842e-09 -6.738984e-09 -6.333666e-09 -6.294023e-09 -5.689416e-09
-5.013105e-09 -5.180446e-09 -4.166523e-09 -4.557033e-09 -4.278878e-09 -3.767609e-09 -3.785944e-09 -3.076187e-09 -3.396615e-09 -3.346080e-09
-2.641724e-09 -3.180784e-09 -1.824196e-09 -1.628271e-09 -1.500531e-09 -5.885197e-10 -1.414579e-09 -1.006186e-09 8.605482e-11 -4.849588e-10
-1.401818e-11 2.760644e-10 1.603924e-09 7.142414e-10 1.809603e-09 1.789770e-09 2.235832e-09 2.504909e-09 2.355331e-09 2.702109e-09
3.255023e-09 3.108143e-09 4.100424e-09 3.485711e-09 4.107332e-09 2.659121e-09 6.488653e-09 5.220238e-09 5.270588e-09 5.168145e-09
6.241947e-09 5.617011e-09 5.665363e-09 6.231821e-09 7.846125e-09 8.086136e-09 8.017309e-09 8.701283e-09 8.454847e-09 8.714786e-09
8.534777e-09 8.685332e-09 9.236373e-09 9.713699e-09 1.016068e-08 1.025872e-08 1.134399e-08 1.153325e-08 1.116870e-08 1.065744e-08
1.167264e-08 1.138418e-08 1.149437e-08 1.278867e-08 1.221195e-08 1.257412e-08 1.280785e-08 1.355859e-08 1.403023e-08 1.403180e-08
1.338146e-08 1.396193e-08 1.489059e-08 1.492947e-08 1.498407e-08 1.534639e-08 1.467205e-08 1.587452e-08 1.671865e-08 1.551878e-08
1.522587e-08 1.609835e-08 1.576277e-08 1.490004e-08 1.627214e-08 1.605230e-08 1.624679e-08 1.672641e-08 1.524558e-08 1.605941e-08
1.599760e-08 1.681378e-08 1.612605e-08 1.616796e-08 1.601358e-08 1.561023e-08 1.636021e-08 1.650653e-08 1.571181e-08 1.697927e-08
1.594989e-08 1.650575e-08 1.625876e-08 1.735805e-08 1.773527e-08 1.629063e-08 1.655710e-08 1.659873e-08 1.588800e-08 1.623803e-08
1.647713e-08 1.667843e-08 1.590526e-08 1.593224e-08 1.547092e-08 1.695133e-08 1.590232e-08 1.633234e-08 1.634958e-08 1.668177e-08
1.686121e-08 1.618296e-08 1.659686e-08 1.565991e-08 1.690278e-08 1.621388e-08 1.657199e-08 1.598344e-08 1.624232e-08 1.577915e-08
1.579461e-08 1.575822e-08 1.598399e-08 1.579268e-08 1.627170e-08 1.608815e-08 1.564910e-08 1.588847e-08 1.530359e-08 1.548652e-08
1.576096e-08 1.494856e-08 1.501749e-08 1.477994e-08 1.402917e-08 1.424801e-08 1.399004e-08 1.434811e-08 1.394756e-08 1.416496e-08
1.290159e-08 1.322849e-08 1.314280e-08 1.354278e-08 1.213352e-08 1.262429e-08 1.265442e-08 1.203731e-08 1.103569e-08 1.182993e-08
1.130896e-08 1.169504e-08 1.137628e-08 1.010601e-08 1.023380e-08 9.472267e-09 9.769926e-09 9.427433e-09 8.920582e-09 8.389563e-09
8.886174e-09 8.291214e-09 8.707024e-09 7.872933e-09 8.000893e-09 7.590123e-09 7.503011e-09 5.900013e-09 6.778434e-09 5.664596e-09
5.532140e-09 4.928788e-09 4.410900e-09 3.880366e-09 4.034672e-09 5.165158e-09 4.425297e-09 3.099194e-09 3.393651e-09 3.233644e-09
2.513783e-09 1.824680e-09 1.929826e-09 1.151753e-09 1.774728e-09 1.654118e-09 5.081443e-10 2.308324e-10 -2.030576e-10 1.773916e-10
-3.318823e-11 4.043479e-10 -5.482395e-10 -1.357500e-09 1.764384e-10 -1.756930e-09 -1.958429e-09 -1.996266e-09 -1.417009e-09 -3.270959e-09
-2.635083e-09 -3.236933e-09 -2.592091e-09 -3.907420e-09 -4.657283e-09 -4.241716e-09 -4.300516e-09 -5.448146e-09 -5.908549e-09 -5.744479e-09
-6.087061e-09 -6.858107e-09 -6.537837e-09 -6.689387e-09 -6.535185e-09 -7.986411e-09 -8.314313e-09 -7.757500e-09 -8.124395e-09 -8.450988e-09
-9.402807e-09 -9.889901e-09 -9.760854e-09 -1.021154e-08 -1.029540e-08 -9.813655e-09 -1.104450e-08 -1.115510e-08 -1.112034e-08 -1.168324e-08
-1.213625e-08 -1.206017e-08 -1.218076e-08 -1.333503e-08 -1.292215e-08 -1.334669e-08 -1.294706e-08 -1.322642e-08 -1.420485e-08 -1.399242e-08
-1.489087e-08 -1.451084e-08 -1.462933e-08 -1.499456e-08 -1.579551e-08 -1.459200e-08 -1.493921e-08 -1.504468e-08 -1.515999e-08 -1.564296e-08
-1.619647e-08 -1.601340e-08 -1.529773e-08 -1.652417e-08 -1.628868e-08 -1.648065e-08 -1.610096e-08 -1.697975e-08 -1.750830e-08 -1.676120e-08
-1.621624e-08 -1.648008e-08 -1.629068e-08 -1.707796e-08 -1.656610e-08 -1.544642e-08 -1.684969e-08 -1.717147e-08 -1.668299e-08 -1.711284e-08
-1.636631e-08 -1.669964e-08 -1.550566e-08 -1.601915e-08 -1.598951e-08 -1.571123e-08 -1.648622e-08 -1.721571e-08 -1.647751e-08 -1.616972e-08
-1.617980e-08
-1.674172e-08 -1.722811e-08 -1.727527e-08 -1.650676e-08 -1.555276e-08 -1.612960e-08 -1.617214e-08 -1.640211e-08 -1.528804e-08 -1.577173e-08
-1.664919e-08 -1.634315e-08 -1.562582e-08 -1.551063e-08 -1.599722e-08 -1.734602e-08 -1.558460e-08 -1.648428e-08 -1.624048e-08 -1.617012e-08
-1.578347e-08 -1.478823e-08 -1.650958e-08 -1.589727e-08 -1.594272e-08 -1.564417e-08 -1.509015e-08 -1.606440e-08 -1.530045e-08 -1.483388e-08
-1.606132e-08 -1.540208e-08 -1.508017e-08 -1.417350e-08 -1.498372e-08 -1.486024e-08 -1.470321e-08 -1.419679e-08 -1.433730e-08 -1.398560e-08
-1.353462e-08 -1.316536e-08 -1.292220e-08 -1.346136e-08 -1.290093e-08 -1.277394e-08 -1.226794e-08 -1.177104e-08 -1.201631e-08 -1.124548e-08
-1.209098e-08 -1.109754e-08 -1.064007e-08 -1.065559e-08 -1.083929e-08 -9.933717e-09 -9.825874e-09 -1.001314e-08 -8.834526e-09 -8.654627e-09
-8.255225e-09 -8.796767e-09 -8.211499e-09 -7.300283e-09 -8.281866e-09 -7.327905e-09 -7.151991e-09 -6.858902e-09 -6.030842e-09 -5.496924e-09
-5.437171e-09 -5.030262e-09 -5.648578e-09 -4.840596e-09 -4.519265e-09 -4.055163e-09 -4.026399e-09 -3.101325e-09 -3.291448e-09 -2.796684e-09
-2.360512e-09 -2.000959e-09 -2.247905e-09 -2.419160e-09 -1.448795e-09 -1.042171e-10 -8.541880e-10 -6.783241e-10 -6.748802e-10 7.646939e-11
-1.241173e-10 4.072243e-10 6.555676e-10 1.475392e-09 2.117619e-09 1.303659e-09 1.324568e-09 1.778186e-09 2.707810e-09 3.119301e-09
2.125767e-09 2.720009e-09 4.058995e-09 3.425939e-09 3.479138e-09 5.564870e-09 4.976677e-09 5.371248e-09 5.101459e-09 6.127195e-09
5.465987e-09 6.558016e-09 6.560628e-09 6.116716e-09 6.913221e-09 7.758320e-09 7.941939e-09 8.783022e-09 8.140955e-09 9.191253e-09
8.417451e-09 8.551836e-09 9.404804e-09 9.140699e-09 1.002996e-08 1.024528e-08 9.739233e-09 1.037073e-08 1.077425e-08 1.106828e-08
1.161499e-08 1.126859e-08 1.148076e-08 1.179926e-08 1.245353e-08 1.277792e-08 1.318379e-08 1.314819e-08 1.317820e-08 1.287273e-08
1.337548e-08 1.416495e-08 1.418406e-08 1.484804e-08 1.484167e-08 1.532595e-08 1.550960e-08 1.500549e-08 1.401210e-08 1.458010e-08
1.432230e-08 1.455912e-08 1.558991e-08 1.555078e-08 1.557950e-08 1.632411e-08 1.562532e-08 1.627664e-08 1.637755e-08 1.660914e-08
1.589501e-08 1.506388e-08 1.596963e-08 1.722963e-08 1.616562e-08 1.653954e-08 1.588616e-08 1.691400e-08 1.668251e-08 1.609280e-08
1.661294e-08 1.623031e-08 1.533736e-08 1.591171e-08 1.616447e-08 1.584971e-08 1.538535e-08 1.555472e-08 1.607864e-08 1.622085e-08
1.659341e-08 1.616929e-08 1.606113e-08 1.640174e-08 1.575659e-08 1.612075e-08 1.675230e-08 1.608064e-08 1.702057e-08 1.585765e-08
1.656589e-08 1.652460e-08 1.557432e-08 1.694592e-08 1.601812e-08 1.531609e-08 1.664069e-08 1.567273e-08 1.601861e-08 1.589673e-08
1.550291e-08 1.550679e-08 1.580223e-08 1.648134e-08 1.550242e-08 1.595451e-08 1.508746e-08 1.533981e-08 1.546377e-08 1.513552e-08
1.519895e-08 1.518118e-08 1.494493e-08 1.441882e-08 1.440421e-08 1.393001e-08 1.407815e-08 1.398637e-08 1.392578e-08 1.321438e-08
1.397014e-08 1.274789e-08 1.234542e-08 1.269708e-08 1.238209e-08 1.244462e-08 1.225236e-08 1.174211e-08 1.116729e-08 1.162948e-08
1.115341e-08 1.073711e-08 1.161842e-08 1.063480e-08 1.045188e-08 9.410201e-09 9.724800e-09 9.802998e-09 9.210915e-09 8.618830e-09
7.693685e-09 8.098983e-09 7.481344e-09 6.852447e-09 6.723722e-09 7.251776e-09 7.162831e-09 6.031820e-09 6.235446e-09 5.584021e-09
5.409432e-09 5.863980e-09 4.424681e-09 4.494275e-09 3.877209e-09 5.072309e-09 5.087569e-09 3.458881e-09 3.011199e-09 1.734865e-09
2.915939e-09 1.171755e-09 1.879582e-09 2.037428e-09 4.432994e-10 9.986562e-10 1.864766e-09 9.460779e-11 9.383320e-10 1.197510e-09
2.545697e-10 -7.299951e-10 -1.549337e-10 -8.525772e-10 -6.854249e-10 -1.093552e-09 -1.185380e-09 -1.719091e-09 -2.755183e-09 -2.012634e-09
-2.309015e-09 -3.140113e-09 -4.404439e-09 -3.384450e-09 -4.524364e-09 -4.405002e-09 -4.775303e-09 -4.573330e-09 -5.237272e-09 -4.795582e-09
-5.713414e-09 -5.750091e-09 -6.620144e-09 -6.955324e-09 -6.935677e-09 -7.082725e-09 -8.268465e-09 -8.021252e-09 -8.112849e-09 -8.778049e-09
-9.370113e-09 -9.204423e-09 -9.245036e-09 -1.054911e-08 -9.911664e-09 -1.085350e-08 -1.016723e-08 -1.166176e-08 -1.250367e-08 -1.224862e-08
-1.230482e-08 -1.214002e-08 -1.284798e-08 -1.213240e-08 -1.296825e-08 -1.303437e-08 -1.316315e-08 -1.339562e-08 -1.304778e-08 -1.392278e-08
-1.401396e-08 -1.379996e-08 -1.444593e-08 -1.461730e-08 -1.482023e-08 -1.490835e-08 -1.442363e-08 -1.544212e-08 -1.558974e-08 -1.557462e-08
-1.577126e-08 -1.580631e-08 -1.473638e-08 -1.523888e-08 -1.613806e-08 -1.624669e-08 -1.637366e-08 -1.599296e-08 -1.683024e-08 -1.750627e-08
-1.596760e-08 -1.601547e-08 -1.611325e-08 -1.598728e-08 -1.623553e-08 -1.680669e-08 -1.650699e-08 -1.642406e-08 -1.581610e-08 -1.647617e-08
-1.570277e-08 -1.754964e-08 -1.657791e-08 -1.616179e-08 -1.679057e-08 -1.696268e-08 -1.643568e-08 -1.550276e-08 -1.629457e-08 -1.507520e-08
-1.674172e-08
-1.654395e-08 -1.653753e-08 -1.652969e-08 -1.670605e-08 -1.646716e-08 -1.580896e-08 -1.579166e-08 -1.530709e-08 -1.578312e-08 -1.710491e-08
-1.619243e-08 -1.595640e-08 -1.487519e-08 -1.669724e-08 -1.587888e-08 -1.583950e-08 -1.639433e-08 -1.676445e-08 -1.602657e-08 -1.649559e-08
-1.595881e-08 -1.552119e-08 -1.636744e-08 -1.545853e-08 -1.564017e-08 -1.528709e-08 -1.549591e-08 -1.526009e-08 -1.540853e-08 -1.477855e-08
-1.544297e-08 -1.578451e-08 -1.503531e-08 -1.436884e-08 -1.429905e-08 -1.417627e-08 -1.375401e-08 -1.438445e-08 -1.445527e-08 -1.374158e-08
-1.355130e-08 -1.323150e-08 -1.313156e-08 -1.288570e-08 -1.285151e-08 -1.228862e-08 -1.145558e-08 -1.185500e-08 -1.168515e-08 -1.129110e-08
-1.137825e-08 -1.109903e-08 -1.143687e-08 -1.098551e-08 -9.919044e-09 -9.509609e-09 -9.113152e-09 -1.065178e-08 -9.739773e-09 -9.447974e-09
-8.383271e-09 -8.161054e-09 -7.359134e-09 -7.272854e-09 -7.628426e-09 -7.546967e-09 -6.702364e-09 -5.821606e-09 -5.823604e-09 -5.475609e-09
-5.220844e-09 -4.842338e-09 -5.380999e-09 -4.082567e-09 -3.969075e-09 -5.216156e-09 -3.602768e-09 -3.569949e-09 -3.659140e-09 -2.598652e-09
-2.379345e-09 -2.095067e-09 -2.123478e-09 -2.290984e-09 -1.933958e-09 -8.733875e-10 -5.348706e-10 -1.325742e-09 -3.656755e-10 -6.183520e-11
7.269942e-10 1.581803e-10 6.037035e-10 9.873998e-10 1.746370e-09 1.723233e-09 1.908724e-09 1.251511e-09 2.853619e-09 2.281202e-09
2.203639e-09 2.981281e-09 3.484566e-09 3.307687e-09 4.529955e-09 3.913440e-09 4.373312e-09 4.718129e-09 5.244905e-09 5.781367e-09
6.237753e-09 6.874796e-09 6.658819e-09 6.996789e-09 6.523639e-09 6.911147e-09 7.913767e-09 7.827349e-09 8.047436e-09 8.464053e-09
8.145145e-09 8.512335e-09 9.353225e-09 9.923647e-09 1.027162e-08 1.027420e-08 1.043615e-08 9.930090e-09 1.032645e-08 1.107990e-08
1.141988e-08 1.143921e-08 1.198893e-08 1.193925e-08 1.230954e-08 1.223689e-08 1.285861e-08 1.225305e-08 1.278502e-08 1.308373e-08
1.332383e-08 1.355061e-08 1.408191e-08 1.399630e-08 1.405055e-08 1.412911e-08 1.487616e-08 1.368524e-08 1.446174e-08 1.440817e-08
1.472847e-08 1.546716e-08 1.534062e-08 1.580380e-08 1.484616e-08 1.550710e-08 1.649193e-08 1.527967e-08 1.528804e-08 1.674161e-08
1.505606e-08 1.523966e-08 1.544019e-08 1.572919e-08 1.673526e-08 1.654208e-08 1.572141e-08 1.650271e-08 1.591175e-08 1.523753e-08
1.561938e-08 1.591128e-08 1.670142e-08 1.598153e-08 1.654528e-08 1.568736e-08 1.609803e-08 1.595179e-08 1.643770e-08 1.570861e-08
1.589176e-08 1.574551e-08 1.595847e-08 1.630282e-08 1.620836e-08 1.680060e-08 1.672943e-08 1.671306e-08 1.505456e-08 1.625824e-08
1.613343e-08 1.620240e-08 1.571358e-08 1.623331e-08 1.610639e-08 1.641393e-08 1.623830e-08 1.568959e-08 1.592068e-08 1.608701e-08
1.649779e-08 1.531358e-08 1.595190e-08 1.540577e-08 1.510767e-08 1.533290e-08 1.594037e-08 1.540387e-08 1.437741e-08 1.526375e-08
1.481745e-08 1.558835e-08 1.464162e-08 1.467339e-08 1.451899e-08 1.394077e-08 1.399914e-08 1.363459e-08 1.354166e-08 1.309388e-08
1.341543e-08 1.251985e-08 1.268771e-08 1.211500e-08 1.181335e-08 1.220349e-08 1.151860e-08 1.177640e-08 1.241425e-08 1.131608e-08
1.007455e-08 1.072984e-08 1.096179e-08 1.015208e-08 9.708478e-09 9.809747e-09 9.436413e-09 8.952971e-09 8.886738e-09 8.523505e-09
8.476722e-09 7.848610e-09 7.862650e-09 8.054083e-09 7.828528e-09 6.739731e-09 7.587393e-09 5.703372e-09 6.365881e-09 4.806409e-09
5.978972e-09 4.859316e-09 4.685760e-09 4.878592e-09 5.733649e-09 5.210993e-09 3.457700e-09 3.079165e-09 2.858295e-09 2.873968e-09
2.063784e-09 2.866893e-09 2.149098e-09 9.943485e-10 1.394245e-09 2.194909e-09 1.296497e-09 2.893426e-11 -1.496187e-10 3.463652e-10
-8.464231e-10 -8.651347e-10 -7.146710e-10 -5.915545e-10 -1.839485e-09 -1.684027e-09 -1.778803e-09 -2.321336e-09 -2.362698e-09 -2.678263e-09
-2.105791e-09 -4.670812e-09 -2.873498e-09 -3.632586e-09 -4.954817e-09 -3.610172e-09 -4.456199e-09 -4.541143e-09 -6.230829e-09 -5.728825e-09
-5.848234e-09 -5.965216e-09 -5.903052e-09 -6.930371e-09 -6.974604e-09 -6.920068e-09 -7.694683e-09 -7.284335e-09 -7.668610e-09 -9.267647e-09
-8.814554e-09 -9.663044e-09 -9.627704e-09 -1.036543e-08 -1.007860e-08 -1.036603e-08 -1.051151e-08 -1.045191e-08 -1.052589e-08 -1.111267e-08
-1.150714e-08 -1.147235e-08 -1.177474e-08 -1.221109e-08 -1.201467e-08 -1.222856e-08 -1.332816e-08 -1.330950e-08 -1.292662e-08 -1.424260e-08
-1.449803e-08 -1.387114e-08 -1.378578e-08 -1.355192e-08 -1.440515e-08 -1.494823e-08 -1.472862e-08 -1.464071e-08 -1.540099e-08 -1.505163e-08
-1.509871e-08 -1.633614e-08 -1.518448e-08 -1.655239e-08 -1.560718e-08 -1.634009e-08 -1.645295e-08 -1.593887e-08 -1.517031e-08 -1.559929e-08
-1.653606e-08 -1.677997e-08 -1.619809e-08 -1.702149e-08 -1.646495e-08 -1.634149e-08 -1.668511e-08 -1.700522e-08 -1.625518e-08 -1.620929e-08
-1.683788e-08 -1.620672e-08 -1.626520e-08 -1.645919e-08 -1.616117e-08 -1.636533e-08 -1.562230e-08 -1.463479e-08 -1.537457e-08 -1.507258e-08
-1.654395e-08
-1.653570e-08 -1.563819e-08 -1.567149e-08 -1.611669e-08 -1.607514e-08 -1.534331e-08 -1.573495e-08 -1.490575e-08 -1.564081e-08 -1.701604e-08
-1.558737e-08 -1.538400e-08 -1.555453e-08 -1.650426e-08 -1.631492e-08 -1.523492e-08 -1.576460e-08 -1.554928e-08 -1.623084e-08 -1.512901e-08
-1.465132e-08 -1.520973e-08 -1.641728e-08 -1.583332e-08 -1.489042e-08 -1.636696e-08 -1.508589e-08 -1.519331e-08 -1.477318e-08 -1.463951e-08
-1.537859e-08 -1.403601e-08 -1.436811e-08 -1.407666e-08 -1.420104e-08 -1.448069e-08 -1.338664e-08 -1.289231e-08 -1.368664e-08 -1.350433e-08
-1.292118e-08 -1.314068e-08 -1.268417e-08 -1.269561e-08 -1.221481e-08 -1.206039e-08 -1.181334e-08 -1.211279e-08 -1.152732e-08 -1.117371e-08
-1.142504e-08 -1.067319e-08 -1.065388e-08 -1.000280e-08 -9.369107e-09 -9.222913e-09 -9.086712e-09 -8.783164e-09 -8.518856e-09 -8.535424e-09
-9.066206e-09 -8.157708e-09 -7.477094e-09 -7.595505e-09 -6.966661e-09 -7.337363e-09 -7.339725e-09 -5.904953e-09 -5.817200e-09 -4.932110e-09
-5.540011e-09 -4.836823e-09 -5.025836e-09 -4.739251e-09 -4.344899e-09 -4.029851e-09 -4.511797e-09 -3.135268e-09 -3.381541e-09 -3.251101e-09
-3.061345e-09 -2.387405e-09 -1.560092e-09 -1.916350e-09 -2.243393e-09 -1.620971e-09 -1.330798e-09 -1.683629e-09 -2.795926e-10 -2.183188e-10
-4.066751e-11 7.994155e-10 1.894902e-10 1.018611e-09 1.287415e-09 1.251879e-09 1.940610e-09 1.664569e-09 2.044694e-09 2.365766e-09
3.008080e-09 3.756451e-09 2.677744e-09 3.610244e-09 4.154129e-09 4.588173e-09 5.175301e-09 4.725772e-09 5.139277e-09 5.529627e-09
6.376321e-09 6.308615e-09 6.439811e-09 6.347395e-09 6.943857e-09 7.410042e-09 7.464784e-09 7.349731e-09 7.887700e-09 8.543748e-09
8.700630e-09 8.372365e-09 9.280175e-09 9.717648e-09 9.838257e-09 9.997327e-09 1.034167e-08 1.066843e-08 1.055211e-08 1.125002e-08
1.129777e-08 1.099472e-08 1.193555e-08 1.134922e-08 1.246354e-08 1.203447e-08 1.179848e-08 1.241533e-08 1.214286e-08 1.265694e-08
1.344904e-08 1.353174e-08 1.389440e-08 1.352767e-08 1.370256e-08 1.407805e-08 1.427506e-08 1.445764e-08 1.412376e-08 1.490741e-08
1.555165e-08 1.432806e-08 1.529478e-08 1.536369e-08 1.499522e-08 1.544668e-08 1.516889e-08 1.484280e-08 1.528425e-08 1.579423e-08
1.569191e-08 1.588491e-08 1.510306e-08 1.528744e-08 1.566889e-08 1.615516e-08 1.509379e-08 1.651038e-08 1.527223e-08 1.561543e-08
1.581927e-08 1.569060e-08 1.581600e-08 1.553063e-08 1.526640e-08 1.627950e-08 1.541857e-08 1.576924e-08 1.532165e-08 1.516856e-08
1.533915e-08 1.466031e-08 1.475631e-08 1.508293e-08 1.578199e-08 1.561931e-08 1.591790e-08 1.491179e-08 1.600642e-08 1.463275e-08
1.582005e-08 1.515381e-08 1.613223e-08 1.469285e-08 1.573990e-08 1.551236e-08 1.568380e-08 1.552653e-08 1.480183e-08 1.558833e-08
1.618674e-08 1.601684e-08 1.574651e-08 1.613543e-08 1.555951e-08 1.592249e-08 1.536413e-08 1.557952e-08 1.447139e-08 1.429811e-08
1.494678e-08 1.466380e-08 1.431805e-08 1.416858e-08 1.391810e-08 1.392068e-08 1.330196e-08 1.338325e-08 1.357975e-08 1.320553e-08
1.260876e-08 1.337823e-08 1.215793e-08 1.297510e-08 1.232525e-08 1.225898e-08 1.146106e-08 1.229501e-08 1.153020e-08 1.061599e-08
1.085612e-08 1.055316e-08 1.000913e-08 9.171214e-09 9.418259e-09 9.908368e-09 8.960908e-09 8.927649e-09 8.772191e-09 9.005600e-09
7.303682e-09 8.495372e-09 6.866938e-09 7.831138e-09 8.198866e-09 8.058984e-09 7.188538e-09 6.298402e-09 5.989559e-09 5.116082e-09
5.749254e-09 4.960190e-09 4.078093e-09 5.223394e-09 4.313677e-09 3.980066e-09 3.535775e-09 3.227435e-09 3.418607e-09 3.719601e-09
1.982107e-09 2.401330e-09 8.215085e-10 1.776488e-09 2.557701e-09 1.239835e-09 1.515661e-09 6.052563e-10 3.644948e-10 6.714574e-10
-6.664022e-10 -2.268361e-10 -8.454945e-10 -1.691586e-09 -1.290839e-09 -1.497745e-09 -1.903141e-09 -1.816903e-09 -2.314264e-09 -2.431549e-09
-2.637384e-09 -3.071150e-09 -2.972629e-09 -3.184289e-09 -4.634279e-09 -4.173826e-09 -4.617433e-09 -5.871490e-09 -4.301788e-09 -4.985454e-09
-5.433067e-09 -6.329266e-09 -5.814767e-09 -6.337119e-09 -6.470537e-09 -7.503533e-09 -6.925554e-09 -8.241620e-09 -9.012619e-09 -8.660686e-09
-9.547242e-09 -9.344614e-09 -8.943640e-09 -9.908605e-09 -1.096731e-08 -1.007331e-08 -1.040140e-08 -1.034815e-08 -1.052042e-08 -1.043893e-08
-1.143897e-08 -1.208114e-08 -1.201045e-08 -1.212196e-08 -1.229417e-08 -1.236583e-08 -1.250627e-08 -1.282875e-08 -1.250404e-08 -1.329848e-08
-1.386868e-08 -1.299720e-08 -1.395214e-08 -1.449342e-08 -1.500322e-08 -1.479700e-08 -1.484802e-08 -1.456746e-08 -1.498001e-08 -1.499895e-08
-1.602601e-08 -1.519174e-08 -1.555263e-08 -1.516849e-08 -1.540663e-08 -1.536011e-08 -1.669674e-08 -1.585332e-08 -1.633132e-08 -1.538304e-08
-1.613259e-08 -1.586345e-08 -1.533800e-08 -1.628793e-08 -1.527017e-08 -1.708392e-08 -1.555306e-08 -1.639769e-08 -1.680733e-08 -1.644870e-08
-1.597229e-08 -1.530572e-08 -1.529171e-08 -1.591379e-08 -1.672607e-08 -1.510198e-08 -1.515837e-08 -1.533422e-08 -1.674832e-08 -1.658011e-08
-1.653570e-08
-1.449054e-08 -1.431820e-08 -1.453528e-08 -1.523447e-08 -1.529471e-08 -1.593836e-08 -1.495611e-08 -1.546282e-08 -1.560519e-08 -1.552767e-08
-1.627844e-08 -1.581667e-08 -1.543961e-08 -1.569438e-08 -1.596830e-08 -1.557980e-08 -1.637867e-08 -1.656664e-08 -1.533820e-08 -1.530935e-08
-1.603612e-08 -1.583618e-08 -1.517196e-08 -1.579603e-08 -1.589223e-08 -1.546286e-08 -1.491666e-08 -1.441771e-08 -1.564394e-08 -1.494758e-08
-1.419090e-08 -1.426273e-08 -1.438358e-08 -1.492490e-08 -1.403281e-08 -1.412188e-08 -1.443673e-08 -1.341946e-08 -1.317415e-08 -1.266360e-08
-1.302149e-08 -1.267019e-08 -1.293957e-08 -1.223442e-08 -1.249901e-08 -1.221029e-08 -1.169212e-08 -1.183773e-08 -1.161970e-08 -1.059919e-08
-1.075123e-08 -1.059664e-08 -1.105913e-08 -1.005133e-08 -9.597851e-09 -9.420073e-09 -9.870455e-09 -9.056659e-09 -8.669292e-09 -9.071665e-09
-8.041078e-09 -8.061853e-09 -7.206435e-09 -7.335109e-09 -6.806788e-09 -6.424755e-09 -6.245195e-09 -5.641976e-09 -5.632767e-09 -6.329216e-09
-5.530711e-09 -5.277952e-09 -4.452516e-09 -3.729675e-09 -4.039524e-09 -3.946185e-09 -4.064859e-09 -3.388785e-09 -3.469658e-09 -3.007580e-09
-1.683156e-09 -2.020778e-09 -2.190591e-09 -1.210679e-09 -2.253822e-09 -1.638899e-09 -1.654474e-10 -1.914546e-10 -7.832399e-10 -6.086496e-10
8.600420e-10 2.580924e-10 8.018615e-10 1.081405e-09 1.412790e-10 1.117676e-09 1.090513e-09 1.206540e-09 2.271054e-09 2.492852e-09
2.167973e-09 3.447497e-09 3.124543e-09 3.997058e-09 4.422727e-09 4.274447e-09 4.799766e-09 5.032803e-09 5.035330e-09 6.253881e-09
5.343816e-09 5.431339e-09 5.688798e-09 5.998240e-09 6.763435e-09 6.882839e-09 7.222769e-09 7.796587e-09 8.518545e-09 8.237287e-09
8.567762e-09 8.944728e-09 9.065217e-09 9.228383e-09 9.472590e-09 9.445702e-09 9.558217e-09 1.009179e-08 1.024914e-08 1.069329e-08
1.063795e-08 1.056199e-08 1.165921e-08 1.200078e-08 1.172631e-08 1.258410e-08 1.152835e-08 1.189131e-08 1.320532e-08 1.322715e-08
1.271086e-08 1.343302e-08 1.326686e-08 1.335101e-08 1.321050e-08 1.481044e-08 1.362721e-08 1.429387e-08 1.409793e-08 1.413105e-08
1.436965e-08 1.457673e-08 1.422814e-08 1.514818e-08 1.518035e-08 1.511195e-08 1.610484e-08 1.512491e-08 1.455184e-08 1.540051e-08
1.497205e-08 1.578311e-08 1.513761e-08 1.599491e-08 1.523526e-08 1.555890e-08 1.500649e-08 1.639816e-08 1.582071e-08 1.467752e-08
1.616818e-08 1.548517e-08 1.477814e-08 1.434357e-08 1.639227e-08 1.536060e-08 1.441056e-08 1.612833e-08 1.553648e-08 1.505606e-08
1.519813e-08 1.652755e-08 1.529020e-08 1.621160e-08 1.586848e-08 1.636164e-08 1.508960e-08 1.523639e-08 1.579702e-08 1.556896e-08
1.604313e-08 1.539744e-08 1.564300e-08 1.499932e-08 1.595841e-08 1.571154e-08 1.489958e-08 1.522965e-08 1.540599e-08 1.455281e-08
1.567699e-08 1.533146e-08 1.477749e-08 1.502917e-08 1.433786e-08 1.454004e-08 1.454513e-08 1.573138e-08 1.479789e-08 1.483709e-08
1.424427e-08 1.480097e-08 1.445697e-08 1.415738e-08 1.400040e-08 1.376253e-08 1.366837e-08 1.314046e-08 1.289998e-08 1.285421e-08
1.369374e-08 1.232743e-08 1.226595e-08 1.252120e-08 1.135650e-08 1.120938e-08 1.109101e-08 1.155326e-08 1.104557e-08 1.064692e-08
1.074656e-08 1.082371e-08 1.067696e-08 9.677222e-09 9.143587e-09 9.387145e-09 9.147749e-09 8.571561e-09 8.958535e-09 8.270423e-09
8.444721e-09 7.515019e-09 7.672305e-09 6.949075e-09 7.861303e-09 6.624918e-09 5.810445e-09 6.325855e-09 5.753443e-09 5.602099e-09
4.301299e-09 4.135844e-09 4.707234e-09 4.890983e-09 3.442044e-09 4.299149e-09 3.267733e-09 3.434635e-09 2.714326e-09 2.639367e-09
3.024898e-09 2.199019e-09 2.128683e-09 1.741853e-09 9.519913e-10 1.012097e-09 -3.210459e-10 4.331894e-10 -4.788767e-10 1.467836e-09
-1.729787e-11 -8.081362e-10 -1.295578e-09 -1.444083e-09 -8.401874e-10 -1.696330e-09 -1.533704e-09 -1.888822e-09 -1.118173e-09 -2.246128e-09
-2.642056e-09 -2.599290e-09 -3.570478e-09 -4.598718e-09 -3.898137e-09 -4.728538e-09 -4.574403e-09 -4.753370e-09 -4.422456e-09 -5.364303e-09
-5.602659e-09 -6.611241e-09 -6.093093e-09 -5.844743e-09 -6.236675e-09 -6.959967e-09 -7.395811e-09 -7.548690e-09 -8.148326e-09 -7.908899e-09
-8.669525e-09 -8.955770e-09 -8.931749e-09 -8.620150e-09 -9.727351e-09 -1.043680e-08 -1.102200e-08 -1.027890e-08 -1.086268e-08 -1.151039e-08
-1.111527e-08 -1.117048e-08 -1.228795e-08 -1.217311e-08 -1.159695e-08 -1.177049e-08 -1.198166e-08 -1.205621e-08 -1.345954e-08 -1.269977e-08
-1.309889e-08 -1.349141e-08 -1.370176e-08 -1.465741e-08 -1.356748e-08 -1.454165e-08 -1.456557e-08 -1.453456e-08 -1.447752e-08 -1.491309e-08
-1.508275e-08 -1.480092e-08 -1.528267e-08 -1.512263e-08 -1.554754e-08 -1.582852e-08 -1.461201e-08 -1.557967e-08 -1.491568e-08 -1.701405e-08
-1.607973e-08 -1.595805e-08 -1.661568e-08 -1.564267e-08 -1.538440e-08 -1.621791e-08 -1.541794e-08 -1.550909e-08 -1.601920e-08 -1.634448e-08
-1.556992e-08 -1.637277e-08 -1.655567e-08 -1.459296e-08 -1.553012e-08 -1.521672e-08 -1.438904e-08 -1.522576e-08 -1.452215e-08 -1.578683e-08
-1.449054e-08
-1.528387e-08 -1.609723e-08 -1.591930e-08 -1.605326e-08 -1.616092e-08 -1.592755e-08 -1.475119e-08 -1.430545e-08 -1.533121e-08 -1.496552e-08
-1.626898e-08 -1.585116e-08 -1.492035e-08 -1.586601e-08 -1.547525e-08 -1.520556e-08 -1.590744e-08 -1.526456e-08 -1.556072e-08 -1.459145e-08
-1.537597e-08 -1.429020e-08 -1.537927e-08 -1.546595e-08 -1.522200e-08 -1.485534e-08 -1.504701e-08 -1.452747e-08 -1.445511e-08 -1.415187e-08
-1.451499e-08 -1.412388e-08 -1.431521e-08 -1.484604e-08 -1.426168e-08 -1.425938e-08 -1.342858e-08 -1.352368e-08 -1.366743e-08 -1.300171e-08
-1.294077e-08 -1.284105e-08 -1.247121e-08 -1.183943e-08 -1.207202e-08 -1.143057e-08 -1.217355e-08 -1.148532e-08 -1.118010e-08 -1.083420e-08
-1.091802e-08 -1.086358e-08 -1.030099e-08 -1.028267e-08 -9.528368e-09 -9.156289e-09 -9.326940e-09 -8.388237e-09 -8.230281e-09 -8.219385e-09
-7.790044e-09 -8.136964e-09 -7.635754e-09 -7.227567e-09 -6.652442e-09 -6.383942e-09 -6.359534e-09 -5.416858e-09 -6.240017e-09 -4.963407e-09
-5.000157e-09 -5.322566e-09 -4.528733e-09 -4.884312e-09 -4.521393e-09 -4.133627e-09 -3.907767e-09 -3.331587e-09 -2.526975e-09 -2.291352e-09
-2.646631e-09 -1.406120e-09 -1.912627e-09 -1.268353e-09 -1.532772e-09 -1.016806e-09 -2.936140e-10 -3.532236e-10 1.350589e-10 1.174200e-09
4.513856e-10 3.954822e-10 9.315581e-10 4.067601e-10 1.837012e-09 1.386591e-09 1.770101e-09 8.653143e-10 1.902339e-09 2.601192e-09
2.984207e-09 3.139979e-09 3.188945e-09 3.680026e-09 4.472018e-09 3.410624e-09 4.566970e-09 4.739974e-09 5.944119e-09 5.691792e-09
5.754423e-09 5.892793e-09 5.604075e-09 6.318290e-09 7.477819e-09 6.805258e-09 6.955412e-09 7.289334e-09 8.642324e-09 7.826121e-09
8.006447e-09 8.815287e-09 8.296850e-09 9.372340e-09 9.273670e-09 9.467555e-09 9.905865e-09 9.791941e-09 1.093168e-08 9.829796e-09
1.048624e-08 1.075380e-08 1.193250e-08 1.134579e-08 1.139942e-08 1.192558e-08 1.170211e-08 1.233322e-08 1.226719e-08 1.274124e-08
1.298133e-08 1.294600e-08 1.275326e-08 1.264246e-08 1.365417e-08 1.342538e-08 1.469485e-08 1.386670e-08 1.408241e-08 1.488173e-08
1.444880e-08 1.441738e-08 1.432649e-08 1.461625e-08 1.482799e-08 1.561634e-08 1.471583e-08 1.501546e-08 1.543848e-08 1.488808e-08
1.465810e-08 1.533572e-08 1.489356e-08 1.543400e-08 1.612236e-08 1.501358e-08 1.523063e-08 1.559575e-08 1.477520e-08 1.512891e-08
1.469712e-08 1.542300e-08 1.540188e-08 1.534048e-08 1.569583e-08 1.616886e-08 1.496485e-08 1.504051e-08 1.459392e-08 1.513806e-08
1.440310e-08 1.505908e-08 1.502675e-08 1.449952e-08 1.579019e-08 1.538478e-08 1.611036e-08 1.513775e-08 1.475283e-08 1.464587e-08
1.514891e-08 1.482907e-08 1.531342e-08 1.460907e-08 1.603380e-08 1.483209e-08 1.562788e-08 1.513256e-08 1.519675e-08 1.480497e-08
1.479030e-08 1.403851e-08 1.475535e-08 1.505670e-08 1.487302e-08 1.506058e-08 1.444410e-08 1.521484e-08 1.448961e-08 1.378016e-08
1.470150e-08 1.379059e-08 1.409242e-08 1.389022e-08 1.324498e-08 1.394688e-08 1.368413e-08 1.313554e-08 1.275243e-08 1.289481e-08
1.211884e-08 1.202309e-08 1.197959e-08 1.275551e-08 1.196806e-08 1.156770e-08 1.118446e-08 1.134712e-08 1.117168e-08 1.028769e-08
1.040056e-08 1.056837e-08 9.904325e-09 9.263659e-09 9.070551e-09 9.570218e-09 8.954522e-09 9.350708e-09 8.365341e-09 8.675257e-09
7.716863e-09 8.076943e-09 7.194281e-09 7.147487e-09 5.622892e-09 6.178284e-09 6.677089e-09 6.220901e-09 5.152995e-09 5.175209e-09
5.702368e-09 4.793625e-09 5.009757e-09 4.062485e-09 3.981217e-09 4.078437e-09 3.615578e-09 3.566278e-09 3.192702e-09 2.721084e-09
2.329772e-09 2.416153e-09 2.514314e-09 1.466884e-09 1.286052e-09 1.366996e-09 2.010365e-10 4.788792e-10 5.985974e-10 6.855146e-10
1.991411e-10 -1.307544e-09 -6.684104e-10 -1.640258e-10 -1.490366e-09 -1.737810e-09 -2.005698e-09 -2.228621e-09 -2.033058e-09 -1.287846e-09
-2.408513e-09 -3.165550e-09 -3.342312e-09 -3.107305e-09 -4.853556e-09 -3.621021e-09 -4.798929e-09 -3.678524e-09 -4.976627e-09 -5.636832e-09
-5.927140e-09 -6.071796e-09 -6.130127e-09 -6.415225e-09 -6.490255e-09 -7.614231e-09 -7.199001e-09 -7.089795e-09 -7.514274e-09 -7.341170e-09
-8.170947e-09 -8.616478e-09 -8.907216e-09 -8.956976e-09 -9.246610e-09 -9.994398e-09 -1.063172e-08 -9.737550e-09 -1.114816e-08 -1.098582e-08
-1.136884e-08 -1.147822e-08 -1.109332e-08 -1.179750e-08 -1.244111e-08 -1.220873e-08 -1.220466e-08 -1.241475e-08 -1.295163e-08 -1.318106e-08
-1.341733e-08 -1.265021e-08 -1.341237e-08 -1.370097e-08 -1.371038e-08 -1.412031e-08 -1.410415e-08 -1.383246e-08 -1.501654e-08 -1.436938e-08
-1.576016e-08 -1.507407e-08 -1.516311e-08 -1.494216e-08 -1.424072e-08 -1.485995e-08 -1.498191e-08 -1.604751e-08 -1.517222e-08 -1.480653e-08
-1.495606e-08 -1.496387e-08 -1.520440e-08 -1.533666e-08 -1.503376e-08 -1.540738e-08 -1.504981e-08 -1.549255e-08 -1.558231e-08 -1.484804e-08
-1.515351e-08 -1.477289e-08 -1.560908e-08 -1.535031e-08 -1.549400e-08 -1.645525e-08 -1.570729e-08 -1.604389e-08 -1.556079e-08 -1.518447e-08
-1.528387e-08
-1.510623e-08 -1.434322e-08 -1.409612e-08 -1.544513e-08 -1.460813e-08 -1.628021e-08 -1.477976e-08 -1.574826e-08 -1.534445e-08 -1.436457e-08
-1.474179e-08 -1.577528e-08 -1.503071e-08 -1.552817e-08 -1.520536e-08 -1.552227e-08 -1.481420e-08 -1.521127e-08 -1.599413e-08 -1.399543e-08
-1.502865e-08 -1.469043e-08 -1.470886e-08 -1.464509e-08 -1.444102e-08 -1.459550e-08 -1.421391e-08 -1.493440e-08 -1.435196e-08 -1.398362e-08
-1.365340e-08 -1.403576e-08 -1.441193e-08 -1.379067e-08 -1.360608e-08 -1.318834e-08 -1.276367e-08 -1.335399e-08 -1.241682e-08 -1.278770e-08
-1.185829e-08 -1.317279e-08 -1.219665e-08 -1.245342e-08 -1.139917e-08 -1.141798e-08 -1.117251e-08 -1.123407e-08 -1.060287e-08 -1.053100e-08
-1.063762e-08 -9.985617e-09 -1.020640e-08 -9.276900e-09 -9.656937e-09 -9.237922e-09 -9.445031e-09 -8.740023e-09 -8.759871e-09 -8.142724e-09
-7.830351e-09 -7.179924e-09 -7.089032e-09 -7.030692e-09 -7.014302e-09 -6.906922e-09 -6.009283e-09 -5.740086e-09 -5.916043e-09 -5.556862e-09
-5.237698e-09 -4.631499e-09 -5.196908e-09 -4.619345e-09 -4.400130e-09 -4.036145e-09 -3.491160e-09 -3.262458e-09 -3.604140e-09 -2.532044e-09
-2.090767e-09 -2.404686e-09 -1.997219e-09 -1.606229e-09 -1.543674e-09 -1.218946e-09 -3.704782e-10 3.751356e-10 -4.207355e-10 -5.455560e-10
1.088629e-09 -2.575656e-10 1.012022e-10 3.432530e-10 5.529249e-10 1.144671e-09 1.269339e-09 1.384652e-09 2.473709e-09 2.357316e-09
3.081842e-09 3.457421e-09 3.903285e-09 2.532657e-09 3.501486e-09 3.922579e-09 5.097436e-09 4.773986e-09 5.569609e-09 4.551211e-09
5.401585e-09 6.119993e-09 6.386870e-09 6.662590e-09 6.413683e-09 6.586589e-09 7.566531e-09 7.003127e-09 7.539575e-09 7.736298e-09
8.829311e-09 8.483192e-09 8.611576e-09 8.874772e-09 9.377393e-09 9.687351e-09 9.821449e-09 1.088166e-08 9.921024e-09 1.007023e-08
1.046317e-08 1.078411e-08 1.063313e-08 1.094399e-08 1.156221e-08 1.145742e-08 1.218594e-08 1.185853e-08 1.235960e-08 1.312315e-08
1.323439e-08 1.281195e-08 1.312371e-08 1.298120e-08 1.349648e-08 1.358601e-08 1.396367e-08 1.369880e-08 1.395641e-08 1.428495e-08
1.459907e-08 1.443351e-08 1.427910e-08 1.459096e-08 1.395213e-08 1.490746e-08 1.482433e-08 1.472911e-08 1.511448e-08 1.589401e-08
1.435077e-08 1.528854e-08 1.476660e-08 1.467924e-08 1.476516e-08 1.520151e-08 1.495688e-08 1.456222e-08 1.482806e-08 1.475339e-08
1.554103e-08 1.484687e-08 1.494541e-08 1.403976e-08 1.500501e-08 1.453139e-08 1.431598e-08 1.470901e-08 1.489039e-08 1.467387e-08
1.477751e-08 1.560401e-08 1.477062e-08 1.529109e-08 1.529308e-08 1.575660e-08 1.561485e-08 1.577338e-08 1.414894e-08 1.579993e-08
1.527673e-08 1.502458e-08 1.491108e-08 1.573840e-08 1.490675e-08 1.448777e-08 1.506894e-08 1.520383e-08 1.551996e-08 1.521955e-08
1.425260e-08 1.412223e-08 1.507095e-08 1.428432e-08 1.514771e-08 1.474948e-08 1.414250e-08 1.502027e-08 1.411519e-08 1.373223e-08
1.399162e-08 1.353113e-08 1.388271e-08 1.358556e-08 1.429024e-08 1.292854e-08 1.351696e-08 1.272420e-08 1.204788e-08 1.274052e-08
1.270726e-08 1.162258e-08 1.153203e-08 1.237218e-08 1.188247e-08 1.213009e-08 1.177004e-08 1.108359e-08 1.104531e-08 1.104944e-08
1.028771e-08 9.948478e-09 9.494496e-09 9.664593e-09 9.131583e-09 9.052655e-09 9.173140e-09 8.037229e-09 8.387155e-09 9.236881e-09
8.079154e-09 7.805649e-09 7.497802e-09 7.232158e-09 7.455185e-09 6.082316e-09 5.620346e-09 5.990794e-09 5.853642e-09 5.880045e-09
5.351519e-09 4.135625e-09 4.790182e-09 3.778354e-09 3.821438e-09 4.150960e-09 3.056504e-09 3.688641e-09 3.712024e-09 2.258963e-09
2.472370e-09 1.783802e-09 1.474934e-09 1.426164e-09 1.201806e-09 1.568385e-09 1.386864e-09 9.473037e-10 -4.285608e-10 1.743029e-10
-1.122221e-09 -7.702585e-10 -1.122158e-09 -1.305327e-09 -1.943366e-09 -1.645505e-09 -2.065880e-09 -1.887773e-09 -2.168604e-09 -2.115664e-09
-2.935838e-09 -3.627017e-09 -3.145900e-09 -2.988007e-09 -3.939117e-09 -4.534712e-09 -4.526720e-09 -4.469597e-09 -4.833315e-09 -4.743747e-09
-6.571959e-09 -5.112445e-09 -5.965572e-09 -5.653353e-09 -6.138448e-09 -6.847724e-09 -7.137762e-09 -7.691682e-09 -8.113955e-09 -7.830852e-09
-8.663275e-09 -8.472187e-09 -8.342983e-09 -8.684602e-09 -9.303620e-09 -9.496921e-09 -9.721881e-09 -1.031270e-08 -1.029831e-08 -1.079743e-08
-1.068272e-08 -1.136175e-08 -1.147196e-08 -1.229281e-08 -1.251122e-08 -1.199267e-08 -1.238082e-08 -1.194171e-08 -1.245357e-08 -1.293469e-08
-1.302539e-08 -1.283406e-08 -1.363932e-08 -1.364851e-08 -1.321863e-08 -1.312270e-08 -1.416624e-08 -1.445869e-08 -1.422848e-08 -1.508793e-08
-1.469479e-08 -1.443910e-08 -1.472182e-08 -1.467166e-08 -1.544933e-08 -1.475815e-08 -1.570714e-08 -1.495030e-08 -1.535896e-08 -1.551835e-08
-1.608579e-08 -1.560721e-08 -1.513022e-08 -1.530148e-08 -1.584685e-08 -1.458720e-08 -1.520303e-08 -1.555557e-08 -1.504659e-08 -1.483321e-08
-1.500141e-08 -1.457502e-08 -1.480036e-08 -1.501327e-08 -1.445356e-08 -1.517379e-08 -1.545718e-08 -1.527992e-08 -1.505802e-08 -1.474224e-08
-1.510623e-08
-1.482104e-08 -1.376117e-08 -1.437628e-08 -1.591893e-08 -1.459584e-08 -1.640714e-08 -1.589291e-08 -1.545161e-08 -1.567903e-08 -1.526170e-08
-1.397496e-08 -1.518020e-08 -1.582243e-08 -1.452843e-08 -1.463552e-08 -1.465858e-08 -1.457514e-08 -1.402709e-08 -1.486937e-08 -1.495825e-08
-1.491927e-08 -1.472123e-08 -1.448829e-08 -1.536394e-08 -1.520188e-08 -1.394000e-08 -1.445695e-08 -1.513016e-08 -1.365602e-08 -1.433930e-08
-1.404586e-08 -1.418774e-08 -1.409225e-08 -1.389964e-08 -1.377334e-08 -1.364246e-08 -1.343243e-08 -1.282100e-08 -1.241883e-08 -1.254466e-08
-1.238462e-08 -1.194165e-08 -1.227335e-08 -1.221374e-08 -1.175796e-08 -1.163848e-08 -1.117767e-08 -1.070370e-08 -1.070353e-08 -1.036913e-08
-1.077725e-08 -1.018725e-08 -1.011371e-08 -9.612645e-09 -1.009745e-08 -9.628915e-09 -8.931153e-09 -8.509049e-09 -8.044813e-09 -8.330341e-09
-8.352224e-09 -8.069560e-09 -7.177557e-09 -6.797506e-09 -6.267025e-09 -6.448991e-09 -5.855200e-09 -6.368290e-09 -5.500866e-09 -5.428225e-09
-5.288276e-09 -4.316537e-09 -4.567581e-09 -3.873811e-09 -4.160924e-09 -3.753915e-09 -3.401647e-09 -2.225630e-09 -3.756224e-09 -2.625749e-09
-2.066500e-09 -2.869874e-09 -1.958367e-09 -1.280821e-09 -1.569355e-09 -9.376352e-10 -1.708781e-09 -1.050972e-09 5.806125e-11 1.027091e-10
3.778697e-10 2.796059e-10 -7.637202e-11 8.917409e-10 1.623961e-09 5.216750e-10 2.216025e-09 1.490897e-09 2.364005e-09 2.532376e-09
2.336622e-09 2.870269e-09 2.724885e-09 3.838569e-09 3.584249e-09 4.269511e-09 4.837772e-09 4.564418e-09 5.064623e-09 4.829689e-09
5.081786e-09 4.647533e-09 5.598480e-09 6.141395e-09 6.596352e-09 6.306701e-09 6.767475e-09 6.788833e-09 7.369430e-09 7.696442e-09
8.351949e-09 8.121076e-09 8.405404e-09 8.976733e-09 8.677091e-09 9.093399e-09 9.932492e-09 9.281856e-09 9.929091e-09 1.004368e-08
1.079822e-08 1.035194e-08 1.065836e-08 1.080495e-08 1.119319e-08 1.119427e-08 1.145369e-08 1.149835e-08 1.176088e-08 1.210005e-08
1.165801e-08 1.245727e-08 1.266032e-08 1.280442e-08 1.302508e-08 1.330080e-08 1.282111e-08 1.355804e-08 1.418249e-08 1.363157e-08
1.401250e-08 1.375389e-08 1.398794e-08 1.402364e-08 1.371831e-08 1.414092e-08 1.437451e-08 1.446302e-08 1.487755e-08 1.492981e-08
1.457972e-08 1.408810e-08 1.493731e-08 1.491553e-08 1.562056e-08 1.461079e-08 1.439121e-08 1.453862e-08 1.394561e-08 1.503425e-08
1.460999e-08 1.399461e-08 1.425335e-08 1.497621e-08 1.529811e-08 1.536203e-08 1.413895e-08 1.588914e-08 1.409618e-08 1.501260e-08
1.412001e-08 1.493943e-08 1.547020e-08 1.501679e-08 1.472125e-08 1.418090e-08 1.387763e-08 1.460295e-08 1.468301e-08 1.478748e-08
1.464818e-08 1.424069e-08 1.529424e-08 1.431956e-08 1.429598e-08 1.401237e-08 1.480428e-08 1.486030e-08 1.559811e-08 1.507684e-08
1.453524e-08 1.408282e-08 1.451434e-08 1.465984e-08 1.488030e-08 1.469060e-08 1.399622e-08 1.429013e-08 1.410723e-08 1.353650e-08
1.320115e-08 1.335487e-08 1.376181e-08 1.376363e-08 1.318785e-08 1.326765e-08 1.290368e-08 1.245510e-08 1.323066e-08 1.185099e-08
1.165289e-08 1.281441e-08 1.260306e-08 1.120954e-08 1.120446e-08 1.111001e-08 1.110409e-08 1.094667e-08 1.051592e-08 1.054034e-08
1.036317e-08 9.331403e-09 9.817768e-09 9.117200e-09 9.136691e-09 8.597379e-09 8.218424e-09 8.211594e-09 8.454074e-09 7.952951e-09
7.223316e-09 7.656968e-09 6.849952e-09 7.067666e-09 6.570081e-09 6.587184e-09 6.138858e-09 5.384637e-09 5.356228e-09 5.422545e-09
5.211103e-09 4.574909e-09 4.866116e-09 3.985166e-09 3.287524e-09 3.023675e-09 2.698893e-09 3.615266e-09 2.859636e-09 2.727846e-09
1.385128e-09 1.298182e-09 8.099874e-10 1.577472e-09 -2.800445e-11 9.023386e-11 1.362639e-10 -9.475035e-11 -1.148001e-10 1.223192e-10
6.620890e-10 -3.292233e-10 -1.290373e-09 -6.080818e-10 -1.047263e-09 -1.087416e-09 -1.292174e-09 -1.512640e-09 -1.842626e-09 -2.969353e-09
-2.104384e-09 -3.383940e-09 -2.785285e-09 -2.823638e-09 -3.353844e-09 -3.193993e-09 -3.670668e-09 -4.425729e-09 -5.186196e-09 -5.176366e-09
-5.133762e-09 -5.574628e-09 -5.583397e-09 -6.653305e-09 -6.911824e-09 -7.728400e-09 -6.737098e-09 -7.184549e-09 -7.265334e-09 -8.206073e-09
-8.048259e-09 -8.200743e-09 -8.111205e-09 -8.989228e-09 -8.988225e-09 -9.453635e-09 -9.646778e-09 -9.853983e-09 -1.030120e-08 -1.117220e-08
-1.055397e-08 -1.121643e-08 -1.132971e-08 -1.058108e-08 -1.163164e-08 -1.232106e-08 -1.170177e-08 -1.220793e-08 -1.299232e-08 -1.228525e-08
-1.246486e-08 -1.234334e-08 -1.276481e-08 -1.261890e-08 -1.286862e-08 -1.336833e-08 -1.408760e-08 -1.409977e-08 -1.416722e-08 -1.419225e-08
-1.435480e-08 -1.448167e-08 -1.496482e-08 -1.396319e-08 -1.425591e-08 -1.559616e-08 -1.448323e-08 -1.525416e-08 -1.558423e-08 -1.430359e-08
-1.418154e-08 -1.601579e-08 -1.420607e-08 -1.569866e-08 -1.499649e-08 -1.469067e-08 -1.438165e-08 -1.541188e-08 -1.464548e-08 -1.479305e-08
-1.477758e-08 -1.476494e-08 -1.480449e-08 -1.557874e-08 -1.563213e-08 -1.459208e-08 -1.613519e-08 -1.484449e-08 -1.522442e-08 -1.550807e-08
-1.482104e-08
-1.431056e-08 -1.455233e-08 -1.435302e-08 -1.487527e-08 -1.503009e-08 -1.511243e-08 -1.459774e-08 -1.505705e-08 -1.515496e-08 -1.476963e-08
-1.489402e-08 -1.544449e-08 -1.524386e-08 -1.476792e-08 -1.464742e-08 -1.493339e-08 -1.467548e-08 -1.540689e-08 -1.401953e-08 -1.436453e-08
-1.476182e-08 -1.467063e-08 -1.476225e-08 -1.453870e-08 -1.456337e-08 -1.384294e-08 -1.449429e-08 -1.358793e-08 -1.427100e-08 -1.420981e-08
-1.332442e-08 -1.406421e-08 -1.341119e-08 -1.293098e-08 -1.377972e-08 -1.308994e-08 -1.304219e-08 -1.304105e-08 -1.218269e-08 -1.250549e-08
-1.235563e-08 -1.209943e-08 -1.178039e-08 -1.154132e-08 -1.160971e-08 -1.147258e-08 -1.080420e-08 -1.105725e-08 -1.083984e-08 -1.055939e-08
-1.005196e-08 -9.661211e-09 -9.492747e-09 -9.727880e-09 -9.051622e-09 -8.983686e-09 -8.554818e-09 -8.413308e-09 -8.489064e-09 -7.522753e-09
-8.216298e-09 -7.911125e-09 -6.928651e-09 -6.277317e-09 -6.152777e-09 -6.168177e-09 -6.175223e-09 -5.926613e-09 -5.487068e-09 -4.819381e-09
-4.736487e-09 -4.906854e-09 -4.615096e-09 -3.801143e-09 -3.401123e-09 -3.736810e-09 -3.478775e-09 -2.658239e-09 -2.647657e-09 -3.032158e-09
-2.610806e-09 -2.598859e-09 -1.856784e-09 -2.119264e-09 -1.533712e-09 -1.632185e-09 -1.902173e-10 -4.675741e-10 -4.919845e-10 2.575092e-10
1.993846e-10 -1.028322e-10 5.843745e-10 8.396119e-10 3.213086e-10 1.671525e-09 1.432424e-09 2.132362e-09 1.871021e-09 2.388634e-09
2.411488e-09 2.880676e-09 3.468174e-09 3.565718e-09 4.013311e-09 4.751305e-09 4.375340e-09 4.003890e-09 4.589315e-09 4.383136e-09
4.652041e-09 5.698572e-09 5.552457e-09 5.526390e-09 5.999161e-09 6.673524e-09 7.154790e-09 7.763778e-09 7.702301e-09 7.905544e-09
8.058531e-09 8.483266e-09 8.810673e-09 9.034641e-09 9.365830e-09 8.953545e-09 9.789296e-09 9.503007e-09 9.754380e-09 1.013332e-08
9.911624e-09 1.029047e-08 1.071766e-08 1.119090e-08 1.115896e-08 1.071755e-08 1.151168e-08 1.165833e-08 1.166502e-08 1.167742e-08
1.258508e-08 1.249127e-08 1.317278e-08 1.278833e-08 1.301527e-08 1.244316e-08 1.304111e-08 1.251775e-08 1.294076e-08 1.339472e-08
1.359688e-08 1.347113e-08 1.334297e-08 1.393234e-08 1.383036e-08 1.405237e-08 1.524730e-08 1.383007e-08 1.401447e-08 1.440272e-08
1.379489e-08 1.438032e-08 1.480760e-08 1.450202e-08 1.479146e-08 1.475399e-08 1.406450e-08 1.474578e-08 1.470515e-08 1.350251e-08
1.585398e-08 1.525556e-08 1.443274e-08 1.435902e-08 1.488965e-08 1.423697e-08 1.443244e-08 1.410275e-08 1.380124e-08 1.468990e-08
1.537238e-08 1.465706e-08 1.462494e-08 1.448799e-08 1.496846e-08 1.500840e-08 1.445337e-08 1.429044e-08 1.458367e-08 1.476270e-08
1.407859e-08 1.436191e-08 1.552841e-08 1.445751e-08 1.447704e-08 1.487921e-08 1.491798e-08 1.434672e-08 1.447092e-08 1.412458e-08
1.392908e-08 1.438240e-08 1.410521e-08 1.425124e-08 1.440110e-08 1.430766e-08 1.398322e-08 1.440343e-08 1.318642e-08 1.347444e-08
1.309953e-08 1.306214e-08 1.275837e-08 1.319876e-08 1.290641e-08 1.276795e-08 1.267777e-08 1.273067e-08 1.209104e-08 1.188962e-08
1.224401e-08 1.201386e-08 1.122856e-08 1.125617e-08 1.103140e-08 1.058209e-08 1.134983e-08 1.040239e-08 1.069878e-08 1.032119e-08
1.026816e-08 9.663526e-09 9.573598e-09 8.937833e-09 8.762648e-09 8.659899e-09 7.877002e-09 7.827407e-09 8.608232e-09 7.651839e-09
7.130263e-09 7.570772e-09 6.706221e-09 7.195506e-09 6.274919e-09 6.402775e-09 5.682143e-09 5.523372e-09 5.684711e-09 4.787720e-09
4.842060e-09 4.898764e-09 4.445350e-09 3.554829e-09 3.661479e-09 3.487490e-09 2.767950e-09 2.871656e-09 2.170829e-09 3.064985e-09
2.816689e-09 1.612562e-09 8.120024e-10 7.369351e-10 1.003124e-09 1.604392e-09 1.458524e-09 1.139323e-10 1.218119e-09 -6.514947e-10
-3.563550e-10 -3.652534e-10 -8.684299e-10 2.367634e-10 -1.777023e-12 -1.684428e-09 -1.665890e-09 -2.333228e-09 -2.687665e-09 -2.285151e-09
-2.319006e-09 -3.653871e-09 -3.491702e-09 -2.987372e-09 -4.483052e-09 -2.934937e-09 -4.631272e-09 -4.070745e-09 -4.675750e-09 -4.848697e-09
-5.185193e-09 -4.840178e-09 -5.992843e-09 -5.606351e-09 -6.000803e-09 -6.775843e-09 -6.813329e-09 -7.351270e-09 -8.052615e-09 -7.906284e-09
-7.628140e-09 -8.316579e-09 -8.361592e-09 -8.976870e-09 -9.009722e-09 -8.906363e-09 -9.564417e-09 -9.542266e-09 -9.455989e-09 -1.003286e-08
-1.112512e-08 -1.078909e-08 -1.045449e-08 -1.140433e-08 -1.115050e-08 -1.163126e-08 -1.206519e-08 -1.220723e-08 -1.168996e-08 -1.285244e-08
-1.277236e-08 -1.270076e-08 -1.254026e-08 -1.345846e-08 -1.285458e-08 -1.257499e-08 -1.394113e-08 -1.298297e-08 -1.364084e-08 -1.357608e-08
-1.404119e-08 -1.322403e-08 -1.395265e-08 -1.396372e-08 -1.437747e-08 -1.385220e-08 -1.435524e-08 -1.438287e-08 -1.445009e-08 -1.490234e-08
-1.514937e-08 -1.496837e-08 -1.503520e-08 -1.420555e-08 -1.541670e-08 -1.468065e-08 -1.507128e-08 -1.442135e-08 -1.462629e-08 -1.510459e-08
-1.494245e-08 -1.477090e-08 -1.401958e-08 -1.479567e-08 -1.487623e-08 -1.487586e-08 -1.509842e-08 -1.462644e-08 -1.501112e-08 -1.399056e-08
-1.431056e-08
-1.337524e-08 -1.359593e-08 -1.362799e-08 -1.394501e-08 -1.403466e-08 -1.412476e-08 -1.422943e-08 -1.378969e-08 -1.375713e-08 -1.451248e-08
-1.543021e-08 -1.384717e-08 -1.516894e-08 -1.395004e-08 -1.442279e-08 -1.487883e-08 -1.495187e-08 -1.518332e-08 -1.480819e-08 -1.421311e-08
-1.368200e-08 -1.438435e-08 -1.440996e-08 -1.392573e-08 -1.435582e-08 -1.400407e-08 -1.408413e-08 -1.337926e-08 -1.408473e-08 -1.283563e-08
-1.341448e-08 -1.325747e-08 -1.288338e-08 -1.315064e-08 -1.338347e-08 -1.301419e-08 -1.217035e-08 -1.247786e-08 -1.255195e-08 -1.259247e-08
-1.169587e-08 -1.196429e-08 -1.147324e-08 -1.114024e-08 -1.131975e-08 -1.053880e-08 -1.044230e-08 -1.046512e-08 -1.025462e-08 -1.012530e-08
-9.672786e-09 -9.145602e-09 -8.797350e-09 -9.127176e-09 -8.865080e-09 -8.785180e-09 -8.347263e-09 -8.168169e-09 -7.880778e-09 -8.063424e-09
-7.869998e-09 -7.194262e-09 -7.258842e-09 -6.604118e-09 -6.702644e-09 -6.404494e-09 -6.168206e-09 -5.772944e-09 -5.452833e-09 -5.380011e-09
-4.909278e-09 -4.504644e-09 -3.593347e-09 -4.981290e-09 -4.593932e-09 -3.366720e-09 -3.353147e-09 -2.871754e-09 -2.942945e-09 -2.523409e-09
-2.466161e-09 -2.261273e-09 -1.876391e-09 -1.572494e-09 -5.352757e-10 -7.757988e-10 -7.273843e-10 -9.582168e-11 -3.385745e-12 2.697137e-10
6.653095e-10 4.239430e-10 1.095772e-09 1.123807e-09 1.001056e-09 1.397033e-09 1.502484e-09 1.625934e-09 2.113932e-09 1.996642e-09
2.395235e-09 2.872151e-09 2.687350e-09 3.480101e-09 4.101908e-09 3.095304e-09 4.280078e-09 4.227640e-09 4.267266e-09 4.916728e-09
5.181269e-09 5.028696e-09 5.701526e-09 5.466023e-09 6.087964e-09 6.079997e-09 6.677902e-09 7.553111e-09 7.235470e-09 7.853997e-09
7.606136e-09 7.734641e-09 8.393171e-09 8.061130e-09 8.944820e-09 9.271450e-09 9.268386e-09 1.003497e-08 9.857330e-09 1.035236e-08
1.056400e-08 1.056939e-08 1.089077e-08 1.073236e-08 1.147714e-08 1.097666e-08 1.183117e-08 1.094838e-08 1.161868e-08 1.162848e-08
1.194675e-08 1.197328e-08 1.243270e-08 1.216462e-08 1.256570e-08 1.301952e-08 1.311052e-08 1.329618e-08 1.315489e-08 1.270955e-08
1.408751e-08 1.373331e-08 1.339444e-08 1.391765e-08 1.362416e-08 1.411236e-08 1.318115e-08 1.388271e-08 1.382017e-08 1.499208e-08
1.367283e-08 1.417210e-08 1.415404e-08 1.368566e-08 1.539779e-08 1.439405e-08 1.451115e-08 1.532433e-08 1.448844e-08 1.539273e-08
1.419947e-08 1.428144e-08 1.409084e-08 1.464621e-08 1.372775e-08 1.360292e-08 1.499746e-08 1.413098e-08 1.555863e-08 1.380278e-08
1.311121e-08 1.382183e-08 1.526874e-08 1.523037e-08 1.398233e-08 1.336868e-08 1.428545e-08 1.513148e-08 1.465685e-08 1.501746e-08
1.467046e-08 1.405995e-08 1.456906e-08 1.461856e-08 1.468863e-08 1.433927e-08 1.423459e-08 1.390099e-08 1.450966e-08 1.319279e-08
1.346229e-08 1.370848e-08 1.319460e-08 1.409558e-08 1.432942e-08 1.346060e-08 1.427988e-08 1.395447e-08 1.304974e-08 1.303365e-08
1.281114e-08 1.275866e-08 1.289157e-08 1.254734e-08 1.220518e-08 1.248556e-08 1.222304e-08 1.202569e-08 1.199374e-08 1.196937e-08
1.162582e-08 1.216403e-08 1.183337e-08 1.095590e-08 1.105498e-08 1.137651e-08 1.041531e-08 9.920200e-09 1.026154e-08 9.839876e-09
9.383933e-09 9.532299e-09 1.019235e-08 9.019825e-09 8.529898e-09 8.550411e-09 8.582260e-09 7.994017e-09 7.743091e-09 7.279642e-09
8.198017e-09 7.266638e-09 6.398455e-09 6.451634e-09 5.527296e-09 6.013622e-09 5.647730e-09 5.065914e-09 5.657183e-09 4.812841e-09
5.148669e-09 4.254560e-09 4.133605e-09 3.947610e-09 2.627208e-09 3.365082e-09 3.278719e-09 3.268091e-09 2.622945e-09 2.045490e-09
2.225456e-09 2.121116e-09 2.090052e-09 1.199747e-09 2.163148e-09 1.037793e-09 9.523387e-10 7.168917e-10 5.199827e-10 -2.925014e-10
-2.099172e-10 -6.956376e-11 -1.683894e-10 -7.802095e-10 -1.235206e-09 -1.485735e-09 -1.623435e-09 -2.042528e-09 -2.016755e-09 -2.135215e-09
-2.465803e-09 -2.356719e-09 -2.705757e-09 -3.151835e-09 -3.673656e-09 -3.659932e-09 -4.037445e-09 -4.827751e-09 -4.479587e-09 -4.316957e-09
-4.568142e-09 -5.216754e-09 -5.401601e-09 -6.142912e-09 -5.856917e-09 -6.271713e-09 -7.097222e-09 -6.833297e-09 -7.814816e-09 -7.679244e-09
-7.696465e-09 -8.135903e-09 -8.461080e-09 -8.530900e-09 -8.718540e-09 -8.884255e-09 -9.364210e-09 -1.005986e-08 -1.028438e-08 -9.805024e-09
-1.019099e-08 -1.040642e-08 -1.058496e-08 -1.122417e-08 -1.107284e-08 -1.154429e-08 -1.129741e-08 -1.134331e-08 -1.233822e-08 -1.219666e-08
-1.236427e-08 -1.239889e-08 -1.254640e-08 -1.239979e-08 -1.294994e-08 -1.323457e-08 -1.366179e-08 -1.317269e-08 -1.343736e-08 -1.348756e-08
-1.357015e-08 -1.385323e-08 -1.312342e-08 -1.442010e-08 -1.344393e-08 -1.383766e-08 -1.382276e-08 -1.366649e-08 -1.440512e-08 -1.447691e-08
-1.430527e-08 -1.429548e-08 -1.488278e-08 -1.425715e-08 -1.473044e-08 -1.476100e-08 -1.400840e-08 -1.408115e-08 -1.413854e-08 -1.463988e-08
-1.428001e-08 -1.528126e-08 -1.394112e-08 -1.380836e-08 -1.418692e-08 -1.493150e-08 -1.354490e-08 -1.428500e-08 -1.481059e-08 -1.422207e-08
-1.337524e-08
-1.352511e-08 -1.428974e-08 -1.318858e-08 -1.299291e-08 -1.415799e-08 -1.367596e-08 -1.359906e-08 -1.438825e-08 -1.456505e-08 -1.347348e-08
-1.395123e-08 -1.300884e-08 -1.347733e-08 -1.437344e-08 -1.446291e-08 -1.499231e-08 -1.413441e-08 -1.402181e-08 -1.393898e-08 -1.456729e-08
-1.417089e-08 -1.456970e-08 -1.411397e-08 -1.391341e-08 -1.373676e-08 -1.363661e-08 -1.354620e-08 -1.335569e-08 -1.420939e-08 -1.351165e-08
-1.317115e-08 -1.341683e-08 -1.298020e-08 -1.243659e-08 -1.252374e-08 -1.282771e-08 -1.177522e-08 -1.227314e-08 -1.161591e-08 -1.148162e-08
-1.189150e-08 -1.137430e-08 -1.110201e-08 -1.132894e-08 -1.053435e-08 -1.116208e-08 -1.019480e-08 -9.796575e-09 -1.028517e-08 -1.025785e-08
-9.685426e-09 -9.125833e-09 -9.029397e-09 -8.978512e-09 -8.580611e-09 -8.491416e-09 -8.508661e-09 -8.041526e-09 -7.756511e-09 -7.417186e-09
-7.345855e-09 -7.034911e-09 -7.816888e-09 -6.236839e-09 -6.191308e-09 -6.900017e-09 -5.552355e-09 -5.685887e-09 -4.620906e-09 -4.833888e-09
-5.035116e-09 -4.474068e-09 -4.663961e-09 -4.187681e-09 -3.592951e-09 -3.479640e-09 -3.717074e-09 -3.673549e-09 -3.207353e-09 -3.137651e-09
-2.138845e-09 -1.398260e-09 -2.071209e-09 -1.450841e-09 -1.648252e-09 -1.182181e-09 -7.379375e-10 -5.531127e-10 -1.394691e-09 -5.111356e-10
-6.645147e-10 6.069030e-10 4.568670e-10 7.599679e-10 1.341263e-09 9.036141e-10 1.880930e-09 1.943605e-09 1.772222e-09 2.103546e-09
2.885886e-09 2.144803e-09 3.542644e-09 3.117319e-09 3.252335e-09 3.449743e-09 4.185940e-09 4.702558e-09 4.283973e-09 5.023419e-09
4.518061e-09 5.594366e-09 5.532829e-09 5.846178e-09 6.487156e-09 6.007721e-09 6.771338e-09 7.448879e-09 6.957272e-09 7.565517e-09
7.709589e-09 7.530308e-09 7.834501e-09 8.689912e-09 8.350800e-09 8.883478e-09 8.974548e-09 9.090642e-09 9.601643e-09 9.633028e-09
1.021380e-08 1.011620e-08 1.055561e-08 1.067191e-08 1.085787e-08 1.054698e-08 1.124800e-08 1.186933e-08 1.185972e-08 1.112549e-08
1.162175e-08 1.170463e-08 1.146985e-08 1.237882e-08 1.205339e-08 1.223659e-08 1.228801e-08 1.253094e-08 1.261376e-08 1.340275e-08
1.326179e-08 1.317443e-08 1.299317e-08 1.387615e-08 1.286778e-08 1.431039e-08 1.358772e-08 1.372555e-08 1.408394e-08 1.359076e-08
1.357402e-08 1.415024e-08 1.300295e-08 1.425850e-08 1.366222e-08 1.398891e-08 1.445538e-08 1.361411e-08 1.423789e-08 1.332756e-08
1.326614e-08 1.445986e-08 1.391339e-08 1.360272e-08 1.373223e-08 1.376144e-08 1.419467e-08 1.331240e-08 1.373331e-08 1.391448e-08
1.388697e-08 1.458019e-08 1.311111e-08 1.354552e-08 1.475365e-08 1.336241e-08 1.363986e-08 1.381175e-08 1.449747e-08 1.345224e-08
1.376662e-08 1.396835e-08 1.393186e-08 1.403392e-08 1.446482e-08 1.374427e-08 1.306486e-08 1.412562e-08 1.329178e-08 1.473417e-08
1.417352e-08 1.406267e-08 1.372405e-08 1.287387e-08 1.390107e-08 1.357301e-08 1.341888e-08 1.282590e-08 1.310595e-08 1.317315e-08
1.332392e-08 1.280322e-08 1.233246e-08 1.247847e-08 1.287887e-08 1.177903e-08 1.177754e-08 1.202963e-08 1.169456e-08 1.126435e-08
1.158620e-08 1.134228e-08 1.071213e-08 1.093480e-08 1.069408e-08 1.033978e-08 1.046578e-08 1.020557e-08 9.717703e-09 9.614120e-09
9.151051e-09 9.594782e-09 8.500315e-09 9.275261e-09 9.096144e-09 8.864828e-09 7.793402e-09 7.848023e-09 7.552462e-09 7.179979e-09
6.999664e-09 6.505031e-09 6.786520e-09 6.326071e-09 6.355545e-09 6.130416e-09 5.751852e-09 5.491341e-09 5.110580e-09 5.261072e-09
4.955487e-09 5.070602e-09 3.682282e-09 4.180620e-09 3.106617e-09 2.769656e-09 3.121260e-09 3.541863e-09 3.221370e-09 1.749223e-09
2.353066e-09 2.363928e-09 1.413049e-09 1.346945e-09 9.283130e-10 5.446685e-10 1.409759e-09 7.347902e-10 9.190944e-12 3.012270e-10
5.026409e-10 -3.738108e-10 -1.567886e-09 -4.704213e-10 -8.735822e-10 -8.786205e-10 -1.411821e-09 -1.956405e-09 -2.759652e-09 -2.305095e-09
-1.745707e-09 -3.797526e-09 -3.034825e-09 -3.629997e-09 -3.094344e-09 -4.141100e-09 -3.877680e-09 -4.484363e-09 -4.643182e-09 -5.326219e-09
-4.385435e-09 -5.096401e-09 -5.556698e-09 -5.961848e-09 -5.845115e-09 -6.470774e-09 -6.257140e-09 -7.329103e-09 -8.019396e-09 -7.029688e-09
-8.202771e-09 -8.099962e-09 -8.664435e-09 -8.595870e-09 -8.470238e-09 -8.542917e-09 -8.872441e-09 -8.989682e-09 -9.861986e-09 -9.815017e-09
-1.053819e-08 -9.820137e-09 -1.031334e-08 -1.004833e-08 -1.105703e-08 -1.079762e-08 -1.114067e-08 -1.120938e-08 -1.121064e-08 -1.156969e-08
-1.196945e-08 -1.216906e-08 -1.180992e-08 -1.222926e-08 -1.247911e-08 -1.223094e-08 -1.299196e-08 -1.273950e-08 -1.380078e-08 -1.312152e-08
-1.272505e-08 -1.374540e-08 -1.334417e-08 -1.443225e-08 -1.418579e-08 -1.373774e-08 -1.280875e-08 -1.463790e-08 -1.313254e-08 -1.450447e-08
-1.351996e-08 -1.421844e-08 -1.489997e-08 -1.460343e-08 -1.360559e-08 -1.357492e-08 -1.475815e-08 -1.418468e-08 -1.383308e-08 -1.475849e-08
-1.351885e-08 -1.378111e-08 -1.459792e-08 -1.388025e-08 -1.439773e-08 -1.337454e-08 -1.459555e-08 -1.396447e-08 -1.307158e-08 -1.321387e-08
-1.352511e-08
-1.365881e-08 -1.281028e-08 -1.331541e-08 -1.306197e-08 -1.439974e-08 -1.437893e-08 -1.399255e-08 -1.360954e-08 -1.351541e-08 -1.365126e-08
-1.391184e-08 -1.444287e-08 -1.378393e-08 -1.363971e-08 -1.407391e-08 -1.449374e-08 -1.312290e-08 -1.381244e-08 -1.370413e-08 -1.379847e-08
-1.377691e-08 -1.391253e-08 -1.309433e-08 -1.310755e-08 -1.449281e-08 -1.403700e-08 -1.379027e-08 -1.306483e-08 -1.370402e-08 -1.348453e-08
-1.215736e-08 -1.317184e-08 -1.298001e-08 -1.197183e-08 -1.232158e-08 -1.221787e-08 -1.209485e-08 -1.199462e-08 -1.127758e-08 -1.146183e-08
-1.142960e-08 -1.117668e-08 -1.123031e-08 -1.111636e-08 -1.095901e-08 -1.020684e-08 -1.045919e-08 -1.072062e-08 -9.742747e-09 -9.810550e-09
-9.588024e-09 -9.400932e-09 -8.787542e-09 -8.996818e-09 -8.451645e-09 -8.060891e-09 -8.387516e-09 -7.915106e-09 -7.692361e-09 -7.442020e-09
-7.527688e-09 -6.865884e-09 -6.385065e-09 -6.412945e-09 -6.030914e-09 -6.113368e-09 -5.590211e-09 -5.677676e-09 -5.899462e-09 -5.042673e-09
-4.558276e-09 -4.323320e-09 -4.012818e-09 -4.404160e-09 -3.083257e-09 -3.945448e-09 -3.366482e-09 -3.110467e-09 -2.233975e-09 -2.522125e-09
-1.998505e-09 -1.451109e-09 -1.942874e-09 -1.635176e-09 -1.208676e-09 -1.020963e-09 -1.155727e-09 -7.070665e-10 -5.221212e-10 2.358760e-10
2.802041e-11 1.301747e-10 1.163860e-09 1.070802e-09 1.073696e-09 1.349695e-09 1.170554e-09 1.372781e-09 1.331999e-09 2.122000e-09
2.494724e-09 2.695336e-09 3.096880e-09 2.537779e-09 3.318333e-09 3.725313e-09 3.997925e-09 4.277656e-09 3.910398e-09 4.741818e-09
4.977499e-09 5.179007e-09 5.712861e-09 5.374055e-09 6.352931e-09 5.767163e-09 5.949146e-09 6.456406e-09 7.137365e-09 6.989277e-09
7.704094e-09 7.453004e-09 7.683227e-09 8.484530e-09 9.343218e-09 8.695813e-09 8.337736e-09 9.680483e-09 9.542505e-09 9.761411e-09
1.018693e-08 9.854561e-09 9.910635e-09 1.042752e-08 1.064679e-08 1.089370e-08 1.107162e-08 1.087661e-08 1.075259e-08 1.186216e-08
1.157430e-08 1.155044e-08 1.193018e-08 1.210800e-08 1.117192e-08 1.194386e-08 1.259935e-08 1.154573e-08 1.266744e-08 1.263094e-08
1.273079e-08 1.326046e-08 1.318786e-08 1.290033e-08 1.304908e-08 1.300706e-08 1.351423e-08 1.334109e-08 1.259869e-08 1.411286e-08
1.292091e-08 1.383041e-08 1.426401e-08 1.351524e-08 1.416167e-08 1.354345e-08 1.371080e-08 1.323593e-08 1.389878e-08 1.389660e-08
1.372057e-08 1.389143e-08 1.453667e-08 1.334051e-08 1.370194e-08 1.321702e-08 1.381543e-08 1.347798e-08 1.279189e-08 1.371635e-08
1.437561e-08 1.311479e-08 1.332837e-08 1.303855e-08 1.413025e-08 1.404984e-08 1.400246e-08 1.405570e-08 1.400035e-08 1.345021e-08
1.360153e-08 1.416832e-08 1.437295e-08 1.388173e-08 1.404095e-08 1.351177e-08 1.347584e-08 1.303295e-08 1.354201e-08 1.329901e-08
1.377589e-08 1.378361e-08 1.374629e-08 1.413953e-08 1.341861e-08 1.321286e-08 1.270469e-08 1.294306e-08 1.270568e-08 1.265921e-08
1.295034e-08 1.269632e-08 1.206059e-08 1.213763e-08 1.201812e-08 1.244416e-08 1.194763e-08 1.183032e-08 1.184129e-08 1.179167e-08
1.130053e-08 1.097681e-08 1.046594e-08 1.014309e-08 1.069028e-08 1.045491e-08 9.487093e-09 9.616582e-09 9.610418e-09 9.529827e-09
9.198348e-09 8.930477e-09 8.462817e-09 9.219218e-09 8.465821e-09 8.352444e-09 8.359743e-09 8.413882e-09 6.915369e-09 6.987589e-09
6.712989e-09 6.512654e-09 6.911379e-09 6.436558e-09 5.952449e-09 5.553728e-09 6.257113e-09 5.346641e-09 4.903743e-09 4.958775e-09
5.320127e-09 4.157572e-09 4.046147e-09 3.732749e-09 2.976447e-09 3.231937e-09 2.855466e-09 3.576069e-09 2.409941e-09 2.417922e-09
1.999118e-09 1.773102e-09 2.293664e-09 9.254519e-10 1.583197e-09 1.340837e-09 4.696284e-10 -4.334386e-10 3.186869e-10 1.340366e-10
6.418280e-10 7.060399e-11 -8.111485e-10 -6.352985e-10 -9.170398e-10 -1.316485e-09 -1.621928e-09 -1.602502e-09 -1.977562e-09 -3.246273e-09
-1.996921e-09 -2.461797e-09 -3.535310e-09 -2.935800e-09 -2.929061e-09 -3.874205e-09 -3.643631e-09 -4.181515e-09 -4.736028e-09 -4.559011e-09
-5.170139e-09 -4.843854e-09 -4.894481e-09 -5.794025e-09 -5.933453e-09 -5.856645e-09 -6.284498e-09 -6.881368e-09 -6.883533e-09 -7.060672e-09
-7.354405e-09 -7.384113e-09 -7.668189e-09 -8.766198e-09 -8.440504e-09 -8.462597e-09 -9.329546e-09 -9.127867e-09 -8.948470e-09 -9.925222e-09
-9.801813e-09 -9.789154e-09 -1.067366e-08 -1.086241e-08 -1.032236e-08 -1.073340e-08 -1.097734e-08 -1.130543e-08 -1.137938e-08 -1.180690e-08
-1.224806e-08 -1.195370e-08 -1.227365e-08 -1.138721e-08 -1.264738e-08 -1.246531e-08 -1.223384e-08 -1.227863e-08 -1.239119e-08 -1.357639e-08
-1.285637e-08 -1.277420e-08 -1.362067e-08 -1.376676e-08 -1.397025e-08 -1.390528e-08 -1.358620e-08 -1.369115e-08 -1.306678e-08 -1.366513e-08
-1.329169e-08 -1.403695e-08 -1.410144e-08 -1.351055e-08 -1.396243e-08 -1.513534e-08 -1.462526e-08 -1.446803e-08 -1.390951e-08 -1.390435e-08
-1.339078e-08 -1.296902e-08 -1.289945e-08 -1.354920e-08 -1.394027e-08 -1.382397e-08 -1.283009e-08 -1.326871e-08 -1.301825e-08 -1.469915e-08
-1.365881e-08
-1.248255e-08 -1.437153e-08 -1.374541e-08 -1.336544e-08 -1.350701e-08 -1.345804e-08 -1.343012e-08 -1.333742e-08 -1.336365e-08 -1.291388e-08
-1.439124e-08 -1.330641e-08 -1.342311e-08 -1.315165e-08 -1.459503e-08 -1.412518e-08 -1.344698e-08 -1.367564e-08 -1.355998e-08 -1.346550e-08
-1.384984e-08 -1.442891e-08 -1.367554e-08 -1.350449e-08 -1.335092e-08 -1.298926e-08 -1.225573e-08 -1.359999e-08 -1.331840e-08 -1.337688e-08
-1.259166e-08 -1.315502e-08 -1.208908e-08 -1.240403e-08 -1.276352e-08 -1.156224e-08 -1.160322e-08 -1.192412e-08 -1.126610e-08 -1.124590e-08
-1.099466e-08 -1.139352e-08 -1.149339e-08 -1.027322e-08 -9.998026e-09 -1.084093e-08 -9.988491e-09 -1.019480e-08 -9.759317e-09 -9.351124e-09
-9.362229e-09 -8.984198e-09 -8.804778e-09 -8.380248e-09 -8.335484e-09 -8.201852e-09 -7.798710e-09 -7.622749e-09 -7.531653e-09 -7.222352e-09
-6.635783e-09 -7.306598e-09 -7.149910e-09 -6.446630e-09 -6.326623e-09 -5.918199e-09 -5.765248e-09 -5.512923e-09 -4.954663e-09 -4.951090e-09
-4.724293e-09 -4.327255e-09 -4.486499e-09 -3.976086e-09 -3.262424e-09 -2.884843e-09 -2.670216e-09 -2.594175e-09 -2.849850e-09 -2.406445e-09
-2.132528e-09 -1.855944e-09 -2.108506e-09 -9.771841e-10 -1.652268e-09 -2.990335e-10 -8.887999e-10 -1.183181e-09 -4.454266e-10 -1.527825e-10
-1.453833e-10 -1.392707e-10 4.307533e-10 8.637453e-10 1.128505e-10 1.384011e-09 1.501990e-09 1.972236e-09 1.636835e-09 1.931340e-09
1.880651e-09 2.997812e-09 2.641886e-09 3.084608e-09 3.017168e-09 3.375652e-09 3.463720e-09 4.108115e-09 4.349161e-09 4.555478e-09
5.167598e-09 5.172787e-09 5.335632e-09 5.268770e-09 5.381618e-09 5.952806e-09 6.435290e-09 6.451582e-09 6.598894e-09 7.015970e-09
7.505686e-09 8.377004e-09 8.195649e-09 8.325313e-09 8.432081e-09 8.245727e-09 8.925460e-09 8.666718e-09 8.851344e-09 9.304061e-09
9.661353e-09 9.632729e-09 1.002166e-08 1.044157e-08 9.895657e-09 1.069584e-08 1.058821e-08 1.097761e-08 1.145637e-08 1.119320e-08
1.101188e-08 1.200266e-08 1.168911e-08 1.185449e-08 1.132303e-08 1.224030e-08 1.185110e-08 1.232326e-08 1.232678e-08 1.333370e-08
1.260480e-08 1.265019e-08 1.239993e-08 1.251841e-08 1.377344e-08 1.231874e-08 1.313209e-08 1.287309e-08 1.314184e-08 1.272016e-08
1.379274e-08 1.334725e-08 1.317905e-08 1.311303e-08 1.346795e-08 1.322701e-08 1.308579e-08 1.359774e-08 1.333518e-08 1.392196e-08
1.347720e-08 1.299044e-08 1.354914e-08 1.389372e-08 1.366665e-08 1.317292e-08 1.361483e-08 1.372956e-08 1.362084e-08 1.296489e-08
1.347464e-08 1.266260e-08 1.433703e-08 1.324898e-08 1.329032e-08 1.334217e-08 1.283779e-08 1.448972e-08 1.285872e-08 1.368863e-08
1.356863e-08 1.327830e-08 1.330807e-08 1.337485e-08 1.370872e-08 1.309095e-08 1.293451e-08 1.299604e-08 1.315840e-08 1.327342e-08
1.383113e-08 1.281932e-08 1.304388e-08 1.284557e-08 1.277931e-08 1.314308e-08 1.267461e-08 1.256440e-08 1.270111e-08 1.309765e-08
1.281754e-08 1.229243e-08 1.203072e-08 1.246034e-08 1.214786e-08 1.207978e-08 1.163258e-08 1.138575e-08 1.103645e-08 1.095788e-08
1.094244e-08 1.067702e-08 1.067138e-08 1.043826e-08 1.007693e-08 9.775621e-09 9.796255e-09 9.756362e-09 9.338101e-09 8.953656e-09
8.782984e-09 8.594380e-09 9.127281e-09 8.709293e-09 8.179306e-09 7.651097e-09 7.962099e-09 7.388467e-09 7.690736e-09 7.706036e-09
7.036972e-09 6.295716e-09 6.342578e-09 6.191369e-09 5.943057e-09 5.615604e-09 5.560516e-09 5.318586e-09 4.902404e-09 5.102882e-09
3.948787e-09 4.615671e-09 3.654374e-09 4.158712e-09 3.284586e-09 2.850473e-09 2.388739e-09 3.397291e-09 2.683195e-09 1.725123e-09
1.947494e-09 1.790568e-09 1.795624e-09 1.363421e-09 1.197971e-09 1.579544e-09 3.573605e-10 1.127179e-09 2.962481e-10 3.016480e-10
-3.985759e-10 -4.474722e-10 -6.280849e-10 -9.450530e-10 -1.612928e-09 -9.348592e-10 -1.389149e-09 -1.973607e-09 -1.093637e-09 -2.647025e-09
-2.079739e-09 -2.722557e-09 -2.370817e-09 -2.624508e-09 -3.102836e-09 -3.913257e-09 -3.895496e-09 -4.098274e-09 -4.125107e-09 -4.516848e-09
-5.561319e-09 -5.839839e-09 -5.183777e-09 -6.225001e-09 -5.564653e-09 -5.951529e-09 -6.261721e-09 -6.355975e-09 -6.446802e-09 -7.369856e-09
-7.119887e-09 -7.780309e-09 -7.582311e-09 -8.369899e-09 -7.591955e-09 -7.972736e-09 -8.856088e-09 -8.846368e-09 -9.187186e-09 -9.039350e-09
-9.135416e-09 -9.584771e-09 -9.880808e-09 -1.019159e-08 -1.065102e-08 -1.121165e-08 -1.064135e-08 -1.047954e-08 -1.117315e-08 -1.123906e-08
-1.146223e-08 -1.120863e-08 -1.181803e-08 -1.145873e-08 -1.234311e-08 -1.254709e-08 -1.231664e-08 -1.259448e-08 -1.272209e-08 -1.318041e-08
-1.287556e-08 -1.346796e-08 -1.270698e-08 -1.322235e-08 -1.344643e-08 -1.315593e-08 -1.346511e-08 -1.309043e-08 -1.357970e-08 -1.423507e-08
-1.325782e-08 -1.320401e-08 -1.363040e-08 -1.428590e-08 -1.300580e-08 -1.369331e-08 -1.282917e-08 -1.338734e-08 -1.321737e-08 -1.330464e-08
-1.388081e-08 -1.352176e-08 -1.347728e-08 -1.339212e-08 -1.350451e-08 -1.326853e-08 -1.376122e-08 -1.317713e-08 -1.322745e-08 -1.388916e-08
-1.248255e-08
-1.348271e-08 -1.269930e-08 -1.379425e-08 -1.281948e-08 -1.323523e-08 -1.353680e-08 -1.304767e-08 -1.325931e-08 -1.410590e-08 -1.299628e-08
-1.346662e-08 -1.369580e-08 -1.229036e-08 -1.269684e-08 -1.410011e-08 -1.364367e-08 -1.402104e-08 -1.322900e-08 -1.303405e-08 -1.325948e-08
-1.229106e-08 -1.279491e-08 -1.254909e-08 -1.283251e-08 -1.299588e-08 -1.288728e-08 -1.214107e-08 -1.260003e-08 -1.298121e-08 -1.201368e-08
-1.146963e-08 -1.202689e-08 -1.233413e-08 -1.178904e-08 -1.198165e-08 -1.154516e-08 -1.151189e-08 -1.125450e-08 -1.165164e-08 -1.045603e-08
-1.081758e-08 -1.085019e-08 -1.071616e-08 -1.039028e-08 -1.079512e-08 -9.723260e-09 -9.883419e-09 -9.442735e-09 -9.606182e-09 -9.716120e-09
-9.019619e-09 -9.222421e-09 -8.828329e-09 -8.156353e-09 -8.418795e-09 -8.261662e-09 -7.782996e-09 -7.870602e-09 -7.746984e-09 -7.096803e-09
-6.749390e-09 -6.786293e-09 -6.749676e-09 -6.053257e-09 -6.199066e-09 -5.632144e-09 -5.591982e-09 -5.360899e-09 -5.093417e-09 -4.793645e-09
-4.134738e-09 -4.214905e-09 -3.703855e-09 -3.914161e-09 -3.139861e-09 -2.990189e-09 -2.612540e-09 -3.142594e-09 -2.526803e-09 -2.172236e-09
-2.563414e-09 -1.697523e-09 -2.232255e-09 -1.821799e-09 -1.188402e-09 -6.101994e-10 -4.821913e-10 -8.016672e-10 -8.691585e-10 3.078998e-11
2.006774e-10 3.458841e-10 2.450873e-10 7.723677e-10 1.038399e-09 6.684083e-10 6.318981e-10 1.978739e-09 2.291031e-09 2.033202e-09
2.046310e-09 2.773008e-09 2.764461e-09 2.752600e-09 2.856556e-09 3.482252e-09 3.815488e-09 3.840638e-09 4.049677e-09 4.940089e-09
4.898936e-09 4.747930e-09 4.790357e-09 5.494143e-09 5.706039e-09 5.764662e-09 6.243634e-09 6.271092e-09 7.069604e-09 6.930076e-09
7.367640e-09 7.126002e-09 7.508421e-09 8.013730e-09 8.146725e-09 8.533746e-09 8.641061e-09 9.610130e-09 8.522441e-09 8.902671e-09
9.311381e-09 9.746226e-09 9.925735e-09 9.654668e-09 1.006553e-08 1.028258e-08 1.056672e-08 1.065248e-08 1.074160e-08 1.108363e-08
1.103702e-08 1.119805e-08 1.128936e-08 1.133933e-08 1.195540e-08 1.139942e-08 1.242590e-08 1.169915e-08 1.183199e-08 1.233983e-08
1.248659e-08 1.277686e-08 1.280489e-08 1.273706e-08 1.226635e-08 1.286094e-08 1.290768e-08 1.236143e-08 1.273521e-08 1.270621e-08
1.276632e-08 1.260539e-08 1.284087e-08 1.360695e-08 1.394638e-08 1.306887e-08 1.343655e-08 1.332368e-08 1.268420e-08 1.361866e-08
1.346295e-08 1.400165e-08 1.279659e-08 1.260906e-08 1.258165e-08 1.378397e-08 1.248632e-08 1.456696e-08 1.261435e-08 1.274441e-08
1.230710e-08 1.304420e-08 1.299167e-08 1.310458e-08 1.247887e-08 1.346942e-08 1.361385e-08 1.312352e-08 1.253512e-08 1.411958e-08
1.328467e-08 1.278932e-08 1.309447e-08 1.313741e-08 1.223713e-08 1.311836e-08 1.317188e-08 1.279229e-08 1.321609e-08 1.298464e-08
1.314693e-08 1.340160e-08 1.351972e-08 1.274407e-08 1.334426e-08 1.276926e-08 1.262960e-08 1.211728e-08 1.272857e-08 1.265097e-08
1.191069e-08 1.166123e-08 1.180797e-08 1.229987e-08 1.170736e-08 1.155760e-08 1.093087e-08 1.208803e-08 1.100181e-08 1.091486e-08
1.073743e-08 1.079136e-08 1.040924e-08 1.027363e-08 1.010937e-08 9.447850e-09 9.959956e-09 9.225666e-09 9.051075e-09 8.804602e-09
8.428157e-09 8.995772e-09 8.819696e-09 8.266691e-09 8.310385e-09 7.837014e-09 7.400275e-09 7.535883e-09 6.807638e-09 6.779314e-09
6.648425e-09 6.370554e-09 5.920453e-09 6.166503e-09 5.840247e-09 5.340579e-09 5.512974e-09 5.461178e-09 4.668615e-09 4.891620e-09
4.295502e-09 3.781256e-09 3.475341e-09 3.971915e-09 2.957409e-09 2.960077e-09 3.151647e-09 2.631662e-09 2.344936e-09 2.262494e-09
1.510524e-09 1.214037e-09 1.456303e-09 6.320272e-10 1.772109e-09 5.237338e-10 5.850199e-10 6.080198e-10 2.703176e-10 1.901096e-10
-5.581047e-10 -1.687105e-10 -8.154253e-10 -8.219470e-10 -8.762281e-10 -1.343890e-09 -2.372118e-09 -1.519908e-09 -2.475183e-09 -2.006199e-09
-2.515539e-09 -2.703064e-09 -2.929312e-09 -3.567262e-09 -3.735032e-09 -4.032960e-09 -3.441301e-09 -4.363332e-09 -4.223279e-09 -4.865340e-09
-4.558570e-09 -5.348221e-09 -5.215094e-09 -5.170727e-09 -6.082178e-09 -5.616744e-09 -5.646897e-09 -6.080848e-09 -7.028465e-09 -6.883134e-09
-7.291964e-09 -7.236422e-09 -7.654536e-09 -7.835475e-09 -7.981384e-09 -8.175206e-09 -8.470061e-09 -9.306966e-09 -9.508601e-09 -8.712955e-09
-9.578154e-09 -9.294292e-09 -9.523460e-09 -9.628252e-09 -1.060711e-08 -1.086944e-08 -1.064929e-08 -1.063047e-08 -1.086119e-08 -1.082339e-08
-1.141277e-08 -1.117436e-08 -1.122345e-08 -1.127435e-08 -1.190347e-08 -1.140801e-08 -1.239690e-08 -1.233637e-08 -1.211550e-08 -1.180540e-08
-1.266121e-08 -1.211603e-08 -1.310194e-08 -1.254551e-08 -1.313870e-08 -1.316088e-08 -1.314580e-08 -1.381404e-08 -1.338796e-08 -1.376644e-08
-1.339815e-08 -1.368775e-08 -1.294417e-08 -1.286118e-08 -1.353200e-08 -1.315746e-08 -1.386221e-08 -1.426508e-08 -1.373810e-08 -1.438916e-08
-1.395588e-08 -1.334706e-08 -1.302960e-08 -1.247620e-08 -1.402400e-08 -1.293124e-08 -1.255353e-08 -1.374910e-08 -1.248132e-08 -1.308092e-08
-1.348271e-08
-1.222474e-08 -1.260276e-08 -1.329152e-08 -1.234520e-08 -1.337212e-08 -1.252356e-08 -1.385287e-08 -1.289452e-08 -1.298645e-08 -1.374533e-08
-1.270860e-08 -1.304765e-08 -1.246616e-08 -1.276003e-08 -1.258396e-08 -1.292256e-08 -1.300586e-08 -1.235286e-08 -1.279476e-08 -1.334720e-08
-1.231276e-08 -1.224534e-08 -1.297597e-08 -1.298932e-08 -1.285584e-08 -1.241672e-08 -1.240057e-08 -1.278959e-08 -1.180669e-08 -1.209937e-08
-1.167110e-08 -1.248188e-08 -1.150840e-08 -1.129021e-08 -1.160754e-08 -1.169151e-08 -1.183286e-08 -1.157940e-08 -1.140521e-08 -1.082607e-08
-1.075606e-08 -1.004677e-08 -1.113551e-08 -9.728702e-09 -1.033426e-08 -1.028776e-08 -9.720342e-09 -9.479791e-09 -9.124562e-09 -9.152063e-09
-8.824135e-09 -8.777468e-09 -8.488516e-09 -8.459650e-09 -8.246516e-09 -7.915180e-09 -7.408840e-09 -7.185285e-09 -6.941256e-09 -7.063027e-09
-6.703049e-09 -7.188472e-09 -5.964313e-09 -6.251874e-09 -5.922778e-09 -5.628646e-09 -5.264139e-09 -4.962679e-09 -4.926139e-09 -4.449797e-09
-4.116262e-09 -3.873997e-09 -4.116473e-09 -3.795428e-09 -3.281809e-09 -2.729961e-09 -3.189872e-09 -2.859020e-09 -2.754847e-09 -2.463597e-09
-2.041894e-09 -1.811805e-09 -1.568332e-09 -1.472832e-09 -1.259507e-09 -1.667486e-09 -1.263288e-09 -5.977930e-10 -4.933929e-11 5.854687e-11
8.301769e-10 4.837277e-10 5.767436e-10 2.558792e-10 1.258177e-09 1.593379e-09 1.830654e-09 1.880479e-09 1.609120e-09 1.815627e-09
2.298571e-09 2.902653e-09 2.573418e-09 2.767986e-09 3.003654e-09 3.312564e-09 3.496302e-09 3.847901e-09 4.394968e-09 4.535206e-09
4.410282e-09 4.821657e-09 5.259851e-09 5.263919e-09 5.202507e-09 5.595099e-09 6.188285e-09 6.352066e-09 6.402120e-09 6.768014e-09
7.171919e-09 6.896252e-09 7.543480e-09 7.372657e-09 8.061856e-09 7.811638e-09 8.103694e-09 8.452862e-09 8.744707e-09 9.014847e-09
9.387688e-09 9.274211e-09 9.443946e-09 9.597588e-09 9.730869e-09 9.745199e-09 1.015774e-08 1.085521e-08 1.084044e-08 1.068691e-08
1.045857e-08 1.143685e-08 1.124953e-08 1.168931e-08 1.142062e-08 1.140166e-08 1.156427e-08 1.143557e-08 1.149682e-08 1.221085e-08
1.236685e-08 1.193050e-08 1.181952e-08 1.209218e-08 1.233452e-08 1.169917e-08 1.308992e-08 1.197726e-08 1.314148e-08 1.260794e-08
1.252066e-08 1.339628e-08 1.297167e-08 1.275971e-08 1.332610e-08 1.326548e-08 1.267082e-08 1.294230e-08 1.243239e-08 1.359646e-08
1.256188e-08 1.257866e-08 1.346863e-08 1.212793e-08 1.329330e-08 1.204419e-08 1.244207e-08 1.291628e-08 1.282572e-08 1.331617e-08
1.289134e-08 1.315692e-08 1.201181e-08 1.316424e-08 1.414313e-08 1.246244e-08 1.273829e-08 1.280564e-08 1.345715e-08 1.269419e-08
1.225203e-08 1.310367e-08 1.243698e-08 1.326654e-08 1.267057e-08 1.262168e-08 1.350471e-08 1.208229e-08 1.242017e-08 1.353811e-08
1.310367e-08 1.236650e-08 1.242361e-08 1.272811e-08 1.206500e-08 1.164106e-08 1.200096e-08 1.271301e-08 1.214735e-08 1.232403e-08
1.180945e-08 1.182581e-08 1.173514e-08 1.127968e-08 1.080969e-08 1.090928e-08 1.117087e-08 1.082629e-08 1.102466e-08 1.070006e-08
1.040943e-08 1.035260e-08 1.009970e-08 9.671674e-09 9.474781e-09 1.003005e-08 9.098894e-09 9.234068e-09 8.900536e-09 8.779686e-09
8.244370e-09 8.946254e-09 8.637834e-09 8.288331e-09 7.533141e-09 7.528280e-09 7.698762e-09 7.229868e-09 7.719187e-09 6.891413e-09
6.914959e-09 6.249829e-09 5.474843e-09 5.996156e-09 5.396345e-09 5.710543e-09 4.536856e-09 4.988342e-09 4.509646e-09 4.306463e-09
4.045632e-09 3.749142e-09 3.596075e-09 3.445216e-09 3.674698e-09 3.391607e-09 2.846210e-09 2.103226e-09 2.765397e-09 1.970520e-09
2.118979e-09 2.130023e-09 1.623393e-09 1.476947e-09 1.940069e-09 1.096642e-09 6.580901e-10 4.178785e-10 4.197348e-10 -2.480111e-10
-2.632971e-10 -4.837632e-10 -3.496016e-10 -1.258102e-09 -1.421497e-09 -5.571088e-10 -8.395103e-10 -1.906870e-09 -2.137623e-09 -1.882882e-09
-2.159195e-09 -2.299728e-09 -3.203454e-09 -2.971080e-09 -2.734903e-09 -3.187815e-09 -3.605797e-09 -4.145347e-09 -4.807189e-09 -4.619114e-09
-4.554032e-09 -4.784567e-09 -5.398753e-09 -5.092225e-09 -5.740476e-09 -5.506926e-09 -5.666015e-09 -6.226150e-09 -6.048028e-09 -7.118187e-09
-6.654570e-09 -7.151792e-09 -7.048847e-09 -7.706833e-09 -7.670685e-09 -7.958040e-09 -7.947425e-09 -8.342304e-09 -8.406643e-09 -8.388525e-09
-9.045593e-09 -9.355954e-09 -9.552032e-09 -9.491229e-09 -1.015942e-08 -1.001911e-08 -9.614125e-09 -1.035048e-08 -1.058929e-08 -1.093488e-08
-1.041072e-08 -1.070649e-08 -1.095652e-08 -1.136561e-08 -1.195202e-08 -1.214215e-08 -1.225959e-08 -1.160338e-08 -1.171652e-08 -1.218895e-08
-1.278553e-08 -1.223592e-08 -1.323904e-08 -1.288173e-08 -1.237228e-08 -1.221818e-08 -1.375680e-08 -1.297797e-08 -1.269390e-08 -1.293359e-08
-1.291741e-08 -1.376420e-08 -1.346999e-08 -1.248771e-08 -1.296343e-08 -1.303815e-08 -1.359968e-08 -1.276392e-08 -1.325447e-08 -1.281669e-08
-1.261602e-08 -1.343196e-08 -1.258596e-08 -1.289542e-08 -1.291173e-08 -1.223471e-08 -1.335941e-08 -1.283558e-08 -1.288205e-08 -1.193828e-08
-1.222474e-08
-1.204341e-08 -1.292529e-08 -1.222602e-08 -1.298802e-08 -1.316317e-08 -1.325776e-08 -1.258010e-08 -1.302164e-08 -1.204581e-08 -1.247201e-08
-1.411334e-08 -1.260747e-08 -1.276943e-08 -1.201183e-08 -1.280527e-08 -1.231173e-08 -1.287844e-08 -1.239307e-08 -1.224262e-08 -1.292997e-08
-1.243085e-08 -1.200744e-08 -1.270133e-08 -1.177261e-08 -1.245564e-08 -1.279921e-08 -1.287139e-08 -1.188501e-08 -1.228207e-08 -1.180061e-08
-1.196509e-08 -1.156504e-08 -1.169207e-08 -1.132165e-08 -1.109837e-08 -1.133678e-08 -1.101231e-08 -1.115417e-08 -1.088471e-08 -1.060113e-08
-9.843825e-09 -1.026674e-08 -9.723475e-09 -9.992719e-09 -1.015722e-08 -9.707165e-09 -9.265642e-09 -9.586670e-09 -9.064197e-09 -8.955530e-09
-8.531281e-09 -8.118047e-09 -8.041636e-09 -8.452685e-09 -8.468969e-09 -7.636126e-09 -7.852226e-09 -7.316172e-09 -6.904737e-09 -6.600037e-09
-6.615283e-09 -6.355686e-09 -6.214491e-09 -5.961593e-09 -5.785921e-09 -5.675293e-09 -5.178859e-09 -5.083453e-09 -4.295830e-09 -4.587423e-09
-4.616206e-09 -4.221480e-09 -4.098675e-09 -3.757803e-09 -3.703019e-09 -3.062077e-09 -2.964321e-09 -2.534901e-09 -2.684861e-09 -2.263344e-09
-2.307740e-09 -1.870888e-09 -1.466168e-09 -1.770681e-09 -1.540220e-09 -9.341122e-10 -8.352270e-10 -7.126867e-10 -5.230961e-10 -2.468573e-10
-2.850567e-10 -3.965963e-10 1.917832e-10 5.121516e-10 1.135885e-09 1.063858e-09 1.235054e-09 1.307709e-09 2.113310e-09 2.072188e-09
2.315084e-09 2.453394e-09 2.341176e-09 2.677338e-09 2.788299e-09 3.343497e-09 3.867889e-09 3.682390e-09 4.401814e-09 4.206285e-09
4.511064e-09 4.386907e-09 4.588891e-09 5.002802e-09 5.546937e-09 5.524621e-09 5.859354e-09 5.602256e-09 6.356994e-09 6.459389e-09
6.810057e-09 7.573524e-09 7.446969e-09 7.223046e-09 7.771370e-09 7.739647e-09 7.913518e-09 8.537064e-09 8.112553e-09 8.954058e-09
8.817628e-09 8.743736e-09 9.762826e-09 9.828185e-09 9.946753e-09 1.031545e-08 9.970614e-09 1.065928e-08 1.009728e-08 1.054313e-08
1.013301e-08 1.100334e-08 1.083685e-08 1.155834e-08 1.108719e-08 1.041602e-08 1.137943e-08 1.150874e-08 1.175296e-08 1.125737e-08
1.194225e-08 1.238427e-08 1.228100e-08 1.234257e-08 1.178734e-08 1.186398e-08 1.165312e-08 1.226501e-08 1.167158e-08 1.201330e-08
1.247635e-08 1.320194e-08 1.294029e-08 1.204230e-08 1.186485e-08 1.231050e-08 1.271680e-08 1.286910e-08 1.322310e-08 1.218864e-08
1.256443e-08 1.347917e-08 1.294697e-08 1.246104e-08 1.266824e-08 1.247478e-08 1.234704e-08 1.317909e-08 1.234959e-08 1.246935e-08
1.239071e-08 1.195632e-08 1.233565e-08 1.283069e-08 1.258190e-08 1.287470e-08 1.247292e-08 1.332126e-08 1.257385e-08 1.189584e-08
1.250504e-08 1.236587e-08 1.358208e-08 1.228505e-08 1.194414e-08 1.189653e-08 1.212337e-08 1.290153e-08 1.294278e-08 1.213039e-08
1.177055e-08 1.176668e-08 1.152021e-08 1.191410e-08 1.240887e-08 1.166274e-08 1.229412e-08 1.207199e-08 1.183259e-08 1.211234e-08
1.121851e-08 1.125676e-08 1.131258e-08 1.172422e-08 1.120837e-08 1.081864e-08 1.105014e-08 1.059317e-08 1.031272e-08 1.055350e-08
1.000790e-08 1.007678e-08 9.710525e-09 9.696294e-09 9.715591e-09 9.601121e-09 8.953273e-09 8.828155e-09 8.411954e-09 8.944713e-09
8.545585e-09 7.920808e-09 7.946681e-09 7.968019e-09 7.472964e-09 7.666460e-09 6.981194e-09 7.185472e-09 6.589103e-09 6.172778e-09
6.098495e-09 5.931361e-09 5.684937e-09 5.487424e-09 5.936486e-09 5.582115e-09 5.271076e-09 4.591890e-09 4.453098e-09 4.813714e-09
3.781430e-09 4.121045e-09 3.612420e-09 3.445064e-09 2.848087e-09 3.257172e-09 3.015138e-09 2.624919e-09 1.934568e-09 2.110564e-09
1.252922e-09 1.831601e-09 1.729221e-09 1.142453e-09 7.350116e-10 1.217386e-09 6.216669e-10 2.187916e-10 -4.118302e-11 -3.078463e-10
4.056290e-10 -3.026748e-10 -5.276619e-10 -7.051671e-10 -6.270947e-10 -1.228385e-09 -1.555391e-09 -2.082772e-09 -1.578898e-09 -2.827662e-09
-1.560564e-09 -1.660709e-09 -3.020942e-09 -3.083078e-09 -3.231264e-09 -2.713380e-09 -3.582813e-09 -4.346569e-09 -3.872028e-09 -4.034054e-09
-4.780628e-09 -4.786656e-09 -5.367531e-09 -5.191155e-09 -5.327811e-09 -6.144649e-09 -6.032972e-09 -6.511866e-09 -6.596931e-09 -6.513230e-09
-7.413556e-09 -6.957289e-09 -7.148099e-09 -7.329206e-09 -8.111428e-09 -7.989795e-09 -8.431263e-09 -8.361732e-09 -8.168734e-09 -8.789065e-09
-9.394619e-09 -9.126461e-09 -9.836672e-09 -9.526384e-09 -9.771304e-09 -9.753649e-09 -1.040428e-08 -1.029929e-08 -1.045417e-08 -1.041319e-08
-1.047630e-08 -1.049679e-08 -1.088802e-08 -1.080069e-08 -1.180683e-08 -1.149160e-08 -1.157623e-08 -1.134847e-08 -1.168976e-08 -1.210505e-08
-1.185281e-08 -1.257166e-08 -1.195254e-08 -1.150089e-08 -1.101248e-08 -1.313068e-08 -1.317249e-08 -1.185500e-08 -1.179430e-08 -1.212432e-08
-1.309805e-08 -1.251592e-08 -1.236817e-08 -1.272205e-08 -1.292941e-08 -1.317600e-08 -1.319478e-08 -1.203535e-08 -1.317296e-08 -1.320907e-08
-1.312687e-08 -1.262666e-08 -1.328173e-08 -1.335334e-08 -1.329742e-08 -1.325234e-08 -1.249076e-08 -1.247583e-08 -1.272895e-08 -1.175816e-08
-1.204341e-08
-1.205679e-08 -1.272521e-08 -1.137961e-08 -1.296447e-08 -1.186639e-08 -1.290739e-08 -1.177744e-08 -1.213482e-08 -1.255376e-08 -1.283165e-08
-1.271310e-08 -1.243566e-08 -1.211849e-08 -1.252982e-08 -1.237115e-08 -1.326273e-08 -1.307892e-08 -1.231760e-08 -1.304276e-08 -1.252330e-08
-1.223097e-08 -1.267769e-08 -1.212103e-08 -1.204707e-08 -1.160704e-08 -1.216369e-08 -1.187299e-08 -1.242342e-08 -1.164797e-08 -1.189855e-08
-1.156438e-08 -1.161142e-08 -1.151877e-08 -1.081013e-08 -1.093435e-08 -1.088911e-08 -1.077885e-08 -1.046541e-08 -1.108956e-08 -1.016133e-08
-1.016232e-08 -9.906828e-09 -1.012274e-08 -9.579397e-09 -9.256049e-09 -9.239069e-09 -9.314960e-09 -9.049075e-09 -8.966757e-09 -8.611921e-09
-8.397950e-09 -8.294059e-09 -8.058567e-09 -7.585473e-09 -7.662836e-09 -7.533598e-09 -6.871231e-09 -6.877188e-09 -6.671000e-09 -6.635972e-09
-6.493346e-09 -6.074499e-09 -6.402601e-09 -6.072770e-09 -5.277632e-09 -5.147544e-09 -5.355664e-09 -5.071609e-09 -4.957418e-09 -4.482925e-09
-3.896610e-09 -4.234153e-09 -3.529704e-09 -3.661061e-09 -3.445495e-09 -2.670283e-09 -2.697726e-09 -2.388975e-09 -2.683072e-09 -2.703094e-09
-1.750980e-09 -1.518904e-09 -1.178155e-09 -1.693450e-09 -1.363120e-09 -9.665939e-10 -1.300940e-09 -3.481564e-10 -3.544147e-11 -5.109535e-11
1.294730e-10 3.916055e-10 7.116812e-10 7.603586e-10 6.577257e-10 1.120825e-09 1.527633e-09 1.444677e-09 1.349170e-09 2.074632e-09
2.280608e-09 2.627204e-09 2.868561e-09 2.506760e-09 3.021362e-09 3.299545e-09 3.159790e-09 3.780296e-09 3.803816e-09 3.952743e-09
4.141104e-09 4.452495e-09 5.277264e-09 5.009301e-09 5.261027e-09 5.336037e-09 5.906584e-09 6.060455e-09 5.779892e-09 6.928024e-09
6.870199e-09 6.724490e-09 6.716963e-09 7.395691e-09 7.641519e-09 8.095120e-09 7.984894e-09 7.991361e-09 8.171599e-09 8.479192e-09
8.737000e-09 8.957302e-09 8.915023e-09 9.248549e-09 9.510459e-09 9.368964e-09 9.709763e-09 9.638980e-09 1.010352e-08 1.020501e-08
9.933089e-09 1.084983e-08 1.094395e-08 1.074526e-08 1.104895e-08 1.090512e-08 1.079004e-08 1.102766e-08 1.114957e-08 1.150913e-08
1.162140e-08 1.178526e-08 1.175484e-08 1.198402e-08 1.181887e-08 1.185253e-08 1.211566e-08 1.195632e-08 1.181068e-08 1.164193e-08
1.232209e-08 1.215505e-08 1.211812e-08 1.257177e-08 1.233005e-08 1.168250e-08 1.286558e-08 1.240118e-08 1.230001e-08 1.245931e-08
1.216941e-08 1.172068e-08 1.194706e-08 1.302046e-08 1.173552e-08 1.250078e-08 1.197654e-08 1.226817e-08 1.189088e-08 1.248899e-08
1.197785e-08 1.234594e-08 1.254470e-08 1.187354e-08 1.227773e-08 1.266095e-08 1.177170e-08 1.194198e-08 1.196762e-08 1.291397e-08
1.264555e-08 1.230028e-08 1.241595e-08 1.157422e-08 1.198185e-08 1.219749e-08 1.152946e-08 1.155895e-08 1.176420e-08 1.180268e-08
1.178580e-08 1.207157e-08 1.110482e-08 1.150316e-08 1.125041e-08 1.148890e-08 1.193796e-08 1.168427e-08 1.149711e-08 1.139305e-08
1.119364e-08 1.126929e-08 1.095458e-08 1.103918e-08 1.060738e-08 1.066113e-08 1.042564e-08 1.045241e-08 1.058953e-08 9.925226e-09
9.573186e-09 1.020753e-08 9.283410e-09 9.376666e-09 9.331561e-09 9.255828e-09 9.479279e-09 8.704132e-09 8.391409e-09 8.335969e-09
7.884720e-09 7.745750e-09 7.626363e-09 7.425001e-09 7.779753e-09 7.344221e-09 7.208095e-09 6.304103e-09 6.903528e-09 6.553336e-09
6.315815e-09 5.739732e-09 5.863117e-09 5.751092e-09 5.001663e-09 4.813205e-09 5.318343e-09 4.909571e-09 4.334675e-09 4.299866e-09
4.056589e-09 3.815205e-09 3.291565e-09 3.738919e-09 3.552648e-09 2.640605e-09 2.778853e-09 2.420161e-09 1.810774e-09 1.499252e-09
2.413150e-09 1.786327e-09 1.670664e-09 1.193306e-09 1.438243e-09 7.852645e-10 8.235182e-10 7.776710e-10 -1.066905e-10 3.778233e-10
1.242683e-10 -6.417200e-10 -6.970081e-10 -5.936121e-10 -2.083494e-10 -1.235924e-09 -1.386488e-09 -2.208162e-09 -1.713243e-09 -1.934898e-09
-2.252655e-09 -2.289526e-09 -2.454670e-09 -2.864886e-09 -3.297860e-09 -3.537732e-09 -3.544744e-09 -4.004508e-09 -4.255671e-09 -4.536016e-09
-4.463982e-09 -4.194737e-09 -5.430287e-09 -5.170449e-09 -6.070324e-09 -5.676958e-09 -6.181614e-09 -6.128817e-09 -6.588738e-09 -6.122963e-09
-6.622213e-09 -6.932865e-09 -7.078571e-09 -7.240274e-09 -7.014123e-09 -7.672360e-09 -7.995710e-09 -8.463783e-09 -8.112585e-09 -8.608359e-09
-9.024645e-09 -8.645357e-09 -8.635692e-09 -8.890564e-09 -9.445324e-09 -9.691225e-09 -9.957244e-09 -9.946884e-09 -9.612696e-09 -1.073693e-08
-1.035025e-08 -1.081407e-08 -1.096705e-08 -1.096818e-08 -1.084483e-08 -1.124096e-08 -1.051169e-08 -1.093259e-08 -1.171682e-08 -1.129487e-08
-1.232411e-08 -1.181050e-08 -1.211810e-08 -1.167921e-08 -1.113391e-08 -1.227690e-08 -1.284641e-08 -1.235136e-08 -1.239949e-08 -1.176306e-08
-1.205871e-08 -1.225252e-08 -1.181918e-08 -1.257159e-08 -1.316023e-08 -1.280516e-08 -1.265687e-08 -1.162187e-08 -1.226575e-08 -1.271993e-08
-1.220929e-08 -1.230001e-08 -1.215519e-08 -1.284070e-08 -1.203462e-08 -1.252648e-08 -1.165272e-08 -1.191592e-08 -1.219575e-08 -1.212939e-08
-1.205679e-08
-1.221827e-08 -1.209183e-08 -1.172158e-08 -1.187027e-08 -1.191130e-08 -1.166322e-08 -1.191431e-08 -1.249360e-08 -1.208718e-08 -1.195734e-08
-1.247272e-08 -1.158971e-08 -1.125118e-08 -1.187567e-08 -1.271992e-08 -1.248617e-08 -1.199751e-08 -1.274304e-08 -1.327758e-08 -1.245583e-08
-1.148547e-08 -1.262294e-08 -1.203986e-08 -1.167752e-08 -1.118854e-08 -1.148301e-08 -1.125144e-08 -1.107599e-08 -1.158934e-08 -1.091166e-08
-1.119348e-08 -1.141639e-08 -1.078162e-08 -1.051654e-08 -1.126552e-08 -1.050460e-08 -1.015394e-08 -1.089144e-08 -9.794122e-09 -1.017287e-08
-9.863930e-09 -9.983011e-09 -9.580710e-09 -9.371497e-09 -9.540674e-09 -8.832201e-09 -9.386803e-09 -8.655015e-09 -8.480572e-09 -8.361094e-09
-8.314406e-09 -8.197632e-09 -8.021733e-09 -7.556722e-09 -7.627682e-09 -7.093902e-09 -7.188458e-09 -6.777912e-09 -7.085259e-09 -6.464585e-09
-6.218603e-09 -6.070607e-09 -5.973149e-09 -5.772911e-09 -5.769007e-09 -5.336970e-09 -5.150671e-09 -5.022866e-09 -4.322453e-09 -4.261865e-09
-4.394103e-09 -3.750608e-09 -3.680530e-09 -3.202505e-09 -3.506431e-09 -3.225377e-09 -2.719091e-09 -2.257170e-09 -2.472827e-09 -1.965644e-09
-1.657413e-09 -1.576364e-09 -1.848241e-09 -1.556935e-09 -1.254468e-09 -5.573234e-10 -6.226590e-10 -6.202086e-10 -4.388389e-10 -3.852592e-10
1.141626e-10 4.261536e-10 8.956401e-10 5.523338e-10 9.329533e-10 1.184711e-09 9.031871e-10 1.411090e-09 1.522400e-09 2.245527e-09
1.934225e-09 2.709561e-09 2.496313e-09 2.624203e-09 2.953668e-09 2.923292e-09 3.280745e-09 3.846012e-09 4.261639e-09 3.916575e-09
4.215326e-09 4.471632e-09 4.603302e-09 4.381767e-09 5.325377e-09 5.236289e-09 6.042207e-09 5.681215e-09 5.914246e-09 6.431532e-09
6.646101e-09 6.583824e-09 7.405093e-09 7.137631e-09 7.338532e-09 7.404980e-09 7.829741e-09 8.037113e-09 7.962218e-09 8.328834e-09
8.335978e-09 8.408827e-09 8.898380e-09 9.422883e-09 9.341189e-09 9.398211e-09 9.294441e-09 9.933970e-09 1.017159e-08 9.990965e-09
1.002224e-08 9.879646e-09 1.093485e-08 1.046345e-08 1.116778e-08 1.082422e-08 1.084624e-08 1.085183e-08 1.087584e-08 1.127091e-08
1.074216e-08 1.135886e-08 1.100070e-08 1.204266e-08 1.127814e-08 1.132947e-08 1.175483e-08 1.191573e-08 1.226910e-08 1.241585e-08
1.209799e-08 1.202553e-08 1.180034e-08 1.185044e-08 1.255988e-08 1.208050e-08 1.243456e-08 1.262930e-08 1.162847e-08 1.171759e-08
1.120800e-08 1.262984e-08 1.167806e-08 1.152533e-08 1.281458e-08 1.301856e-08 1.128487e-08 1.205548e-08 1.164425e-08 1.189085e-08
1.298995e-08 1.216493e-08 1.168557e-08 1.197996e-08 1.157803e-08 1.168561e-08 1.247489e-08 1.252019e-08 1.244192e-08 1.157291e-08
1.168843e-08 1.251952e-08 1.180300e-08 1.247002e-08 1.177838e-08 1.199898e-08 1.129153e-08 1.126072e-08 1.213841e-08 1.174411e-08
1.175107e-08 1.150789e-08 1.114185e-08 1.206208e-08 1.108096e-08 1.120947e-08 1.105544e-08 1.152306e-08 1.090436e-08 1.073164e-08
1.099399e-08 1.107147e-08 1.015253e-08 1.072444e-08 1.071987e-08 1.078648e-08 1.021187e-08 1.008371e-08 9.837775e-09 9.873180e-09
9.482956e-09 9.604861e-09 8.960126e-09 9.664337e-09 9.063145e-09 9.264009e-09 8.895445e-09 8.376058e-09 8.500745e-09 8.049517e-09
8.066265e-09 7.677361e-09 7.208673e-09 7.405822e-09 7.120187e-09 7.411411e-09 7.021820e-09 6.429896e-09 6.652474e-09 6.641072e-09
6.237602e-09 5.721732e-09 5.958773e-09 5.145619e-09 5.032987e-09 5.304365e-09 4.619551e-09 4.933410e-09 4.541753e-09 3.823491e-09
3.865078e-09 4.137089e-09 2.768256e-09 3.273238e-09 2.968984e-09 2.583267e-09 3.018467e-09 2.323961e-09 1.986127e-09 2.209052e-09
2.059662e-09 1.083507e-09 1.396265e-09 1.231318e-09 1.304212e-09 1.044989e-09 8.062066e-10 2.134464e-10 4.320628e-10 1.952920e-10
1.161137e-10 -3.522759e-10 -5.261606e-10 -2.768484e-10 -6.428356e-10 -9.041969e-10 -1.852824e-09 -1.632164e-09 -1.641615e-09 -1.769353e-09
-2.829519e-09 -2.498199e-09 -2.691868e-09 -2.769504e-09 -2.902272e-09 -3.209156e-09 -3.293069e-09 -3.551943e-09 -3.800617e-09 -4.001825e-09
-3.972132e-09 -4.417004e-09 -4.684979e-09 -5.219029e-09 -5.480673e-09 -5.532561e-09 -5.377146e-09 -6.261358e-09 -6.263113e-09 -6.261753e-09
-6.204318e-09 -6.802664e-09 -7.167095e-09 -7.331176e-09 -7.643403e-09 -7.366891e-09 -8.004431e-09 -7.748189e-09 -7.790850e-09 -8.407345e-09
-8.228757e-09 -8.380344e-09 -8.781657e-09 -8.797104e-09 -9.458436e-09 -9.401586e-09 -9.112678e-09 -1.015081e-08 -9.581738e-09 -1.008127e-08
-9.815071e-09 -9.760092e-09 -1.035540e-08 -9.620535e-09 -1.086270e-08 -1.036527e-08 -1.128389e-08 -1.113715e-08 -1.084697e-08 -1.051010e-08
-1.113577e-08 -1.109987e-08 -1.171978e-08 -1.098696e-08 -1.126343e-08 -1.148961e-08 -1.146944e-08 -1.162376e-08 -1.180245e-08 -1.152617e-08
-1.236856e-08 -1.176177e-08 -1.205012e-08 -1.218217e-08 -1.275489e-08 -1.203761e-08 -1.217291e-08 -1.249436e-08 -1.227656e-08 -1.196133e-08
-1.193936e-08 -1.195590e-08 -1.221985e-08 -1.188673e-08 -1.206656e-08 -1.164472e-08 -1.183769e-08 -1.166328e-08 -1.183772e-08 -1.177894e-08
-1.221827e-08
-1.193374e-08 -1.151831e-08 -1.239699e-08 -1.176949e-08 -1.172654e-08 -1.160101e-08 -1.231503e-08 -1.178533e-08 -1.229798e-08 -1.151606e-08
-1.187988e-08 -1.170525e-08 -1.136142e-08 -1.227604e-08 -1.165409e-08 -1.204871e-08 -1.208877e-08 -1.235898e-08 -1.126286e-08 -1.211135e-08
-1.142584e-08 -1.118375e-08 -1.179976e-08 -1.078834e-08 -1.117908e-08 -1.115585e-08 -1.141533e-08 -1.106706e-08 -1.118685e-08 -1.119224e-08
-1.111333e-08 -1.098963e-08 -1.019111e-08 -9.957843e-09 -1.047546e-08 -1.032725e-08 -1.038779e-08 -1.057449e-08 -9.301231e-09 -9.780666e-09
-9.690212e-09 -9.287187e-09 -9.623747e-09 -9.195652e-09 -8.958692e-09 -8.510276e-09 -8.835727e-09 -8.403759e-09 -8.303060e-09 -8.352697e-09
-8.181257e-09 -8.172493e-09 -7.523215e-09 -6.937153e-09 -7.432497e-09 -6.818040e-09 -6.715286e-09 -7.252063e-09 -6.767790e-09 -6.361743e-09
-6.153221e-09 -5.616558e-09 -5.767221e-09 -5.206700e-09 -5.552658e-09 -5.130449e-09 -4.812641e-09 -4.562959e-09 -4.220800e-09 -4.043143e-09
-3.894219e-09 -3.735974e-09 -3.531011e-09 -3.342580e-09 -3.278676e-09 -2.595940e-09 -2.604420e-09 -2.544700e-09 -2.442268e-09 -2.026021e-09
-1.766757e-09 -1.520106e-09 -1.404890e-09 -1.362030e-09 -8.585845e-10 -1.247576e-09 -6.436013e-10 -1.573980e-10 -4.077248e-10 -6.001452e-11
1.072614e-10 -1.134565e-10 7.046224e-10 3.244756e-10 1.155901e-09 1.487935e-09 1.449158e-09 1.124464e-09 1.979755e-09 1.943337e-09
1.942143e-09 1.931773e-09 2.475453e-09 2.334464e-09 3.236443e-09 3.290796e-09 3.791783e-09 3.624805e-09 3.826592e-09 3.966221e-09
4.115806e-09 4.170186e-09 4.140715e-09 4.834502e-09 5.156110e-09 5.238007e-09 5.522168e-09 5.617514e-09 5.594642e-09 6.046331e-09
6.515948e-09 6.237043e-09 7.156940e-09 7.053121e-09 7.043621e-09 7.285451e-09 7.177462e-09 7.701333e-09 8.040264e-09 8.362764e-09
8.231602e-09 8.492115e-09 8.695598e-09 8.788015e-09 9.020405e-09 8.654909e-09 9.468472e-09 9.111463e-09 9.347906e-09 9.816480e-09
9.476526e-09 9.766551e-09 1.023337e-08 1.049159e-08 1.046882e-08 1.076767e-08 1.081351e-08 1.044879e-08 1.093617e-08 1.063764e-08
1.060811e-08 1.124789e-08 1.109408e-08 1.199169e-08 1.128353e-08 1.115668e-08 1.111060e-08 1.180654e-08 1.154771e-08 1.132360e-08
1.130557e-08 1.118469e-08 1.210935e-08 1.175149e-08 1.217437e-08 1.145665e-08 1.141805e-08 1.176815e-08 1.174987e-08 1.098863e-08
1.201910e-08 1.167441e-08 1.130411e-08 1.143554e-08 1.237051e-08 1.231943e-08 1.115414e-08 1.227961e-08 1.137955e-08 1.152219e-08
1.129264e-08 1.184140e-08 1.113549e-08 1.064368e-08 1.159505e-08 1.195194e-08 1.206733e-08 1.129445e-08 1.168241e-08 1.196936e-08
1.150632e-08 1.179531e-08 1.143598e-08 1.253337e-08 1.220507e-08 1.231753e-08 1.167340e-08 1.208336e-08 1.134974e-08 1.108760e-08
1.182819e-08 1.095367e-08 1.142446e-08 1.166529e-08 1.056660e-08 1.076153e-08 1.123332e-08 1.097150e-08 1.088985e-08 1.016672e-08
1.055403e-08 1.043605e-08 1.029617e-08 1.004853e-08 9.948739e-09 9.941992e-09 9.663736e-09 1.045047e-08 9.468515e-09 9.590159e-09
8.880508e-09 9.147008e-09 8.999360e-09 9.171795e-09 8.689462e-09 9.092822e-09 8.345512e-09 8.667180e-09 8.049120e-09 7.769215e-09
7.623584e-09 7.816459e-09 7.212634e-09 7.334241e-09 6.875498e-09 7.122698e-09 6.847241e-09 6.192800e-09 5.937864e-09 5.839741e-09
6.078479e-09 6.095128e-09 5.392877e-09 5.215294e-09 4.543725e-09 4.621513e-09 4.752120e-09 4.334231e-09 4.374066e-09 3.694009e-09
4.079309e-09 4.030558e-09 3.234406e-09 2.934612e-09 3.386122e-09 2.643489e-09 2.427943e-09 2.470746e-09 2.012413e-09 2.529023e-09
1.750296e-09 1.221032e-09 1.575757e-09 1.081633e-09 9.744583e-10 8.846231e-10 1.032015e-09 3.780471e-10 1.766114e-10 2.672264e-10
-2.856917e-10 1.376679e-10 -7.126646e-10 -6.861769e-10 -5.950324e-10 -1.220042e-09 -1.667627e-09 -1.357810e-09 -1.873999e-09 -1.785794e-09
-1.913250e-09 -1.913090e-09 -2.877542e-09 -2.805935e-09 -3.002851e-09 -3.140381e-09 -2.914598e-09 -3.475561e-09 -3.464301e-09 -3.630367e-09
-3.929537e-09 -4.196949e-09 -4.518899e-09 -4.713190e-09 -5.268397e-09 -5.459468e-09 -5.604563e-09 -5.776457e-09 -6.409445e-09 -5.891464e-09
-6.008638e-09 -6.878420e-09 -6.703582e-09 -6.938004e-09 -7.354759e-09 -7.146590e-09 -7.781967e-09 -7.634313e-09 -7.485991e-09 -8.075594e-09
-7.850573e-09 -8.344883e-09 -8.737604e-09 -8.829983e-09 -8.803166e-09 -9.282002e-09 -9.335535e-09 -9.605159e-09 -9.747904e-09 -9.402288e-09
-1.030568e-08 -1.006155e-08 -9.851521e-09 -1.008373e-08 -1.000136e-08 -1.022729e-08 -1.029496e-08 -1.093023e-08 -1.101005e-08 -1.058819e-08
-1.109585e-08 -1.099005e-08 -1.079408e-08 -1.147383e-08 -1.116647e-08 -1.096680e-08 -1.168778e-08 -1.115323e-08 -1.082885e-08 -1.210643e-08
-1.149467e-08 -1.202599e-08 -1.158314e-08 -1.177497e-08 -1.121574e-08 -1.159055e-08 -1.137462e-08 -1.154670e-08 -1.200979e-08 -1.181633e-08
-1.118540e-08 -1.171494e-08 -1.176680e-08 -1.158306e-08 -1.203595e-08 -1.135554e-08 -1.162839e-08 -1.118868e-08 -1.156406e-08 -1.148497e-08
-1.193374e-08
-1.110203e-08 -1.150475e-08 -1.137475e-08 -1.159104e-08 -1.185009e-08 -1.152257e-08 -1.238774e-08 -1.132319e-08 -1.133311e-08 -1.182018e-08
-1.135380e-08 -1.110757e-08 -1.159012e-08 -1.137056e-08 -1.153564e-08 -1.200175e-08 -1.205455e-08 -1.137604e-08 -1.105239e-08 -1.169580e-08
-1.156761e-08 -1.085421e-08 -1.138571e-08 -1.021087e-08 -1.098512e-08 -1.099710e-08 -1.121016e-08 -1.071743e-08 -1.060455e-08 -1.071700e-08
-1.028721e-08 -1.059086e-08 -1.034274e-08 -1.010686e-08 -9.770055e-09 -1.013334e-08 -9.732729e-09 -1.000027e-08 -9.440664e-09 -9.547112e-09
-9.877376e-09 -9.258225e-09 -9.180393e-09 -9.023671e-09 -8.984973e-09 -8.894509e-09 -8.310526e-09 -8.280281e-09 -8.048878e-09 -7.988317e-09
-7.516701e-09 -7.726929e-09 -7.532774e-09 -7.109545e-09 -7.061960e-09 -7.151838e-09 -6.736902e-09 -6.649290e-09 -6.693537e-09 -6.425461e-09
-6.402848e-09 -5.983603e-09 -5.676496e-09 -5.280590e-09 -5.064587e-09 -4.852312e-09 -4.486616e-09 -4.399840e-09 -4.512443e-09 -3.943036e-09
-4.028789e-09 -3.776738e-09 -3.072627e-09 -3.201411e-09 -2.892129e-09 -2.889119e-09 -2.614681e-09 -2.974538e-09 -2.304352e-09 -2.022158e-09
-2.669322e-09 -1.653104e-09 -1.218194e-09 -1.077775e-09 -1.447455e-09 -8.742045e-10 -8.423080e-10 -4.574099e-10 -5.170370e-11 4.465742e-10
2.268979e-10 5.058911e-10 3.562632e-10 6.343223e-10 7.258167e-10 1.295858e-09 1.412069e-09 1.294275e-09 1.611745e-09 2.041434e-09
2.122745e-09 2.104264e-09 2.489862e-09 2.921595e-09 2.869523e-09 3.300281e-09 2.867394e-09 3.062996e-09 3.955470e-09 3.794745e-09
4.227305e-09 4.202877e-09 4.267501e-09 4.626700e-09 4.871290e-09 5.067324e-09 4.959409e-09 5.437180e-09 5.662349e-09 5.776913e-09
6.210489e-09 6.009464e-09 6.317550e-09 6.686984e-09 6.754686e-09 7.355502e-09 6.961733e-09 7.542430e-09 7.552710e-09 7.834372e-09
7.745775e-09 8.533284e-09 8.626091e-09 8.488301e-09 9.088599e-09 8.498982e-09 8.885736e-09 9.285101e-09 9.531558e-09 9.379190e-09
9.460360e-09 9.386003e-09 9.869489e-09 9.509817e-09 9.808983e-09 9.689939e-09 1.029483e-08 1.067786e-08 1.063882e-08 1.035945e-08
1.086719e-08 1.074559e-08 1.083907e-08 1.097373e-08 1.105726e-08 1.131577e-08 1.103041e-08 1.133977e-08 1.133842e-08 1.190236e-08
1.177410e-08 1.156600e-08 1.165752e-08 1.124463e-08 1.123844e-08 1.174500e-08 1.140831e-08 1.132428e-08 1.149588e-08 1.124005e-08
1.091565e-08 1.154296e-08 1.129091e-08 1.120979e-08 1.110102e-08 1.186519e-08 1.116823e-08 1.154395e-08 1.151694e-08 1.231599e-08
1.122765e-08 1.139110e-08 1.180833e-08 1.150652e-08 1.142088e-08 1.181442e-08 1.112651e-08 1.072140e-08 1.163720e-08 1.098319e-08
1.081193e-08 1.168953e-08 1.128639e-08 1.125193e-08 1.095666e-08 1.103914e-08 1.232044e-08 1.087725e-08 1.153359e-08 1.119252e-08
1.067489e-08 1.150401e-08 1.069046e-08 1.083850e-08 1.115566e-08 1.051340e-08 1.057605e-08 1.044768e-08 1.009648e-08 1.028080e-08
1.053486e-08 9.714653e-09 9.768033e-09 1.071424e-08 1.000866e-08 9.707286e-09 9.320995e-09 9.438600e-09 9.381531e-09 9.268384e-09
9.413816e-09 8.800292e-09 9.514267e-09 8.677239e-09 8.486642e-09 8.245570e-09 8.112085e-09 8.158837e-09 8.275500e-09 7.930800e-09
7.581519e-09 7.256550e-09 7.323983e-09 6.411037e-09 7.023203e-09 6.618151e-09 6.524862e-09 6.365320e-09 5.947445e-09 6.013137e-09
5.551591e-09 5.908889e-09 5.121288e-09 4.998322e-09 5.158088e-09 4.844808e-09 4.527499e-09 4.071966e-09 3.915398e-09 3.853641e-09
4.482767e-09 3.787556e-09 3.019726e-09 3.340143e-09 3.276664e-09 2.740801e-09 2.795731e-09 2.322074e-09 2.096650e-09 1.809048e-09
2.057557e-09 1.253757e-09 1.302735e-09 1.408347e-09 8.624121e-10 6.540786e-10 4.655671e-10 3.754811e-10 6.452001e-10 1.765959e-10
-4.274621e-10 -4.546329e-10 -6.496012e-10 -6.124772e-10 -9.916415e-10 -1.335776e-09 -9.963147e-10 -1.336803e-09 -1.542535e-09 -2.142354e-09
-2.218418e-09 -2.300189e-09 -2.504277e-09 -2.585151e-09 -3.003050e-09 -3.391179e-09 -3.260303e-09 -3.301210e-09 -4.333218e-09 -3.284459e-09
-4.242286e-09 -4.280247e-09 -4.282559e-09 -4.644968e-09 -4.910186e-09 -4.914844e-09 -5.412769e-09 -5.150072e-09 -6.117194e-09 -5.771630e-09
-6.183334e-09 -6.209739e-09 -6.425290e-09 -6.898933e-09 -6.874540e-09 -7.370589e-09 -7.452676e-09 -7.472146e-09 -7.764386e-09 -7.562988e-09
-7.786941e-09 -8.177934e-09 -8.283394e-09 -8.471699e-09 -8.439070e-09 -9.065682e-09 -8.405750e-09 -8.623546e-09 -8.911598e-09 -9.724018e-09
-9.445235e-09 -9.410113e-09 -1.053404e-08 -9.953843e-09 -1.027037e-08 -9.871761e-09 -1.069516e-08 -1.017790e-08 -1.049210e-08 -9.909404e-09
-1.112089e-08 -1.064172e-08 -1.094485e-08 -1.048176e-08 -1.085530e-08 -1.028455e-08 -1.089147e-08 -1.104767e-08 -1.135521e-08 -1.072220e-08
-1.179702e-08 -1.136792e-08 -1.120210e-08 -1.163359e-08 -1.157970e-08 -1.154074e-08 -1.189519e-08 -1.117424e-08 -1.148122e-08 -1.173263e-08
-1.179957e-08 -1.137728e-08 -1.181272e-08 -1.110053e-08 -1.182923e-08 -1.101753e-08 -1.129632e-08 -1.158144e-08 -1.167990e-08 -1.166431e-08
-1.110203e-08
-1.084681e-08 -1.186149e-08 -1.132314e-08 -1.079022e-08 -1.104882e-08 -1.158338e-08 -1.081605e-08 -1.159204e-08 -1.084716e-08 -1.047947e-08
-1.097015e-08 -1.105074e-08 -1.084424e-08 -1.145036e-08 -1.139470e-08 -1.204300e-08 -1.095671e-08 -1.117149e-08 -1.035858e-08 -1.083133e-08
-1.169002e-08 -1.070562e-08 -1.113758e-08 -1.133985e-08 -1.075796e-08 -1.097480e-08 -1.058867e-08 -1.044644e-08 -1.064189e-08 -1.021873e-08
-1.027397e-08 -1.017652e-08 -1.048843e-08 -1.005056e-08 -9.996949e-09 -9.716192e-09 -9.718263e-09 -9.360753e-09 -8.955756e-09 -9.712472e-09
-8.847475e-09 -9.001860e-09 -8.863350e-09 -8.470777e-09 -8.425572e-09 -8.744112e-09 -8.476467e-09 -7.897168e-09 -7.873290e-09 -7.970612e-09
-7.699746e-09 -7.061483e-09 -7.332622e-09 -7.090422e-09 -7.333514e-09 -6.693914e-09 -6.238533e-09 -6.175838e-09 -6.236942e-09 -5.993053e-09
-5.590112e-09 -5.555104e-09 -5.561610e-09 -5.577891e-09 -5.246500e-09 -4.824468e-09 -4.701584e-09 -4.511360e-09 -4.133299e-09 -3.782578e-09
-3.744441e-09 -3.509840e-09 -3.068553e-09 -3.246098e-09 -2.731346e-09 -2.790487e-09 -2.566681e-09 -2.318793e-09 -1.864250e-09 -1.963445e-09
-1.770844e-09 -1.419337e-09 -1.439818e-09 -1.350541e-09 -8.558473e-10 -7.699324e-10 -5.875423e-10 -4.915299e-10 -1.752665e-10 3.234502e-11
3.433836e-10 8.358608e-11 5.206767e-10 6.102638e-10 7.369691e-10 9.490180e-10 1.158258e-09 1.581529e-09 1.199096e-09 1.525213e-09
1.875154e-09 2.522345e-09 2.560261e-09 2.279200e-09 2.427312e-09 2.703580e-09 2.790666e-09 3.196966e-09 3.578140e-09 3.671074e-09
3.778842e-09 4.163514e-09 4.303481e-09 4.296853e-09 4.786344e-09 4.975512e-09 5.209347e-09 5.518959e-09 5.411017e-09 5.736252e-09
6.210818e-09 6.138304e-09 6.233190e-09 6.336517e-09 6.442225e-09 6.704354e-09 7.285354e-09 7.238076e-09 7.083223e-09 7.670347e-09
7.627047e-09 7.942258e-09 8.379043e-09 7.965574e-09 8.120149e-09 8.384954e-09 8.863076e-09 8.719157e-09 8.838986e-09 9.532076e-09
9.321139e-09 9.677400e-09 9.975271e-09 9.612630e-09 9.466995e-09 1.013588e-08 9.777615e-09 1.035796e-08 1.039783e-08 1.087178e-08
1.022338e-08 1.003124e-08 1.037895e-08 1.055711e-08 1.040472e-08 1.106424e-08 1.067075e-08 1.049501e-08 1.121203e-08 1.065681e-08
1.088716e-08 1.141431e-08 1.191188e-08 1.202369e-08 1.124735e-08 1.086705e-08 1.200501e-08 1.115500e-08 1.150912e-08 1.206449e-08
1.132570e-08 1.070258e-08 1.068232e-08 1.086113e-08 1.085670e-08 1.082868e-08 1.111408e-08 1.157145e-08 1.168088e-08 1.145048e-08
1.104965e-08 1.086038e-08 1.046828e-08 1.084540e-08 1.101608e-08 1.162765e-08 1.027283e-08 1.144070e-08 1.104151e-08 1.131042e-08
1.142725e-08 9.976695e-09 1.217818e-08 1.127119e-08 1.197511e-08 1.052165e-08 1.068382e-08 1.065264e-08 1.077072e-08 1.035020e-08
1.075068e-08 1.091134e-08 1.093576e-08 1.093239e-08 1.004281e-08 1.022089e-08 1.026095e-08 1.013327e-08 1.018636e-08 9.659348e-09
9.960471e-09 9.852994e-09 9.870578e-09 9.618252e-09 1.016969e-08 9.389752e-09 9.321082e-09 9.381592e-09 9.439614e-09 9.438295e-09
8.534350e-09 8.834199e-09 8.627565e-09 8.646180e-09 7.962851e-09 7.899295e-09 8.161922e-09 7.806260e-09 7.270153e-09 7.429328e-09
7.315961e-09 6.976970e-09 7.108873e-09 6.809472e-09 6.614121e-09 6.635625e-09 6.072318e-09 5.940390e-09 6.006935e-09 5.714754e-09
5.203965e-09 5.638566e-09 5.015119e-09 4.853028e-09 5.177883e-09 4.891288e-09 4.403121e-09 4.261050e-09 4.085070e-09 3.707062e-09
3.292979e-09 3.410479e-09 3.333611e-09 3.494822e-09 2.900704e-09 2.749762e-09 2.302014e-09 2.675070e-09 2.093123e-09 1.768769e-09
1.890751e-09 1.198650e-09 1.594678e-09 1.071164e-09 6.940706e-10 6.174373e-10 5.747420e-10 6.552849e-10 -3.334523e-11 3.082610e-10
-1.261006e-10 -2.415753e-10 -4.722880e-10 -6.079358e-10 -4.285727e-10 -1.260707e-09 -1.188304e-09 -1.517354e-09 -1.516360e-09 -1.558768e-09
-2.080975e-09 -2.273535e-09 -2.035252e-09 -2.554919e-09 -2.834964e-09 -2.881351e-09 -3.156686e-09 -3.368120e-09 -3.454424e-09 -3.925779e-09
-3.702354e-09 -4.233659e-09 -3.879604e-09 -4.471986e-09 -4.632356e-09 -4.837169e-09 -4.818784e-09 -5.074890e-09 -5.364919e-09 -5.793012e-09
-6.101099e-09 -5.963788e-09 -6.515636e-09 -6.461198e-09 -6.695824e-09 -6.898252e-09 -7.006571e-09 -7.240258e-09 -7.977789e-09 -7.451408e-09
-7.812964e-09 -8.203799e-09 -7.731526e-09 -8.554548e-09 -8.808961e-09 -8.855587e-09 -8.366174e-09 -8.514230e-09 -8.937062e-09 -8.993625e-09
-9.028399e-09 -9.161035e-09 -9.578954e-09 -9.361101e-09 -9.796717e-09 -9.849457e-09 -1.010998e-08 -1.009982e-08 -1.076907e-08 -1.020676e-08
-1.004183e-08 -9.859594e-09 -1.101546e-08 -1.042713e-08 -1.090764e-08 -1.051755e-08 -1.074749e-08 -1.094295e-08 -1.084507e-08 -1.115177e-08
-1.064807e-08 -1.089092e-08 -1.132520e-08 -1.164940e-08 -1.061137e-08 -1.101191e-08 -1.081116e-08 -1.160956e-08 -1.092527e-08 -1.089242e-08
-1.143336e-08 -1.148077e-08 -1.196520e-08 -1.206856e-08 -1.176868e-08 -1.100229e-08 -1.096449e-08 -1.136402e-08 -1.197563e-08 -1.130473e-08
-1.084681e-08
-1.085103e-08 -1.075838e-08 -1.055284e-08 -1.091729e-08 -1.056103e-08 -1.056966e-08 -1.140564e-08 -1.059686e-08 -1.082401e-08 -1.017685e-08
-1.071852e-08 -1.131933e-08 -1.126351e-08 -1.086942e-08 -1.121926e-08 -1.122556e-08 -1.125747e-08 -1.104077e-08 -1.039886e-08 -1.075427e-08
-1.126610e-08 -1.102983e-08 -1.010894e-08 -1.009085e-08 -1.071558e-08 -1.004847e-08 -1.055624e-08 -1.033936e-08 -1.058755e-08 -9.730102e-09
-1.064141e-08 -9.835546e-09 -9.707325e-09 -9.908627e-09 -9.996859e-09 -9.404216e-09 -8.935870e-09 -9.049152e-09 -8.938855e-09 -8.383805e-09
-9.305093e-09 -8.867321e-09 -8.596484e-09 -8.496134e-09 -8.154988e-09 -7.837758e-09 -7.883319e-09 -7.878299e-09 -7.563607e-09 -7.417380e-09
-7.534378e-09 -7.627508e-09 -6.686250e-09 -6.679858e-09 -6.965291e-09 -6.356929e-09 -6.531423e-09 -6.292073e-09 -5.709897e-09 -5.768118e-09
-5.386061e-09 -5.389644e-09 -5.263377e-09 -4.828683e-09 -4.896294e-09 -4.433211e-09 -4.697413e-09 -4.008276e-09 -4.040690e-09 -3.685168e-09
-3.516594e-09 -3.841645e-09 -3.352355e-09 -3.006219e-09 -3.238131e-09 -2.640652e-09 -2.313550e-09 -2.267895e-09 -2.370351e-09 -2.183489e-09
-2.127869e-09 -1.515774e-09 -1.347318e-09 -1.081154e-09 -1.073446e-09 -6.696966e-10 -8.978454e-10 -8.352081e-10 -5.878234e-10 -3.783328e-10
3.574078e-10 1.541451e-10 6.413146e-10 6.691306e-10 8.324190e-10 8.053069e-10 1.193951e-09 1.440616e-09 1.694502e-09 1.822127e-09
1.899854e-09 2.179002e-09 2.353545e-09 2.232818e-09 2.444039e-09 2.590032e-09 2.834332e-09 3.168846e-09 3.492462e-09 3.636129e-09
3.445966e-09 3.872563e-09 3.820194e-09 4.295599e-09 4.435802e-09 4.877809e-09 4.993994e-09 5.202862e-09 5.400010e-09 5.504345e-09
5.992688e-09 6.152794e-09 6.025574e-09 6.256939e-09 6.416246e-09 6.575029e-09 6.738257e-09 6.857318e-09 7.330629e-09 7.292180e-09
7.268316e-09 7.662548e-09 8.167652e-09 8.123355e-09 7.945864e-09 7.783707e-09 8.703906e-09 8.765661e-09 8.619830e-09 9.225515e-09
8.872713e-09 8.951861e-09 9.332566e-09 1.003150e-08 9.166304e-09 9.786663e-09 9.679465e-09 1.002324e-08 9.426251e-09 9.752348e-09
9.674359e-09 1.002846e-08 9.700713e-09 1.062341e-08 9.728869e-09 1.031875e-08 1.037114e-08 1.117601e-08 1.124456e-08 1.060876e-08
1.100890e-08 1.117574e-08 1.135602e-08 1.090926e-08 1.066039e-08 1.121131e-08 1.060887e-08 1.067200e-08 1.100812e-08 1.143999e-08
1.073154e-08 1.110271e-08 1.158090e-08 1.154552e-08 1.049153e-08 1.084488e-08 1.078741e-08 1.068853e-08 1.031546e-08 1.012785e-08
1.113727e-08 1.064150e-08 1.016086e-08 1.060526e-08 1.080594e-08 1.060077e-08 1.060677e-08 1.060206e-08 1.105588e-08 1.149273e-08
1.051617e-08 1.093258e-08 1.104933e-08 1.045551e-08 1.079379e-08 1.094261e-08 1.067956e-08 1.040440e-08 1.008794e-08 1.058014e-08
1.112226e-08 9.952474e-09 1.028953e-08 1.036255e-08 1.097719e-08 1.053834e-08 1.026291e-08 1.031085e-08 9.969422e-09 9.694237e-09
9.572418e-09 9.750552e-09 9.794040e-09 9.391928e-09 9.474792e-09 9.369455e-09 9.312001e-09 8.817280e-09 8.659788e-09 8.217792e-09
8.281056e-09 8.359575e-09 8.087683e-09 7.691962e-09 7.687393e-09 7.856300e-09 7.736108e-09 7.832441e-09 7.387513e-09 7.714031e-09
7.041041e-09 6.815865e-09 7.060214e-09 6.622436e-09 6.095259e-09 6.163571e-09 5.731013e-09 6.017783e-09 5.429351e-09 6.078602e-09
5.269823e-09 5.428614e-09 5.034093e-09 5.160931e-09 4.340256e-09 4.288743e-09 4.402091e-09 3.734797e-09 3.868360e-09 3.840045e-09
3.505087e-09 2.866385e-09 2.989933e-09 2.742643e-09 2.755961e-09 2.586509e-09 2.589821e-09 2.143633e-09 2.438094e-09 1.916815e-09
1.778259e-09 1.298234e-09 1.182707e-09 1.483742e-09 1.128233e-09 5.480069e-10 -2.848810e-11 4.015775e-10 5.149726e-10 -4.603543e-10
2.398629e-10 7.464449e-11 -2.839088e-10 -6.094622e-10 -7.464707e-10 -8.745575e-10 -1.349671e-09 -1.543382e-09 -1.749562e-09 -1.326622e-09
-1.898140e-09 -2.266529e-09 -2.020860e-09 -2.091021e-09 -2.612515e-09 -2.758397e-09 -2.879351e-09 -3.838559e-09 -3.295491e-09 -3.452710e-09
-3.951456e-09 -4.049350e-09 -4.391886e-09 -4.434593e-09 -4.746516e-09 -4.821517e-09 -5.200489e-09 -5.037723e-09 -5.292527e-09 -5.382991e-09
-5.763232e-09 -6.114667e-09 -6.095660e-09 -6.060456e-09 -6.384820e-09 -6.722056e-09 -6.502181e-09 -6.892503e-09 -6.746108e-09 -7.227696e-09
-7.196713e-09 -7.456232e-09 -7.835619e-09 -8.424526e-09 -8.053921e-09 -8.496357e-09 -8.087380e-09 -8.251670e-09 -8.511120e-09 -9.120741e-09
-8.528109e-09 -8.847101e-09 -8.996405e-09 -9.121838e-09 -9.055376e-09 -9.224572e-09 -9.600480e-09 -9.893238e-09 -1.010700e-08 -1.000124e-08
-9.954607e-09 -1.100340e-08 -1.028741e-08 -9.945435e-09 -1.090846e-08 -9.951816e-09 -1.079458e-08 -1.070903e-08 -1.084941e-08 -1.084528e-08
-1.019589e-08 -1.061593e-08 -1.106776e-08 -1.022137e-08 -1.018830e-08 -1.068741e-08 -1.070808e-08 -1.041096e-08 -1.091311e-08 -1.076635e-08
-1.031032e-08 -1.048104e-08 -1.099108e-08 -1.122936e-08 -1.001069e-08 -1.092020e-08 -1.023725e-08 -1.186812e-08 -1.012996e-08 -1.093963e-08
-1.085103e-08
-1.014495e-08 -9.634820e-09 -1.104236e-08 -9.691693e-09 -1.060052e-08 -9.869481e-09 -1.030977e-08 -1.008866e-08 -1.051148e-08 -1.017496e-08
-1.040006e-08 -1.034415e-08 -1.047993e-08 -1.085045e-08 -1.022423e-08 -1.021980e-08 -1.018260e-08 -9.895541e-09 -1.142680e-08 -1.042904e-08
-1.024816e-08 -1.018141e-08 -1.002960e-08 -1.033748e-08 -9.699504e-09 -9.737636e-09 -9.564496e-09 -1.074737e-08 -9.904797e-09 -9.965013e-09
-9.743979e-09 -9.776302e-09 -9.786657e-09 -9.418528e-09 -8.997671e-09 -9.037854e-09 -9.549001e-09 -8.721660e-09 -8.364358e-09 -9.266919e-09
-9.239171e-09 -8.586832e-09 -8.554717e-09 -8.116268e-09 -8.039351e-09 -7.767142e-09 -7.701932e-09 -7.411965e-09 -7.429371e-09 -7.454513e-09
-6.919246e-09 -7.113635e-09 -6.806720e-09 -6.496262e-09 -6.384349e-09 -6.518538e-09 -6.049087e-09 -6.321004e-09 -5.525953e-09 -5.993828e-09
-5.185025e-09 -5.262992e-09 -5.302673e-09 -4.806438e-09 -4.698630e-09 -4.476297e-09 -4.500317e-09 -3.983112e-09 -3.653002e-09 -3.673438e-09
-3.356035e-09 -3.332532e-09 -3.338530e-09 -3.231300e-09 -2.903186e-09 -2.618026e-09 -2.312470e-09 -2.055754e-09 -2.109654e-09 -2.075453e-09
-2.029190e-09 -1.389933e-09 -1.524831e-09 -1.321524e-09 -7.969144e-10 -8.500293e-10 -8.990441e-10 -4.988841e-10 -3.833676e-10 -1.219771e-10
5.529162e-11 3.111507e-10 2.332838e-10 4.867342e-10 6.254472e-10 8.957415e-10 1.036849e-09 1.305929e-09 1.517944e-09 1.756926e-09
1.751260e-09 2.033254e-09 2.244412e-09 2.207797e-09 2.305234e-09 2.675859e-09 3.095896e-09 3.178815e-09 3.107058e-09 3.333831e-09
3.957389e-09 3.899934e-09 4.154061e-09 4.040279e-09 4.361852e-09 4.706876e-09 4.859049e-09 4.687089e-09 5.223292e-09 5.447056e-09
5.485275e-09 5.355227e-09 5.713485e-09 5.762287e-09 6.024202e-09 6.299954e-09 6.544700e-09 6.735915e-09 7.061164e-09 6.968946e-09
7.301008e-09 7.883865e-09 7.497133e-09 7.224182e-09 7.781996e-09 7.808279e-09 8.529524e-09 8.105057e-09 8.153943e-09 8.000618e-09
8.513234e-09 8.792632e-09 8.912756e-09 9.000167e-09 8.976791e-09 9.726232e-09 9.922406e-09 9.512437e-09 9.432591e-09 9.569928e-09
9.464343e-09 9.551813e-09 1.028252e-08 9.990486e-09 1.022119e-08 1.063193e-08 1.056557e-08 9.902160e-09 1.022384e-08 1.006584e-08
1.038554e-08 1.094485e-08 1.076734e-08 1.033913e-08 1.065111e-08 1.074349e-08 1.041476e-08 1.022025e-08 1.071853e-08 1.092312e-08
1.048342e-08 1.027505e-08 1.063413e-08 1.155254e-08 1.102345e-08 1.046152e-08 1.004707e-08 9.664835e-09 1.084131e-08 1.116916e-08
1.008422e-08 1.119540e-08 1.053564e-08 1.119816e-08 1.020253e-08 9.844003e-09 1.072398e-08 1.060756e-08 1.083581e-08 1.058196e-08
1.029818e-08 1.036510e-08 1.088661e-08 1.065051e-08 1.056795e-08 1.021368e-08 1.089781e-08 9.944106e-09 1.022496e-08 1.030359e-08
1.067576e-08 1.057187e-08 9.758487e-09 1.004156e-08 9.747116e-09 9.450780e-09 9.886899e-09 9.960616e-09 9.523475e-09 9.717307e-09
8.905094e-09 9.177094e-09 9.398264e-09 9.255115e-09 8.900366e-09 9.200313e-09 8.393479e-09 8.794497e-09 8.621999e-09 8.719190e-09
8.381904e-09 8.075784e-09 8.166666e-09 7.925762e-09 7.535186e-09 7.233101e-09 7.204569e-09 7.066024e-09 7.081443e-09 7.386521e-09
7.063776e-09 6.848570e-09 6.673435e-09 6.698971e-09 6.325569e-09 5.925559e-09 5.966685e-09 5.589461e-09 5.341526e-09 5.508751e-09
5.181052e-09 4.712609e-09 4.737233e-09 4.763338e-09 4.301635e-09 4.567618e-09 4.034044e-09 3.979674e-09 3.688302e-09 3.649562e-09
3.755772e-09 3.059450e-09 3.276710e-09 2.515417e-09 3.046472e-09 2.333967e-09 1.829446e-09 1.728153e-09 2.008145e-09 1.791991e-09
1.878816e-09 1.174449e-09 1.077023e-09 1.342598e-09 5.724788e-10 7.927259e-10 6.673000e-10 2.092375e-10 -1.787602e-10 1.075216e-10
7.164556e-12 -7.139311e-10 -2.208593e-10 -5.097174e-10 -4.368605e-10 -1.319262e-09 -1.155395e-09 -1.051144e-09 -1.512899e-09 -1.957547e-09
-2.096503e-09 -1.846414e-09 -2.195298e-09 -2.198015e-09 -2.475650e-09 -2.667689e-09 -2.892513e-09 -3.425318e-09 -3.160880e-09 -3.499131e-09
-3.795096e-09 -3.778489e-09 -3.947170e-09 -4.537794e-09 -4.530167e-09 -4.398562e-09 -4.841791e-09 -4.891305e-09 -5.122421e-09 -5.326635e-09
-5.755057e-09 -5.721322e-09 -5.944176e-09 -6.250148e-09 -6.381621e-09 -6.320551e-09 -6.684720e-09 -7.100185e-09 -6.851501e-09 -6.680477e-09
-7.096492e-09 -7.314424e-09 -7.329149e-09 -7.474823e-09 -8.121789e-09 -8.289340e-09 -8.132775e-09 -8.254389e-09 -8.722095e-09 -8.609960e-09
-8.767715e-09 -8.725387e-09 -9.215465e-09 -9.047744e-09 -9.401361e-09 -9.506000e-09 -9.027445e-09 -9.892935e-09 -9.841106e-09 -1.024472e-08
-9.337076e-09 -9.640410e-09 -9.584741e-09 -9.720395e-09 -9.946942e-09 -1.001847e-08 -1.018858e-08 -1.065818e-08 -1.049060e-08 -9.600924e-09
-1.037259e-08 -1.058221e-08 -1.034837e-08 -1.025041e-08 -1.031030e-08 -1.033011e-08 -1.004883e-08 -1.020154e-08 -1.051776e-08 -1.063811e-08
-1.034567e-08 -1.041108e-08 -1.076075e-08 -1.074574e-08 -1.024070e-08 -1.090879e-08 -9.900291e-09 -1.089586e-08 -1.047649e-08 -9.632224e-09
-1.014495e-08
-1.058892e-08 -1.026557e-08 -1.023586e-08 -1.038711e-08 -1.020995e-08 -1.092467e-08 -9.917359e-09 -1.019116e-08 -1.045818e-08 -1.025325e-08
-1.046686e-08 -1.001154e-08 -9.863733e-09 -1.029014e-08 -9.784208e-09 -1.036678e-08 -1.102777e-08 -1.041500e-08 -9.867821e-09 -9.802060e-09
-1.050349e-08 -1.000178e-08 -9.866985e-09 -9.864681e-09 -9.684707e-09 -9.750180e-09 -9.472630e-09 -9.336844e-09 -9.334449e-09 -9.294506e-09
-9.601457e-09 -9.005216e-09 -9.583439e-09 -9.351958e-09 -8.873799e-09 -8.771173e-09 -8.912735e-09 -8.911527e-09 -9.141019e-09 -8.109219e-09
-8.026919e-09 -8.231640e-09 -8.312960e-09 -7.761149e-09 -8.093353e-09 -7.363673e-09 -7.365086e-09 -7.467663e-09 -7.591541e-09 -7.039387e-09
-6.819743e-09 -6.464052e-09 -6.470482e-09 -6.482703e-09 -6.139039e-09 -6.119491e-09 -6.073865e-09 -5.419848e-09 -5.431904e-09 -5.126201e-09
-5.175036e-09 -5.217606e-09 -4.747962e-09 -4.553890e-09 -4.622107e-09 -4.614821e-09 -4.433916e-09 -3.909817e-09 -3.787630e-09 -3.745605e-09
-3.906946e-09 -3.263465e-09 -3.142665e-09 -2.729571e-09 -2.230052e-09 -2.364775e-09 -2.316450e-09 -1.971421e-09 -2.036372e-09 -1.729274e-09
-1.556791e-09 -1.599340e-09 -1.338215e-09 -9.854931e-10 -8.090266e-10 -8.944248e-10 -6.133789e-10 -3.363249e-10 -3.283011e-10 -4.609836e-10
2.281483e-10 1.389282e-10 4.354066e-10 4.703362e-10 9.847326e-10 8.491909e-10 1.289554e-09 1.271309e-09 1.212633e-09 2.002128e-09
2.061974e-09 2.028968e-09 2.365405e-09 2.679181e-09 2.441447e-09 2.355307e-09 2.764593e-09 2.928486e-09 3.538024e-09 3.259565e-09
3.383660e-09 3.717412e-09 3.764212e-09 3.921804e-09 4.147631e-09 4.576195e-09 4.556322e-09 4.822849e-09 5.075456e-09 5.188342e-09
5.106950e-09 5.701596e-09 5.936095e-09 5.853666e-09 6.236764e-09 6.210696e-09 6.407564e-09 6.189710e-09 6.742967e-09 7.136715e-09
7.396485e-09 7.347294e-09 7.302634e-09 7.615550e-09 7.500225e-09 7.323568e-09 8.084265e-09 7.654927e-09 8.083855e-09 8.415507e-09
8.570823e-09 8.043752e-09 8.466666e-09 8.954590e-09 8.940688e-09 9.037109e-09 9.132182e-09 9.410940e-09 8.723602e-09 9.211123e-09
9.422159e-09 1.009861e-08 9.344602e-09 9.245764e-09 9.780095e-09 9.639639e-09 1.019914e-08 1.029286e-08 1.031913e-08 9.874856e-09
1.029547e-08 1.052505e-08 9.592192e-09 1.026305e-08 9.866009e-09 9.930090e-09 1.018199e-08 1.038573e-08 1.049101e-08 1.032310e-08
1.028239e-08 1.140417e-08 1.022751e-08 9.662634e-09 1.008467e-08 1.069698e-08 1.042284e-08 9.790883e-09 1.007357e-08 1.045716e-08
1.084489e-08 1.061848e-08 1.009068e-08 1.073670e-08 9.656739e-09 9.544791e-09 1.005198e-08 9.845114e-09 9.710544e-09 1.012882e-08
1.009889e-08 9.716395e-09 1.120890e-08 9.921822e-09 9.614127e-09 1.030431e-08 9.930829e-09 1.015323e-08 9.829921e-09 9.804406e-09
9.486625e-09 9.746167e-09 1.006617e-08 9.380435e-09 1.006036e-08 9.696703e-09 9.433488e-09 9.493373e-09 9.213532e-09 9.836902e-09
8.768152e-09 9.419060e-09 8.928603e-09 9.658475e-09 8.495051e-09 8.539062e-09 8.042684e-09 8.459701e-09 8.373223e-09 8.020645e-09
7.987709e-09 7.942632e-09 8.448549e-09 7.453152e-09 7.372961e-09 7.389338e-09 6.992633e-09 6.722776e-09 7.078511e-09 6.873211e-09
6.430585e-09 6.450411e-09 6.234485e-09 5.986475e-09 5.866690e-09 5.555216e-09 5.617018e-09 5.551838e-09 5.466418e-09 5.094360e-09
4.899476e-09 4.856297e-09 4.530615e-09 4.593571e-09 4.387458e-09 4.446177e-09 4.103247e-09 4.040852e-09 3.760975e-09 3.535026e-09
2.999291e-09 3.043030e-09 3.027575e-09 2.768917e-09 2.432751e-09 2.524786e-09 1.959032e-09 2.125042e-09 1.719632e-09 1.672352e-09
1.768239e-09 1.670103e-09 1.309382e-09 1.062362e-09 1.221893e-09 4.472548e-10 5.016474e-10 4.925042e-10 -6.475689e-11 -1.409097e-11
2.099805e-10 -2.840521e-10 -2.280009e-10 -9.067224e-10 -9.642412e-10 -1.181719e-09 -8.615298e-10 -1.073562e-09 -1.704757e-09 -1.494751e-09
-1.794941e-09 -1.897685e-09 -2.361652e-09 -1.931265e-09 -2.571949e-09 -2.684737e-09 -2.998481e-09 -2.864850e-09 -3.106730e-09 -3.114062e-09
-3.544310e-09 -3.703094e-09 -3.979803e-09 -4.332037e-09 -4.109673e-09 -4.084505e-09 -4.450574e-09 -4.684787e-09 -5.139993e-09 -5.213215e-09
-5.580491e-09 -5.221568e-09 -5.513113e-09 -6.210859e-09 -5.945523e-09 -6.093320e-09 -6.530916e-09 -6.419942e-09 -6.519489e-09 -6.954310e-09
-6.966674e-09 -7.448179e-09 -7.284561e-09 -7.442654e-09 -7.782254e-09 -7.520640e-09 -8.013000e-09 -7.665983e-09 -8.440069e-09 -7.734045e-09
-8.409722e-09 -8.282402e-09 -8.793180e-09 -8.677921e-09 -9.083806e-09 -8.799193e-09 -9.030168e-09 -8.971109e-09 -9.467059e-09 -9.768226e-09
-9.300354e-09 -9.400783e-09 -9.518621e-09 -9.439442e-09 -9.261584e-09 -9.272563e-09 -1.002400e-08 -9.950962e-09 -9.590703e-09 -9.731534e-09
-9.666816e-09 -1.017905e-08 -9.997964e-09 -9.629751e-09 -1.019447e-08 -1.003141e-08 -1.005785e-08 -1.056138e-08 -9.938987e-09 -1.008401e-08
-1.012856e-08 -9.664421e-09 -9.795564e-09 -1.065644e-08 -1.094779e-08 -9.557950e-09 -1.057845e-08 -1.005441e-08 -9.765483e-09 -9.630658e-09
-1.058892e-08
-9.520238e-09 -9.547253e-09 -1.039719e-08 -1.077895e-08 -1.018221e-08 -9.470901e-09 -9.389211e-09 -1.048414e-08 -9.904811e-09 -9.601892e-09
-9.706411e-09 -1.065067e-08 -9.661778e-09 -1.000343e-08 -1.062040e-08 -9.228530e-09 -9.550839e-09 -9.442708e-09 -1.006708e-08 -9.520138e-09
-9.556585e-09 -9.608909e-09 -9.211438e-09 -9.500702e-09 -9.368144e-09 -8.721449e-09 -9.637632e-09 -9.030376e-09 -9.457479e-09 -8.754852e-09
-8.957849e-09 -8.755791e-09 -8.480481e-09 -8.267768e-09 -9.068393e-09 -8.748526e-09 -8.040197e-09 -8.134827e-09 -8.145295e-09 -8.044087e-09
-8.148419e-09 -8.516515e-09 -8.363675e-09 -7.883319e-09 -8.160033e-09 -7.543839e-09 -7.132596e-09 -7.303500e-09 -6.668429e-09 -6.528308e-09
-6.247166e-09 -6.316716e-09 -6.506160e-09 -6.409167e-09 -5.784818e-09 -5.576476e-09 -5.744992e-09 -5.273289e-09 -5.335521e-09 -5.018477e-09
-5.007821e-09 -4.952890e-09 -4.496745e-09 -4.501447e-09 -4.177293e-09 -4.223160e-09 -4.280885e-09 -4.058584e-09 -3.546678e-09 -3.400351e-09
-3.160924e-09 -3.071180e-09 -2.773748e-09 -2.699595e-09 -3.031322e-09 -2.586199e-09 -2.249265e-09 -2.117552e-09 -1.832668e-09 -1.651464e-09
-1.546964e-09 -1.673913e-09 -1.475402e-09 -1.048719e-09 -1.242982e-09 -1.010524e-09 -7.113813e-10 -2.150760e-10 -3.043984e-10 -2.171153e-10
-1.180732e-10 -7.072071e-11 5.011123e-10 4.970277e-10 8.328709e-10 7.282503e-10 9.006869e-10 1.288783e-09 1.378885e-09 1.773843e-09
1.884409e-09 1.837828e-09 1.990723e-09 2.269048e-09 2.523554e-09 2.443337e-09 3.150356e-09 3.132342e-09 3.021920e-09 3.396957e-09
3.671622e-09 3.754193e-09 3.825621e-09 3.852294e-09 4.291050e-09 4.634156e-09 4.480043e-09 4.618729e-09 4.889825e-09 5.223331e-09
5.068024e-09 5.354298e-09 5.469413e-09 5.766719e-09 6.083624e-09 6.264997e-09 6.047685e-09 5.968364e-09 6.358910e-09 6.796236e-09
6.909666e-09 6.642369e-09 7.236977e-09 7.291995e-09 7.252715e-09 7.544117e-09 7.687226e-09 7.475363e-09 7.724658e-09 8.070102e-09
8.035323e-09 8.248732e-09 8.304473e-09 8.249223e-09 8.389105e-09 9.355305e-09 8.316510e-09 9.052386e-09 8.643425e-09 8.800444e-09
8.775960e-09 8.992060e-09 9.128265e-09 9.398208e-09 9.606245e-09 9.474178e-09 9.587517e-09 1.028702e-08 1.014725e-08 9.471887e-09
1.012672e-08 1.029520e-08 9.582078e-09 9.634054e-09 9.681604e-09 1.006082e-08 9.751957e-09 9.516593e-09 9.346840e-09 9.667978e-09
1.005968e-08 9.945839e-09 1.023235e-08 9.927038e-09 1.028459e-08 1.036923e-08 1.012416e-08 9.638412e-09 8.931050e-09 9.916719e-09
1.014280e-08 9.864839e-09 9.169725e-09 9.168601e-09 1.003402e-08 9.764253e-09 9.691306e-09 9.306096e-09 1.047102e-08 1.028930e-08
9.747629e-09 9.577884e-09 9.581648e-09 1.067711e-08 9.551514e-09 9.560921e-09 9.853146e-09 1.052012e-08 9.559781e-09 9.261560e-09
1.050849e-08 9.112809e-09 9.134595e-09 8.785122e-09 9.247155e-09 8.960459e-09 9.203933e-09 8.786340e-09 9.017345e-09 8.987406e-09
8.609939e-09 8.934803e-09 8.111133e-09 9.445563e-09 7.988209e-09 8.035158e-09 7.959237e-09 8.266084e-09 8.671674e-09 8.055800e-09
8.050468e-09 7.769725e-09 7.278859e-09 7.351227e-09 6.944754e-09 7.183559e-09 7.038615e-09 6.883126e-09 6.806412e-09 6.872776e-09
6.532951e-09 6.267491e-09 6.161741e-09 5.686031e-09 5.604267e-09 5.723590e-09 5.590664e-09 5.136233e-09 5.369847e-09 4.713329e-09
4.786906e-09 4.864445e-09 4.687017e-09 4.097063e-09 3.926699e-09 3.892406e-09 3.839534e-09 3.600835e-09 3.369353e-09 3.264629e-09
2.953467e-09 2.878632e-09 2.744191e-09 2.647649e-09 2.361771e-09 2.311476e-09 2.297434e-09 2.081262e-09 1.671963e-09 1.600700e-09
1.479170e-09 1.065142e-09 1.283335e-09 9.791892e-10 8.639753e-10 3.487409e-10 3.442698e-10 3.834109e-10 -1.175611e-10 -4.349127e-10
2.439272e-10 -3.486374e-10 -6.043615e-10 -4.055878e-10 -8.505555e-10 -7.771802e-10 -1.317234e-09 -1.345621e-09 -1.507323e-09 -1.463391e-09
-1.765282e-09 -1.902207e-09 -2.075403e-09 -2.441085e-09 -2.647840e-09 -2.615618e-09 -2.951888e-09 -2.728857e-09 -3.172398e-09 -3.226499e-09
-3.410618e-09 -3.651531e-09 -3.701663e-09 -3.713173e-09 -3.953620e-09 -4.293186e-09 -4.448117e-09 -4.578473e-09 -4.950332e-09 -4.923863e-09
-5.276343e-09 -5.512666e-09 -5.448052e-09 -5.647435e-09 -6.142507e-09 -5.726249e-09 -6.162165e-09 -6.878281e-09 -6.467846e-09 -6.129680e-09
-6.771570e-09 -6.728763e-09 -6.916120e-09 -7.728211e-09 -7.576505e-09 -7.459930e-09 -7.605603e-09 -7.841696e-09 -8.059152e-09 -8.230168e-09
-7.751575e-09 -7.982520e-09 -8.046701e-09 -8.076313e-09 -8.137577e-09 -8.146701e-09 -8.893749e-09 -8.553156e-09 -9.449998e-09 -8.740392e-09
-8.954501e-09 -8.987782e-09 -8.702387e-09 -8.710018e-09 -9.141181e-09 -9.774386e-09 -9.069317e-09 -9.199752e-09 -9.926133e-09 -1.015229e-08
-9.517538e-09 -9.674671e-09 -9.270073e-09 -9.467553e-09 -9.531782e-09 -9.973292e-09 -9.783251e-09 -1.066730e-08 -1.000486e-08 -9.584463e-09
-9.946510e-09 -1.044575e-08 -9.508134e-09 -9.512507e-09 -1.048554e-08 -9.536304e-09 -9.269033e-09 -9.982823e-09 -1.125424e-08 -1.001921e-08
-9.520238e-09
-9.408064e-09 -9.330500e-09 -1.010166e-08 -9.430264e-09 -1.011002e-08 -9.149752e-09 -9.531385e-09 -9.820939e-09 -8.788391e-09 -9.914931e-09
-9.405848e-09 -9.449323e-09 -9.193765e-09 -8.877231e-09 -1.030452e-08 -9.528043e-09 -9.333345e-09 -9.252182e-09 -9.232152e-09 -9.148399e-09
-8.765967e-09 -9.850820e-09 -8.802831e-09 -9.652659e-09 -9.082119e-09 -8.755391e-09 -9.038998e-09 -9.063323e-09 -9.042956e-09 -8.659966e-09
-8.678259e-09 -8.958410e-09 -8.093996e-09 -8.101257e-09 -8.808063e-09 -7.773810e-09 -8.555129e-09 -8.262666e-09 -8.450294e-09 -7.596984e-09
-8.316832e-09 -7.369003e-09 -7.648080e-09 -7.392856e-09 -6.961563e-09 -6.982799e-09 -6.863234e-09 -7.060862e-09 -6.780903e-09 -6.485291e-09
-6.596795e-09 -5.830479e-09 -5.946346e-09 -5.878764e-09 -5.735705e-09 -5.432063e-09 -5.481247e-09 -5.208854e-09 -4.969228e-09 -5.173261e-09
-4.884455e-09 -4.547768e-09 -4.363139e-09 -4.386782e-09 -4.065947e-09 -4.004255e-09 -3.838768e-09 -3.645085e-09 -3.267059e-09 -3.443910e-09
-3.215036e-09 -2.825182e-09 -2.758428e-09 -2.639055e-09 -2.564263e-09 -2.366347e-09 -2.377792e-09 -1.918032e-09 -1.864426e-09 -1.532696e-09
-1.377932e-09 -1.336143e-09 -1.322515e-09 -9.610261e-10 -7.606796e-10 -9.116506e-10 -4.871593e-10 -4.894468e-10 -1.028410e-11 -8.451762e-11
8.986364e-11 3.010906e-10 3.599845e-10 7.222423e-10 5.690153e-10 1.122850e-09 1.040123e-09 1.088626e-09 1.560328e-09 1.391924e-09
1.830847e-09 1.683701e-09 1.613723e-09 2.136850e-09 2.362614e-09 2.702983e-09 2.499179e-09 2.862389e-09 2.778797e-09 3.235250e-09
3.373945e-09 3.343499e-09 3.745922e-09 3.594787e-09 4.520099e-09 3.979534e-09 4.243121e-09 4.348446e-09 4.461191e-09 4.821434e-09
4.940388e-09 5.400872e-09 5.422379e-09 5.555080e-09 5.418753e-09 5.647346e-09 5.927428e-09 5.745824e-09 6.303510e-09 6.095934e-09
6.362649e-09 6.566376e-09 7.123281e-09 6.801090e-09 7.298513e-09 7.376919e-09 7.213369e-09 7.344714e-09 7.569509e-09 8.021808e-09
7.982233e-09 8.012870e-09 8.123866e-09 8.111898e-09 8.370336e-09 8.050616e-09 8.595257e-09 8.802750e-09 8.251873e-09 9.221126e-09
8.221735e-09 8.498724e-09 9.589215e-09 8.515474e-09 8.966023e-09 8.643585e-09 9.072451e-09 9.222776e-09 9.490935e-09 8.710392e-09
9.092107e-09 9.766262e-09 9.023551e-09 9.064948e-09 9.447806e-09 9.942418e-09 9.138843e-09 9.214776e-09 9.675024e-09 9.909814e-09
9.677856e-09 9.988324e-09 9.871964e-09 9.614818e-09 9.971398e-09 1.003852e-08 8.879083e-09 1.056598e-08 9.522956e-09 9.000233e-09
9.123343e-09 9.007183e-09 1.061556e-08 9.729777e-09 1.001048e-08 9.799785e-09 9.462653e-09 1.020850e-08 9.480053e-09 8.923421e-09
9.237533e-09 9.662266e-09 9.769038e-09 9.462028e-09 9.706366e-09 9.784279e-09 9.134549e-09 9.678747e-09 9.393351e-09 8.733790e-09
8.989848e-09 8.821355e-09 9.539703e-09 9.304437e-09 8.877540e-09 8.987719e-09 8.460403e-09 8.507732e-09 8.590288e-09 8.342776e-09
8.356530e-09 8.316967e-09 8.215307e-09 7.919009e-09 8.337629e-09 7.603538e-09 8.181439e-09 8.022122e-09 7.719369e-09 7.489088e-09
7.577272e-09 7.608307e-09 7.234505e-09 7.058742e-09 6.953246e-09 6.652350e-09 6.829358e-09 6.655442e-09 6.450053e-09 6.391447e-09
6.362954e-09 6.001651e-09 6.045367e-09 5.788560e-09 5.678184e-09 5.210322e-09 5.622030e-09 5.226788e-09 5.179885e-09 5.040802e-09
4.611423e-09 4.576586e-09 4.492184e-09 3.899967e-09 3.903309e-09 3.723222e-09 3.675970e-09 3.567764e-09 3.488752e-09 3.365344e-09
3.180628e-09 3.190942e-09 2.556054e-09 2.693057e-09 2.098918e-09 2.067559e-09 2.306485e-09 2.069162e-09 1.927011e-09 1.732866e-09
1.473391e-09 1.247785e-09 1.400772e-09 1.116034e-09 7.231751e-10 8.054520e-10 2.029287e-10 3.169235e-10 1.913503e-10 1.532051e-10
1.357375e-10 -2.701482e-10 -6.299949e-10 -6.244887e-10 -7.280099e-10 -7.607066e-10 -9.918270e-10 -1.210393e-09 -1.608875e-09 -1.544690e-09
-1.948429e-09 -1.707477e-09 -2.267763e-09 -2.179452e-09 -2.491462e-09 -2.695869e-09 -2.675038e-09 -2.741329e-09 -3.190917e-09 -3.216704e-09
-3.162241e-09 -3.269291e-09 -3.496817e-09 -3.506826e-09 -3.788707e-09 -3.938170e-09 -4.217303e-09 -4.773127e-09 -4.869526e-09 -4.461266e-09
-5.099244e-09 -5.160624e-09 -5.174142e-09 -5.256539e-09 -5.471476e-09 -5.611867e-09 -5.884674e-09 -5.940285e-09 -6.295172e-09 -6.494076e-09
-6.326391e-09 -6.342914e-09 -6.730886e-09 -7.174009e-09 -6.723541e-09 -7.127454e-09 -7.469960e-09 -7.250405e-09 -7.661596e-09 -8.181082e-09
-7.307738e-09 -8.235181e-09 -7.615530e-09 -7.823028e-09 -8.108203e-09 -8.463666e-09 -8.320154e-09 -8.138572e-09 -8.158702e-09 -8.529763e-09
-8.436580e-09 -8.752537e-09 -9.867128e-09 -8.887246e-09 -8.972280e-09 -9.942128e-09 -9.945818e-09 -8.977857e-09 -9.254012e-09 -9.184706e-09
-9.410438e-09 -9.414516e-09 -9.705912e-09 -9.505407e-09 -1.013276e-08 -9.555357e-09 -9.844674e-09 -9.476555e-09 -9.735724e-09 -9.838735e-09
-9.111074e-09 -9.142359e-09 -9.064564e-09 -9.251351e-09 -9.394494e-09 -9.338279e-09 -9.463000e-09 -9.134816e-09 -9.770432e-09 -1.027837e-08
-9.408064e-09
-8.657850e-09 -9.548462e-09 -9.589223e-09 -9.997899e-09 -9.251035e-09 -8.851913e-09 -8.613124e-09 -9.268827e-09 -9.613118e-09 -9.537654e-09
-8.861975e-09 -8.826085e-09 -1.016245e-08 -9.162103e-09 -9.332903e-09 -1.040192e-08 -8.811438e-09 -8.991328e-09 -9.377136e-09 -8.705347e-09
-8.777445e-09 -8.907256e-09 -9.278040e-09 -9.181449e-09 -8.953156e-09 -8.855612e-09 -8.555421e-09 -8.545672e-09 -9.209923e-09 -7.955740e-09
-8.319366e-09 -8.866655e-09 -8.172208e-09 -8.225036e-09 -7.638602e-09 -8.011247e-09 -7.947055e-09 -8.043879e-09 -7.779133e-09 -7.293198e-09
-7.870702e-09 -7.287841e-09 -7.136815e-09 -6.768281e-09 -6.703342e-09 -7.250135e-09 -6.968661e-09 -6.688190e-09 -6.209430e-09 -6.309683e-09
-6.375199e-09 -6.046356e-09 -6.033812e-09 -6.042661e-09 -5.492545e-09 -5.362914e-09 -5.245749e-09 -5.477355e-09 -4.889012e-09 -5.192964e-09
-4.981291e-09 -4.468343e-09 -4.503013e-09 -4.484867e-09 -3.971489e-09 -4.051533e-09 -3.726236e-09 -3.609441e-09 -3.330924e-09 -3.378121e-09
-2.979241e-09 -3.249071e-09 -2.816464e-09 -2.731822e-09 -2.267051e-09 -2.523954e-09 -2.174162e-09 -2.007866e-09 -1.581304e-09 -1.701284e-09
-1.684560e-09 -1.630801e-09 -1.212571e-09 -1.106144e-09 -6.911292e-10 -4.520493e-10 -4.993939e-10 -4.815754e-10 -3.523345e-10 -2.932095e-10
2.349855e-10 2.741998e-10 3.467497e-10 7.182395e-10 6.769340e-10 8.914149e-10 9.165928e-10 1.261858e-09 1.311070e-09 1.582173e-09
1.479565e-09 1.810630e-09 1.863999e-09 2.225159e-09 2.413584e-09 2.412828e-09 2.423353e-09 2.668158e-09 2.842273e-09 2.999483e-09
3.426979e-09 3.058755e-09 3.594829e-09 3.879656e-09 3.647867e-09 4.178891e-09 4.368351e-09 4.278744e-09 4.706707e-09 4.831832e-09
4.823445e-09 4.629175e-09 4.898363e-09 5.158817e-09 5.470730e-09 5.267850e-09 5.909137e-09 6.132779e-09 5.616680e-09 6.118351e-09
6.102001e-09 6.262002e-09 6.536588e-09 6.407534e-09 6.388737e-09 6.593812e-09 6.780054e-09 7.141003e-09 7.648176e-09 7.306108e-09
7.379870e-09 7.893693e-09 7.974410e-09 8.389946e-09 7.780354e-09 8.301512e-09 8.771637e-09 8.500190e-09 8.013294e-09 8.129140e-09
8.519506e-09 8.392779e-09 8.466892e-09 8.284927e-09 8.289058e-09 9.230662e-09 8.626014e-09 9.087677e-09 8.891152e-09 9.383000e-09
8.684578e-09 9.302114e-09 9.463416e-09 9.463459e-09 9.337031e-09 9.859731e-09 9.682746e-09 9.467693e-09 8.901968e-09 8.669768e-09
8.962060e-09 9.633880e-09 8.938755e-09 9.449717e-09 8.942720e-09 9.518298e-09 8.790400e-09 9.039844e-09 9.122552e-09 9.250130e-09
9.460364e-09 9.592216e-09 9.334831e-09 9.204149e-09 9.678199e-09 9.298893e-09 9.215646e-09 8.810662e-09 9.128102e-09 8.913795e-09
9.857075e-09 9.525181e-09 9.223108e-09 8.642123e-09 8.685979e-09 9.238880e-09 8.640130e-09 8.908067e-09 8.581815e-09 8.972099e-09
9.657646e-09 9.685256e-09 8.920202e-09 8.427854e-09 8.376763e-09 8.588362e-09 8.355034e-09 7.845077e-09 8.370477e-09 8.726054e-09
9.106249e-09 8.235012e-09 7.733392e-09 8.102337e-09 7.559028e-09 7.523965e-09 7.526491e-09 7.430874e-09 7.494418e-09 7.907331e-09
7.451182e-09 7.499175e-09 7.016586e-09 7.304338e-09 6.711144e-09 6.677173e-09 6.732028e-09 6.558737e-09 6.251168e-09 6.177924e-09
6.306156e-09 5.492707e-09 5.423731e-09 5.777425e-09 5.187911e-09 5.244657e-09 4.963649e-09 4.812381e-09 4.887315e-09 4.508853e-09
4.457943e-09 4.147387e-09 4.261258e-09 3.973232e-09 3.720072e-09 3.635492e-09 3.638048e-09 3.719819e-09 3.523920e-09 2.951385e-09
2.874651e-09 2.661430e-09 2.784078e-09 2.495223e-09 2.147304e-09 2.017525e-09 2.061803e-09 2.125285e-09 1.811252e-09 1.653901e-09
1.704195e-09 1.425528e-09 1.349099e-09 9.204700e-10 4.828686e-10 8.984558e-10 6.569316e-10 2.555910e-10 -2.780214e-11 -2.632333e-10
1.208182e-12 -2.787628e-10 -4.044616e-10 -3.175704e-10 -9.442328e-10 -1.141430e-09 -1.075145e-09 -1.689745e-09 -1.711687e-09 -1.249928e-09
-1.487569e-09 -2.192051e-09 -1.930742e-09 -2.115645e-09 -2.254433e-09 -2.357508e-09 -2.800157e-09 -2.762605e-09 -2.756904e-09 -2.804584e-09
-3.018352e-09 -3.439388e-09 -3.295694e-09 -3.824797e-09 -3.718784e-09 -4.583223e-09 -4.125030e-09 -4.034247e-09 -4.401838e-09 -4.707689e-09
-5.017805e-09 -4.974818e-09 -5.276998e-09 -5.137231e-09 -5.011843e-09 -5.653620e-09 -5.880178e-09 -5.801585e-09 -5.903757e-09 -6.057186e-09
-6.184743e-09 -6.449171e-09 -6.595665e-09 -6.705414e-09 -6.984502e-09 -7.022116e-09 -7.237226e-09 -7.264622e-09 -7.651312e-09 -7.294926e-09
-7.418075e-09 -7.445713e-09 -7.649849e-09 -7.506817e-09 -7.920922e-09 -8.087476e-09 -7.811426e-09 -8.037550e-09 -8.014002e-09 -8.172521e-09
-8.379529e-09 -8.849597e-09 -8.075944e-09 -8.725049e-09 -8.615859e-09 -8.970119e-09 -8.943736e-09 -9.158353e-09 -8.681199e-09 -9.054332e-09
-8.865521e-09 -8.914338e-09 -8.843572e-09 -8.751837e-09 -9.157496e-09 -8.822790e-09 -9.375999e-09 -8.531420e-09 -9.283663e-09 -9.985155e-09
-9.312880e-09 -9.439879e-09 -8.853475e-09 -9.598145e-09 -9.069606e-09 -9.234968e-09 -1.004158e-08 -8.986071e-09 -8.982038e-09 -9.197797e-09
-8.657850e-09
-8.296626e-09 -9.077990e-09 -8.957056e-09 -8.861835e-09 -8.891968e-09 -9.375150e-09 -8.687965e-09 -8.427318e-09 -9.671838e-09 -8.742824e-09
-8.631351e-09 -8.903750e-09 -8.866756e-09 -8.714629e-09 -8.454173e-09 -8.677898e-09 -8.473043e-09 -8.912408e-09 -8.535561e-09 -8.665355e-09
-8.491852e-09 -8.131270e-09 -8.363226e-09 -8.847530e-09 -8.656904e-09 -7.920391e-09 -8.275916e-09 -8.081643e-09 -8.095433e-09 -8.396616e-09
-7.671246e-09 -8.231349e-09 -7.561451e-09 -7.556120e-09 -7.369894e-09 -7.365564e-09 -7.729317e-09 -7.134584e-09 -6.998624e-09 -7.090346e-09
-7.078175e-09 -6.595884e-09 -6.576877e-09 -7.303184e-09 -7.340024e-09 -6.828250e-09 -6.503949e-09 -6.470721e-09 -6.274704e-09 -5.849032e-09
-5.828279e-09 -6.300386e-09 -6.007673e-09 -5.474753e-09 -5.174124e-09 -5.132415e-09 -5.436620e-09 -5.136953e-09 -5.024029e-09 -4.467565e-09
-4.514896e-09 -4.302679e-09 -4.426659e-09 -3.868386e-09 -3.649684e-09 -3.753485e-09 -3.429519e-09 -3.460338e-09 -3.311978e-09 -3.261488e-09
-2.609059e-09 -2.778670e-09 -2.776473e-09 -2.701768e-09 -2.576563e-09 -2.225421e-09 -1.924667e-09 -1.954708e-09 -1.763856e-09 -1.866179e-09
-1.441401e-09 -1.235427e-09 -1.311629e-09 -1.002309e-09 -8.586933e-10 -5.998561e-10 -5.642131e-10 -4.090196e-10 -1.739752e-10 -7.228096e-11
1.085478e-10 2.115034e-10 2.434348e-10 5.577269e-10 3.978719e-10 9.866405e-10 9.927882e-10 9.862146e-10 1.053806e-09 1.681765e-09
1.365601e-09 1.603122e-09 1.983784e-09 1.961635e-09 2.382156e-09 2.116380e-09 2.310817e-09 2.411519e-09 2.698466e-09 3.079349e-09
2.742941e-09 3.218592e-09 3.199890e-09 3.285087e-09 3.810595e-09 3.677056e-09 3.929875e-09 3.998830e-09 4.310245e-09 4.469506e-09
4.405105e-09 4.845380e-09 4.631147e-09 4.992100e-09 5.499583e-09 5.353405e-09 5.109742e-09 5.568230e-09 6.208345e-09 5.523742e-09
5.954093e-09 6.265810e-09 6.432375e-09 6.259464e-09 6.556077e-09 6.753825e-09 6.774565e-09 6.763778e-09 7.582968e-09 6.829107e-09
7.738548e-09 7.065971e-09 7.272593e-09 7.383484e-09 7.885841e-09 7.923965e-09 8.721051e-09 7.746185e-09 7.746023e-09 8.010093e-09
8.117811e-09 8.416191e-09 8.846739e-09 8.900117e-09 8.246835e-09 8.823354e-09 8.875982e-09 9.190654e-09 9.184480e-09 8.860890e-09
9.327024e-09 8.974662e-09 8.574884e-09 8.853491e-09 9.492312e-09 9.019049e-09 9.107876e-09 8.824515e-09 8.317577e-09 8.654337e-09
8.842147e-09 9.060126e-09 8.475760e-09 8.759078e-09 9.068879e-09 9.167024e-09 8.640465e-09 9.256104e-09 8.422226e-09 8.674140e-09
8.982216e-09 9.330061e-09 9.510582e-09 8.960780e-09 8.658415e-09 8.732541e-09 9.005070e-09 8.965626e-09 8.654124e-09 8.637591e-09
9.143270e-09 9.426325e-09 9.739302e-09 8.914603e-09 8.113424e-09 8.205288e-09 8.719925e-09 8.310825e-09 8.375623e-09 8.936930e-09
8.769834e-09 8.558396e-09 8.184501e-09 8.326860e-09 7.858916e-09 8.362964e-09 8.371560e-09 8.306685e-09 8.631227e-09 7.497388e-09
7.733068e-09 7.386996e-09 7.617509e-09 7.335437e-09 7.046360e-09 7.628954e-09 7.531368e-09 7.196162e-09 6.726964e-09 6.875354e-09
7.031977e-09 7.105176e-09 6.485508e-09 6.338637e-09 6.451799e-09 6.241613e-09 6.236677e-09 5.877279e-09 5.846684e-09 5.657632e-09
5.635800e-09 5.651053e-09 5.259170e-09 5.056938e-09 5.097132e-09 5.163268e-09 4.807527e-09 5.251280e-09 4.416048e-09 4.518107e-09
4.173558e-09 4.031424e-09 4.201683e-09 3.911405e-09 3.808018e-09 3.667789e-09 3.393304e-09 3.666810e-09 3.155476e-09 2.691828e-09
2.817056e-09 2.264564e-09 2.534819e-09 2.380553e-09 2.114035e-09 2.034847e-09 1.799730e-09 1.860702e-09 1.740187e-09 1.419821e-09
1.041480e-09 1.159037e-09 1.305978e-09 1.233665e-09 5.223401e-10 6.793037e-10 3.863418e-10 1.326782e-10 4.078486e-10 2.672239e-10
-4.772938e-10 -1.462654e-10 -4.346446e-10 -4.361726e-10 -7.742742e-10 -9.324327e-10 -1.032276e-09 -1.004071e-09 -1.385446e-09 -1.345300e-09
-1.585732e-09 -1.857461e-09 -2.002593e-09 -2.077289e-09 -2.048425e-09 -2.442358e-09 -2.415528e-09 -2.953946e-09 -2.879864e-09 -2.793257e-09
-2.787620e-09 -3.350449e-09 -3.561398e-09 -3.416870e-09 -3.806154e-09 -4.092854e-09 -3.894858e-09 -3.975361e-09 -4.320230e-09 -4.875165e-09
-4.696230e-09 -4.570028e-09 -4.850321e-09 -4.953743e-09 -5.240847e-09 -5.533233e-09 -5.208337e-09 -5.368882e-09 -5.804634e-09 -5.359969e-09
-5.908191e-09 -6.293813e-09 -6.464373e-09 -6.022515e-09 -6.623679e-09 -6.675982e-09 -7.068758e-09 -7.415348e-09 -6.784816e-09 -7.215594e-09
-6.702385e-09 -7.099313e-09 -6.893231e-09 -7.936944e-09 -7.791791e-09 -7.425507e-09 -7.721375e-09 -7.377448e-09 -7.900696e-09 -7.884012e-09
-7.745315e-09 -8.171647e-09 -7.641429e-09 -7.885636e-09 -8.543533e-09 -8.107641e-09 -8.429493e-09 -8.118747e-09 -8.240577e-09 -8.394316e-09
-8.561861e-09 -8.703350e-09 -8.482565e-09 -8.516746e-09 -8.609709e-09 -8.249135e-09 -8.145837e-09 -8.895336e-09 -8.859399e-09 -8.821554e-09
-9.085418e-09 -9.503297e-09 -9.491096e-09 -8.941029e-09 -8.956498e-09 -8.459637e-09 -8.811324e-09 -9.244775e-09 -9.732446e-09 -8.222483e-09
-8.296626e-09
-8.359009e-09 -8.080813e-09 -8.159286e-09 -8.581019e-09 -8.691263e-09 -8.564411e-09 -8.822058e-09 -9.201549e-09 -8.437323e-09 -7.854175e-09
-8.485269e-09 -8.360652e-09 -8.173568e-09 -8.105239e-09 -8.149057e-09 -8.111242e-09 -8.425023e-09 -8.427812e-09 -8.258094e-09 -8.726443e-09
-8.227408e-09 -8.456201e-09 -7.904380e-09 -7.978720e-09 -7.879223e-09 -8.457130e-09 -8.047214e-09 -7.790725e-09 -8.068316e-09 -7.713949e-09
-8.282067e-09 -7.968223e-09 -7.260526e-09 -7.397642e-09 -7.449319e-09 -7.394227e-09 -7.459890e-09 -7.114078e-09 -6.779033e-09 -6.873227e-09
-6.889664e-09 -6.791074e-09 -7.024968e-09 -6.642859e-09 -6.783420e-09 -6.342699e-09 -6.636403e-09 -6.111833e-09 -5.831681e-09 -5.944669e-09
-5.315547e-09 -5.459990e-09 -5.544928e-09 -5.322250e-09 -5.003266e-09 -4.772649e-09 -5.070492e-09 -4.565219e-09 -4.812891e-09 -4.396270e-09
-4.414124e-09 -3.946367e-09 -3.905697e-09 -3.984845e-09 -3.656537e-09 -3.551790e-09 -3.347546e-09 -3.369881e-09 -3.249094e-09 -2.921200e-09
-3.090074e-09 -2.760445e-09 -2.552218e-09 -2.648999e-09 -2.692959e-09 -2.096532e-09 -1.713115e-09 -1.794700e-09 -1.763415e-09 -1.630358e-09
-1.229973e-09 -1.254924e-09 -1.040848e-09 -7.346366e-10 -9.220235e-10 -6.260459e-10 -8.259046e-10 -4.211169e-10 -3.369961e-10 -2.125873e-10
3.027574e-10 1.261321e-10 2.990702e-10 7.500172e-10 4.675986e-10 7.498631e-10 6.082317e-10 1.410496e-09 1.185687e-09 1.418455e-09
1.631178e-09 1.913788e-09 2.011399e-09 1.958222e-09 2.064082e-09 2.320654e-09 2.244534e-09 2.586332e-09 2.745041e-09 3.411929e-09
2.559209e-09 3.198778e-09 3.408683e-09 3.605457e-09 3.797337e-09 4.109233e-09 3.705390e-09 3.893354e-09 3.967939e-09 4.080675e-09
4.214122e-09 4.454515e-09 4.501655e-09 4.772030e-09 4.747605e-09 5.260266e-09 5.353397e-09 5.525391e-09 5.822038e-09 5.492724e-09
5.477897e-09 6.144550e-09 5.747077e-09 5.979903e-09 6.550204e-09 6.462585e-09 6.309101e-09 7.281197e-09 6.974995e-09 6.608181e-09
7.128621e-09 7.118823e-09 7.308743e-09 7.262088e-09 6.908399e-09 7.565364e-09 7.405375e-09 7.865379e-09 7.524491e-09 7.605554e-09
7.249222e-09 8.091814e-09 8.156866e-09 7.622206e-09 8.449561e-09 8.305318e-09 8.308437e-09 8.380457e-09 8.221973e-09 9.074024e-09
8.756722e-09 8.145798e-09 8.541927e-09 8.229698e-09 8.044239e-09 8.363870e-09 8.304808e-09 8.749133e-09 8.762633e-09 8.702323e-09
8.853326e-09 8.759542e-09 9.003471e-09 8.190387e-09 8.956761e-09 8.912555e-09 8.114319e-09 8.654056e-09 8.366558e-09 8.377523e-09
8.658588e-09 8.795788e-09 8.845178e-09 8.766495e-09 8.186721e-09 9.219213e-09 8.906823e-09 8.439018e-09 8.698049e-09 8.200883e-09
8.435634e-09 8.018834e-09 8.394910e-09 8.548144e-09 8.980268e-09 8.217524e-09 8.131528e-09 8.219562e-09 8.133078e-09 7.916037e-09
8.249226e-09 8.127869e-09 7.720549e-09 8.026761e-09 8.084721e-09 8.063951e-09 7.366207e-09 7.971370e-09 7.820327e-09 7.226344e-09
7.914088e-09 7.073043e-09 7.222854e-09 7.098784e-09 7.262396e-09 7.375549e-09 7.556075e-09 6.957844e-09 6.722809e-09 6.687447e-09
6.853762e-09 6.218670e-09 6.116144e-09 6.470176e-09 5.978352e-09 6.173883e-09 5.888805e-09 5.664159e-09 5.499277e-09 5.641588e-09
5.541727e-09 5.635626e-09 5.074273e-09 5.246161e-09 4.954771e-09 4.682924e-09 4.446377e-09 4.415186e-09 4.334860e-09 3.965505e-09
4.128391e-09 3.699602e-09 3.678049e-09 3.589950e-09 3.514517e-09 3.314860e-09 3.083293e-09 2.880988e-09 2.813703e-09 2.618743e-09
2.451925e-09 2.586084e-09 2.177821e-09 2.420362e-09 2.004369e-09 1.919337e-09 1.845426e-09 1.766047e-09 1.570370e-09 1.545761e-09
1.147710e-09 9.316772e-10 1.048578e-09 8.855396e-10 8.424477e-10 6.121639e-10 3.182559e-10 1.918750e-10 1.145634e-10 5.192370e-11
-2.835895e-10 -3.560702e-10 -5.509510e-10 -6.427833e-10 -5.900739e-10 -8.745683e-10 -1.158774e-09 -1.112709e-09 -1.293489e-09 -1.497128e-09
-1.790823e-09 -1.877291e-09 -1.802186e-09 -2.095026e-09 -2.462048e-09 -1.897253e-09 -2.504562e-09 -2.567845e-09 -2.540562e-09 -2.570204e-09
-2.831937e-09 -3.260246e-09 -3.175499e-09 -3.180898e-09 -3.515691e-09 -3.482712e-09 -3.872750e-09 -3.887264e-09 -4.103665e-09 -4.115287e-09
-4.377572e-09 -4.671638e-09 -4.858027e-09 -4.713217e-09 -4.887563e-09 -5.762761e-09 -5.237084e-09 -5.753577e-09 -6.022699e-09 -5.810421e-09
-5.772312e-09 -5.662348e-09 -6.244573e-09 -6.378162e-09 -6.699475e-09 -5.953758e-09 -6.724730e-09 -6.220946e-09 -6.444430e-09 -6.729586e-09
-6.802960e-09 -6.996218e-09 -7.446793e-09 -6.988176e-09 -6.899433e-09 -7.692752e-09 -7.527679e-09 -7.365015e-09 -7.773269e-09 -8.029898e-09
-7.532706e-09 -7.448623e-09 -7.606009e-09 -7.362160e-09 -7.922012e-09 -8.274448e-09 -7.764249e-09 -8.337339e-09 -8.240858e-09 -8.668085e-09
-8.592752e-09 -7.779918e-09 -8.478694e-09 -9.000478e-09 -8.404377e-09 -8.516687e-09 -8.071174e-09 -8.952649e-09 -8.433340e-09 -8.274981e-09
-7.953871e-09 -8.282367e-09 -8.187004e-09 -8.552928e-09 -8.680593e-09 -8.308210e-09 -8.496993e-09 -8.779923e-09 -8.304669e-09 -8.623897e-09
-8.359009e-09
-7.920119e-09 -8.751368e-09 -8.521448e-09 -8.137248e-09 -8.048599e-09 -8.872892e-09 -8.313786e-09 -8.550097e-09 -7.911214e-09 -8.557557e-09
-7.827089e-09 -8.666248e-09 -7.955176e-09 -7.932241e-09 -8.367491e-09 -8.083944e-09 -7.746567e-09 -7.975760e-09 -8.751525e-09 -7.837524e-09
-8.046835e-09 -7.661202e-09 -7.425391e-09 -8.196845e-09 -7.628565e-09 -8.055103e-09 -7.611623e-09 -7.308353e-09 -7.565270e-09 -7.783455e-09
-7.844708e-09 -7.300474e-09 -7.080372e-09 -7.397496e-09 -7.109617e-09 -7.482675e-09 -7.194111e-09 -6.369802e-09 -6.285793e-09 -6.390705e-09
-6.383240e-09 -6.073320e-09 -6.556302e-09 -6.752435e-09 -5.957569e-09 -6.289580e-09 -5.702258e-09 -5.618600e-09 -5.676515e-09 -5.375078e-09
-5.718368e-09 -4.981709e-09 -5.199765e-09 -5.608069e-09 -5.108275e-09 -4.710536e-09 -4.837616e-09 -4.326485e-09 -4.450795e-09 -4.299666e-09
-4.006298e-09 -4.053478e-09 -3.677807e-09 -3.579752e-09 -3.339394e-09 -3.262321e-09 -3.205518e-09 -2.863396e-09 -2.846817e-09 -2.911991e-09
-2.912756e-09 -2.679448e-09 -2.349375e-09 -2.281874e-09 -2.594450e-09 -1.906044e-09 -2.078148e-09 -2.281878e-09 -1.656208e-09 -1.686435e-09
-1.222513e-09 -1.006451e-09 -1.118190e-09 -9.228920e-10 -7.098877e-10 -9.254042e-10 -4.907175e-10 -3.523657e-10 -2.800985e-10 7.530466e-11
-1.144514e-10 2.275818e-10 4.340529e-10 3.237846e-10 4.454886e-10 5.973742e-10 8.184931e-10 1.085215e-09 1.087224e-09 1.201573e-09
1.391408e-09 1.601834e-09 1.689699e-09 1.675115e-09 1.847425e-09 2.486512e-09 2.447590e-09 2.621532e-09 2.521571e-09 2.911992e-09
3.054179e-09 3.249027e-09 2.805889e-09 3.246533e-09 3.200271e-09 3.398268e-09 3.901349e-09 3.740492e-09 3.941478e-09 4.066145e-09
4.232293e-09 4.249396e-09 4.715342e-09 5.076556e-09 4.793263e-09 4.748229e-09 5.194394e-09 5.022400e-09 5.666745e-09 5.532654e-09
6.133380e-09 5.444216e-09 5.843157e-09 6.118115e-09 6.077110e-09 5.775653e-09 6.407504e-09 6.431149e-09 6.311774e-09 6.283547e-09
6.368469e-09 6.722106e-09 7.327137e-09 6.760610e-09 7.529978e-09 6.626574e-09 7.606290e-09 7.674782e-09 6.704709e-09 7.589155e-09
7.714086e-09 7.540844e-09 7.881092e-09 7.616785e-09 8.334696e-09 7.981705e-09 7.723536e-09 7.749716e-09 7.696713e-09 7.554971e-09
7.849471e-09 7.844860e-09 7.604209e-09 7.904748e-09 8.288492e-09 8.282286e-09 8.214432e-09 7.916301e-09 8.122556e-09 8.183592e-09
7.850505e-09 7.994100e-09 7.802008e-09 8.326896e-09 8.345412e-09 8.227643e-09 8.220008e-09 8.279855e-09 8.210367e-09 8.766150e-09
8.311241e-09 7.873219e-09 7.647794e-09 8.233974e-09 7.986622e-09 8.760661e-09 8.130909e-09 7.816225e-09 7.537017e-09 8.367643e-09
7.797704e-09 8.256406e-09 7.920449e-09 8.783157e-09 7.801822e-09 8.192127e-09 7.669159e-09 7.344741e-09 7.634969e-09 7.652431e-09
7.518602e-09 7.570160e-09 7.845708e-09 7.723989e-09 7.720456e-09 7.923629e-09 7.095898e-09 7.480910e-09 7.359060e-09 7.644728e-09
7.049678e-09 6.892026e-09 7.168051e-09 6.902031e-09 6.892092e-09 6.580424e-09 6.852000e-09 6.875910e-09 6.529578e-09 6.110431e-09
6.036858e-09 6.274295e-09 6.378531e-09 6.048408e-09 6.411720e-09 6.067744e-09 5.681343e-09 5.830157e-09 5.247584e-09 5.371072e-09
5.002436e-09 4.920575e-09 4.859732e-09 4.993964e-09 5.122149e-09 4.563356e-09 4.489957e-09 4.230671e-09 4.096179e-09 4.107357e-09
3.995605e-09 3.648334e-09 3.514987e-09 3.676938e-09 3.057833e-09 3.296527e-09 2.889816e-09 2.932479e-09 3.033420e-09 2.813091e-09
2.409053e-09 2.736366e-09 2.122359e-09 2.324138e-09 2.195595e-09 1.719367e-09 1.775833e-09 1.807950e-09 1.588122e-09 1.469456e-09
1.454362e-09 1.105921e-09 1.196568e-09 6.076336e-10 8.561399e-10 6.980375e-10 3.275155e-10 6.381161e-10 4.449639e-10 3.230272e-10
-3.565154e-10 -1.150277e-10 -3.741232e-10 -5.534168e-10 -3.049414e-10 -5.405913e-10 -1.268190e-09 -1.196354e-09 -1.222275e-09 -1.526899e-09
-1.378923e-09 -1.472666e-09 -1.687576e-09 -2.130855e-09 -2.276421e-09 -2.024311e-09 -2.301926e-09 -2.376257e-09 -2.308888e-09 -2.624834e-09
-2.758812e-09 -3.190578e-09 -3.283994e-09 -3.252587e-09 -3.238388e-09 -3.420191e-09 -3.671965e-09 -3.465167e-09 -3.781152e-09 -4.139497e-09
-4.132947e-09 -4.555568e-09 -4.410966e-09 -4.894523e-09 -4.763463e-09 -5.158550e-09 -4.690197e-09 -4.885395e-09 -5.236735e-09 -5.431607e-09
-5.777210e-09 -5.660256e-09 -5.984548e-09 -5.474705e-09 -5.816452e-09 -6.304182e-09 -5.926862e-09 -6.334869e-09 -6.161470e-09 -6.450334e-09
-7.084508e-09 -6.442894e-09 -6.803289e-09 -6.653799e-09 -7.125919e-09 -6.414791e-09 -6.951995e-09 -7.053467e-09 -8.331305e-09 -6.922386e-09
-7.474878e-09 -8.253591e-09 -7.741831e-09 -7.878705e-09 -7.667620e-09 -7.593273e-09 -7.538886e-09 -7.716281e-09 -7.558649e-09 -8.090570e-09
-7.456927e-09 -8.031829e-09 -7.928468e-09 -8.270557e-09 -8.638843e-09 -8.500154e-09 -8.016962e-09 -8.402861e-09 -8.129568e-09 -8.485782e-09
-8.145594e-09 -9.084357e-09 -8.355546e-09 -8.516164e-09 -7.873671e-09 -8.284439e-09 -8.226116e-09 -8.387553e-09 -7.752770e-09 -7.948294e-09
-7.920119e-09
-8.033175e-09 -8.003723e-09 -8.135694e-09 -7.469157e-09 -7.970669e-09 -7.574253e-09 -7.907027e-09 -7.692810e-09 -8.029679e-09 -7.785322e-09
-7.759859e-09 -7.805572e-09 -7.748879e-09 -7.814411e-09 -7.968716e-09 -8.050133e-09 -7.682466e-09 -7.627450e-09 -7.963773e-09 -6.909177e-09
-7.527746e-09 -7.933214e-09 -7.267234e-09 -7.592152e-09 -6.949859e-09 -7.679414e-09 -7.440881e-09 -7.441903e-09 -7.606022e-09 -6.877331e-09
-6.801322e-09 -7.188686e-09 -6.585310e-09 -6.417403e-09 -6.848143e-09 -7.103959e-09 -6.646713e-09 -6.713533e-09 -6.140663e-09 -6.573273e-09
-6.636738e-09 -6.003366e-09 -5.823332e-09 -6.025687e-09 -5.598684e-09 -5.948682e-09 -5.532657e-09 -5.425566e-09 -5.040621e-09 -5.322045e-09
-5.499363e-09 -4.856674e-09 -5.394075e-09 -4.527087e-09 -4.738336e-09 -4.425747e-09 -4.341460e-09 -4.358725e-09 -4.076805e-09 -4.020162e-09
-3.786169e-09 -3.972895e-09 -3.758891e-09 -3.368003e-09 -3.631968e-09 -3.229537e-09 -3.029446e-09 -3.266156e-09 -2.751851e-09 -2.693182e-09
-2.612315e-09 -2.460674e-09 -2.475598e-09 -2.231221e-09 -2.084223e-09 -1.864045e-09 -1.783532e-09 -1.846718e-09 -1.603012e-09 -1.442041e-09
-9.757118e-10 -1.199907e-09 -1.325402e-09 -9.620470e-10 -6.450646e-10 -6.900082e-10 -6.007275e-10 -4.294300e-10 -3.744047e-10 -2.770053e-11
4.998204e-11 -7.004755e-11 4.123602e-10 3.822158e-10 4.698009e-10 5.451889e-10 9.080256e-10 9.263819e-10 1.024889e-09 1.204903e-09
1.495541e-09 1.731282e-09 1.780477e-09 1.609889e-09 2.216561e-09 1.750826e-09 1.942116e-09 2.282765e-09 2.536821e-09 2.829445e-09
2.779167e-09 2.626654e-09 2.928669e-09 3.179910e-09 3.229824e-09 3.434230e-09 3.703031e-09 3.452202e-09 3.732302e-09 3.780367e-09
3.968637e-09 4.269828e-09 4.933252e-09 4.697755e-09 4.875043e-09 4.877238e-09 4.999463e-09 4.736767e-09 5.325221e-09 5.599682e-09
5.849182e-09 5.312506e-09 5.180520e-09 5.366255e-09 5.607391e-09 6.504673e-09 5.854495e-09 5.970745e-09 6.476956e-09 6.053892e-09
6.853252e-09 6.668083e-09 6.820638e-09 7.098091e-09 7.073794e-09 6.612486e-09 7.315539e-09 6.946433e-09 7.284970e-09 7.004622e-09
7.341177e-09 7.104301e-09 6.898560e-09 7.730735e-09 6.850481e-09 7.483453e-09 8.049470e-09 7.088619e-09 7.656759e-09 7.991079e-09
7.819218e-09 7.418114e-09 7.579666e-09 7.749518e-09 7.761109e-09 8.169097e-09 7.496745e-09 8.544737e-09 7.518982e-09 8.196531e-09
7.442774e-09 7.307396e-09 7.432126e-09 7.465913e-09 7.653797e-09 7.997262e-09 8.166346e-09 7.386345e-09 8.152027e-09 7.458812e-09
7.781393e-09 8.152715e-09 8.057385e-09 8.334713e-09 7.614925e-09 7.654691e-09 8.067369e-09 8.014707e-09 7.479958e-09 7.391435e-09
8.410148e-09 7.571390e-09 7.726772e-09 7.996288e-09 7.515595e-09 7.278929e-09 7.915602e-09 6.971698e-09 7.634128e-09 7.486578e-09
7.517471e-09 6.830266e-09 7.649149e-09 7.105658e-09 6.952220e-09 7.104546e-09 6.533713e-09 7.110430e-09 7.183658e-09 7.792082e-09
6.772846e-09 7.077738e-09 7.029403e-09 6.719848e-09 6.538326e-09 6.002574e-09 6.719466e-09 6.099266e-09 6.068014e-09 6.229267e-09
6.040250e-09 5.684893e-09 5.718813e-09 6.156721e-09 5.598011e-09 5.438313e-09 5.562427e-09 5.099190e-09 5.424239e-09 4.877922e-09
5.162557e-09 4.973178e-09 4.744773e-09 4.496067e-09 4.574336e-09 4.481790e-09 4.285408e-09 4.275430e-09 3.912481e-09 3.880758e-09
3.773455e-09 3.645441e-09 3.776360e-09 3.728069e-09 3.189775e-09 3.002335e-09 3.347542e-09 2.655262e-09 2.768964e-09 2.506922e-09
2.266070e-09 2.237582e-09 2.599184e-09 1.879380e-09 1.854460e-09 1.982394e-09 1.461694e-09 1.726789e-09 1.587182e-09 1.261494e-09
1.251466e-09 1.178180e-09 9.160585e-10 9.216381e-10 6.589129e-10 5.585812e-10 5.739841e-10 7.272130e-10 4.535453e-10 -1.079453e-10
-4.450653e-12 1.431114e-11 -4.677677e-10 -4.476410e-10 -5.208790e-10 -6.345344e-10 -8.662835e-10 -1.168850e-09 -1.153952e-09 -1.119752e-09
-1.783333e-09 -1.354294e-09 -1.536204e-09 -1.667889e-09 -2.151032e-09 -1.994037e-09 -2.469306e-09 -2.349620e-09 -2.347573e-09 -2.743524e-09
-2.624245e-09 -2.529260e-09 -2.841958e-09 -2.963537e-09 -2.958749e-09 -3.310193e-09 -3.652807e-09 -3.849639e-09 -3.566233e-09 -4.170739e-09
-4.061807e-09 -4.132129e-09 -4.247013e-09 -4.152787e-09 -4.489244e-09 -4.495624e-09 -4.960022e-09 -4.805952e-09 -4.801353e-09 -5.430630e-09
-5.577926e-09 -5.148358e-09 -5.331954e-09 -5.518925e-09 -6.133282e-09 -5.968592e-09 -6.138226e-09 -6.312268e-09 -5.667621e-09 -6.055672e-09
-6.354991e-09 -6.016267e-09 -6.865948e-09 -6.768816e-09 -6.324068e-09 -6.532993e-09 -6.286453e-09 -7.154682e-09 -7.014583e-09 -6.852121e-09
-6.920468e-09 -6.883720e-09 -6.820421e-09 -7.838355e-09 -6.804107e-09 -7.192654e-09 -7.138398e-09 -7.497488e-09 -7.385240e-09 -7.647643e-09
-7.660900e-09 -7.934698e-09 -7.515317e-09 -7.735466e-09 -7.501730e-09 -8.122779e-09 -7.464354e-09 -8.186604e-09 -8.865311e-09 -7.447618e-09
-8.163947e-09 -7.718962e-09 -7.690343e-09 -7.440889e-09 -7.429462e-09 -7.762881e-09 -7.522998e-09 -7.406984e-09 -7.961645e-09 -8.042871e-09
-8.033175e-09
-7.860027e-09 -7.839833e-09 -7.295441e-09 -7.780595e-09 -6.908600e-09 -7.049240e-09 -7.982305e-09 -7.317686e-09 -7.439455e-09 -7.692262e-09
-7.081459e-09 -7.729583e-09 -7.069650e-09 -7.152574e-09 -7.310257e-09 -7.323147e-09 -8.006896e-09 -7.106053e-09 -7.091237e-09 -6.919086e-09
-7.334137e-09 -7.148063e-09 -7.095505e-09 -7.709918e-09 -7.284251e-09 -6.756236e-09 -6.944405e-09 -7.178080e-09 -7.481018e-09 -6.421283e-09
-6.911502e-09 -6.784290e-09 -6.416494e-09 -6.584606e-09 -7.382516e-09 -6.019051e-09 -6.533084e-09 -6.325388e-09 -5.954931e-09 -6.108690e-09
-6.476509e-09 -6.210009e-09 -5.709728e-09 -6.105217e-09 -5.668096e-09 -5.259853e-09 -5.570468e-09 -4.747366e-09 -5.002494e-09 -5.467810e-09
-5.019027e-09 -4.945929e-09 -4.499134e-09 -4.755490e-09 -5.037256e-09 -4.367459e-09 -4.772804e-09 -3.928624e-09 -3.712145e-09 -3.826946e-09
-3.454707e-09 -3.711458e-09 -3.378768e-09 -3.116394e-09 -3.148849e-09 -3.395921e-09 -2.837233e-09 -2.856544e-09 -2.802388e-09 -2.655122e-09
-2.544284e-09 -2.594402e-09 -2.159994e-09 -2.008365e-09 -2.132839e-09 -1.766235e-09 -1.631697e-09 -1.885309e-09 -1.404520e-09 -1.249927e-09
-9.511876e-10 -1.100075e-09 -9.078802e-10 -8.544971e-10 -9.499026e-10 -6.054156e-10 -3.404248e-10 -3.185805e-10 -3.737436e-11 -4.617437e-11
3.125665e-11 6.366242e-11 3.713637e-10 5.242096e-10 5.913039e-10 6.318563e-10 5.624667e-10 8.715064e-10 1.125753e-09 1.010838e-09
1.502771e-09 1.449580e-09 1.471379e-09 1.607911e-09 1.677014e-09 1.872959e-09 2.277824e-09 2.333229e-09 2.380816e-09 2.337353e-09
2.800584e-09 2.733485e-09 2.754136e-09 2.948276e-09 3.239532e-09 3.344417e-09 3.153015e-09 3.754046e-09 3.293838e-09 3.957438e-09
3.812954e-09 4.302402e-09 4.663509e-09 4.342358e-09 4.458518e-09 4.648153e-09 4.345502e-09 4.549929e-09 4.797966e-09 4.879628e-09
5.087420e-09 5.177832e-09 5.428251e-09 5.411904e-09 5.866214e-09 5.565649e-09 5.577675e-09 5.669394e-09 6.189386e-09 5.741425e-09
5.926603e-09 5.860537e-09 6.242553e-09 6.848583e-09 6.348539e-09 6.556951e-09 6.083928e-09 6.867817e-09 7.194957e-09 6.893682e-09
6.587749e-09 6.496605e-09 6.688550e-09 6.651781e-09 8.074035e-09 6.795650e-09 7.000744e-09 7.110790e-09 6.980255e-09 6.768292e-09
7.289451e-09 7.268623e-09 7.254001e-09 6.989266e-09 7.726440e-09 7.453750e-09 7.520705e-09 6.962879e-09 7.402303e-09 7.815117e-09
7.671509e-09 7.492865e-09 7.410941e-09 7.093617e-09 7.125649e-09 8.198026e-09 7.379770e-09 7.394787e-09 7.541298e-09 7.421580e-09
6.966003e-09 7.506972e-09 7.764839e-09 7.231869e-09 7.226145e-09 7.192936e-09 7.362759e-09 7.703659e-09 7.092800e-09 7.919919e-09
7.327517e-09 7.076129e-09 6.851177e-09 7.258310e-09 7.177166e-09 7.591965e-09 7.162965e-09 7.594656e-09 6.843440e-09 7.075887e-09
7.108321e-09 7.159833e-09 6.706427e-09 6.757565e-09 7.052847e-09 6.595717e-09 6.802515e-09 6.567687e-09 6.348249e-09 6.675943e-09
6.884697e-09 6.266197e-09 6.397754e-09 6.087722e-09 5.918011e-09 6.174325e-09 6.506949e-09 5.984749e-09 6.180741e-09 5.685620e-09
6.167458e-09 6.112276e-09 5.521635e-09 5.326260e-09 5.792133e-09 5.579212e-09 5.709637e-09 4.945558e-09 4.747601e-09 5.414921e-09
4.778963e-09 4.969426e-09 4.330902e-09 4.149823e-09 4.825235e-09 4.146125e-09 3.906746e-09 4.282354e-09 3.795543e-09 3.585871e-09
3.648243e-09 3.381122e-09 3.601029e-09 2.993508e-09 3.211221e-09 3.095370e-09 2.978651e-09 3.010746e-09 2.501756e-09 2.690504e-09
2.204959e-09 2.069877e-09 2.559248e-09 2.387880e-09 1.841360e-09 1.772658e-09 1.836577e-09 1.754167e-09 1.343788e-09 1.198064e-09
1.168676e-09 1.373320e-09 1.030892e-09 6.362119e-10 4.697781e-10 3.332492e-10 6.481859e-10 2.868173e-10 2.610940e-10 -1.381628e-10
-2.106397e-10 -3.926951e-10 -3.065123e-10 -4.548895e-10 -5.511183e-10 -8.738073e-10 -8.914203e-10 -8.825427e-10 -1.118022e-09 -1.366626e-09
-1.325012e-09 -1.474820e-09 -1.552201e-09 -1.661969e-09 -2.032151e-09 -2.042334e-09 -2.321703e-09 -2.225588e-09 -1.969771e-09 -2.812982e-09
-2.692909e-09 -2.703561e-09 -3.007023e-09 -3.032496e-09 -3.023171e-09 -3.278968e-09 -3.188060e-09 -3.298290e-09 -4.002597e-09 -4.153319e-09
-3.854457e-09 -4.088493e-09 -4.298036e-09 -4.101055e-09 -4.340972e-09 -4.791413e-09 -4.311909e-09 -5.148820e-09 -4.819725e-09 -5.055764e-09
-4.836239e-09 -5.053757e-09 -5.155762e-09 -5.277602e-09 -5.090744e-09 -5.463037e-09 -5.954361e-09 -5.536537e-09 -6.093879e-09 -6.377110e-09
-5.750047e-09 -6.312695e-09 -5.813684e-09 -6.688480e-09 -6.124788e-09 -6.381342e-09 -6.859976e-09 -6.274020e-09 -6.468831e-09 -6.504753e-09
-6.445045e-09 -6.799448e-09 -7.266886e-09 -7.273863e-09 -7.107268e-09 -7.054005e-09 -6.824356e-09 -7.736542e-09 -6.834291e-09 -7.151879e-09
-7.103342e-09 -7.127667e-09 -7.451861e-09 -7.005021e-09 -7.268805e-09 -6.992041e-09 -7.811700e-09 -7.607526e-09 -7.425065e-09 -7.432475e-09
-7.762626e-09 -7.428986e-09 -7.790997e-09 -7.412881e-09 -7.745169e-09 -7.433022e-09 -7.658877e-09 -7.452075e-09 -6.996307e-09 -7.922853e-09
-7.860027e-09
-6.820729e-09 -7.622470e-09 -7.203498e-09 -7.048433e-09 -7.321489e-09 -7.296164e-09 -7.260998e-09 -6.967229e-09 -6.658542e-09 -7.529881e-09
-7.034118e-09 -6.810216e-09 -6.994064e-09 -7.045267e-09 -6.836716e-09 -7.409916e-09 -7.146700e-09 -7.342668e-09 -6.830311e-09 -7.215162e-09
-7.020863e-09 -6.791952e-09 -6.684233e-09 -6.620243e-09 -7.598402e-09 -6.981613e-09 -6.588888e-09 -6.750627e-09 -6.550439e-09 -6.578505e-09
-6.836844e-09 -6.826062e-09 -6.004230e-09 -5.929576e-09 -5.969143e-09 -5.784378e-09 -5.711947e-09 -5.653286e-09 -6.063226e-09 -6.185041e-09
-5.967992e-09 -5.551991e-09 -5.241613e-09 -5.141954e-09 -5.802518e-09 -5.160532e-09 -5.084547e-09 -5.729676e-09 -4.693965e-09 -4.769948e-09
-4.315129e-09 -4.761369e-09 -4.474216e-09 -4.467366e-09 -4.148564e-09 -4.206499e-09 -4.109153e-09 -4.248400e-09 -3.949219e-09 -3.569636e-09
-3.542398e-09 -3.621935e-09 -3.230054e-09 -3.215409e-09 -3.010865e-09 -3.072641e-09 -2.875835e-09 -2.892436e-09 -2.752663e-09 -2.569379e-09
-2.207725e-09 -2.369943e-09 -2.309072e-09 -1.760066e-09 -2.056511e-09 -1.453663e-09 -1.465404e-09 -1.669183e-09 -1.489153e-09 -1.287488e-09
-1.119977e-09 -1.086218e-09 -8.166678e-10 -1.018636e-09 -5.217968e-10 -9.209284e-10 -3.864667e-10 -4.722207e-10 -4.824912e-11 -2.511739e-10
2.611598e-11 9.287413e-11 3.089040e-10 4.363155e-10 3.799186e-10 5.479400e-10 7.170328e-10 7.413236e-10 9.871842e-10 1.159254e-09
1.300086e-09 1.315060e-09 1.658420e-09 1.511788e-09 1.932957e-09 1.797746e-09 1.937139e-09 1.859383e-09 2.608322e-09 2.355637e-09
2.347397e-09 2.799252e-09 2.683089e-09 2.742176e-09 3.081160e-09 3.115625e-09 3.587149e-09 3.598665e-09 3.561851e-09 3.443037e-09
3.983268e-09 3.626919e-09 3.680836e-09 4.054291e-09 4.311015e-09 4.082791e-09 4.194068e-09 4.507487e-09 4.229853e-09 4.854162e-09
4.515977e-09 5.065381e-09 4.930975e-09 5.186767e-09 5.412137e-09 5.083860e-09 5.110953e-09 5.520061e-09 5.655867e-09 5.797323e-09
6.249726e-09 5.970836e-09 5.826285e-09 6.133576e-09 6.433671e-09 6.061530e-09 6.302363e-09 6.077827e-09 6.044724e-09 6.663452e-09
6.109293e-09 6.221852e-09 6.686685e-09 7.154826e-09 6.489907e-09 6.790366e-09 6.384862e-09 6.989327e-09 6.644117e-09 6.649122e-09
6.915209e-09 6.506225e-09 6.725906e-09 7.497195e-09 7.217719e-09 6.928632e-09 7.524612e-09 7.002560e-09 6.907134e-09 7.228159e-09
7.006951e-09 6.920749e-09 7.190611e-09 7.444547e-09 7.210514e-09 6.954914e-09 6.900242e-09 7.596594e-09 7.149978e-09 7.553800e-09
6.769281e-09 7.321900e-09 7.836654e-09 7.299058e-09 6.641676e-09 7.580032e-09 6.840823e-09 6.913618e-09 6.983301e-09 7.331197e-09
7.629480e-09 7.015080e-09 6.748999e-09 7.162296e-09 6.842825e-09 7.012630e-09 7.156142e-09 6.703105e-09 7.294534e-09 6.058880e-09
7.256174e-09 6.772597e-09 6.857776e-09 6.682088e-09 6.940022e-09 6.270666e-09 6.092954e-09 6.449946e-09 5.951652e-09 6.583564e-09
6.379906e-09 5.920009e-09 5.852333e-09 5.900402e-09 5.883114e-09 5.803322e-09 5.871395e-09 5.949782e-09 5.557701e-09 5.486649e-09
5.184331e-09 4.991649e-09 5.053990e-09 5.494809e-09 5.309615e-09 5.335206e-09 4.577979e-09 4.537311e-09 4.419960e-09 4.781280e-09
4.308298e-09 4.533788e-09 4.318099e-09 4.256871e-09 4.285873e-09 3.779753e-09 4.079249e-09 3.689610e-09 3.299114e-09 3.632831e-09
3.771586e-09 2.991233e-09 3.242566e-09 3.253722e-09 3.070910e-09 3.176208e-09 2.972147e-09 2.677898e-09 2.315940e-09 2.207055e-09
2.797028e-09 2.161496e-09 1.915215e-09 1.923892e-09 1.733013e-09 1.514025e-09 1.716170e-09 1.294709e-09 1.139553e-09 1.473473e-09
7.996870e-10 8.944926e-10 7.126211e-10 7.548069e-10 4.948906e-10 6.442304e-10 3.711570e-10 1.676927e-10 -2.775426e-10 1.333525e-10
-4.152942e-10 -1.299312e-10 -4.322969e-10 -4.997621e-10 -4.596091e-10 -4.687414e-10 -8.484136e-10 -1.000462e-09 -9.402265e-10 -9.806375e-10
-1.412350e-09 -1.530320e-09 -1.655835e-09 -1.653811e-09 -1.426039e-09 -1.868487e-09 -1.985791e-09 -2.068854e-09 -2.153041e-09 -2.476372e-09
-2.488335e-09 -2.434145e-09 -2.641760e-09 -2.618388e-09 -2.953467e-09 -3.098105e-09 -3.598335e-09 -3.187223e-09 -3.395253e-09 -3.312773e-09
-3.515033e-09 -3.976612e-09 -3.934429e-09 -4.119512e-09 -3.883375e-09 -4.897146e-09 -3.881034e-09 -4.679814e-09 -4.567534e-09 -5.176390e-09
-4.681524e-09 -5.005854e-09 -4.630967e-09 -5.282075e-09 -4.945052e-09 -5.354048e-09 -5.580544e-09 -6.334443e-09 -6.151483e-09 -5.030812e-09
-5.961812e-09 -5.601582e-09 -6.221990e-09 -5.878169e-09 -5.760892e-09 -5.931509e-09 -6.085114e-09 -6.048243e-09 -6.280124e-09 -6.147884e-09
-6.277239e-09 -6.697870e-09 -6.256354e-09 -6.718437e-09 -6.678701e-09 -7.031721e-09 -6.729759e-09 -6.281870e-09 -6.759127e-09 -6.732181e-09
-7.409616e-09 -7.083435e-09 -6.866994e-09 -7.067523e-09 -7.424751e-09 -6.685864e-09 -6.936437e-09 -7.085250e-09 -6.968563e-09 -7.131556e-09
-6.989135e-09 -6.987632e-09 -7.115732e-09 -7.252472e-09 -6.683166e-09 -7.720852e-09 -7.636785e-09 -6.984193e-09 -7.544235e-09 -7.010971e-09
-6.820729e-09
-6.365936e-09 -6.457495e-09 -6.546340e-09 -7.127451e-09 -7.407702e-09 -6.629329e-09 -6.382948e-09 -6.701730e-09 -6.579488e-09 -7.009473e-09
-6.553831e-09 -6.465759e-09 -7.077288e-09 -6.302673e-09 -6.923983e-09 -6.836500e-09 -7.207599e-09 -6.178508e-09 -6.988473e-09 -6.625112e-09
-6.462622e-09 -6.469589e-09 -6.253807e-09 -6.397026e-09 -5.960744e-09 -6.433489e-09 -6.052685e-09 -6.488103e-09 -6.252405e-09 -5.751828e-09
-6.807841e-09 -5.770936e-09 -6.069527e-09 -6.586570e-09 -5.516471e-09 -5.786095e-09 -6.003750e-09 -5.813106e-09 -5.677110e-09 -5.321155e-09
-5.220692e-09 -5.350847e-09 -5.056836e-09 -4.831097e-09 -4.647250e-09 -5.142878e-09 -4.505335e-09 -4.591264e-09 -4.835284e-09 -4.167052e-09
-4.422367e-09 -4.225181e-09 -4.055923e-09 -4.222669e-09 -4.002146e-09 -3.889830e-09 -3.704487e-09 -3.837847e-09 -3.862671e-09 -3.895346e-09
-3.843069e-09 -3.360560e-09 -3.208021e-09 -2.954243e-09 -2.928395e-09 -2.638603e-09 -2.591223e-09 -2.437640e-09 -2.405683e-09 -2.824160e-09
-2.228650e-09 -1.937042e-09 -1.700582e-09 -1.642256e-09 -1.589613e-09 -1.731164e-09 -1.493237e-09 -1.435212e-09 -1.261506e-09 -1.070634e-09
-1.138843e-09 -1.181419e-09 -1.090741e-09 -1.038899e-09 -7.357237e-10 -7.056178e-10 -2.655577e-10 -2.264670e-10 -2.817346e-10 -3.793943e-10
-1.074025e-10 2.426555e-10 2.213132e-10 2.551464e-10 6.998972e-10 8.059526e-10 7.138405e-10 1.153948e-09 1.320247e-09 8.561618e-10
9.751167e-10 1.486645e-09 1.298775e-09 1.529708e-09 1.345244e-09 2.011355e-09 1.962900e-09 1.914279e-09 2.058488e-09 2.544831e-09
2.034694e-09 2.451954e-09 2.505262e-09 3.011756e-09 2.952982e-09 2.844168e-09 3.062551e-09 3.155862e-09 3.300748e-09 3.678135e-09
3.863439e-09 3.377139e-09 3.870606e-09 4.016822e-09 3.844522e-09 4.446038e-09 4.539477e-09 4.317047e-09 4.055952e-09 4.567674e-09
4.218866e-09 5.146152e-09 5.009052e-09 4.623355e-09 5.278835e-09 5.103101e-09 5.096206e-09 5.096812e-09 5.708504e-09 5.148655e-09
5.507738e-09 5.670727e-09 5.523118e-09 6.010875e-09 5.579649e-09 5.600908e-09 6.299995e-09 6.070472e-09 6.121328e-09 6.177496e-09
5.718267e-09 6.648191e-09 6.713483e-09 6.092764e-09 6.947281e-09 6.308055e-09 6.680784e-09 6.910804e-09 6.321073e-09 6.991407e-09
6.422582e-09 6.485763e-09 6.952395e-09 6.414290e-09 6.425652e-09 6.679342e-09 6.766417e-09 6.695554e-09 7.079261e-09 6.741657e-09
6.692035e-09 6.860429e-09 7.140104e-09 7.425017e-09 6.604592e-09 7.349044e-09 6.803994e-09 6.979472e-09 6.153562e-09 6.450806e-09
6.327971e-09 6.451253e-09 6.483749e-09 7.163971e-09 6.403541e-09 6.288097e-09 6.978675e-09 7.312754e-09 6.779130e-09 6.912731e-09
6.831323e-09 7.527910e-09 6.541760e-09 6.943038e-09 7.055025e-09 7.185871e-09 6.199540e-09 7.371984e-09 6.497920e-09 5.958480e-09
6.715810e-09 6.584032e-09 6.015208e-09 7.135065e-09 6.072588e-09 6.170203e-09 5.558733e-09 5.750547e-09 6.757324e-09 5.971318e-09
6.020340e-09 6.441880e-09 5.965467e-09 5.873938e-09 5.617307e-09 5.428080e-09 5.780974e-09 5.285972e-09 5.344694e-09 5.437080e-09
5.490802e-09 5.333227e-09 4.782772e-09 4.958793e-09 4.944173e-09 4.489745e-09 4.608021e-09 4.428468e-09 4.787644e-09 4.583343e-09
4.508234e-09 4.168835e-09 3.945769e-09 4.071909e-09 3.765811e-09 3.489681e-09 4.269470e-09 3.229454e-09 4.054029e-09 3.822924e-09
3.132664e-09 3.141346e-09 3.111451e-09 2.680845e-09 2.905254e-09 2.888093e-09 2.370113e-09 2.428660e-09 2.713280e-09 2.278263e-09
2.269862e-09 2.196613e-09 1.694722e-09 2.277617e-09 1.854723e-09 1.343135e-09 1.306417e-09 1.621028e-09 1.256683e-09 1.257942e-09
1.136117e-09 9.990290e-10 9.722232e-10 7.592824e-10 5.050442e-10 4.806706e-10 2.958851e-10 4.568551e-10 3.838060e-12 -9.885994e-11
-4.343754e-11 4.251056e-11 -2.225609e-10 -5.178024e-10 -4.713661e-10 -6.549734e-10 -7.096815e-10 -8.471457e-10 -1.098556e-09 -1.234205e-09
-9.843121e-10 -1.534447e-09 -1.336123e-09 -1.782412e-09 -1.843773e-09 -2.109689e-09 -1.957825e-09 -1.776809e-09 -2.164790e-09 -2.519596e-09
-2.335781e-09 -2.608716e-09 -2.603678e-09 -2.681378e-09 -2.721479e-09 -2.700022e-09 -2.851640e-09 -3.060637e-09 -3.536190e-09 -3.253560e-09
-3.364352e-09 -3.355204e-09 -3.653039e-09 -4.285762e-09 -4.346919e-09 -4.217449e-09 -3.602598e-09 -4.538423e-09 -4.431075e-09 -4.615445e-09
-4.682296e-09 -5.130318e-09 -4.774437e-09 -4.892645e-09 -4.764441e-09 -4.782464e-09 -4.803609e-09 -5.654686e-09 -5.067758e-09 -5.153124e-09
-5.261871e-09 -5.432593e-09 -5.097641e-09 -6.608591e-09 -5.814920e-09 -5.714766e-09 -6.258446e-09 -5.544480e-09 -6.203594e-09 -6.294577e-09
-5.931123e-09 -6.525480e-09 -6.127325e-09 -6.218343e-09 -6.067129e-09 -6.370404e-09 -6.151092e-09 -6.365398e-09 -6.618795e-09 -6.178676e-09
-6.756067e-09 -6.367175e-09 -6.590314e-09 -6.799009e-09 -6.891771e-09 -7.105732e-09 -6.565049e-09 -7.072102e-09 -6.754450e-09 -6.569808e-09
-6.921772e-09 -7.451037e-09 -7.411446e-09 -6.651263e-09 -7.181898e-09 -6.639130e-09 -7.075502e-09 -6.496006e-09 -7.161213e-09 -6.655335e-09
-6.365936e-09
-6.224733e-09 -6.825889e-09 -6.563476e-09 -6.293991e-09 -6.503401e-09 -6.581246e-09 -6.733444e-09 -6.424390e-09 -7.152559e-09 -6.316444e-09
-6.548516e-09 -6.306708e-09 -6.664880e-09 -6.340983e-09 -6.557717e-09 -6.561790e-09 -6.810751e-09 -6.119394e-09 -6.388014e-09 -6.443041e-09
-5.987111e-09 -6.144703e-09 -5.720272e-09 -5.784271e-09 -6.561908e-09 -5.962311e-09 -5.870819e-09 -6.566191e-09 -5.683990e-09 -6.437884e-09
-6.496054e-09 -5.735723e-09 -5.518160e-09 -5.913352e-09 -5.932856e-09 -6.064335e-09 -5.075507e-09 -5.475545e-09 -5.172616e-09 -5.118582e-09
-5.011676e-09 -4.984519e-09 -4.590123e-09 -4.773529e-09 -4.499778e-09 -4.615188e-09 -4.834898e-09 -4.572501e-09 -4.507602e-09 -4.011413e-09
-4.094419e-09 -3.794402e-09 -4.097350e-09 -4.398048e-09 -4.147160e-09 -3.677554e-09 -3.541715e-09 -3.549968e-09 -3.443223e-09 -3.536100e-09
-3.476805e-09 -2.971007e-09 -3.011774e-09 -2.851402e-09 -2.737247e-09 -2.289283e-09 -2.813850e-09 -2.012968e-09 -2.328960e-09 -2.433741e-09
-2.436229e-09 -2.053483e-09 -1.860925e-09 -2.010379e-09 -1.773652e-09 -1.507902e-09 -1.550757e-09 -1.580525e-09 -1.317914e-09 -1.195993e-09
-1.079348e-09 -1.168587e-09 -8.572439e-10 -7.463503e-10 -4.740293e-10 -5.889966e-10 -5.355338e-10 -3.478740e-10 -2.857659e-11 1.161242e-10
-2.903498e-10 2.454980e-10 2.091536e-10 3.600904e-10 5.977094e-10 4.859470e-10 6.238179e-10 5.309876e-10 1.144045e-09 9.557538e-10
9.814152e-10 1.398274e-09 1.228163e-09 1.358520e-09 1.666189e-09 1.756041e-09 2.291874e-09 2.217050e-09 2.336600e-09 2.228687e-09
2.307212e-09 2.629309e-09 2.576408e-09 2.449176e-09 2.504885e-09 3.405593e-09 2.989489e-09 3.143191e-09 3.024692e-09 3.090783e-09
3.211999e-09 3.403580e-09 3.648317e-09 3.863035e-09 3.557700e-09 4.035315e-09 3.823564e-09 4.321118e-09 3.958299e-09 4.119450e-09
4.108703e-09 4.662601e-09 4.692389e-09 5.279349e-09 5.029785e-09 4.929387e-09 5.048398e-09 5.214155e-09 5.311389e-09 4.761694e-09
5.409353e-09 5.530672e-09 5.664364e-09 5.286821e-09 5.139542e-09 5.494524e-09 5.651221e-09 5.473697e-09 5.609126e-09 6.182929e-09
5.675013e-09 6.311655e-09 5.486411e-09 5.975204e-09 6.296526e-09 6.273423e-09 6.191565e-09 6.724127e-09 6.180780e-09 6.802873e-09
5.931862e-09 5.859176e-09 6.534172e-09 6.401975e-09 6.596295e-09 6.579343e-09 6.756205e-09 6.288110e-09 6.135861e-09 6.028784e-09
6.504638e-09 6.372304e-09 6.501573e-09 6.472818e-09 5.989842e-09 6.688314e-09 6.066679e-09 6.851588e-09 6.621121e-09 6.670026e-09
6.354489e-09 6.824487e-09 6.693309e-09 6.125552e-09 6.423471e-09 6.468514e-09 6.174211e-09 7.566123e-09 6.666617e-09 6.908827e-09
6.352669e-09 6.510427e-09 6.293580e-09 6.257368e-09 6.217745e-09 6.410753e-09 6.395924e-09 6.228150e-09 6.475723e-09 6.182689e-09
5.839580e-09 6.248376e-09 6.287530e-09 5.941616e-09 5.869195e-09 6.105327e-09 5.493690e-09 6.296307e-09 5.664679e-09 5.481595e-09
5.306731e-09 5.501176e-09 5.491620e-09 5.077455e-09 5.373161e-09 4.846666e-09 5.443370e-09 4.712617e-09 4.812204e-09 4.730049e-09
4.661010e-09 5.226046e-09 4.645260e-09 4.572786e-09 4.499352e-09 4.450392e-09 5.056727e-09 4.076139e-09 4.258550e-09 4.222847e-09
4.131771e-09 4.127997e-09 3.911059e-09 3.765543e-09 3.831889e-09 3.405957e-09 3.512395e-09 3.222824e-09 3.259070e-09 3.323000e-09
3.270486e-09 2.869991e-09 2.891255e-09 2.881942e-09 2.398478e-09 2.520818e-09 2.693137e-09 2.523840e-09 2.319060e-09 1.872404e-09
2.068094e-09 2.055079e-09 1.986909e-09 1.953210e-09 1.787488e-09 1.505490e-09 1.154825e-09 1.502145e-09 1.306090e-09 1.073952e-09
7.191736e-10 8.327088e-10 6.891016e-10 1.202533e-09 5.406729e-10 2.470759e-10 3.270947e-10 2.151144e-10 5.333136e-10 2.385814e-10
1.585338e-10 -4.877107e-10 -2.255560e-10 -4.525754e-10 -5.316085e-10 -9.851444e-10 -8.361432e-10 -9.005987e-10 -1.000365e-09 -1.089778e-09
-1.332314e-09 -1.218651e-09 -1.581970e-09 -1.454668e-09 -1.769306e-09 -1.463020e-09 -1.825282e-09 -1.945793e-09 -1.914242e-09 -2.242629e-09
-2.098216e-09 -2.570137e-09 -2.330897e-09 -2.591870e-09 -2.468367e-09 -2.841210e-09 -2.643072e-09 -3.203340e-09 -3.325776e-09 -3.093162e-09
-3.688307e-09 -3.744978e-09 -3.344290e-09 -3.582269e-09 -3.759486e-09 -3.766830e-09 -3.998777e-09 -3.727751e-09 -4.767639e-09 -3.933135e-09
-4.617185e-09 -4.323910e-09 -4.599214e-09 -4.347957e-09 -4.560890e-09 -4.332653e-09 -4.567214e-09 -4.413072e-09 -4.807073e-09 -5.005858e-09
-5.580656e-09 -5.113783e-09 -5.084564e-09 -5.119908e-09 -5.224184e-09 -5.424547e-09 -5.404095e-09 -6.123502e-09 -5.575899e-09 -5.245213e-09
-5.702346e-09 -5.972392e-09 -5.471801e-09 -5.893496e-09 -6.011142e-09 -6.169194e-09 -6.027344e-09 -6.094222e-09 -6.293128e-09 -6.297409e-09
-6.402851e-09 -5.791982e-09 -6.131745e-09 -6.535216e-09 -6.263951e-09 -6.298233e-09 -7.179198e-09 -6.288724e-09 -6.040279e-09 -6.443276e-09
-6.438241e-09 -7.239315e-09 -5.893108e-09 -6.263856e-09 -6.507475e-09 -6.425589e-09 -6.156501e-09 -6.530497e-09 -5.874631e-09 -6.070445e-09
-6.224733e-09
-6.077403e-09 -5.664428e-09 -5.683421e-09 -5.589612e-09 -6.479126e-09 -5.869255e-09 -6.085756e-09 -5.958491e-09 -5.809956e-09 -5.754833e-09
-6.407312e-09 -6.255911e-09 -6.140200e-09 -6.436049e-09 -6.748518e-09 -5.910949e-09 -6.766047e-09 -6.046069e-09 -6.146353e-09 -6.034253e-09
-6.219292e-09 -5.317124e-09 -6.219336e-09 -5.266359e-09 -5.725863e-09 -5.494464e-09 -5.355936e-09 -5.419800e-09 -5.335994e-09 -5.409085e-09
-5.778492e-09 -5.508966e-09 -5.241156e-09 -5.462328e-09 -5.642134e-09 -5.502090e-09 -5.392777e-09 -5.529019e-09 -4.764527e-09 -5.402666e-09
-4.970481e-09 -4.859167e-09 -4.601739e-09 -4.694108e-09 -4.144864e-09 -4.566596e-09 -4.413027e-09 -4.281183e-09 -4.091561e-09 -4.348550e-09
-4.166260e-09 -4.028594e-09 -3.843536e-09 -4.196684e-09 -4.468634e-09 -3.675841e-09 -3.510676e-09 -3.608260e-09 -3.369530e-09 -2.888427e-09
-3.712542e-09 -2.928282e-09 -2.685637e-09 -3.027741e-09 -2.630321e-09 -2.650348e-09 -2.548590e-09 -2.487200e-09 -2.467286e-09 -2.326666e-09
-2.143842e-09 -2.154782e-09 -1.845067e-09 -1.588185e-09 -1.778493e-09 -1.673666e-09 -1.823404e-09 -1.384577e-09 -1.624772e-09 -9.114990e-10
-1.008115e-09 -8.996832e-10 -1.100661e-09 -4.030635e-10 -7.130913e-10 -3.018056e-10 -4.365646e-10 -5.006669e-11 -2.636700e-10 2.158460e-10
1.025431e-10 1.286602e-10 2.836071e-10 3.187676e-10 5.716291e-10 3.501222e-10 7.279741e-10 6.156916e-10 6.970973e-10 8.296559e-10
9.102710e-10 1.526067e-09 1.073945e-09 1.055648e-09 1.442986e-09 1.443062e-09 1.514330e-09 1.621057e-09 2.050835e-09 2.245706e-09
1.949116e-09 2.261370e-09 2.581714e-09 2.407236e-09 2.424280e-09 2.740079e-09 3.137248e-09 3.521939e-09 2.839219e-09 3.015789e-09
3.301245e-09 2.844707e-09 3.093322e-09 3.382143e-09 3.274191e-09 3.748206e-09 3.427443e-09 3.705389e-09 3.496055e-09 3.856296e-09
4.249732e-09 3.920448e-09 3.982906e-09 4.488616e-09 4.347550e-09 4.225830e-09 4.524046e-09 4.548367e-09 5.189558e-09 4.971997e-09
4.578485e-09 5.199402e-09 5.387280e-09 5.283775e-09 4.838416e-09 5.076798e-09 5.091375e-09 5.377385e-09 5.236668e-09 5.382386e-09
5.810552e-09 5.613284e-09 5.812499e-09 6.386360e-09 5.675885e-09 5.868594e-09 5.816866e-09 6.091679e-09 5.918871e-09 5.944065e-09
5.754725e-09 6.003282e-09 5.719771e-09 5.368827e-09 5.721561e-09 5.788519e-09 6.208391e-09 5.759890e-09 6.118899e-09 5.957591e-09
6.046116e-09 5.770135e-09 6.008720e-09 5.882658e-09 6.037135e-09 6.030230e-09 6.242708e-09 6.056457e-09 6.262322e-09 7.159699e-09
6.880195e-09 6.986619e-09 5.984102e-09 6.497365e-09 6.081223e-09 6.099079e-09 6.696887e-09 6.081560e-09 5.851688e-09 5.913673e-09
5.788813e-09 5.793995e-09 5.710838e-09 6.263127e-09 6.395904e-09 6.179094e-09 5.631730e-09 5.623049e-09 6.631103e-09 6.090036e-09
6.068735e-09 6.412315e-09 6.002402e-09 5.634143e-09 6.085438e-09 6.100849e-09 5.359154e-09 5.703386e-09 5.209254e-09 5.419879e-09
5.657771e-09 5.511305e-09 5.564254e-09 4.938719e-09 5.415183e-09 4.863843e-09 4.916158e-09 4.766215e-09 4.724883e-09 4.558736e-09
4.796196e-09 4.658327e-09 5.121752e-09 4.319586e-09 4.169522e-09 4.998800e-09 4.616659e-09 3.947309e-09 3.687863e-09 3.694449e-09
4.276023e-09 4.573589e-09 3.631233e-09 3.612310e-09 3.179302e-09 3.445797e-09 3.761667e-09 3.106229e-09 3.152987e-09 3.406707e-09
3.224091e-09 3.217630e-09 2.859198e-09 2.791678e-09 2.174200e-09 2.540199e-09 2.261161e-09 2.099300e-09 2.470960e-09 2.100369e-09
1.736832e-09 2.074709e-09 1.661582e-09 1.347491e-09 1.415868e-09 1.282232e-09 1.274520e-09 1.218050e-09 1.001584e-09 1.129643e-09
8.545782e-10 8.870616e-10 8.228986e-10 7.155867e-10 6.060892e-10 7.154675e-10 2.923191e-10 1.297268e-10 1.753832e-10 1.949956e-10
1.726884e-10 -1.095562e-10 -3.064129e-10 -3.456037e-10 -6.493662e-10 -7.523552e-10 -5.216385e-10 -6.514839e-10 -8.116831e-10 -1.146626e-09
-1.166903e-09 -1.447336e-09 -1.172235e-09 -1.118492e-09 -1.720160e-09 -1.474343e-09 -1.615206e-09 -1.793344e-09 -2.363707e-09 -1.797153e-09
-2.200966e-09 -2.399405e-09 -2.385707e-09 -2.471482e-09 -2.741300e-09 -2.811689e-09 -2.332371e-09 -2.679230e-09 -3.192684e-09 -2.712817e-09
-2.764990e-09 -3.492501e-09 -3.410910e-09 -3.461568e-09 -3.288661e-09 -3.351055e-09 -3.545117e-09 -3.554092e-09 -3.724271e-09 -3.897938e-09
-3.790705e-09 -3.973851e-09 -4.298157e-09 -4.039041e-09 -4.776762e-09 -4.503255e-09 -4.107507e-09 -4.333152e-09 -4.349694e-09 -4.925632e-09
-5.170197e-09 -4.621621e-09 -5.191624e-09 -5.361041e-09 -5.120862e-09 -5.567513e-09 -5.580324e-09 -4.824007e-09 -5.749296e-09 -5.482907e-09
-5.193950e-09 -5.103014e-09 -6.027017e-09 -5.734802e-09 -5.581436e-09 -5.325205e-09 -5.707737e-09 -5.848640e-09 -6.365404e-09 -5.996807e-09
-5.599981e-09 -6.155608e-09 -5.869121e-09 -5.682517e-09 -6.655336e-09 -5.767298e-09 -6.379929e-09 -6.203132e-09 -6.465013e-09 -6.487948e-09
-6.499872e-09 -6.614734e-09 -5.846327e-09 -6.371387e-09 -6.044748e-09 -5.904946e-09 -5.814576e-09 -6.114889e-09 -5.718773e-09 -5.499949e-09
-6.077403e-09
-5.567951e-09 -5.338748e-09 -5.937375e-09 -5.394910e-09 -6.294249e-09 -5.845105e-09 -5.863051e-09 -6.184124e-09 -5.411874e-09 -6.339805e-09
-5.975412e-09 -6.164027e-09 -6.342997e-09 -5.396417e-09 -6.339314e-09 -5.506609e-09 -7.014929e-09 -5.324335e-09 -5.914254e-09 -5.700160e-09
-5.688287e-09 -5.410998e-09 -5.641809e-09 -5.776684e-09 -5.212946e-09 -5.575371e-09 -5.401064e-09 -5.674252e-09 -5.236954e-09 -5.286829e-09
-5.007568e-09 -5.241095e-09 -5.520233e-09 -4.929447e-09 -4.788113e-09 -5.486759e-09 -5.486437e-09 -4.407014e-09 -4.251384e-09 -4.646508e-09
-4.379306e-09 -4.925336e-09 -4.110217e-09 -4.581487e-09 -4.260155e-09 -3.966720e-09 -3.784958e-09 -3.922809e-09 -3.871322e-09 -3.646912e-09
-4.227500e-09 -3.674471e-09 -3.894518e-09 -3.485145e-09 -3.601884e-09 -3.466814e-09 -3.068572e-09 -2.857702e-09 -3.193156e-09 -2.826997e-09
-2.895184e-09 -2.834765e-09 -2.853509e-09 -2.565189e-09 -2.557058e-09 -2.495814e-09 -2.593842e-09 -2.114012e-09 -2.140233e-09 -2.418936e-09
-2.123855e-09 -1.400640e-09 -1.736470e-09 -1.746470e-09 -1.454334e-09 -1.604306e-09 -1.256534e-09 -1.347786e-09 -1.331261e-09 -1.030881e-09
-1.276251e-09 -8.121762e-10 -9.750495e-10 -5.826635e-10 -6.054695e-10 -5.967047e-10 -4.821762e-10 -1.708599e-10 -4.451720e-10 2.032153e-10
1.634477e-11 -3.920557e-10 -3.332406e-11 6.491192e-10 3.884966e-10 5.466600e-10 6.828185e-10 8.699506e-10 8.099055e-10 1.078309e-09
9.022452e-10 1.518112e-09 1.361703e-09 1.559864e-09 1.143242e-09 1.670093e-09 1.679675e-09 1.556549e-09 1.905660e-09 1.623006e-09
2.141924e-09 2.297468e-09 2.352459e-09 2.320484e-09 2.238848e-09 2.851692e-09 2.291699e-09 2.729594e-09 2.960138e-09 3.290622e-09
2.905177e-09 3.042550e-09 2.967291e-09 3.400944e-09 3.399253e-09 3.654575e-09 3.381554e-09 3.779406e-09 3.894554e-09 3.782630e-09
4.243000e-09 4.443116e-09 3.802401e-09 4.003585e-09 3.888305e-09 4.631935e-09 4.966335e-09 5.109626e-09 4.074856e-09 4.857602e-09
4.601211e-09 4.863767e-09 4.976382e-09 4.840877e-09 5.448201e-09 4.999512e-09 5.114826e-09 4.874801e-09 5.059485e-09 5.103516e-09
5.229162e-09 5.340981e-09 5.501886e-09 5.374385e-09 4.991924e-09 4.987124e-09 5.185373e-09 5.639720e-09 5.853700e-09 5.673241e-09
6.657680e-09 6.130559e-09 5.811792e-09 5.728779e-09 6.108040e-09 5.754638e-09 5.835119e-09 6.070303e-09 5.498149e-09 5.529756e-09
5.777734e-09 5.726941e-09 6.029231e-09 5.472668e-09 6.102018e-09 5.346345e-09 5.839331e-09 6.291389e-09 5.590041e-09 5.590925e-09
6.182612e-09 5.782356e-09 5.887812e-09 5.896417e-09 5.841736e-09 6.357302e-09 5.789599e-09 5.820679e-09 5.483755e-09 5.999345e-09
5.538472e-09 5.733511e-09 5.962124e-09 5.375883e-09 5.986835e-09 5.414982e-09 5.597204e-09 5.958249e-09 5.023992e-09 5.306696e-09
5.222441e-09 4.898750e-09 5.678356e-09 5.695026e-09 5.471764e-09 5.194061e-09 5.227708e-09 5.648895e-09 5.017572e-09 4.942157e-09
5.626337e-09 5.333940e-09 4.901972e-09 4.963935e-09 5.025941e-09 4.601540e-09 4.441311e-09 4.577929e-09 4.744564e-09 4.782363e-09
4.513625e-09 4.496817e-09 4.435846e-09 4.475083e-09 3.984688e-09 3.949747e-09 3.885714e-09 3.665824e-09 3.733443e-09 3.685046e-09
3.662262e-09 3.618112e-09 3.417462e-09 3.599489e-09 3.333039e-09 3.075520e-09 3.180920e-09 3.242983e-09 3.319395e-09 2.968873e-09
3.126119e-09 2.587856e-09 2.395101e-09 2.553429e-09 2.828769e-09 2.037976e-09 2.142968e-09 1.881928e-09 2.010884e-09 2.124365e-09
1.861234e-09 1.594616e-09 1.876855e-09 1.678950e-09 1.801297e-09 1.281577e-09 1.132484e-09 8.311159e-10 1.052301e-09 8.149095e-10
7.467779e-10 7.777015e-10 4.209878e-10 7.612821e-10 4.298663e-10 5.914008e-10 5.744878e-10 4.132384e-10 -3.679828e-10 -4.895743e-11
-1.401119e-10 -2.709092e-10 -2.793782e-10 -6.082302e-10 -3.714848e-10 -5.589457e-10 -5.800153e-10 -1.087620e-09 -4.558754e-10 -9.393165e-10
-1.059179e-09 -1.019844e-09 -8.706548e-10 -1.247240e-09 -1.186207e-09 -1.286322e-09 -1.463777e-09 -1.901977e-09 -1.778369e-09 -2.087438e-09
-2.109814e-09 -2.544968e-09 -2.137416e-09 -2.437176e-09 -2.437400e-09 -3.024368e-09 -2.686615e-09 -2.556384e-09 -2.660378e-09 -3.065758e-09
-2.613615e-09 -3.051460e-09 -2.588791e-09 -3.072933e-09 -3.103817e-09 -3.265333e-09 -3.557686e-09 -3.635178e-09 -3.547337e-09 -3.779199e-09
-3.918856e-09 -3.991230e-09 -3.870367e-09 -3.894868e-09 -3.771428e-09 -4.157473e-09 -4.588731e-09 -4.432181e-09 -4.426774e-09 -4.304998e-09
-4.615858e-09 -5.284886e-09 -5.232538e-09 -4.532895e-09 -4.881107e-09 -4.707249e-09 -4.911140e-09 -5.139910e-09 -4.776895e-09 -5.217586e-09
-4.971168e-09 -4.969093e-09 -5.047804e-09 -5.604730e-09 -5.321834e-09 -5.289072e-09 -5.786578e-09 -4.823847e-09 -5.383459e-09 -6.115997e-09
-5.357828e-09 -5.624235e-09 -5.792736e-09 -5.906386e-09 -6.368245e-09 -5.412067e-09 -5.863496e-09 -5.699011e-09 -5.692519e-09 -5.344877e-09
-6.202830e-09 -5.321893e-09 -5.643394e-09 -5.405867e-09 -6.105143e-09 -5.652244e-09 -5.491353e-09 -5.926845e-09 -5.357036e-09 -5.267204e-09
-5.567951e-09
-6.205156e-09 -4.898766e-09 -4.984262e-09 -5.244871e-09 -5.646216e-09 -5.407323e-09 -5.754579e-09 -5.386399e-09 -5.676533e-09 -4.984706e-09
-4.926973e-09 -5.467465e-09 -5.691710e-09 -4.859146e-09 -5.597640e-09 -5.356797e-09 -5.503390e-09 -5.634128e-09 -5.199333e-09 -5.479627e-09
-4.851596e-09 -4.946703e-09 -5.219370e-09 -5.173788e-09 -5.147825e-09 -5.353600e-09 -4.825505e-09 -5.500315e-09 -4.577962e-09 -5.428088e-09
-4.868374e-09 -4.530107e-09 -4.642372e-09 -4.799872e-09 -4.847441e-09 -4.127928e-09 -4.694447e-09 -4.080551e-09 -4.327269e-09 -4.172186e-09
-4.389890e-09 -4.303156e-09 -4.056685e-09 -5.124763e-09 -3.512884e-09 -4.147053e-09 -4.236531e-09 -4.014877e-09 -3.868909e-09 -3.289921e-09
-3.452528e-09 -3.140579e-09 -3.607703e-09 -3.397716e-09 -3.081696e-09 -3.279075e-09 -2.856762e-09 -2.638298e-09 -2.790475e-09 -2.402410e-09
-2.774951e-09 -2.081534e-09 -2.483893e-09 -2.103790e-09 -2.429228e-09 -2.201707e-09 -2.016023e-09 -2.461186e-09 -2.083910e-09 -1.990946e-09
-1.749800e-09 -1.480854e-09 -1.326713e-09 -1.468601e-09 -1.513031e-09 -1.275723e-09 -8.896996e-10 -1.623693e-09 -1.011716e-09 -7.939080e-10
-1.026773e-09 -8.502782e-10 -4.098013e-10 -5.075054e-10 -1.020473e-09 -1.066873e-10 -2.925284e-10 -3.223069e-10 -3.926848e-10 -2.015103e-10
-3.363559e-11 1.186672e-10 6.577782e-10 4.703930e-10 2.891039e-10 5.495555e-10 7.109602e-10 7.403997e-10 6.176751e-10 1.154402e-09
9.721587e-10 1.056562e-09 1.120824e-09 1.119853e-09 1.261059e-09 1.395820e-09 1.705677e-09 1.558511e-09 2.039328e-09 1.691676e-09
1.794755e-09 2.016994e-09 1.969967e-09 2.129654e-09 1.722759e-09 2.256495e-09 2.284346e-09 2.299724e-09 2.676003e-09 2.777334e-09
2.878107e-09 2.881891e-09 3.147597e-09 2.787203e-09 3.078841e-09 3.175410e-09 3.023769e-09 3.454769e-09 3.648973e-09 3.416361e-09
3.458506e-09 3.753157e-09 3.732866e-09 3.892631e-09 4.163141e-09 3.883802e-09 4.001720e-09 4.243778e-09 3.860887e-09 4.281366e-09
4.159580e-09 4.734668e-09 4.298215e-09 4.888514e-09 4.087348e-09 4.784868e-09 4.641761e-09 4.688757e-09 4.975226e-09 4.747235e-09
4.691088e-09 4.962910e-09 4.920804e-09 5.309249e-09 5.260638e-09 5.309295e-09 5.109329e-09 4.991252e-09 5.513051e-09 4.941775e-09
5.169303e-09 5.342473e-09 5.065303e-09 5.492085e-09 5.100495e-09 5.524935e-09 5.514907e-09 5.000821e-09 5.492149e-09 5.432552e-09
5.943068e-09 5.329298e-09 5.425314e-09 5.416135e-09 5.160474e-09 5.648884e-09 5.714335e-09 5.806140e-09 5.228689e-09 5.466551e-09
5.192009e-09 5.149511e-09 5.670602e-09 5.538053e-09 5.177336e-09 5.036239e-09 5.279156e-09 5.388587e-09 5.049419e-09 5.209113e-09
5.820608e-09 5.167145e-09 5.251413e-09 5.250516e-09 5.613410e-09 5.436748e-09 5.739939e-09 5.076556e-09 5.526648e-09 5.385296e-09
4.861376e-09 5.018357e-09 4.851128e-09 5.214572e-09 4.445532e-09 5.861826e-09 4.707001e-09 4.833243e-09 5.044767e-09 4.875501e-09
4.528984e-09 4.651233e-09 4.447811e-09 4.599379e-09 4.146022e-09 5.217004e-09 3.775475e-09 4.382059e-09 4.512088e-09 4.301091e-09
4.281787e-09 3.891050e-09 4.175935e-09 4.336095e-09 3.717092e-09 4.054392e-09 3.653995e-09 3.634978e-09 3.789898e-09 3.626640e-09
3.277043e-09 3.545338e-09 3.039222e-09 2.810293e-09 3.242047e-09 3.006425e-09 3.091264e-09 2.810867e-09 3.069175e-09 2.464160e-09
2.382861e-09 2.798798e-09 2.514813e-09 2.241336e-09 2.419802e-09 2.278957e-09 2.143788e-09 2.000379e-09 1.790680e-09 1.857491e-09
1.652324e-09 1.678357e-09 1.527982e-09 1.445073e-09 1.628828e-09 9.955937e-10 1.124580e-09 1.273926e-09 1.098126e-09 9.784425e-10
9.231086e-10 5.566579e-10 4.254757e-10 2.760064e-10 7.886911e-10 3.858372e-10 4.323335e-10 6.577943e-10 -7.843542e-11 -1.027212e-10
1.243384e-10 -7.023670e-11 -5.185882e-10 -4.889668e-10 -3.528532e-10 -6.387035e-10 -8.956558e-10 -7.325189e-10 -7.456726e-10 -1.196413e-09
-9.531033e-10 -1.354939e-09 -1.202005e-09 -1.293146e-09 -1.544252e-09 -1.578037e-09 -1.852220e-09 -1.478282e-09 -2.043836e-09 -2.087841e-09
-1.892566e-09 -1.940456e-09 -2.114768e-09 -1.958695e-09 -2.203078e-09 -2.069583e-09 -2.760499e-09 -2.534423e-09 -2.577795e-09 -2.553826e-09
-2.553294e-09 -2.865525e-09 -2.662232e-09 -3.310253e-09 -3.070263e-09 -3.191941e-09 -3.260100e-09 -3.232309e-09 -3.421881e-09 -3.701645e-09
-3.483799e-09 -3.344422e-09 -4.111323e-09 -3.635644e-09 -3.569613e-09 -3.469252e-09 -4.243546e-09 -4.135311e-09 -4.092420e-09 -4.617940e-09
-4.097199e-09 -4.597219e-09 -4.622248e-09 -4.382287e-09 -4.392360e-09 -4.888911e-09 -4.344553e-09 -4.548385e-09 -4.352297e-09 -4.597154e-09
-4.689360e-09 -5.027927e-09 -4.661014e-09 -4.764310e-09 -5.147125e-09 -5.030174e-09 -4.934063e-09 -4.944182e-09 -5.402013e-09 -4.633822e-09
-5.505683e-09 -5.588613e-09 -5.518016e-09 -5.295667e-09 -5.644582e-09 -6.161269e-09 -5.438146e-09 -6.114783e-09 -5.644413e-09 -4.928136e-09
-4.998446e-09 -5.748949e-09 -5.082246e-09 -5.361926e-09 -5.814648e-09 -5.234142e-09 -5.357132e-09 -5.294862e-09 -5.261484e-09 -5.136910e-09
-6.205156e-09
-5.401176e-09 -4.770522e-09 -4.954760e-09 -4.778817e-09 -4.831655e-09 -5.267493e-09 -4.938196e-09 -5.549229e-09 -5.456400e-09 -5.925610e-09
-5.225065e-09 -4.753349e-09 -4.970194e-09 -4.831632e-09 -4.984426e-09 -4.985132e-09 -5.464323e-09 -4.844127e-09 -4.709866e-09 -4.640276e-09
-5.081404e-09 -4.876730e-09 -4.761129e-09 -5.115592e-09 -4.778789e-09 -4.603174e-09 -4.265301e-09 -4.712577e-09 -4.884960e-09 -4.797794e-09
-4.662664e-09 -4.530980e-09 -4.850298e-09 -4.755697e-09 -4.637938e-09 -4.427872e-09 -4.405009e-09 -4.655010e-09 -3.722403e-09 -3.898890e-09
-3.776045e-09 -4.495388e-09 -3.776007e-09 -4.187949e-09 -3.492469e-09 -3.332630e-09 -3.760242e-09 -3.699861e-09 -3.588741e-09 -3.447078e-09
-3.199086e-09 -3.253399e-09 -3.135993e-09 -3.355394e-09 -3.103110e-09 -2.759460e-09 -3.079248e-09 -2.474324e-09 -2.687470e-09 -2.444420e-09
-2.336822e-09 -2.219408e-09 -2.409709e-09 -2.479612e-09 -2.747562e-09 -1.947718e-09 -1.845603e-09 -1.955564e-09 -2.092930e-09 -2.035346e-09
-1.624003e-09 -1.728898e-09 -1.423569e-09 -1.211106e-09 -1.189847e-09 -1.490363e-09 -1.299702e-09 -1.062394e-09 -1.753525e-09 -7.992383e-10
-1.214286e-09 -1.065169e-09 -9.185515e-10 -5.581715e-10 -3.448433e-10 -6.327878e-10 -7.826529e-10 -1.975185e-10 -3.499127e-10 9.204865e-11
-2.885474e-10 1.062173e-10 1.254740e-10 4.695284e-10 5.378332e-10 5.849949e-10 9.177611e-10 1.162448e-09 8.822169e-10 7.836254e-10
5.939956e-10 1.073179e-09 7.817145e-10 1.222274e-09 1.060282e-09 1.345273e-09 1.052983e-09 2.064024e-09 1.794814e-09 1.732197e-09
1.799449e-09 2.198437e-09 1.811728e-09 2.059987e-09 1.938209e-09 2.468163e-09 2.090016e-09 2.397910e-09 2.332891e-09 2.435187e-09
2.409570e-09 2.443669e-09 2.767494e-09 3.044543e-09 2.831841e-09 2.823905e-09 2.812706e-09 3.501660e-09 3.030946e-09 3.712987e-09
3.511204e-09 3.464222e-09 3.524391e-09 3.884676e-09 3.541579e-09 3.652250e-09 3.590533e-09 3.808996e-09 4.024828e-09 4.686115e-09
4.527059e-09 4.240154e-09 4.005591e-09 4.249166e-09 4.522173e-09 3.887955e-09 4.267455e-09 4.197080e-09 4.592776e-09 4.339640e-09
4.882549e-09 4.895215e-09 4.589227e-09 4.659005e-09 4.887860e-09 4.838672e-09 5.702871e-09 4.867007e-09 5.287088e-09 4.692696e-09
4.679722e-09 5.668143e-09 5.278839e-09 5.362749e-09 5.762118e-09 4.889316e-09 4.418890e-09 4.984918e-09 5.053126e-09 5.286728e-09
5.256875e-09 4.575119e-09 5.519250e-09 4.961360e-09 5.042625e-09 5.076587e-09 5.229249e-09 5.566301e-09 4.612043e-09 4.906212e-09
5.646655e-09 4.912592e-09 5.529969e-09 4.532052e-09 5.612483e-09 4.926882e-09 5.836970e-09 4.612543e-09 5.153408e-09 5.051201e-09
5.414651e-09 5.329696e-09 5.382678e-09 4.764321e-09 4.767802e-09 5.243257e-09 4.854302e-09 4.669738e-09 4.961195e-09 4.545068e-09
5.074480e-09 5.014239e-09 4.589698e-09 4.550621e-09 4.774808e-09 4.774965e-09 4.382276e-09 4.322338e-09 4.221886e-09 4.324070e-09
4.393636e-09 4.416906e-09 3.873319e-09 4.094076e-09 4.061472e-09 4.184580e-09 4.427992e-09 4.218614e-09 3.914753e-09 3.802802e-09
4.518892e-09 4.435038e-09 3.628860e-09 3.841173e-09 3.477216e-09 3.259826e-09 3.373906e-09 3.229576e-09 3.223839e-09 3.561685e-09
3.144568e-09 3.291366e-09 2.930842e-09 3.121437e-09 2.720114e-09 2.790785e-09 2.573030e-09 2.511753e-09 2.460341e-09 2.523908e-09
2.638104e-09 2.041707e-09 1.945411e-09 2.235198e-09 2.905656e-09 2.339477e-09 2.302952e-09 1.587029e-09 1.749398e-09 1.586098e-09
1.944363e-09 1.789540e-09 1.447670e-09 1.554601e-09 1.731642e-09 1.384779e-09 1.404033e-09 1.026056e-09 1.053225e-09 6.109689e-10
9.869281e-10 1.052591e-09 7.620208e-10 7.720071e-10 2.699088e-10 4.079471e-10 4.254229e-10 5.784356e-11 9.409007e-11 2.486048e-10
2.636580e-10 -1.836113e-11 -2.526842e-10 -2.523892e-10 -5.267901e-10 -4.737951e-10 -2.887935e-10 -7.303438e-10 -5.766183e-10 -1.153283e-09
-4.017262e-10 -1.136609e-09 -1.132362e-09 -1.150007e-09 -1.042600e-09 -1.466856e-09 -1.512310e-09 -1.545583e-09 -1.690470e-09 -2.079219e-09
-1.910966e-09 -1.934398e-09 -2.106719e-09 -2.036195e-09 -2.243999e-09 -2.155403e-09 -2.627712e-09 -2.446744e-09 -2.490139e-09 -2.544365e-09
-2.292631e-09 -3.186259e-09 -2.867404e-09 -3.245664e-09 -2.896317e-09 -2.691574e-09 -3.726287e-09 -3.119116e-09 -3.416859e-09 -3.372651e-09
-3.242539e-09 -3.105454e-09 -3.661373e-09 -3.482439e-09 -3.254842e-09 -3.662995e-09 -3.712191e-09 -3.788514e-09 -3.779820e-09 -4.224707e-09
-3.741903e-09 -4.134808e-09 -3.657776e-09 -4.043474e-09 -4.270964e-09 -4.364981e-09 -4.569241e-09 -4.257976e-09 -4.161593e-09 -4.784996e-09
-5.030911e-09 -4.584233e-09 -4.434963e-09 -4.398633e-09 -5.067041e-09 -4.584073e-09 -4.436325e-09 -4.613442e-09 -4.644504e-09 -4.882048e-09
-5.617203e-09 -4.950709e-09 -4.593971e-09 -4.636737e-09 -4.748072e-09 -4.886574e-09 -5.543962e-09 -5.335818e-09 -4.740363e-09 -5.382451e-09
-4.830334e-09 -4.661417e-09 -5.305159e-09 -4.669026e-09 -5.881454e-09 -5.355476e-09 -4.791314e-09 -4.756977e-09 -4.864757e-09 -5.156228e-09
-5.401176e-09
-4.530901e-09 -4.313670e-09 -4.426832e-09 -4.630959e-09 -5.321109e-09 -4.784696e-09 -4.504691e-09 -4.869944e-09 -4.135396e-09 -4.786113e-09
-4.875136e-09 -4.975604e-09 -5.366200e-09 -4.158872e-09 -4.918796e-09 -4.571849e-09 -4.258907e-09 -4.964577e-09 -4.260654e-09 -5.245645e-09
-4.983035e-09 -4.458337e-09 -4.813490e-09 -4.468687e-09 -4.581318e-09 -4.401468e-09 -4.389170e-09 -4.045198e-09 -4.143304e-09 -3.971740e-09
-4.055058e-09 -4.453417e-09 -4.447944e-09 -4.189371e-09 -3.799433e-09 -4.538314e-09 -3.793348e-09 -3.790336e-09 -4.026743e-09 -3.411341e-09
-4.048832e-09 -3.893585e-09 -3.742961e-09 -3.453383e-09 -4.001055e-09 -3.414648e-09 -3.287269e-09 -3.727037e-09 -3.113970e-09 -2.990457e-09
-3.159461e-09 -2.985445e-09 -3.375105e-09 -2.705913e-09 -2.800891e-09 -2.229631e-09 -2.949604e-09 -2.698022e-09 -2.593335e-09 -2.559997e-09
-2.586127e-09 -2.101306e-09 -2.219431e-09 -1.932511e-09 -2.014603e-09 -2.193040e-09 -2.152280e-09 -2.103182e-09 -1.739226e-09 -1.453948e-09
-1.828776e-09 -1.480652e-09 -1.917410e-09 -1.683348e-09 -1.324849e-09 -1.471827e-09 -9.584163e-10 -1.350031e-09 -1.228569e-09 -1.035531e-09
-8.367222e-10 -8.513599e-10 -8.126986e-11 -4.244376e-10 -8.801400e-10 1.805051e-11 2.554013e-12 -8.878346e-11 -2.884223e-10 -5.426532e-11
3.697795e-10 -5.664739e-11 1.807871e-10 1.409259e-10 2.814826e-10 1.556435e-10 9.108345e-10 6.363239e-10 8.292743e-10 3.403792e-10
5.592564e-10 9.159943e-10 1.003766e-09 1.003934e-09 1.097959e-09 1.018969e-09 1.212005e-09 1.547235e-09 1.104090e-09 1.412977e-09
1.942483e-09 1.916818e-09 1.475492e-09 2.129470e-09 1.996872e-09 1.855123e-09 2.200550e-09 1.882086e-09 2.726698e-09 2.403664e-09
2.269698e-09 2.381561e-09 2.238324e-09 2.830978e-09 3.575782e-09 2.605148e-09 2.912677e-09 3.601458e-09 2.796113e-09 3.055947e-09
3.094731e-09 3.276073e-09 3.448826e-09 3.293197e-09 3.674482e-09 3.801842e-09 3.621552e-09 3.646228e-09 3.293558e-09 3.776014e-09
3.886303e-09 3.852151e-09 3.881548e-09 3.917290e-09 4.034463e-09 3.946983e-09 3.815453e-09 3.918437e-09 4.169722e-09 4.698002e-09
4.345469e-09 4.038238e-09 4.397573e-09 4.373828e-09 4.762009e-09 4.749960e-09 4.517768e-09 4.415822e-09 4.467745e-09 4.403689e-09
5.282931e-09 4.749764e-09 4.668094e-09 4.848877e-09 4.173557e-09 4.343756e-09 4.330016e-09 5.093048e-09 4.757444e-09 4.380964e-09
5.108525e-09 4.846880e-09 5.154325e-09 4.532392e-09 4.521459e-09 4.642880e-09 4.457629e-09 4.821394e-09 4.634866e-09 5.040659e-09
4.561533e-09 4.344091e-09 5.283011e-09 4.952889e-09 4.532664e-09 4.896805e-09 4.793844e-09 4.923512e-09 5.437810e-09 4.429765e-09
5.017319e-09 4.443706e-09 4.476513e-09 4.505852e-09 4.437678e-09 4.960956e-09 5.441906e-09 5.106541e-09 5.083181e-09 3.892831e-09
4.697664e-09 4.772620e-09 4.540409e-09 4.247445e-09 5.123825e-09 4.746892e-09 4.104258e-09 4.296083e-09 4.295956e-09 4.577503e-09
4.559525e-09 3.763633e-09 4.031323e-09 4.507047e-09 4.053955e-09 3.877363e-09 3.540376e-09 3.674681e-09 4.083705e-09 3.964878e-09
3.769799e-09 3.492807e-09 3.475546e-09 3.187818e-09 3.586228e-09 3.295902e-09 3.502310e-09 3.739100e-09 3.197701e-09 2.967428e-09
2.907951e-09 2.716580e-09 2.675967e-09 2.866826e-09 2.880930e-09 2.778168e-09 2.601023e-09 2.196886e-09 2.706679e-09 2.315728e-09
2.472976e-09 2.905234e-09 2.110131e-09 1.978192e-09 2.681767e-09 1.731615e-09 1.864239e-09 1.861880e-09 1.685369e-09 1.503370e-09
1.607595e-09 1.280771e-09 1.188990e-09 1.157531e-09 1.253894e-09 1.429743e-09 1.090753e-09 1.294878e-09 1.147916e-09 8.580843e-10
8.033050e-10 1.057708e-09 5.541463e-10 4.530806e-10 1.941300e-10 7.753683e-11 1.722271e-10 1.067286e-10 2.243892e-10 -1.527666e-10
2.302131e-10 -8.291806e-11 -1.412331e-10 -7.540029e-10 -5.165982e-10 -3.065279e-10 -3.511187e-10 -8.453675e-10 -7.607500e-10 -4.896538e-10
-9.983371e-10 -7.871537e-10 -9.874846e-10 -1.223701e-09 -1.364037e-09 -1.462224e-09 -1.372613e-09 -1.182304e-09 -1.587651e-09 -1.412015e-09
-1.444025e-09 -1.664847e-09 -1.667283e-09 -1.475859e-09 -1.920594e-09 -2.037359e-09 -1.999887e-09 -2.324393e-09 -2.226866e-09 -3.068875e-09
-2.474045e-09 -2.803101e-09 -2.670272e-09 -2.522265e-09 -2.751011e-09 -3.197261e-09 -2.772444e-09 -2.611286e-09 -3.433290e-09 -2.976949e-09
-3.502257e-09 -3.574205e-09 -3.278367e-09 -3.426841e-09 -3.523345e-09 -3.460434e-09 -3.459036e-09 -3.842498e-09 -3.433794e-09 -3.688219e-09
-3.703618e-09 -3.262594e-09 -3.423364e-09 -4.046557e-09 -4.626042e-09 -3.744327e-09 -4.029217e-09 -4.367811e-09 -4.428764e-09 -4.218423e-09
-4.772988e-09 -4.163334e-09 -4.456670e-09 -4.776509e-09 -3.769955e-09 -4.673552e-09 -4.443881e-09 -4.628030e-09 -4.693836e-09 -4.924386e-09
-4.594416e-09 -4.406913e-09 -4.310789e-09 -4.702492e-09 -4.526177e-09 -5.135059e-09 -4.428160e-09 -4.676369e-09 -4.535750e-09 -4.252216e-09
-5.203523e-09 -4.628791e-09 -4.400636e-09 -4.663288e-09 -4.828314e-09 -4.613887e-09 -4.439466e-09 -4.589424e-09 -4.316858e-09 -4.584980e-09
-4.530901e-09
-5.014692e-09 -4.415843e-09 -4.148497e-09 -4.617278e-09 -4.431703e-09 -4.169680e-09 -4.429624e-09 -4.750085e-09 -4.400802e-09 -4.611148e-09
-4.354150e-09 -4.427479e-09 -3.982059e-09 -4.409782e-09 -4.760321e-09 -4.412247e-09 -4.288403e-09 -4.120007e-09 -4.076567e-09 -4.068238e-09
-3.846289e-09 -4.535319e-09 -3.780857e-09 -3.781585e-09 -4.287088e-09 -3.779677e-09 -4.245489e-09 -3.787711e-09 -3.564721e-09 -4.087075e-09
-4.407113e-09 -3.473885e-09 -3.794748e-09 -3.736670e-09 -4.090425e-09 -3.959646e-09 -3.588581e-09 -3.666384e-09 -3.600904e-09 -3.556609e-09
-3.270195e-09 -3.328766e-09 -3.188465e-09 -2.856908e-09 -3.241331e-09 -2.897721e-09 -3.457545e-09 -2.980145e-09 -2.963921e-09 -3.189680e-09
-2.960282e-09 -2.681905e-09 -2.819283e-09 -2.475582e-09 -2.697356e-09 -2.369126e-09 -2.983420e-09 -2.685899e-09 -2.701595e-09 -2.645551e-09
-2.431064e-09 -2.265162e-09 -2.124367e-09 -1.948242e-09 -1.804365e-09 -1.716181e-09 -1.759158e-09 -1.901081e-09 -2.108334e-09 -1.806400e-09
-1.370188e-09 -1.257514e-09 -1.682753e-09 -1.163714e-09 -1.391596e-09 -9.117248e-10 -1.157732e-09 -8.950951e-10 -1.001853e-09 -7.958600e-10
-7.336902e-10 -5.822042e-10 -7.044127e-10 -5.312347e-10 -2.876798e-10 -8.897030e-11 -4.096139e-10 -2.611253e-10 -5.422742e-10 2.019922e-10
-2.532087e-10 -1.034661e-10 -1.373124e-11 3.395585e-11 6.655678e-10 3.697109e-10 4.078928e-10 3.356043e-10 6.043313e-10 8.222938e-10
1.091951e-09 1.196537e-09 1.228289e-09 1.256239e-09 1.022979e-09 1.649982e-09 1.199914e-09 1.391081e-09 1.294833e-09 1.357488e-09
1.329388e-09 2.032157e-09 1.890638e-09 1.841538e-09 1.730625e-09 1.577392e-09 2.402214e-09 1.953566e-09 2.341603e-09 2.099564e-09
2.011262e-09 2.643399e-09 2.468835e-09 2.630976e-09 3.037972e-09 2.539110e-09 2.682203e-09 2.881227e-09 2.519420e-09 2.841499e-09
2.890663e-09 2.705878e-09 3.109686e-09 2.896175e-09 2.668858e-09 2.880174e-09 3.364433e-09 2.941263e-09 3.482928e-09 3.510485e-09
3.592761e-09 4.193679e-09 3.254531e-09 3.623122e-09 3.798779e-09 3.638036e-09 3.584139e-09 4.135111e-09 3.603269e-09 4.204427e-09
3.903167e-09 3.843837e-09 4.345504e-09 4.207160e-09 3.988527e-09 5.064240e-09 3.792219e-09 4.508966e-09 3.933326e-09 4.274264e-09
4.897784e-09 4.207406e-09 4.456074e-09 4.580758e-09 4.088188e-09 4.691679e-09 4.169564e-09 3.762766e-09 4.715919e-09 4.335282e-09
4.573237e-09 4.192068e-09 4.092968e-09 4.248293e-09 4.866656e-09 4.372775e-09 4.323558e-09 4.185891e-09 4.461199e-09 4.363624e-09
4.365429e-09 4.328497e-09 4.547350e-09 4.349747e-09 4.343553e-09 4.647678e-09 4.197158e-09 4.207967e-09 4.145233e-09 4.086697e-09
4.694992e-09 4.868775e-09 4.235502e-09 4.304102e-09 4.876464e-09 4.211370e-09 4.758247e-09 4.335805e-09 4.037428e-09 4.289844e-09
4.731559e-09 3.817531e-09 3.920124e-09 3.783017e-09 4.331056e-09 4.050751e-09 4.871781e-09 3.910921e-09 3.984148e-09 3.951510e-09
4.005990e-09 3.487295e-09 3.986825e-09 3.804438e-09 3.779803e-09 3.223030e-09 3.409594e-09 4.213895e-09 3.875878e-09 3.418843e-09
3.541522e-09 3.687643e-09 3.333552e-09 3.489496e-09 3.309526e-09 3.085293e-09 3.024940e-09 3.003237e-09 3.277799e-09 2.707551e-09
2.944643e-09 2.735484e-09 2.281064e-09 2.500416e-09 2.964077e-09 2.640090e-09 2.480981e-09 2.749924e-09 2.140911e-09 2.092870e-09
2.051356e-09 2.051767e-09 2.177866e-09 2.333097e-09 2.299090e-09 2.196771e-09 1.380778e-09 1.562215e-09 1.428470e-09 1.782817e-09
1.827601e-09 1.078191e-09 1.361486e-09 1.249373e-09 1.069221e-09 1.183182e-09 1.309472e-09 6.817683e-10 8.370086e-10 8.408486e-10
7.681365e-10 6.519358e-10 9.526836e-10 2.885494e-10 2.114971e-10 2.345243e-10 4.148792e-10 -1.128427e-11 2.057567e-10 -1.654927e-10
-2.969241e-10 -4.026802e-12 -2.403591e-10 -3.026462e-10 -2.120162e-10 -4.930718e-10 -3.552840e-10 -7.060126e-10 -3.486918e-10 -5.813091e-10
-7.243715e-10 -9.162238e-10 -7.074037e-10 -9.228967e-10 -8.944808e-10 -1.444905e-09 -1.331829e-09 -1.658307e-09 -1.533811e-09 -1.502084e-09
-1.522747e-09 -1.743637e-09 -1.544741e-09 -2.048028e-09 -1.829461e-09 -2.118556e-09 -1.688327e-09 -2.242522e-09 -2.219423e-09 -2.121755e-09
-2.040044e-09 -2.448058e-09 -2.695760e-09 -2.757601e-09 -2.481459e-09 -2.449736e-09 -2.977435e-09 -2.472794e-09 -2.820524e-09 -2.671870e-09
-3.070861e-09 -2.593876e-09 -2.778832e-09 -2.805820e-09 -3.264887e-09 -3.308123e-09 -3.351090e-09 -2.696835e-09 -3.533372e-09 -3.147975e-09
-3.673142e-09 -3.598078e-09 -3.388801e-09 -3.554257e-09 -3.547440e-09 -4.111936e-09 -4.129236e-09 -3.209336e-09 -3.739000e-09 -4.393598e-09
-3.795234e-09 -3.728349e-09 -3.666869e-09 -3.982960e-09 -3.917839e-09 -4.456658e-09 -4.094197e-09 -4.052605e-09 -4.089879e-09 -4.197141e-09
-4.293877e-09 -4.165678e-09 -4.121823e-09 -4.373392e-09 -4.261809e-09 -4.270408e-09 -4.437273e-09 -4.278997e-09 -4.017971e-09 -4.260753e-09
-4.607726e-09 -4.670329e-09 -4.315606e-09 -3.999607e-09 -4.428758e-09 -4.301806e-09 -4.429278e-09 -4.239684e-09 -4.610715e-09 -3.882559e-09
-5.014692e-09
-3.914026e-09 -4.327975e-09 -4.076413e-09 -3.805602e-09 -4.633621e-09 -4.298827e-09 -4.422771e-09 -4.385214e-09 -4.015964e-09 -3.897748e-09
-3.862648e-09 -4.353669e-09 -4.944595e-09 -4.113245e-09 -3.662558e-09 -3.456249e-09 -4.125007e-09 -3.441782e-09 -3.864745e-09 -3.850464e-09
-3.877282e-09 -4.152185e-09 -4.137025e-09 -3.952256e-09 -3.759753e-09 -3.892813e-09 -3.712004e-09 -3.922222e-09 -4.083705e-09 -3.286009e-09
-4.110737e-09 -3.828585e-09 -2.968743e-09 -3.479204e-09 -3.465383e-09 -3.195335e-09 -3.340326e-09 -3.687139e-09 -3.192082e-09 -3.645878e-09
-3.277352e-09 -3.063903e-09 -3.032622e-09 -2.888266e-09 -2.865059e-09 -3.093898e-09 -3.291523e-09 -3.002962e-09 -2.894254e-09 -3.033638e-09
-2.511524e-09 -2.718740e-09 -2.775298e-09 -2.456314e-09 -3.035669e-09 -2.516064e-09 -2.297142e-09 -2.692926e-09 -2.415377e-09 -2.696614e-09
-2.362149e-09 -2.134276e-09 -1.768803e-09 -1.760537e-09 -1.601944e-09 -1.736559e-09 -1.695528e-09 -1.264516e-09 -1.667578e-09 -1.457931e-09
-1.473524e-09 -1.065933e-09 -1.237677e-09 -1.467850e-09 -1.254758e-09 -1.063134e-09 -8.211585e-10 -1.386415e-09 -8.873868e-10 -5.995009e-10
-9.889130e-10 -7.788739e-10 -9.587601e-10 -4.523113e-10 -7.271723e-10 -1.644609e-10 -3.258874e-10 4.005014e-11 3.456760e-10 1.918499e-10
2.051154e-11 1.255797e-10 1.813732e-10 3.557746e-10 -1.174797e-10 2.719444e-10 1.565599e-10 5.959678e-10 7.818788e-10 3.400942e-10
8.604445e-10 5.671799e-10 1.061437e-09 3.933225e-10 9.278813e-10 8.594652e-10 1.913310e-09 1.303953e-09 1.545502e-09 1.268298e-09
1.608509e-09 1.682642e-09 2.186045e-09 1.967354e-09 1.448690e-09 1.676298e-09 1.717846e-09 2.401668e-09 1.692927e-09 2.218156e-09
1.810324e-09 2.247936e-09 1.870834e-09 2.382299e-09 1.990415e-09 2.549370e-09 2.174245e-09 2.593946e-09 3.072370e-09 2.763424e-09
2.522392e-09 2.985718e-09 2.993284e-09 3.528146e-09 2.903495e-09 3.172146e-09 3.060271e-09 2.860984e-09 2.762113e-09 3.281059e-09
2.885751e-09 3.132718e-09 3.836260e-09 3.208783e-09 3.550701e-09 3.397042e-09 3.308434e-09 3.639311e-09 4.289616e-09 3.129902e-09
3.367440e-09 3.311925e-09 3.524912e-09 3.384858e-09 3.343937e-09 3.668641e-09 3.970907e-09 3.815603e-09 3.677713e-09 3.479695e-09
4.539026e-09 3.758371e-09 3.926992e-09 3.971278e-09 4.236425e-09 4.099739e-09 4.177049e-09 3.830695e-09 4.840684e-09 4.712926e-09
3.884340e-09 4.005137e-09 3.938557e-09 3.683861e-09 4.124251e-09 4.558926e-09 4.101516e-09 3.865497e-09 4.122567e-09 4.276544e-09
3.650845e-09 4.081523e-09 4.112314e-09 4.269859e-09 4.385421e-09 3.941995e-09 4.331232e-09 4.536780e-09 4.137398e-09 4.023091e-09
4.334478e-09 4.077160e-09 3.809971e-09 4.300940e-09 4.340590e-09 4.192560e-09 4.002331e-09 4.318174e-09 4.076894e-09 3.585442e-09
3.877381e-09 4.058810e-09 3.483955e-09 4.320383e-09 3.920229e-09 3.444714e-09 4.038962e-09 3.949689e-09 3.789661e-09 3.292201e-09
3.775655e-09 3.455062e-09 3.713452e-09 3.455963e-09 3.332808e-09 3.917463e-09 3.176559e-09 2.871840e-09 3.203548e-09 3.345081e-09
3.105103e-09 2.902667e-09 2.926650e-09 3.546434e-09 2.963785e-09 3.123277e-09 3.171676e-09 3.056983e-09 2.762388e-09 2.608322e-09
2.517210e-09 2.652999e-09 2.632007e-09 2.583231e-09 2.544574e-09 1.977126e-09 2.282755e-09 2.208411e-09 2.023295e-09 2.168556e-09
2.328721e-09 2.191580e-09 2.017819e-09 2.188329e-09 1.898092e-09 1.467893e-09 1.742361e-09 1.565008e-09 1.304130e-09 1.515913e-09
1.361128e-09 1.808761e-09 1.365732e-09 8.994490e-10 1.390058e-09 9.804997e-10 1.212812e-09 8.733244e-10 1.177365e-09 9.601716e-10
6.572054e-10 3.788828e-10 8.977758e-10 5.415242e-10 3.793875e-11 3.674520e-10 1.149743e-10 1.683281e-10 4.170931e-10 5.363460e-10
-1.888557e-10 -3.887720e-11 -2.507351e-10 -1.548414e-10 -5.085389e-10 -4.652419e-10 -4.167076e-10 -5.614356e-10 -7.500025e-10 -5.437715e-10
-8.005481e-10 -8.436400e-10 -9.308629e-10 -9.753250e-10 -1.027503e-09 -1.031477e-09 -1.610981e-09 -1.349976e-09 -1.542149e-09 -1.523953e-09
-1.468851e-09 -1.861939e-09 -1.439579e-09 -1.766097e-09 -2.139519e-09 -1.734561e-09 -1.872791e-09 -2.270599e-09 -1.711257e-09 -2.179556e-09
-2.343832e-09 -2.076592e-09 -2.492127e-09 -2.330501e-09 -2.099521e-09 -2.626540e-09 -2.111730e-09 -2.482028e-09 -2.202536e-09 -2.547596e-09
-2.818403e-09 -3.649619e-09 -2.787763e-09 -2.480096e-09 -3.433025e-09 -3.195615e-09 -3.237414e-09 -2.500824e-09 -4.080274e-09 -3.097176e-09
-2.922403e-09 -3.482750e-09 -3.315409e-09 -3.234002e-09 -3.170603e-09 -3.652004e-09 -4.030763e-09 -3.478709e-09 -3.822405e-09 -3.794761e-09
-3.883388e-09 -3.815620e-09 -3.703096e-09 -3.892155e-09 -3.211460e-09 -3.941298e-09 -3.943784e-09 -4.405719e-09 -3.876068e-09 -3.662635e-09
-3.894432e-09 -4.020277e-09 -3.847094e-09 -4.096162e-09 -4.490047e-09 -4.183229e-09 -4.057371e-09 -4.629537e-09 -3.933430e-09 -4.106685e-09
-3.826185e-09 -3.608156e-09 -3.988789e-09 -4.622950e-09 -3.934317e-09 -3.714420e-09 -4.596970e-09 -4.012680e-09 -3.637600e-09 -3.803063e-09
-3.914026e-09
-3.628720e-09 -3.236218e-09 -3.733396e-09 -3.298318e-09 -3.988458e-09 -3.639479e-09 -4.114260e-09 -4.407561e-09 -3.958037e-09 -3.185025e-09
-4.017382e-09 -3.858487e-09 -3.507568e-09 -3.633674e-09 -3.402789e-09 -4.303116e-09 -3.623531e-09 -3.539761e-09 -3.192066e-09 -3.583307e-09
-3.616800e-09 -3.687238e-09 -3.708589e-09 -3.292176e-09 -3.455406e-09 -3.731923e-09 -3.463268e-09 -3.766031e-09 -3.528805e-09 -3.037286e-09
-3.677089e-09 -3.173704e-09 -3.268331e-09 -3.309660e-09 -3.578273e-09 -3.128719e-09 -3.882469e-09 -3.140361e-09 -3.275562e-09 -3.702565e-09
-2.945282e-09 -3.274654e-09 -3.057828e-09 -3.231000e-09 -2.776776e-09 -2.668626e-09 -2.560059e-09 -2.761587e-09 -2.523079e-09 -2.729354e-09
-2.135070e-09 -2.341743e-09 -2.421040e-09 -2.487306e-09 -2.531706e-09 -1.922929e-09 -2.054887e-09 -2.184263e-09 -1.934373e-09 -2.319151e-09
-1.926159e-09 -1.867291e-09 -1.387765e-09 -1.852675e-09 -1.205020e-09 -1.581824e-09 -1.041679e-09 -1.474602e-09 -1.278085e-09 -9.859468e-10
-1.044407e-09 -1.129397e-09 -8.984535e-10 -9.318010e-10 -9.709639e-10 -8.825940e-10 -9.614449e-10 -1.139293e-09 -4.783035e-10 -6.399453e-10
-6.915613e-10 -7.674225e-10 -5.383520e-10 -3.922049e-10 -8.515757e-10 -3.228298e-10 -1.617702e-10 -6.900101e-10 -2.511284e-10 4.732285e-10
1.752560e-10 -9.541671e-11 -5.524400e-11 1.450582e-10 8.330885e-10 2.069826e-10 4.577475e-10 7.838854e-10 3.191155e-10 4.558914e-10
3.375771e-10 7.014742e-10 8.715770e-10 9.302126e-10 6.194339e-10 1.097814e-09 8.790627e-10 1.561832e-09 1.062397e-09 1.603219e-09
1.618116e-09 1.557207e-09 1.463817e-09 1.569915e-09 1.519729e-09 2.294829e-09 2.157873e-09 1.736472e-09 1.479990e-09 1.745498e-09
2.478527e-09 1.894593e-09 2.173353e-09 2.141428e-09 2.506146e-09 2.446020e-09 2.682976e-09 2.588569e-09 2.692974e-09 2.086533e-09
2.668603e-09 2.428219e-09 2.585587e-09 2.643289e-09 2.371003e-09 2.716256e-09 2.741714e-09 2.581240e-09 2.902279e-09 2.575598e-09
2.752204e-09 2.937331e-09 2.843524e-09 3.269720e-09 3.785168e-09 3.401399e-09 3.678043e-09 3.549479e-09 2.922439e-09 3.067510e-09
2.956164e-09 3.625141e-09 3.330562e-09 3.176757e-09 3.251802e-09 3.726491e-09 3.662347e-09 3.236722e-09 3.837344e-09 3.740369e-09
3.596443e-09 3.225307e-09 3.314972e-09 3.703209e-09 3.660479e-09 3.915912e-09 3.796222e-09 3.898250e-09 4.078178e-09 3.854487e-09
3.712447e-09 4.022604e-09 3.736986e-09 3.844901e-09 3.741421e-09 3.995654e-09 3.701787e-09 3.819887e-09 4.039952e-09 4.476197e-09
3.407864e-09 4.781540e-09 3.594067e-09 3.592017e-09 3.603115e-09 4.075466e-09 4.454841e-09 3.537902e-09 3.552919e-09 3.346994e-09
3.288741e-09 4.104133e-09 3.926160e-09 3.472669e-09 3.653030e-09 3.599372e-09 3.982088e-09 3.546482e-09 4.123424e-09 3.430448e-09
3.356946e-09 3.541968e-09 3.412608e-09 3.611906e-09 3.353998e-09 3.258084e-09 3.982969e-09 3.211078e-09 3.855949e-09 3.162174e-09
2.934737e-09 3.492953e-09 3.768996e-09 3.931410e-09 3.419993e-09 3.267121e-09 3.010859e-09 2.889107e-09 2.684732e-09 2.693384e-09
2.761673e-09 2.707375e-09 2.430452e-09 2.616723e-09 3.176140e-09 2.783817e-09 2.696048e-09 2.252338e-09 2.432853e-09 2.293695e-09
2.772633e-09 3.038429e-09 2.116651e-09 2.208507e-09 1.913372e-09 2.113071e-09 2.116163e-09 2.400746e-09 2.363299e-09 1.812646e-09
1.507825e-09 1.812968e-09 1.593997e-09 1.783195e-09 1.436289e-09 1.788678e-09 1.475803e-09 1.629804e-09 1.360155e-09 1.353878e-09
1.282542e-09 9.651425e-10 1.239621e-09 1.498853e-09 1.484205e-09 1.346474e-09 9.938476e-10 3.272739e-10 7.794010e-10 4.512102e-10
1.187965e-09 2.775607e-10 2.529296e-10 4.214537e-10 3.324632e-10 -4.415579e-12 -1.695685e-10 4.370521e-10 1.327576e-10 -3.064380e-10
3.776652e-11 -3.917889e-10 -3.742890e-10 -7.706283e-10 -1.391393e-10 1.368463e-10 -4.343259e-10 -6.463892e-10 -4.072489e-10 -7.609745e-10
-7.332617e-10 -5.368432e-10 -6.841902e-10 -8.315689e-10 -1.226973e-09 -1.059553e-09 -8.181196e-10 -1.512708e-09 -1.192167e-09 -1.490775e-09
-1.832395e-09 -1.413077e-09 -1.963752e-09 -1.253573e-09 -1.348213e-09 -1.897613e-09 -1.982918e-09 -2.154320e-09 -2.366658e-09 -1.989368e-09
-1.708300e-09 -2.075195e-09 -2.700660e-09 -2.284144e-09 -2.189899e-09 -2.845776e-09 -2.257804e-09 -1.981201e-09 -2.926753e-09 -2.886060e-09
-2.983989e-09 -2.387077e-09 -2.892398e-09 -2.403909e-09 -3.170047e-09 -3.163075e-09 -2.948739e-09 -2.854255e-09 -2.823647e-09 -3.028778e-09
-2.886037e-09 -3.386611e-09 -3.079162e-09 -3.032957e-09 -3.607902e-09 -3.038268e-09 -3.181647e-09 -3.578010e-09 -3.876146e-09 -3.408555e-09
-3.125280e-09 -3.541019e-09 -3.022335e-09 -3.260881e-09 -3.863418e-09 -3.673373e-09 -3.589312e-09 -3.664104e-09 -3.407750e-09 -3.818833e-09
-3.772598e-09 -3.432386e-09 -3.804259e-09 -3.451653e-09 -3.641699e-09 -3.485264e-09 -4.092182e-09 -4.069734e-09 -3.102741e-09 -3.498547e-09
-3.883444e-09 -3.732020e-09 -4.112796e-09 -3.953337e-09 -3.437899e-09 -4.102534e-09 -3.981226e-09 -3.276878e-09 -4.103396e-09 -3.317852e-09
-3.628720e-09
-3.680655e-09 -3.477487e-09 -3.938142e-09 -3.935483e-09 -3.481631e-09 -3.559538e-09 -4.443287e-09 -3.350162e-09 -3.132754e-09 -3.487495e-09
-3.577747e-09 -3.185635e-09 -3.555710e-09 -3.578528e-09 -3.025366e-09 -3.433345e-09 -3.840921e-09 -3.308012e-09 -3.504629e-09 -3.502103e-09
-3.153806e-09 -3.761349e-09 -3.352962e-09 -3.589400e-09 -3.571043e-09 -3.270298e-09 -3.095905e-09 -2.700911e-09 -3.051636e-09 -3.806486e-09
-2.893898e-09 -3.086263e-09 -2.436646e-09 -2.653004e-09 -3.487697e-09 -3.059926e-09 -3.279456e-09 -3.403428e-09 -3.276464e-09 -3.061834e-09
-2.633773e-09 -2.766903e-09 -2.597562e-09 -2.393241e-09 -2.488440e-09 -2.356735e-09 -2.745820e-09 -3.254363e-09 -2.860114e-09 -2.451384e-09
-1.757126e-09 -2.431725e-09 -2.333673e-09 -2.314592e-09 -2.052274e-09 -2.214997e-09 -1.435048e-09 -2.124831e-09 -1.651688e-09 -2.094310e-09
-1.965149e-09 -1.845279e-09 -1.449834e-09 -1.828841e-09 -1.320915e-09 -1.381870e-09 -1.179927e-09 -1.266769e-09 -1.439546e-09 -1.374152e-09
-1.376818e-09 -1.490351e-09 -1.385520e-09 -1.116581e-09 -5.515228e-10 -7.305580e-10 -6.886736e-10 -8.950054e-10 -6.540735e-10 -8.836154e-10
-5.799736e-10 -1.038100e-09 -1.224334e-09 -4.780427e-10 -3.158374e-10 1.087180e-10 -5.264462e-10 -1.399909e-10 -1.690903e-10 3.580258e-11
-1.223913e-11 -3.266847e-10 -1.733758e-10 6.189562e-11 2.738611e-10 6.309906e-12 6.659009e-10 8.704908e-10 4.860828e-10 1.030846e-09
6.372190e-10 4.904619e-10 9.924986e-10 6.883527e-10 2.872090e-10 6.003573e-10 9.917680e-10 8.396679e-10 9.677551e-10 1.184089e-09
1.037123e-09 9.963358e-10 8.200005e-10 2.081760e-09 1.725626e-09 1.442792e-09 1.430441e-09 2.051687e-09 1.551085e-09 1.714947e-09
1.844200e-09 2.028507e-09 1.803815e-09 1.597326e-09 2.037654e-09 1.949111e-09 1.849881e-09 2.095687e-09 2.420664e-09 1.882681e-09
2.602150e-09 2.252259e-09 2.434061e-09 2.406052e-09 2.858002e-09 2.592982e-09 2.670467e-09 2.515635e-09 2.575947e-09 2.277904e-09
2.684287e-09 2.621019e-09 2.779222e-09 3.057022e-09 3.170579e-09 3.093249e-09 2.583472e-09 2.862515e-09 2.687473e-09 3.385279e-09
2.923829e-09 3.945734e-09 3.261711e-09 3.479802e-09 3.099634e-09 3.149216e-09 3.607683e-09 3.291875e-09 3.296517e-09 3.223587e-09
3.041378e-09 3.629691e-09 3.704088e-09 3.458163e-09 3.485016e-09 3.974659e-09 3.565525e-09 3.870717e-09 3.882885e-09 3.361070e-09
3.462553e-09 2.981872e-09 3.165021e-09 3.448237e-09 3.099176e-09 2.811419e-09 3.644236e-09 3.156416e-09 4.065458e-09 3.798287e-09
3.270760e-09 3.884144e-09 3.957242e-09 3.591007e-09 4.003882e-09 3.393683e-09 3.708611e-09 3.135959e-09 3.745123e-09 3.600625e-09
4.160312e-09 3.812670e-09 3.651434e-09 3.783211e-09 3.827241e-09 3.809363e-09 3.238943e-09 2.758123e-09 3.499261e-09 3.102734e-09
3.192419e-09 3.444372e-09 3.377661e-09 3.527439e-09 3.524528e-09 3.214303e-09 2.946074e-09 3.086809e-09 2.896200e-09 3.291316e-09
3.455277e-09 2.856233e-09 3.105070e-09 2.900271e-09 3.274055e-09 2.753402e-09 3.131164e-09 2.705868e-09 2.550091e-09 2.647945e-09
2.357981e-09 2.720601e-09 2.414243e-09 2.477787e-09 2.321204e-09 2.754590e-09 2.614005e-09 2.650799e-09 2.302844e-09 2.731572e-09
2.238723e-09 2.810898e-09 2.432732e-09 2.404028e-09 2.109831e-09 2.311840e-09 2.487117e-09 2.216273e-09 1.724511e-09 1.716393e-09
1.680833e-09 1.802050e-09 1.859324e-09 1.530721e-09 1.595636e-09 1.943674e-09 1.173604e-09 1.295155e-09 1.478757e-09 1.441321e-09
1.290482e-09 1.043622e-09 1.113002e-09 1.137818e-09 1.293993e-09 9.401926e-10 1.116733e-09 5.861929e-10 1.930108e-10 5.333529e-10
7.594978e-10 6.381175e-10 3.062037e-10 3.337518e-10 4.612374e-10 1.156068e-10 1.832562e-10 -1.474557e-10 9.577766e-11 6.126085e-11
-6.126619e-10 -5.250648e-10 2.235535e-10 -2.248651e-10 -9.159703e-12 3.626254e-11 -5.687193e-10 -4.843557e-10 -7.792038e-10 -7.823939e-10
-8.218783e-10 -7.542915e-10 -9.354809e-10 -1.175046e-09 -6.644005e-10 -7.055227e-10 -1.066390e-09 -1.302232e-09 -1.335533e-09 -1.507418e-09
-1.195128e-09 -1.301581e-09 -1.727703e-09 -1.052134e-09 -1.390905e-09 -2.046574e-09 -1.822476e-09 -2.033067e-09 -2.447915e-09 -1.818602e-09
-1.796716e-09 -1.911039e-09 -2.375548e-09 -1.868359e-09 -1.731044e-09 -2.202707e-09 -2.409607e-09 -2.271605e-09 -3.098948e-09 -1.892334e-09
-2.138878e-09 -2.429714e-09 -2.561841e-09 -2.520219e-09 -2.968769e-09 -2.718469e-09 -2.497932e-09 -2.561703e-09 -2.668369e-09 -2.667840e-09
-2.638891e-09 -2.431660e-09 -2.684591e-09 -2.723956e-09 -3.190784e-09 -2.956216e-09 -3.142006e-09 -2.977094e-09 -3.254365e-09 -2.901916e-09
-2.951431e-09 -2.942000e-09 -3.577587e-09 -3.332557e-09 -3.191216e-09 -2.955351e-09 -2.492376e-09 -3.741146e-09 -3.318523e-09 -3.026344e-09
-2.939732e-09 -3.027052e-09 -3.349881e-09 -3.848073e-09 -3.568963e-09 -3.930872e-09 -3.613467e-09 -3.961814e-09 -3.315831e-09 -3.410909e-09
-3.148785e-09 -3.800663e-09 -4.005393e-09 -3.978394e-09 -3.537860e-09 -3.443283e-09 -3.506692e-09 -3.476152e-09 -3.200246e-09 -3.764201e-09
-3.680655e-09
-2.839996e-09 -3.128757e-09 -3.491527e-09 -2.683118e-09 -3.904568e-09 -3.120408e-09 -3.068823e-09 -2.926543e-09 -3.169756e-09 -2.855840e-09
-3.017435e-09 -3.592437e-09 -3.232061e-09 -2.926534e-09 -3.248333e-09 -2.888013e-09 -3.214823e-09 -2.717547e-09 -3.477161e-09 -2.638012e-09
-3.009620e-09 -2.989136e-09 -3.209814e-09 -3.251560e-09 -2.775841e-09 -2.770720e-09 -2.774620e-09 -3.256704e-09 -2.882720e-09 -3.290833e-09
-2.740104e-09 -2.652564e-09 -2.562773e-09 -2.793072e-09 -2.639930e-09 -2.558905e-09 -2.578843e-09 -2.474047e-09 -2.713694e-09 -2.504007e-09
-2.730289e-09 -2.366223e-09 -2.326201e-09 -2.533686e-09 -2.883833e-09 -1.978919e-09 -2.555864e-09 -2.271476e-09 -1.841471e-09 -2.116682e-09
-3.183036e-09 -2.011096e-09 -1.921778e-09 -1.775142e-09 -1.611853e-09 -1.553400e-09 -1.725081e-09 -1.557428e-09 -1.800389e-09 -2.258336e-09
-1.653721e-09 -1.480389e-09 -1.976493e-09 -1.353085e-09 -1.654874e-09 -1.517413e-09 -1.363579e-09 -1.491021e-09 -1.704173e-09 -1.175869e-09
-9.093559e-10 -9.782885e-10 -1.377216e-09 -1.130266e-09 -9.110242e-10 -5.541976e-10 -5.966505e-10 -4.952954e-10 -5.084864e-10 -6.517960e-10
-4.856702e-10 -4.416988e-10 -7.970644e-10 -2.804074e-10 -1.443294e-10 -5.929919e-10 9.618702e-11 -3.406421e-10 -4.828231e-10 -3.215109e-10
-8.888013e-11 2.622342e-10 -6.337444e-11 3.759699e-10 1.374839e-10 5.396802e-10 4.926814e-10 5.472564e-10 5.001001e-10 3.981244e-10
7.281799e-10 3.702101e-10 4.491079e-10 1.172354e-09 7.369174e-10 1.300908e-09 6.092853e-10 1.187405e-09 1.082485e-09 6.037621e-10
6.649765e-10 1.255457e-09 1.237101e-09 1.236527e-09 1.379171e-09 1.084454e-09 1.199389e-09 1.192321e-09 1.839025e-09 1.739464e-09
1.983109e-09 1.050386e-09 1.615399e-09 1.936845e-09 1.515741e-09 1.888762e-09 1.708279e-09 2.014769e-09 1.939829e-09 2.502712e-09
2.413289e-09 1.879587e-09 2.295375e-09 3.027108e-09 2.436841e-09 2.011737e-09 2.204048e-09 2.487835e-09 2.753755e-09 2.690522e-09
2.570990e-09 2.360542e-09 2.596742e-09 2.184106e-09 2.767822e-09 2.363092e-09 2.776952e-09 3.092334e-09 2.208943e-09 2.772735e-09
2.832500e-09 2.953714e-09 2.634383e-09 3.079393e-09 3.012426e-09 3.544689e-09 3.176108e-09 3.249970e-09 3.548663e-09 3.305574e-09
3.019409e-09 3.689335e-09 3.341189e-09 3.516147e-09 3.260831e-09 2.949882e-09 3.456923e-09 2.749310e-09 2.955286e-09 3.170633e-09
2.947867e-09 3.027191e-09 2.906672e-09 2.835660e-09 3.241400e-09 3.111484e-09 3.080684e-09 3.119416e-09 3.711140e-09 2.939771e-09
3.236989e-09 3.157288e-09 2.769231e-09 3.396880e-09 2.904449e-09 3.389167e-09 3.736051e-09 3.626013e-09 3.702194e-09 3.396455e-09
3.069026e-09 2.774684e-09 2.978235e-09 2.811545e-09 3.248385e-09 3.252580e-09 3.332297e-09 3.539122e-09 3.707861e-09 2.411922e-09
2.674167e-09 3.390133e-09 2.770117e-09 2.705637e-09 3.325919e-09 2.801102e-09 2.838936e-09 2.183812e-09 3.125109e-09 2.969622e-09
2.862608e-09 3.396619e-09 3.187558e-09 2.644943e-09 2.813178e-09 2.060442e-09 2.452763e-09 2.378767e-09 2.615065e-09 2.529492e-09
2.834796e-09 2.143727e-09 2.714015e-09 2.282366e-09 2.401681e-09 2.466590e-09 2.534788e-09 2.301283e-09 1.865335e-09 2.529974e-09
2.393144e-09 2.455979e-09 1.673137e-09 1.657811e-09 2.062829e-09 1.920100e-09 1.777583e-09 1.538316e-09 1.826730e-09 1.989064e-09
1.566214e-09 1.490482e-09 1.943643e-09 1.477686e-09 1.293243e-09 9.714726e-10 1.591843e-09 4.885043e-10 1.678027e-09 9.007707e-10
9.677973e-10 8.865764e-10 1.152873e-09 3.731226e-10 9.667427e-10 1.110930e-09 6.578833e-10 5.872537e-10 2.797003e-10 5.263730e-10
5.203619e-10 6.772101e-10 4.566751e-10 8.044129e-10 3.023640e-10 1.353647e-10 1.961898e-10 1.775347e-10 -3.835247e-10 -1.632128e-10
3.477343e-10 9.954459e-11 -7.290857e-11 -1.010468e-11 -5.598387e-10 -4.140792e-10 -4.887047e-10 -3.745052e-10 -4.657187e-10 -2.148119e-10
-2.993752e-10 -9.605871e-10 -9.681804e-10 -9.365799e-10 -5.300160e-11 -6.498446e-10 -5.470037e-10 -8.342796e-10 -8.132854e-10 -9.866442e-10
-7.753071e-10 -1.488212e-09 -1.332767e-09 -1.495760e-09 -1.864476e-09 -1.835664e-09 -1.483810e-09 -1.547257e-09 -1.266173e-09 -1.592745e-09
-1.802101e-09 -1.988372e-09 -1.690781e-09 -1.997758e-09 -1.509939e-09 -2.229755e-09 -2.261220e-09 -1.960492e-09 -2.267217e-09 -2.445912e-09
-2.038667e-09 -1.499264e-09 -2.282694e-09 -2.375982e-09 -2.220644e-09 -2.692099e-09 -2.284989e-09 -2.208216e-09 -2.300744e-09 -2.660839e-09
-2.810065e-09 -2.316032e-09 -2.558953e-09 -3.138129e-09 -3.309721e-09 -2.845775e-09 -2.585653e-09 -2.375492e-09 -3.272113e-09 -2.569456e-09
-2.529582e-09 -2.893996e-09 -2.450082e-09 -2.905542e-09 -3.129559e-09 -2.559997e-09 -2.807000e-09 -2.572921e-09 -2.449328e-09 -3.497325e-09
-2.655430e-09 -3.041083e-09 -3.430712e-09 -3.049319e-09 -3.247135e-09 -2.843840e-09 -3.091190e-09 -2.894415e-09 -3.405440e-09 -3.025194e-09
-3.153296e-09 -2.976332e-09 -3.463169e-09 -3.835803e-09 -3.548357e-09 -2.793177e-09 -2.675390e-09 -3.301580e-09 -3.530759e-09 -3.628083e-09
-2.839996e-09
-2.580380e-09 -2.994359e-09 -2.780105e-09 -2.652635e-09 -3.054517e-09 -3.447316e-09 -3.343267e-09 -3.241980e-09 -3.258120e-09 -2.812902e-09
-2.525791e-09 -3.068499e-09 -3.039420e-09 -2.761332e-09 -3.127610e-09 -2.942829e-09 -2.850848e-09 -2.957355e-09 -2.193923e-09 -2.534456e-09
-3.099661e-09 -2.815264e-09 -2.946332e-09 -2.969877e-09 -3.037486e-09 -2.438127e-09 -2.458633e-09 -2.525768e-09 -2.532903e-09 -2.612299e-09
-2.857826e-09 -2.556472e-09 -2.554587e-09 -2.676188e-09 -2.051654e-09 -2.187358e-09 -3.086850e-09 -2.614238e-09 -1.835499e-09 -2.510546e-09
-1.829182e-09 -2.228345e-09 -2.280825e-09 -1.729539e-09 -1.820978e-09 -2.228357e-09 -2.103151e-09 -2.397856e-09 -2.105637e-09 -2.104923e-09
-1.858658e-09 -2.185469e-09 -1.881494e-09 -1.873462e-09 -1.486450e-09 -1.168905e-09 -1.836738e-09 -1.618691e-09 -2.099188e-09 -1.708090e-09
-1.499230e-09 -1.203463e-09 -1.350109e-09 -1.800142e-09 -1.263524e-09 -9.717405e-10 -1.169285e-09 -1.067898e-09 -1.136789e-09 -9.668052e-10
-1.403494e-09 -4.732180e-10 -4.826037e-10 -1.781191e-09 -1.187567e-09 -5.454057e-10 -7.815057e-10 -6.209123e-10 -2.865443e-10 -9.150500e-10
-5.608418e-10 -6.978984e-10 -7.452607e-11 -4.847361e-10 -3.656772e-10 -2.200328e-10 1.272021e-10 2.067497e-10 3.232979e-11 7.458034e-11
-4.238234e-10 8.148247e-11 1.615630e-10 8.447396e-10 2.595423e-10 8.628850e-11 3.831847e-10 -1.137178e-10 6.375756e-10 1.134279e-09
1.025040e-09 6.749466e-10 9.079817e-10 5.027589e-10 7.872664e-10 1.153026e-09 8.788973e-10 1.090632e-09 9.292884e-10 4.013421e-10
1.068997e-09 1.262479e-09 1.006808e-09 1.073685e-09 1.260040e-09 1.128829e-09 1.795732e-09 1.266234e-09 1.268819e-09 1.433966e-09
1.190285e-09 1.518519e-09 1.434982e-09 2.035063e-09 1.797508e-09 1.915319e-09 1.667154e-09 1.832090e-09 1.191773e-09 2.577601e-09
2.245569e-09 2.066513e-09 2.607845e-09 1.815434e-09 2.671806e-09 2.358924e-09 1.805388e-09 1.980184e-09 2.182772e-09 2.392714e-09
2.698649e-09 2.348618e-09 3.009022e-09 2.027017e-09 2.448403e-09 2.330167e-09 2.023472e-09 2.121703e-09 3.101625e-09 2.956335e-09
2.227216e-09 2.228739e-09 2.718059e-09 2.478219e-09 2.658989e-09 2.695923e-09 2.750791e-09 2.613780e-09 2.747184e-09 2.979408e-09
3.050479e-09 2.758118e-09 2.943962e-09 2.569241e-09 2.710755e-09 2.824065e-09 3.305563e-09 3.251839e-09 2.925749e-09 3.469874e-09
2.649639e-09 2.726015e-09 2.597235e-09 2.981080e-09 2.830248e-09 2.227220e-09 2.774939e-09 2.955004e-09 2.494819e-09 2.494399e-09
3.566096e-09 3.342648e-09 3.038196e-09 3.287335e-09 2.807682e-09 2.966873e-09 3.401749e-09 3.022723e-09 2.942074e-09 3.205658e-09
3.505791e-09 3.207970e-09 3.025326e-09 3.024835e-09 2.517362e-09 2.549577e-09 2.670505e-09 2.479931e-09 2.988484e-09 2.286347e-09
2.744184e-09 2.339770e-09 2.790720e-09 2.547317e-09 2.200526e-09 3.060089e-09 2.484422e-09 2.746658e-09 2.696301e-09 3.266805e-09
2.157948e-09 2.505541e-09 2.790267e-09 2.293888e-09 2.242584e-09 2.604652e-09 2.299946e-09 2.513420e-09 2.113868e-09 2.784245e-09
2.166362e-09 2.474463e-09 2.186207e-09 2.179873e-09 1.522318e-09 2.085381e-09 1.850626e-09 1.541463e-09 1.788673e-09 1.996965e-09
1.420080e-09 2.393016e-09 2.089449e-09 1.323636e-09 1.273900e-09 1.734617e-09 1.985956e-09 1.403786e-09 1.743773e-09 1.706299e-09
1.340897e-09 1.085080e-09 1.410373e-09 1.122116e-09 1.084756e-09 9.813602e-10 8.391033e-10 1.123456e-09 7.821714e-10 1.188507e-09
7.289963e-10 9.810955e-10 4.376111e-10 4.536671e-10 9.045452e-10 5.716871e-10 1.068603e-10 7.013181e-10 3.500432e-10 1.959644e-10
3.954922e-10 6.224763e-10 3.837282e-10 6.200896e-10 6.623326e-10 2.074062e-10 1.305981e-10 3.155287e-10 1.973933e-10 -4.960138e-11
-1.402483e-11 -9.974754e-11 -5.099287e-10 -1.292115e-10 -5.322948e-11 -2.059057e-10 -7.637582e-10 -2.597176e-10 -4.228421e-10 -7.938283e-10
-7.697645e-10 -7.438137e-10 -6.682584e-10 -7.338638e-10 -7.247316e-10 -1.133186e-09 3.063080e-11 -1.180584e-09 -7.678547e-10 -1.070813e-09
-9.140719e-10 -1.213651e-09 -7.628804e-10 -9.248598e-10 -1.112378e-09 -1.186429e-09 -1.475812e-09 -1.069893e-09 -1.836036e-09 -1.441770e-09
-1.664349e-09 -1.435863e-09 -1.384191e-09 -1.473897e-09 -1.716733e-09 -1.767158e-09 -1.453966e-09 -1.492951e-09 -1.688015e-09 -1.874851e-09
-1.586684e-09 -1.595723e-09 -2.366131e-09 -2.380977e-09 -1.933300e-09 -1.982659e-09 -1.551743e-09 -1.943671e-09 -1.934501e-09 -2.533973e-09
-2.270031e-09 -2.456564e-09 -2.302359e-09 -2.405274e-09 -1.986449e-09 -2.330832e-09 -1.819264e-09 -2.484654e-09 -2.171291e-09 -2.458654e-09
-2.297150e-09 -2.521625e-09 -2.566703e-09 -2.075857e-09 -2.475209e-09 -2.503310e-09 -2.648890e-09 -2.810103e-09 -2.489600e-09 -3.403123e-09
-2.469096e-09 -2.768127e-09 -2.375433e-09 -2.777734e-09 -2.731227e-09 -2.191123e-09 -2.957269e-09 -3.012955e-09 -2.733264e-09 -3.106195e-09
-2.540164e-09 -2.783686e-09 -3.024993e-09 -2.715891e-09 -2.890379e-09 -2.910578e-09 -2.720730e-09 -2.799469e-09 -3.374926e-09 -2.856155e-09
-2.580380e-09
-2.778425e-09 -2.861628e-09 -2.632473e-09 -2.616575e-09 -2.960405e-09 -2.534818e-09 -2.385756e-09 -2.519584e-09 -2.823738e-09 -2.640491e-09
-2.480345e-09 -3.003277e-09 -2.894834e-09 -2.749359e-09 -3.148491e-09 -2.195081e-09 -3.157302e-09 -2.621690e-09 -2.906254e-09 -1.741642e-09
-2.409601e-09 -2.012935e-09 -2.540359e-09 -2.251510e-09 -1.983008e-09 -3.424734e-09 -2.332421e-09 -2.785284e-09 -2.982140e-09 -1.981395e-09
-2.246214e-09 -2.161949e-09 -2.063589e-09 -1.741950e-09 -2.389204e-09 -1.886244e-09 -2.216263e-09 -2.847130e-09 -2.170731e-09 -1.834326e-09
-2.092780e-09 -2.421914e-09 -2.348980e-09 -1.641794e-09 -1.880522e-09 -1.927480e-09 -2.336123e-09 -1.328559e-09 -1.975578e-09 -1.556953e-09
-1.953726e-09 -1.893621e-09 -1.656743e-09 -1.251018e-09 -1.552499e-09 -1.265654e-09 -1.613931e-09 -1.600701e-09 -1.627236e-09 -1.066045e-09
-1.313243e-09 -1.688515e-09 -1.230581e-09 -7.589385e-10 -8.782277e-10 -2.010469e-09 -1.500716e-09 -1.505823e-09 -1.438647e-09 -8.900340e-10
-1.332478e-09 -7.432384e-10 -5.062016e-10 -6.607039e-10 -8.672572e-10 -6.630890e-10 -4.960168e-10 -6.300895e-10 -1.995545e-10 -8.168310e-10
-3.311587e-10 -6.200536e-10 -2.174949e-10 -3.461707e-10 -4.833556e-10 -5.269984e-11 2.479894e-11 -8.003592e-11 -2.846822e-10 -3.044047e-12
6.279525e-10 1.206737e-10 3.464948e-10 -1.763705e-10 3.299896e-10 -1.096037e-10 2.863484e-10 -3.911539e-11 3.834833e-11 1.304006e-10
7.084539e-10 1.177024e-09 8.693868e-10 8.279118e-12 6.980616e-10 1.087767e-09 1.175320e-09 7.172555e-11 1.232591e-09 7.260288e-10
9.320904e-10 9.453331e-10 1.512443e-09 1.319975e-09 1.308109e-09 8.332422e-10 9.240411e-10 8.204207e-10 9.974165e-10 9.131890e-10
1.220121e-09 1.580928e-09 1.882608e-09 1.399158e-09 1.392839e-09 1.781221e-09 1.561791e-09 1.716123e-09 1.645742e-09 1.717341e-09
1.197008e-09 1.744296e-09 1.485778e-09 2.129946e-09 2.311183e-09 1.487217e-09 2.163463e-09 2.216647e-09 1.995951e-09 2.515063e-09
2.102198e-09 2.386058e-09 1.830728e-09 2.481960e-09 2.119760e-09 1.879858e-09 1.823499e-09 2.317637e-09 2.313828e-09 2.223109e-09
2.387616e-09 1.853820e-09 2.049030e-09 2.232430e-09 1.818585e-09 2.070982e-09 2.648177e-09 2.173373e-09 2.873193e-09 2.874227e-09
2.041208e-09 2.765908e-09 2.447567e-09 2.890932e-09 1.950906e-09 2.475352e-09 2.270991e-09 2.538577e-09 2.454877e-09 2.541977e-09
3.233537e-09 2.302429e-09 3.191399e-09 2.865532e-09 2.326219e-09 2.500290e-09 2.285235e-09 2.441289e-09 2.361532e-09 2.304737e-09
2.565152e-09 2.146239e-09 2.404198e-09 2.787099e-09 2.214603e-09 2.075997e-09 2.286661e-09 2.746991e-09 2.443101e-09 2.953592e-09
2.069669e-09 2.129680e-09 2.917284e-09 2.001086e-09 2.366279e-09 2.884656e-09 2.777154e-09 1.908974e-09 2.268017e-09 2.546403e-09
2.850555e-09 2.884984e-09 2.444444e-09 2.926761e-09 2.686607e-09 2.441065e-09 2.389650e-09 2.859850e-09 2.234323e-09 2.627901e-09
2.749142e-09 2.469328e-09 2.331513e-09 1.999019e-09 2.136083e-09 2.275984e-09 2.057002e-09 1.936520e-09 1.770725e-09 1.876253e-09
2.273439e-09 2.194314e-09 1.988083e-09 1.346855e-09 1.360780e-09 1.455481e-09 1.514360e-09 2.186222e-09 1.408813e-09 1.360236e-09
1.753463e-09 1.718008e-09 1.022781e-09 1.858389e-09 2.011767e-09 1.375675e-09 1.800975e-09 1.240303e-09 8.260868e-10 1.383357e-09
1.795516e-09 1.347185e-09 1.323616e-09 1.519654e-09 5.337310e-10 1.221416e-09 6.115139e-10 1.365270e-09 1.045112e-09 1.249624e-09
1.014649e-09 7.051731e-10 8.038587e-10 6.548180e-10 3.558947e-10 8.661924e-10 7.521750e-10 6.941931e-10 2.062137e-10 4.666407e-10
3.761516e-10 8.999505e-10 6.005093e-10 4.476368e-10 3.590732e-10 -5.787059e-10 6.012158e-10 4.110324e-10 2.211378e-10 -1.076536e-10
-5.903082e-10 1.655224e-10 1.025286e-10 9.481633e-11 -5.397920e-10 -6.728509e-10 -5.614020e-10 -4.550697e-10 -9.313081e-10 -7.578121e-11
-7.607352e-10 -8.784254e-10 -3.444412e-10 -4.552995e-10 -1.336755e-09 -8.891390e-10 -6.191300e-10 -5.347262e-10 -7.821286e-10 -7.631770e-10
-1.112134e-09 -8.271976e-10 -5.695533e-10 -1.013279e-09 -1.056032e-09 -1.524066e-09 -1.271880e-09 -1.320193e-09 -1.107071e-09 -1.511800e-09
-1.507672e-09 -1.761551e-09 -1.528970e-09 -1.373764e-09 -1.469084e-09 -1.276746e-09 -1.244562e-09 -1.391025e-09 -1.181411e-09 -1.731560e-09
-1.422945e-09 -2.217978e-09 -1.946698e-09 -1.895897e-09 -1.620690e-09 -2.340130e-09 -1.387123e-09 -2.490419e-09 -1.730743e-09 -2.083334e-09
-1.695991e-09 -2.744363e-09 -2.820556e-09 -2.183894e-09 -2.191238e-09 -2.348081e-09 -2.618216e-09 -2.084996e-09 -2.132134e-09 -2.757432e-09
-2.178085e-09 -2.052675e-09 -2.078845e-09 -2.314284e-09 -2.120880e-09 -2.501707e-09 -2.574856e-09 -2.222223e-09 -2.364310e-09 -3.041752e-09
-2.728180e-09 -2.586927e-09 -2.703053e-09 -2.435292e-09 -2.793482e-09 -2.094520e-09 -3.337952e-09 -2.612812e-09 -3.022905e-09 -2.603149e-09
-2.342661e-09 -3.193421e-09 -2.479957e-09 -2.108216e-09 -2.654599e-09 -2.584938e-09 -2.371353e-09 -2.116719e-09 -2.529091e-09 -2.868970e-09
-2.778425e-09
-1.713150e-09 -2.582005e-09 -2.538688e-09 -1.900773e-09 -2.317089e-09 -2.321350e-09 -2.536843e-09 -2.383508e-09 -2.383741e-09 -2.495526e-09
-2.547080e-09 -2.255965e-09 -2.410776e-09 -2.215514e-09 -1.710593e-09 -2.407908e-09 -1.957781e-09 -2.047400e-09 -2.478971e-09 -2.862462e-09
-2.059243e-09 -2.345542e-09 -2.783006e-09 -2.130699e-09 -2.120128e-09 -1.955219e-09 -2.790845e-09 -2.047275e-09 -2.243299e-09 -2.576580e-09
-2.091345e-09 -2.122820e-09 -1.442645e-09 -2.503660e-09 -1.611866e-09 -2.448194e-09 -1.829131e-09 -1.797338e-09 -1.532127e-09 -1.933005e-09
-1.681731e-09 -1.985583e-09 -1.611662e-09 -1.742078e-09 -2.418860e-09 -2.133112e-09 -1.378557e-09 -1.684022e-09 -1.842082e-09 -1.796912e-09
-1.719668e-09 -1.830623e-09 -1.400062e-09 -1.537373e-09 -1.700853e-09 -1.290299e-09 -1.444077e-09 -1.431317e-09 -1.615082e-09 -7.233621e-10
-1.106574e-09 -9.757619e-10 -1.097572e-09 -1.034825e-09 -8.217437e-10 -1.233793e-09 -7.436650e-10 -9.946518e-10 -8.953170e-10 -1.326640e-09
-6.558868e-10 -6.698239e-10 -7.817021e-10 -3.676600e-10 -9.020933e-10 -6.863106e-10 -8.748575e-10 -9.055083e-10 -6.338083e-10 -5.220898e-10
-4.829736e-10 -8.487833e-10 -6.475120e-10 1.062461e-11 -2.578490e-10 -5.235583e-10 -1.245051e-10 -4.556270e-10 3.682258e-11 -1.588934e-10
1.095830e-10 -6.320932e-11 2.333380e-10 1.746195e-10 2.695695e-10 1.938777e-10 -2.129779e-10 5.499333e-10 4.810101e-10 1.031637e-09
4.787574e-11 3.633717e-10 2.823966e-10 3.808860e-10 7.307699e-10 6.262517e-10 3.520041e-10 8.886068e-10 8.234011e-10 8.769732e-10
1.467429e-09 8.188565e-10 1.144398e-09 1.194779e-09 1.205270e-09 1.218634e-09 1.025610e-09 1.099717e-09 7.080183e-10 1.241698e-09
7.548592e-10 1.664657e-09 1.569673e-09 1.439889e-09 1.614065e-09 1.223029e-09 1.092910e-09 1.643215e-09 1.551184e-09 1.225247e-09
1.214454e-09 1.813397e-09 1.670846e-09 1.472231e-09 1.646106e-09 2.234483e-09 2.215757e-09 2.073782e-09 2.137741e-09 1.554837e-09
2.077119e-09 1.742152e-09 1.870237e-09 2.036619e-09 2.125943e-09 1.680812e-09 2.284153e-09 1.941150e-09 2.194510e-09 2.564889e-09
1.859828e-09 2.373056e-09 1.989981e-09 2.107891e-09 2.211036e-09 1.916781e-09 1.658052e-09 2.132422e-09 2.225481e-09 2.047984e-09
2.378385e-09 1.736580e-09 2.469350e-09 2.059276e-09 1.825936e-09 2.370388e-09 2.279213e-09 2.114534e-09 2.803817e-09 1.747154e-09
1.987625e-09 2.062155e-09 2.610774e-09 2.912655e-09 1.619707e-09 3.027646e-09 2.010055e-09 2.275091e-09 2.252470e-09 2.559824e-09
2.173838e-09 2.519808e-09 2.530257e-09 2.427917e-09 2.060958e-09 2.498348e-09 2.722055e-09 2.231576e-09 2.739472e-09 2.503170e-09
2.388623e-09 2.480013e-09 2.670869e-09 2.558027e-09 2.489167e-09 2.101014e-09 2.266885e-09 2.133326e-09 2.917421e-09 2.253715e-09
2.472411e-09 1.471589e-09 2.711782e-09 2.335858e-09 2.313922e-09 1.765987e-09 1.825074e-09 2.736768e-09 2.161892e-09 2.304837e-09
2.701865e-09 2.146929e-09 2.131634e-09 2.169731e-09 2.011373e-09 2.462371e-09 1.779160e-09 1.698747e-09 2.380192e-09 1.225231e-09
1.715986e-09 1.980839e-09 2.310610e-09 1.732728e-09 1.607858e-09 2.303102e-09 1.303065e-09 1.920028e-09 1.412862e-09 2.017394e-09
1.383333e-09 1.170273e-09 1.912336e-09 1.354890e-09 1.277904e-09 1.190330e-09 8.941348e-10 8.816716e-10 1.149233e-09 8.684868e-10
7.111408e-10 1.041494e-09 1.196077e-09 1.707194e-09 7.187653e-10 1.181602e-09 8.487724e-10 8.788303e-10 1.336249e-09 3.171644e-10
8.794960e-10 8.125806e-10 6.890720e-10 7.240522e-10 3.428177e-10 6.339516e-10 3.058957e-10 4.186843e-10 6.166175e-10 5.507997e-10
3.580145e-10 2.006822e-10 6.968362e-10 5.312570e-10 -2.582129e-11 6.009636e-10 -6.141202e-11 2.462050e-10 -2.878474e-10 -2.111018e-10
-1.294267e-11 7.175861e-11 -1.318080e-10 -1.119367e-10 -5.785408e-10 -3.218543e-10 7.879353e-11 -7.028174e-10 -4.033927e-10 -5.380434e-10
-6.584058e-10 -5.367746e-10 -7.345766e-10 -9.987305e-10 -6.508154e-10 -1.061900e-09 -9.549251e-10 -7.835668e-10 -7.252954e-10 -1.104755e-09
-8.270815e-10 -5.788865e-10 -5.648714e-10 -1.417141e-09 -1.351451e-09 -1.335690e-09 -7.068306e-10 -1.134164e-09 -1.465415e-09 -1.261475e-09
-1.255167e-09 -1.247159e-09 -1.325344e-09 -1.500456e-09 -1.608852e-09 -1.720013e-09 -1.630985e-09 -1.783400e-09 -1.420460e-09 -1.264700e-09
-1.511989e-09 -1.338705e-09 -1.961700e-09 -2.021035e-09 -9.254338e-10 -1.707600e-09 -2.343835e-09 -1.326988e-09 -1.908028e-09 -1.933856e-09
-1.834617e-09 -1.715825e-09 -1.698916e-09 -1.606373e-09 -2.115103e-09 -1.701704e-09 -1.478662e-09 -2.235017e-09 -2.244858e-09 -2.567679e-09
-2.235925e-09 -2.305960e-09 -2.270637e-09 -2.748769e-09 -2.171175e-09 -2.421100e-09 -2.219120e-09 -2.183980e-09 -1.445412e-09 -2.283475e-09
-1.590723e-09 -2.207953e-09 -2.541145e-09 -2.133815e-09 -1.981586e-09 -2.408449e-09 -2.440202e-09 -2.383000e-09 -2.388821e-09 -2.079295e-09
-2.391112e-09 -2.747338e-09 -2.557715e-09 -2.240230e-09 -2.310716e-09 -2.730472e-09 -2.878210e-09 -3.107273e-09 -1.847839e-09 -2.630881e-09
-1.713150e-09
-1.900972e-09 -2.835395e-09 -2.001075e-09 -2.345992e-09 -1.883774e-09 -2.784075e-09 -2.258687e-09 -1.930229e-09 -2.123798e-09 -2.288712e-09
-2.370948e-09 -2.346898e-09 -1.473745e-09 -1.988979e-09 -1.986056e-09 -1.814824e-09 -2.026915e-09 -1.626392e-09 -1.763156e-09 -2.287981e-09
-1.679439e-09 -1.925989e-09 -2.098325e-09 -2.095147e-09 -1.816525e-09 -1.728804e-09 -1.478918e-09 -1.341873e-09 -2.291563e-09 -2.356795e-09
-2.547736e-09 -1.317115e-09 -1.508679e-09 -1.340920e-09 -2.831636e-09 -1.542702e-09 -1.808843e-09 -1.861661e-09 -1.236847e-09 -2.119319e-09
-1.724747e-09 -1.926036e-09 -1.802579e-09 -2.048873e-09 -1.286730e-09 -1.981776e-09 -1.647094e-09 -2.113121e-09 -1.287383e-09 -1.202502e-09
-1.682421e-09 -1.021339e-09 -1.240227e-09 -8.799856e-10 -1.716798e-09 -9.473958e-10 -1.639620e-09 -1.023947e-09 -1.396551e-09 -9.587425e-10
-1.051934e-09 -5.835265e-10 -8.107278e-10 -1.107053e-09 -5.875452e-10 -7.291935e-10 -1.208075e-09 -8.698366e-10 -8.340162e-10 -1.182292e-09
-4.652650e-10 -7.874867e-10 -6.972957e-10 -2.025392e-10 -7.800411e-10 -1.490880e-09 -4.769042e-10 -3.669064e-11 -4.134561e-10 -8.119453e-10
-2.430383e-10 -2.677998e-10 9.978279e-11 -6.650117e-10 1.822849e-10 -2.777531e-10 -1.879861e-10 -8.118615e-11 -2.038568e-10 -2.357099e-10
1.029810e-10 1.982623e-10 1.211624e-10 3.181623e-10 -1.225931e-10 -5.252196e-11 1.955717e-10 2.300019e-10 -1.882383e-10 2.345809e-10
4.575732e-10 6.477932e-10 2.741397e-10 3.931842e-10 6.411329e-10 5.133290e-10 6.832768e-10 6.607211e-10 8.300704e-10 6.414411e-10
1.117758e-09 7.544212e-10 9.902276e-10 6.799015e-10 9.665464e-10 5.071681e-10 9.899480e-10 8.407260e-10 9.709457e-10 1.007105e-09
1.262471e-09 1.502631e-09 1.416799e-09 1.480844e-09 7.999467e-10 1.088130e-09 1.056963e-09 1.923245e-09 1.648539e-09 1.390281e-09
2.030680e-09 1.271982e-09 1.407151e-09 9.901650e-10 1.209535e-09 1.156070e-09 1.321552e-09 1.067581e-09 1.316449e-09 1.022487e-09
1.548803e-09 2.083768e-09 1.894890e-09 1.828948e-09 1.586440e-09 1.674153e-09 1.865414e-09 1.788631e-09 1.725028e-09 1.933394e-09
2.009543e-09 1.515201e-09 2.239934e-09 1.703380e-09 1.347684e-09 1.563642e-09 2.175659e-09 2.101668e-09 1.826192e-09 2.470092e-09
1.989963e-09 2.175942e-09 1.766987e-09 1.688438e-09 2.285400e-09 1.822630e-09 1.697051e-09 2.164905e-09 1.681613e-09 1.851596e-09
2.722622e-09 2.087227e-09 2.247254e-09 1.975706e-09 2.166454e-09 1.901549e-09 2.323366e-09 2.018425e-09 1.897180e-09 1.798285e-09
1.573001e-09 1.619941e-09 2.080132e-09 1.709062e-09 1.653092e-09 1.764166e-09 2.100998e-09 2.054435e-09 2.102736e-09 2.139595e-09
1.727456e-09 2.098864e-09 2.063006e-09 1.396417e-09 1.799535e-09 1.566270e-09 2.162176e-09 2.068856e-09 1.965812e-09 1.671855e-09
1.553020e-09 1.957487e-09 2.451639e-09 2.020180e-09 2.754953e-09 1.753586e-09 1.997299e-09 1.780022e-09 1.642323e-09 1.427922e-09
1.628326e-09 1.589528e-09 2.024708e-09 1.689330e-09 1.960201e-09 1.621040e-09 1.572823e-09 1.442444e-09 9.118390e-10 9.533629e-10
1.775267e-09 1.558162e-09 1.591980e-09 1.502432e-09 1.526835e-09 1.310605e-09 1.221892e-09 9.893962e-10 1.319774e-09 1.116014e-09
9.165892e-10 1.510429e-09 9.808550e-10 9.648738e-10 1.399032e-09 1.064792e-09 9.557458e-10 9.674409e-10 7.227756e-10 1.056035e-09
1.058717e-09 5.357169e-10 1.234035e-09 9.229642e-10 1.000576e-09 5.807022e-10 1.032078e-09 1.133990e-09 5.746342e-10 4.424597e-10
2.039647e-10 6.297922e-10 2.293634e-10 3.950557e-10 8.151073e-10 1.665847e-10 2.562409e-10 1.907604e-10 3.454818e-10 2.403924e-10
2.987546e-10 3.772399e-10 3.017501e-10 2.873451e-10 1.686030e-10 2.316000e-10 2.398332e-11 2.350616e-10 3.730719e-10 1.897262e-10
-1.324999e-10 -3.432127e-10 2.559651e-10 -5.384587e-10 -1.353272e-10 -6.797223e-11 -8.581361e-11 -3.691050e-10 -2.046620e-10 -5.012474e-10
-4.105595e-10 -2.252961e-10 -5.879767e-10 -1.843986e-10 -4.323950e-10 -6.371596e-10 -1.084272e-09 -7.186410e-10 -6.729801e-10 -6.833090e-10
-1.229977e-09 -8.484918e-10 -1.613231e-09 -6.207436e-10 -6.454964e-10 -1.533261e-09 -1.054221e-09 -6.287631e-10 -1.095806e-09 -9.953213e-10
-1.101422e-09 -1.442124e-09 -1.314530e-09 -9.907195e-10 -1.442282e-09 -1.345412e-09 -1.232337e-09 -1.426166e-09 -9.222967e-10 -1.384258e-09
-1.348914e-09 -1.089285e-09 -1.687825e-09 -1.591484e-09 -1.288337e-09 -1.813665e-09 -1.198139e-09 -1.325852e-09 -1.633038e-09 -1.871681e-09
-1.333138e-09 -1.868068e-09 -1.705682e-09 -1.900720e-09 -2.093601e-09 -1.688680e-09 -1.880905e-09 -1.662174e-09 -1.858987e-09 -1.844149e-09
-2.281681e-09 -2.058545e-09 -1.293954e-09 -1.812219e-09 -1.689208e-09 -1.695526e-09 -1.690999e-09 -2.180670e-09 -2.067828e-09 -2.067586e-09
-1.717353e-09 -1.926346e-09 -2.114620e-09 -2.634846e-09 -2.337490e-09 -1.696955e-09 -2.245942e-09 -2.049658e-09 -2.033674e-09 -1.806108e-09
-2.172663e-09 -1.792011e-09 -2.322082e-09 -1.597012e-09 -2.296598e-09 -2.148377e-09 -1.443106e-09 -1.538994e-09 -1.886588e-09 -2.709292e-09
-1.900972e-09
-2.056247e-09 -1.696571e-09 -1.764221e-09 -1.993536e-09 -1.632798e-09 -1.993670e-09 -1.555102e-09 -1.091235e-09 -1.473844e-09 -1.796716e-09
-1.845457e-09 -1.521078e-09 -1.772531e-09 -2.556944e-09 -1.786441e-09 -1.438209e-09 -1.965228e-09 -2.369760e-09 -1.301872e-09 -2.059469e-09
-2.378156e-09 -1.994192e-09 -1.627992e-09 -1.565769e-09 -1.499738e-09 -1.383290e-09 -8.605878e-10 -1.620498e-09 -2.167994e-09 -1.001557e-09
-1.529050e-09 -1.593373e-09 -1.349241e-09 -1.327466e-09 -1.182899e-09 -1.561683e-09 -1.175665e-09 -1.255515e-09 -8.049394e-10 -1.319452e-09
-1.257302e-09 -1.113951e-09 -1.144720e-09 -1.281260e-09 -1.979199e-09 -7.521952e-10 -1.059332e-09 -7.691927e-10 -1.204831e-09 -1.156067e-09
-1.086061e-09 -1.252579e-09 -1.475494e-09 -8.466245e-10 -1.350311e-09 -1.057270e-09 -3.715526e-10 -1.005281e-09 -4.885777e-10 -1.248976e-09
-7.948868e-10 -6.278740e-10 -1.132910e-09 -1.047592e-09 -3.814223e-10 -1.059940e-09 -1.145742e-09 -1.042763e-09 -4.058572e-10 -3.341741e-10
-2.168429e-10 -7.441482e-10 -7.531608e-10 -4.592665e-10 -6.671629e-10 -8.352747e-11 -1.595249e-10 -3.116995e-10 -3.273745e-10 -5.014460e-10
8.547938e-11 -4.704483e-10 -1.780849e-10 -1.628628e-10 -4.476217e-10 2.585536e-10 2.959822e-10 4.214316e-10 4.010833e-10 -3.280238e-11
-3.538823e-10 2.936640e-10 3.137999e-10 4.082086e-11 -1.247121e-10 3.710810e-10 3.775239e-10 2.726828e-10 9.069193e-11 -1.543799e-10
-1.872408e-10 5.990942e-10 9.902357e-10 4.424209e-10 2.736489e-10 3.347893e-10 4.486646e-10 2.968348e-10 6.707938e-10 6.603337e-10
7.239055e-10 1.284286e-09 8.244201e-10 3.419493e-10 1.103473e-09 8.103513e-10 6.856173e-10 6.310863e-10 9.322138e-10 1.642941e-09
8.787358e-10 7.545686e-10 1.185743e-09 9.914219e-10 1.057790e-09 9.320668e-10 9.385178e-10 1.505431e-09 1.217964e-09 1.599751e-09
1.119883e-09 8.026408e-10 1.565354e-09 1.365210e-09 1.314350e-09 2.209464e-09 1.301664e-09 1.673233e-09 1.401410e-09 1.490862e-09
1.063366e-09 1.789826e-09 1.390002e-09 1.401739e-09 1.232897e-09 1.593480e-09 1.799832e-09 9.938381e-10 1.396218e-09 1.324675e-09
1.018704e-09 1.530838e-09 1.286960e-09 1.250250e-09 1.986151e-09 1.639533e-09 1.714378e-09 1.994504e-09 1.842187e-09 2.481691e-09
1.977741e-09 1.883938e-09 1.926326e-09 1.992680e-09 2.193915e-09 1.287426e-09 1.781827e-09 1.570977e-09 1.835848e-09 1.140136e-09
2.304025e-09 1.319009e-09 1.961572e-09 1.394036e-09 2.007655e-09 1.322241e-09 1.457676e-09 1.767024e-09 2.116412e-09 1.671332e-09
1.511506e-09 1.857854e-09 2.166399e-09 1.571998e-09 1.707331e-09 2.172098e-09 1.371967e-09 1.619555e-09 2.090616e-09 1.403786e-09
2.098918e-09 1.737654e-09 2.006038e-09 1.937643e-09 2.163361e-09 1.726135e-09 1.218408e-09 1.964768e-09 1.857998e-09 1.827840e-09
1.862894e-09 1.993396e-09 1.725120e-09 1.956495e-09 1.793479e-09 1.466253e-09 1.788551e-09 1.654894e-09 1.568420e-09 1.355623e-09
2.146737e-09 1.262049e-09 1.355741e-09 1.519326e-09 1.625248e-09 1.176799e-09 1.145224e-09 1.782455e-09 1.425187e-09 1.236598e-09
1.415808e-09 1.442338e-09 1.734645e-09 1.351558e-09 1.388581e-09 1.783333e-09 1.797849e-09 8.154542e-10 9.286152e-10 1.114599e-09
8.595635e-10 1.022682e-09 7.741098e-10 1.074813e-09 7.600873e-10 1.090102e-09 1.365026e-09 9.310491e-10 8.039895e-10 9.785118e-10
6.443115e-10 7.707603e-10 7.568604e-10 5.874454e-10 7.271701e-10 2.801394e-10 1.019337e-09 9.546848e-10 4.390723e-10 6.434022e-10
4.533517e-10 1.379846e-10 2.479310e-10 8.229803e-10 5.639642e-10 6.284539e-10 1.246877e-10 1.915775e-10 6.926479e-10 5.670435e-10
4.436015e-10 -8.266849e-11 2.014638e-10 1.106659e-10 1.882009e-10 -1.002021e-10 -3.225419e-10 4.764594e-10 3.810857e-10 -3.692428e-11
-2.509641e-10 -2.704433e-10 -6.444414e-10 -4.925925e-10 -1.998745e-10 -3.639858e-10 1.368743e-10 -3.450998e-10 -1.755813e-10 -2.348467e-10
-3.270285e-10 -7.435429e-10 -8.299792e-10 -2.832105e-10 -2.026671e-10 -1.106142e-09 -7.553297e-10 -4.280806e-10 -6.915309e-10 -6.616808e-11
-4.558388e-10 -6.138597e-10 -1.742108e-10 -7.956400e-10 -6.443610e-10 -1.135793e-09 -9.105177e-10 -8.375644e-10 -1.265204e-10 -6.567919e-10
-1.081312e-09 -1.163034e-09 -8.669973e-10 -8.204024e-10 -1.381030e-09 -1.410677e-09 -1.025724e-09 -8.976372e-10 -1.079483e-09 -1.827046e-09
-1.499320e-09 -1.005970e-09 -1.164606e-09 -1.518223e-09 -1.342150e-09 -1.047820e-09 -8.838281e-10 -1.835538e-09 -1.287786e-09 -1.858582e-09
-1.205604e-09 -1.486942e-09 -1.103623e-09 -7.902021e-10 -1.589377e-09 -1.217560e-09 -1.608174e-09 -1.424446e-09 -1.155296e-09 -1.704572e-09
-1.627224e-09 -9.723524e-10 -1.563533e-09 -2.060104e-09 -1.853187e-09 -1.584277e-09 -1.653402e-09 -2.348016e-09 -2.174280e-09 -1.609964e-09
-1.955912e-09 -1.552700e-09 -1.511640e-09 -1.457074e-09 -1.553742e-09 -1.882484e-09 -1.465970e-09 -1.940693e-09 -1.554858e-09 -1.693080e-09
-1.296259e-09 -2.330449e-09 -1.639887e-09 -1.953353e-09 -1.748462e-09 -1.500468e-09 -1.664569e-09 -1.693139e-09 -2.551888e-09 -2.090432e-09
-2.056247e-09
-1.532709e-09 -1.901410e-09 -1.404464e-09 -1.742075e-09 -1.557038e-09 -1.630338e-09 -1.167157e-09 -1.312699e-09 -1.587675e-09 -1.700795e-09
-1.206901e-09 -1.818503e-09 -1.132472e-09 -1.315095e-09 -1.734680e-09 -1.447687e-09 -1.087897e-09 -1.339973e-09 -1.927356e-09 -1.581906e-09
-2.149593e-09 -1.073535e-09 -9.223727e-10 -1.695123e-09 -2.226296e-09 -1.248639e-09 -1.205043e-09 -1.624828e-09 -1.434602e-09 -1.720703e-09
-1.177258e-09 -1.372434e-09 -1.495860e-09 -9.015246e-10 -1.219956e-09 -1.031399e-09 -1.629775e-09 -5.636456e-10 -1.270003e-09 -1.524795e-09
-1.609714e-09 -1.305003e-09 -9.777871e-10 -1.216866e-09 -7.681200e-10 -9.290118e-10 -1.585229e-09 -1.209052e-09 -7.782711e-10 -1.064771e-09
-1.242075e-09 -4.515273e-10 -5.875072e-10 -1.088029e-09 -4.825284e-10 -5.832944e-10 -5.751554e-10 -8.147560e-10 -9.157895e-10 -3.489105e-10
-5.338115e-10 -1.104869e-09 -5.249747e-10 -7.478183e-10 -8.707121e-10 -5.856117e-10 -7.167307e-10 -8.225362e-10 -7.602329e-10 -7.941962e-10
-9.657851e-10 -5.920422e-10 1.700087e-10 -5.709163e-10 -6.019727e-10 -4.286922e-10 -1.220575e-10 -1.801670e-10 -2.353695e-10 -3.999407e-10
-2.020967e-12 -6.611273e-10 4.790208e-10 3.640087e-10 -9.219440e-10 -2.394598e-10 3.328643e-10 -6.176189e-11 -2.553450e-10 -2.374103e-10
9.201469e-11 1.281930e-10 6.086839e-10 3.851218e-10 6.995433e-10 2.121550e-10 -1.561347e-10 2.202500e-10 2.199683e-10 3.046025e-10
3.899287e-10 6.104215e-10 9.167589e-10 -2.015000e-10 4.900293e-10 7.592151e-10 8.722669e-10 7.067670e-10 3.132668e-10 1.727286e-10
1.059821e-09 5.352572e-10 1.364124e-09 7.086358e-10 6.527437e-10 5.405267e-10 8.112426e-10 1.232053e-09 1.019773e-09 7.890248e-10
1.601349e-09 7.088705e-10 8.014091e-10 1.225725e-09 5.495690e-10 1.322216e-09 1.451548e-09 9.371205e-10 1.303692e-09 7.895951e-10
1.018471e-09 1.410873e-09 1.051612e-09 9.216487e-10 1.272074e-09 1.276549e-09 7.001014e-10 4.215664e-10 1.072797e-09 8.827607e-10
9.326896e-10 1.153355e-09 1.219327e-09 1.271943e-09 1.161157e-09 1.108702e-09 1.447346e-09 6.220605e-10 1.415014e-09 9.888409e-10
1.354306e-09 1.508372e-09 1.796439e-09 4.708712e-10 9.031200e-10 1.648598e-09 1.098220e-09 1.174982e-09 1.093747e-09 1.437074e-09
1.805316e-09 1.322480e-09 1.299135e-09 1.076088e-09 7.944208e-10 1.572520e-09 1.015943e-09 1.949902e-09 1.485887e-09 1.932420e-09
1.425152e-09 1.383220e-09 1.640763e-09 1.164352e-09 2.192439e-09 1.906012e-09 1.757604e-09 1.735570e-09 1.309974e-09 1.814444e-09
1.620860e-09 1.441847e-09 1.346971e-09 1.374882e-09 1.433673e-09 1.022184e-09 1.543723e-09 1.321639e-09 1.402312e-09 1.566500e-09
1.218916e-09 1.146768e-09 2.285389e-09 1.511056e-09 1.643024e-09 1.134652e-09 1.553267e-09 1.381275e-09 1.379367e-09 1.361804e-09
1.571843e-09 1.764299e-09 1.476558e-09 1.793236e-09 1.440844e-09 1.311687e-09 1.097178e-09 1.175627e-09 1.723960e-09 1.323511e-09
1.101424e-09 1.016221e-09 1.642870e-09 1.114356e-09 9.894875e-10 1.391256e-09 1.351836e-09 1.283643e-09 9.295185e-10 2.061137e-09
1.581967e-09 9.512909e-10 1.210320e-09 1.349725e-09 8.639631e-10 1.464445e-09 2.217483e-10 1.182149e-09 1.178799e-09 9.546910e-10
1.649345e-09 1.078800e-09 1.251328e-09 7.204903e-10 1.092869e-09 9.123663e-10 1.055978e-09 9.325839e-10 1.054847e-09 8.187568e-10
7.926715e-10 7.286653e-10 5.545227e-10 5.176974e-10 7.396699e-10 7.773096e-10 6.403155e-10 1.248680e-09 9.998326e-10 3.819355e-10
2.849506e-10 1.090876e-09 1.093853e-10 8.615322e-10 2.043981e-10 4.549719e-10 1.161731e-10 1.816909e-10 1.065712e-10 2.536445e-10
4.371430e-10 9.434813e-11 4.607491e-10 5.846627e-10 1.684742e-10 -2.150927e-10 1.804086e-10 1.704685e-10 -2.816426e-10 -3.048767e-10
-2.078801e-10 1.817556e-10 -1.651999e-10 -5.814749e-10 -6.562559e-10 -4.261806e-10 4.510026e-10 2.339722e-10 -2.824361e-10 -6.780176e-10
8.183201e-11 -2.840070e-10 -7.161940e-10 3.936375e-10 -2.824933e-10 -5.405265e-10 -6.288450e-11 -9.600855e-10 -6.498193e-10 -8.072753e-10
-1.877858e-11 -1.509080e-10 -4.198484e-10 -5.744035e-10 -8.219207e-10 -4.406383e-10 -5.231196e-10 -6.911351e-10 -6.685053e-10 -1.362713e-09
-9.486573e-10 -1.170333e-09 -7.808980e-10 -7.157115e-10 -1.453707e-09 -1.021329e-09 -7.614587e-10 -1.645874e-09 -9.584816e-10 -1.029880e-09
-9.497669e-10 -1.170808e-09 -7.999661e-10 -7.559812e-10 -1.088303e-09 -8.361680e-10 -9.832912e-10 -8.697851e-10 -1.107618e-09 -7.267320e-10
-8.400196e-10 -1.207648e-09 -1.148266e-09 -1.460883e-09 -1.235286e-09 -8.525955e-10 -1.299147e-09 -1.279640e-09 -1.423832e-09 -7.907428e-10
-1.631694e-09 -1.651374e-09 -1.592885e-09 -1.188884e-09 -1.574576e-09 -1.152007e-09 -1.109429e-09 -1.430656e-09 -1.531597e-09 -1.462997e-09
-1.292550e-09 -1.662693e-09 -1.439395e-09 -1.524447e-09 -1.561362e-09 -1.441472e-09 -1.549617e-09 -9.174058e-10 -1.728136e-09 -1.727170e-09
-1.107734e-09 -2.040607e-09 -1.974173e-09 -1.857520e-09 -1.509762e-09 -1.489096e-09 -2.029376e-09 -1.776627e-09 -1.764718e-09 -1.806158e-09
-1.532709e-09
-8.422624e-10 -1.084856e-09 -1.148025e-09 -1.395532e-09 -1.600836e-09 -1.403405e-09 -1.700228e-09 -1.237266e-09 -8.948530e-10 -5.885041e-10
-5.072721e-10 -1.347471e-09 -8.219012e-10 -1.070326e-09 -9.769107e-10 -1.148293e-09 -1.265345e-09 -9.624596e-10 -1.103872e-09 -1.050636e-09
-1.441070e-09 -9.910573e-10 -8.469821e-10 -1.224356e-09 -1.246209e-09 -1.513777e-09 -1.315751e-09 -1.048758e-09 -6.038534e-10 -1.599035e-09
-1.322823e-09 -4.327646e-10 -8.221057e-10 -1.158963e-09 -6.001644e-10 -7.799808e-10 -1.090320e-09 -9.450840e-10 -4.636584e-10 -1.133749e-09
-1.199163e-09 -9.555384e-10 -1.483415e-09 -1.200627e-09 -1.190409e-09 -1.051265e-09 -1.158589e-09 -6.522394e-10 -1.195240e-09 -1.198114e-09
-5.454056e-10 -6.526399e-10 -7.607894e-10 -7.688468e-10 -8.138448e-10 -1.001541e-09 -6.039351e-10 -5.798667e-10 -3.517495e-10 -8.968490e-10
-7.606764e-10 -6.972833e-10 -5.945396e-11 -6.674328e-10 -5.675865e-10 -1.551373e-10 -7.203416e-10 -1.823497e-10 -8.893688e-10 -3.679927e-10
-5.613336e-10 -5.796397e-10 -5.499661e-10 -9.234243e-12 -4.654221e-10 -2.449241e-10 4.071354e-11 4.985823e-11 -1.481055e-10 -2.182765e-11
-2.509916e-10 3.871044e-10 -2.662206e-10 -2.851434e-10 5.544230e-11 2.097012e-10 -1.611044e-10 3.728012e-10 -1.219089e-10 -2.998654e-10
-2.442124e-10 2.345969e-10 6.250658e-10 -6.346066e-11 1.367405e-10 5.635363e-10 6.335634e-10 9.633269e-10 3.248072e-10 3.646011e-10
6.927371e-10 9.795361e-11 2.472565e-10 5.412003e-11 1.736110e-10 8.951082e-11 4.450464e-10 7.103712e-10 3.225763e-10 6.366256e-10
2.314565e-10 4.883126e-10 4.070710e-10 -1.491599e-11 9.301375e-10 5.387015e-10 6.238094e-10 7.193703e-10 4.184325e-10 1.098103e-09
9.520261e-10 6.765135e-10 6.914964e-10 6.931661e-10 3.150514e-10 1.005744e-09 4.770842e-10 1.047903e-09 4.924818e-10 3.821400e-10
5.908161e-10 9.670307e-10 9.817391e-10 9.057053e-10 1.270624e-09 1.063914e-09 1.077833e-09 7.831757e-10 1.062889e-09 6.441411e-10
1.618515e-09 9.603994e-10 9.016098e-10 1.270612e-09 8.337014e-10 1.363544e-09 1.870865e-09 1.069456e-09 4.016736e-10 1.423362e-09
1.921805e-09 1.014073e-09 1.534559e-09 6.659884e-10 1.305868e-09 1.313333e-09 1.565541e-09 1.167834e-09 1.412875e-09 9.170272e-10
1.557099e-09 7.348905e-10 1.431025e-09 1.848022e-09 7.413687e-10 6.877943e-10 1.769617e-09 1.196742e-09 1.496422e-09 1.195355e-09
1.704018e-09 1.345367e-09 7.860825e-10 1.143025e-09 1.485989e-09 9.103398e-10 7.862532e-10 1.080023e-09 1.649310e-09 9.999626e-10
1.313551e-09 1.445065e-09 9.752013e-10 9.834458e-10 1.900785e-09 1.570680e-09 1.529537e-09 1.744933e-09 1.445504e-09 1.179632e-09
7.105735e-10 1.562892e-09 1.060974e-09 1.413313e-09 1.619244e-09 8.375442e-10 1.150426e-09 1.515262e-09 1.186202e-09 1.060861e-09
8.941248e-10 1.051330e-09 1.510495e-09 1.377190e-09 1.279797e-09 1.204541e-09 9.839197e-10 5.625366e-10 1.770038e-09 1.229785e-09
6.824413e-10 1.399420e-09 6.873163e-10 1.661284e-09 6.436641e-10 1.124384e-09 9.316886e-10 9.545899e-10 5.372739e-10 1.173201e-09
6.700743e-10 1.112992e-09 9.278645e-10 7.662915e-10 6.659007e-10 5.979055e-10 1.115277e-09 1.126206e-09 9.261128e-10 1.107918e-09
7.429422e-10 2.310688e-10 8.394441e-10 6.173461e-10 7.187840e-10 7.410083e-10 8.818999e-10 1.366919e-09 4.383163e-10 6.695999e-10
5.796090e-10 8.398697e-10 6.572351e-10 -2.867332e-10 7.258407e-10 8.222087e-10 9.021988e-10 7.457920e-10 8.570119e-11 8.742900e-10
1.036360e-09 6.351595e-12 -3.022600e-10 8.237558e-10 4.717600e-10 -1.054080e-10 9.771394e-10 1.932475e-10 2.548095e-10 1.409370e-10
6.715901e-10 8.941723e-11 3.240334e-10 -2.839965e-10 -6.397242e-11 2.796599e-11 -1.569651e-10 3.372573e-10 9.760288e-11 7.695136e-11
-2.241940e-10 -2.422028e-10 2.451228e-10 -2.312635e-10 -2.778935e-10 3.822715e-10 4.552189e-11 2.256561e-10 -7.759145e-12 -1.030156e-09
-6.251925e-12 -2.856773e-10 3.700418e-11 -3.074801e-10 -3.326480e-10 -7.875620e-10 -3.521432e-10 -2.873309e-10 -1.894922e-10 -2.190090e-10
-3.824560e-10 -6.642478e-10 -6.452825e-10 -1.080725e-09 -6.207112e-10 -4.335097e-13 -1.282950e-09 -8.237766e-10 -8.192609e-10 -7.726532e-10
-9.854361e-10 -5.594469e-10 -4.917981e-10 -7.756254e-10 -8.839052e-10 -6.710200e-10 -8.033170e-10 -8.875299e-10 -1.406573e-09 -6.625680e-10
-8.981854e-10 -1.175213e-09 -6.991773e-10 -1.464781e-09 -2.756893e-10 -2.657931e-10 -2.180904e-10 -1.393129e-09 -1.078886e-09 -6.212894e-10
-9.254821e-10 -9.104111e-10 -1.190567e-09 -7.605885e-10 -1.036087e-09 -1.521396e-09 -1.227052e-09 -1.055146e-09 -7.946299e-10 -1.161224e-09
-1.271105e-09 -1.326727e-09 -9.027856e-10 -1.243271e-09 -1.380188e-09 -1.065185e-09 -1.100427e-09 -9.853668e-10 -1.019592e-09 -1.707568e-09
-1.300650e-09 -9.762021e-10 -1.099178e-09 -1.144797e-09 -1.564764e-09 -6.357712e-10 -1.063939e-09 -1.464465e-09 -9.818738e-10 -1.003961e-09
-1.088433e-09 -1.679481e-09 -1.689336e-09 -1.129583e-09 -1.290294e-09 -1.309440e-09 -1.175208e-09 -1.072767e-09 -1.562156e-09 -1.598328e-09
-8.422624e-10
-8.883004e-10 -1.120421e-09 -7.692207e-10 -1.713369e-09 -1.232227e-09 -6.585629e-10 -6.448759e-10 -9.852380e-10 -7.220375e-10 -7.710680e-10
-1.060278e-09 -1.181232e-09 -1.097258e-09 -8.805790e-10 -1.017177e-09 -9.519902e-10 -9.343775e-10 -1.160121e-09 -1.557665e-09 -1.074082e-09
-3.744996e-10 -5.899047e-10 -4.433930e-10 -8.727440e-11 -1.112148e-09 -9.684710e-10 -1.173023e-09 -1.565050e-09 -2.801822e-10 -8.782253e-10
-7.601217e-10 -4.360695e-10 -8.647165e-10 -6.093557e-10 -8.006658e-10 -5.112903e-10 -1.170486e-09 -3.254027e-10 -1.008123e-09 -6.116472e-10
-1.018800e-09 -4.396860e-10 -1.068217e-09 -1.018059e-09 -3.194630e-10 -1.032056e-09 -6.237623e-10 -1.353102e-09 -7.384599e-10 -7.299250e-10
-8.634808e-10 -1.449955e-09 -9.223722e-10 -7.497806e-10 -8.212128e-10 -6.891204e-10 -5.911539e-10 -4.245844e-10 -7.310583e-10 -1.511876e-10
-4.877763e-10 -6.228968e-10 -8.684882e-10 -1.540718e-10 -2.056230e-10 -3.807757e-10 6.410749e-12 -9.402352e-11 -6.885910e-10 -1.907664e-10
-1.038330e-09 -5.837226e-10 -4.736974e-10 -3.215515e-10 -2.377233e-10 -7.825861e-10 5.267231e-10 -5.265731e-10 -4.958704e-10 -8.900290e-11
-5.161190e-10 -2.387539e-10 -6.543873e-10 1.343653e-11 -2.302530e-11 -2.990049e-10 -8.764826e-11 1.694943e-10 -1.127695e-10 4.008378e-10
5.015962e-10 9.494672e-11 6.123498e-10 3.235480e-10 6.749718e-11 8.002177e-11 5.770124e-10 -1.665228e-10 3.030229e-10 1.753382e-10
9.551154e-11 6.496585e-10 -4.530928e-10 4.298946e-11 -2.412824e-10 1.364001e-10 3.050651e-10 3.614692e-10 1.591959e-11 4.050230e-10
3.085071e-10 9.247578e-10 6.834996e-11 9.083701e-10 1.046384e-09 5.146305e-10 -1.641232e-11 1.885174e-10 1.510149e-10 8.065984e-10
5.862454e-10 8.333597e-11 8.092132e-10 8.234213e-11 4.295848e-10 5.989995e-10 1.206041e-09 6.288061e-10 1.381749e-09 8.180672e-10
5.508878e-10 2.084615e-10 5.476203e-10 1.494481e-09 5.412660e-10 1.036517e-09 8.772303e-10 8.955944e-10 4.423557e-10 7.719989e-10
1.437801e-09 8.710996e-10 5.866166e-10 1.009078e-09 5.894510e-10 1.119801e-09 1.098914e-09 9.465717e-10 8.353332e-10 6.186697e-10
9.247958e-10 5.675063e-10 7.881256e-10 1.623120e-09 3.637604e-10 9.665998e-10 1.172035e-09 1.501335e-09 6.141731e-10 5.178425e-10
1.131503e-09 1.010461e-09 3.283036e-10 1.173769e-09 9.839725e-10 9.879975e-10 4.882303e-10 9.887705e-10 1.079644e-09 6.945463e-10
8.053164e-10 1.335822e-09 1.579784e-09 1.754266e-09 8.025577e-10 9.996247e-10 1.139974e-09 8.374244e-10 1.235159e-09 9.148082e-10
3.777535e-10 7.759438e-10 3.123410e-10 1.199929e-09 1.469042e-09 1.000502e-09 1.110424e-09 5.343871e-10 1.098620e-09 1.188670e-09
1.368236e-09 8.849608e-10 9.498592e-10 9.631272e-10 1.170853e-09 4.401223e-10 8.459596e-10 8.529064e-10 6.428590e-10 1.357095e-09
7.558661e-10 1.368169e-09 6.509946e-10 1.225855e-09 6.409163e-10 9.949502e-10 6.680803e-10 6.574625e-10 7.777903e-10 1.107407e-09
1.120873e-09 8.215175e-10 6.487029e-10 4.913077e-10 1.477471e-09 5.679736e-10 7.173473e-10 4.978266e-10 8.251193e-10 1.385928e-09
3.359835e-10 9.794251e-10 5.930060e-10 4.817461e-10 7.986635e-10 5.731312e-10 4.404527e-10 6.721825e-10 6.068057e-10 5.775589e-10
7.599377e-10 7.219050e-10 4.869615e-10 5.533376e-10 4.732799e-10 5.517565e-10 3.757462e-10 6.643672e-10 -4.842318e-11 6.527872e-10
1.537414e-10 2.556901e-10 2.369369e-10 6.719436e-10 4.594544e-10 3.889270e-10 2.996826e-10 1.452446e-10 -3.591324e-11 -8.812332e-11
8.650031e-11 6.765530e-11 6.998404e-10 6.980970e-10 1.826453e-10 3.271883e-10 6.485236e-10 4.657996e-10 2.807629e-10 1.125160e-10
1.443578e-10 -4.563742e-10 1.053689e-10 -2.448480e-10 -3.401843e-10 -5.957627e-11 1.613323e-10 -2.978545e-10 2.333579e-11 5.832331e-10
-2.672777e-11 3.070553e-10 -8.498378e-11 -5.370805e-10 3.393262e-10 -1.923622e-10 -5.191342e-10 -1.583163e-10 -3.629157e-10 -3.784528e-10
1.559783e-10 -3.799523e-10 -5.136366e-10 2.143349e-11 -8.882831e-10 -1.634341e-10 1.857091e-10 -5.328476e-10 -5.620052e-10 -9.571851e-11
-4.300770e-10 -2.245028e-10 8.106922e-12 -7.694481e-10 -9.473321e-10 -3.489226e-10 4.046161e-12 -6.442760e-10 -1.801095e-11 -2.204299e-10
-6.154860e-10 -7.148195e-10 -1.159954e-10 -4.585528e-10 -9.415676e-10 -7.144090e-10 -1.992809e-10 -9.045646e-10 -9.294011e-10 -7.453241e-10
-5.304042e-10 -9.804285e-10 -8.296777e-10 -1.051889e-09 -1.025397e-09 -8.601822e-10 -5.762735e-10 -7.405181e-10 -8.594094e-10 -7.623274e-10
-4.952669e-10 -4.508500e-10 -1.250681e-09 -8.919228e-10 -8.779158e-10 -2.947216e-10 -5.112913e-10 -1.045638e-09 -7.788201e-11 -8.033374e-10
-8.184551e-10 -6.139374e-10 -5.408957e-10 -9.415119e-10 -1.219854e-09 -9.327761e-10 -1.326015e-09 -9.769020e-10 -8.929212e-10 -1.052443e-09
-5.794982e-10 -9.828701e-10 -9.516686e-10 -1.272515e-09 -1.132461e-09 -1.642756e-09 -1.255388e-09 -7.363857e-10 -1.086114e-09 -8.969671e-10
-7.351555e-10 -7.442979e-10 -6.288814e-10 -1.127721e-09 -8.722120e-10 -8.203307e-10 -8.195064e-10 -8.721338e-10 -1.025174e-09 -6.708376e-10
-8.883004e-10
-8.588244e-10 -1.082114e-09 -7.649171e-10 -8.431691e-10 -6.233478e-10 -5.966358e-10 -7.578225e-10 -7.612933e-10 -5.706569e-10 -9.606945e-10
-8.411625e-10 -5.362323e-10 -4.743861e-10 -4.145289e-10 -5.464795e-10 -8.347457e-10 -3.530517e-10 -9.136835e-10 -1.122033e-09 -1.346964e-09
-9.218668e-10 -6.241961e-10 -7.736014e-10 -5.348267e-10 -6.925676e-10 -1.045040e-09 -8.939779e-10 -5.677969e-10 -8.513144e-10 -8.549250e-10
-4.537262e-10 -5.477930e-10 -3.263864e-10 -8.474386e-10 -9.852469e-10 -4.423262e-10 -3.393255e-10 -8.207560e-10 -4.247599e-10 -6.951471e-10
-6.970720e-10 -3.953532e-10 -8.525573e-10 -4.495999e-10 -1.209101e-09 -8.140367e-10 -6.785110e-10 -2.279862e-10 -6.341059e-10 -5.688350e-10
3.670767e-12 -1.788507e-10 -2.391232e-10 -8.297563e-10 -4.048400e-10 -5.939346e-11 -7.730678e-10 -3.707391e-10 -4.954567e-10 5.627047e-10
-1.206652e-10 1.266419e-10 -5.514859e-10 -2.362552e-10 -1.598315e-10 -6.880446e-10 -1.213017e-10 2.240473e-10 -4.900291e-10 -2.617823e-10
2.325097e-10 -1.395523e-10 -1.591687e-10 1.989483e-12 -7.633719e-11 -5.226675e-10 -2.457207e-10 -2.646585e-10 3.395340e-11 1.674806e-10
-7.805451e-11 -8.805928e-11 -1.768597e-10 -2.670195e-10 -1.797741e-10 -2.417699e-10 -4.915285e-10 3.226900e-10 2.904367e-10 1.830535e-10
3.522971e-10 7.227501e-11 7.886559e-11 4.553438e-10 -3.814729e-10 3.031560e-10 6.299828e-10 5.450492e-11 3.145293e-10 1.660831e-10
2.663476e-10 3.661581e-10 6.951063e-11 4.709155e-10 7.581285e-11 -2.698222e-10 -3.065741e-10 -2.835763e-10 1.429819e-10 7.003922e-11
-2.469491e-10 2.586179e-10 1.952321e-10 2.168605e-10 -3.232694e-10 7.503420e-10 2.553541e-10 5.210094e-10 4.462007e-10 6.973291e-10
-2.477528e-10 4.761657e-10 6.631951e-10 4.925440e-10 5.116005e-10 2.356370e-10 6.367196e-10 2.717395e-10 -3.344150e-10 4.319264e-10
3.184856e-11 2.619741e-10 5.761004e-10 5.059109e-10 2.647348e-10 7.318523e-10 6.863550e-10 1.165582e-09 6.942042e-10 1.382779e-09
4.485926e-10 2.430665e-10 9.289563e-10 8.347003e-10 1.078115e-09 4.780290e-10 5.464006e-10 7.120035e-10 4.650423e-10 1.232509e-09
3.342248e-10 9.459028e-10 2.586708e-10 5.560775e-10 5.554430e-10 4.601764e-10 9.493769e-10 1.132547e-09 5.998783e-10 5.704936e-10
7.493295e-10 1.208036e-09 9.773494e-10 1.263030e-09 5.086973e-10 1.547146e-10 9.316433e-10 1.391558e-09 5.116546e-10 2.867752e-10
5.297212e-10 6.341245e-10 8.144620e-10 3.928695e-10 1.027351e-09 1.193063e-09 4.778302e-10 6.520672e-10 8.705883e-10 7.994902e-10
1.273395e-09 4.290793e-10 1.173322e-09 7.070604e-10 8.273895e-10 1.028684e-09 1.294685e-09 4.323320e-10 4.781336e-10 1.456326e-09
7.722762e-10 5.199530e-10 6.543746e-10 7.004959e-10 9.615069e-10 6.093461e-10 8.042698e-10 5.473584e-10 3.235662e-10 7.508318e-10
1.079633e-09 1.048850e-09 1.147844e-09 4.187836e-10 9.786728e-10 1.391997e-09 6.391265e-10 7.273145e-10 6.586198e-10 6.287896e-10
-7.579243e-12 1.051571e-09 4.623157e-10 6.697689e-10 7.366001e-10 3.412688e-10 7.866555e-10 5.742488e-10 4.814836e-10 6.714473e-10
1.328813e-10 1.047983e-09 2.230950e-10 1.629081e-10 8.029919e-10 5.484999e-10 4.943057e-10 -3.326428e-10 5.837981e-10 1.104602e-09
-2.483143e-11 -5.639444e-11 4.037300e-10 5.321233e-10 1.414435e-10 6.928342e-10 4.033242e-10 6.305947e-10 1.138421e-11 3.096796e-10
1.390477e-10 9.724680e-10 1.830279e-10 5.388842e-11 1.528244e-10 7.673953e-11 1.450778e-10 1.880303e-10 7.049084e-10 2.859459e-10
6.068076e-11 5.701571e-10 9.038617e-12 3.839174e-10 3.017882e-10 2.075085e-11 -1.946313e-10 1.425269e-10 2.387300e-10 3.988630e-10
4.195135e-10 2.254609e-10 5.602316e-10 -2.799444e-10 -7.876120e-11 3.156757e-10 -1.372695e-11 8.866939e-12 1.903043e-10 -2.461083e-10
1.752398e-11 1.685065e-10 6.982726e-11 -8.719410e-10 -1.450713e-10 5.698621e-10 -3.360810e-11 -3.555816e-10 -3.562116e-10 -5.820511e-11
3.155112e-10 -2.384219e-10 -1.895831e-10 2.880491e-10 1.710529e-10 -9.298464e-11 -4.371119e-11 -8.006886e-10 -4.072197e-10 -1.075225e-10
-3.662878e-10 -4.143562e-11 -2.893531e-10 1.591624e-10 -2.032138e-10 -3.050742e-10 -6.246408e-10 -6.197939e-11 1.500249e-10 -5.573179e-10
-6.124570e-10 -2.231122e-10 -7.089151e-10 -7.521484e-10 -4.341002e-10 -2.128570e-10 -6.575495e-10 -7.523149e-10 -1.548989e-10 -1.195563e-10
-7.929888e-10 -6.238845e-10 -7.874593e-10 -8.017587e-10 -4.637264e-10 -8.236770e-10 -3.322670e-10 -1.599744e-10 -5.882292e-10 -1.109744e-09
-7.076172e-10 -1.410688e-10 -3.125140e-10 -4.062209e-10 -9.811978e-10 -9.273915e-10 -4.430220e-10 -4.009783e-10 -4.617770e-10 -1.743197e-09
-7.194353e-10 -1.090812e-09 -6.292202e-10 -1.342545e-09 -1.614944e-10 -7.850823e-10 -1.133693e-09 -4.211292e-10 -6.584360e-10 -6.605469e-10
-7.133669e-10 -3.638735e-10 -4.946017e-10 -1.321567e-09 -5.125312e-10 -1.225813e-09 -8.437842e-10 -2.846811e-10 -1.057450e-09 -6.882302e-10
-6.451262e-10 -8.930391e-10 -1.063924e-09 -6.208694e-10 -6.310188e-10 -9.615126e-10 -1.027119e-09 -1.243574e-09 -7.163370e-10 -8.010694e-10
-8.588244e-10
-3.432601e-10 -9.834165e-10 -1.041830e-10 -7.183745e-10 -9.566136e-10 -2.237898e-10 -7.741940e-10 -6.247236e-10 -7.692229e-10 -3.175239e-10
-7.751139e-11 -3.990787e-11 -4.477617e-10 -6.112843e-10 1.352310e-13 -6.383411e-10 -1.948154e-10 -5.261072e-10 -3.174750e-10 -7.320527e-10
-9.334450e-10 2.894733e-10 -6.015226e-10 -3.904456e-10 -1.105503e-09 -5.183372e-10 -7.124299e-10 -2.890540e-10 -7.800415e-10 -6.903271e-10
-7.290511e-10 -3.163181e-10 -3.803766e-10 -6.075907e-11 -3.280088e-10 -3.842936e-10 -5.645273e-10 -4.195888e-10 -3.279522e-10 -3.957946e-10
-3.422092e-10 -7.743735e-10 -7.193881e-10 -6.353120e-10 -5.055527e-10 -1.715241e-10 -5.447041e-10 -2.376646e-10 1.968577e-11 -7.245049e-10
-2.442881e-10 -6.836715e-10 2.245902e-10 -1.497446e-10 -7.713274e-13 -6.743235e-10 -2.423543e-10 -4.655712e-10 -9.777864e-10 -7.969761e-10
-3.278886e-10 1.162910e-10 -7.292622e-10 -2.442848e-10 -2.527307e-10 -4.510318e-12 -4.865158e-10 -1.786210e-10 -5.379620e-10 -3.533223e-10
-4.349017e-11 -1.670212e-10 -1.649868e-10 -7.392717e-10 4.485387e-10 -1.705387e-10 -1.118718e-10 4.681209e-10 -7.215839e-10 2.971005e-10
-1.404825e-10 -4.293771e-10 -5.617960e-10 -1.904193e-10 -1.123858e-10 2.171667e-10 1.246882e-10 -1.299944e-10 2.424667e-11 4.188327e-10
1.533136e-10 -4.930710e-10 2.848234e-10 1.536997e-10 3.809359e-10 4.169919e-10 1.351563e-10 2.600602e-10 -1.813007e-10 -9.840704e-11
3.941958e-10 3.996661e-10 4.147329e-10 -4.273335e-11 -6.096292e-11 -1.914842e-10 -2.220083e-10 2.301224e-10 9.978999e-12 -1.943503e-10
-1.392402e-10 -3.292505e-10 5.411709e-10 4.137106e-10 2.214477e-10 8.683961e-10 3.100496e-10 4.592506e-10 1.703049e-10 2.237387e-10
5.558173e-10 4.230855e-10 1.799443e-10 2.826954e-10 3.207460e-10 2.850613e-10 4.074342e-10 2.029558e-10 5.417774e-10 -2.835268e-10
-4.481195e-10 4.596327e-10 -2.676487e-11 -5.753761e-10 6.687135e-10 6.967356e-10 4.770029e-10 7.851313e-10 6.050219e-10 8.357744e-10
4.422377e-10 6.451453e-10 8.999601e-10 3.132171e-10 2.862043e-10 1.935751e-10 1.868709e-10 1.337401e-11 5.192283e-10 7.292448e-10
2.914527e-10 5.170002e-10 5.717243e-10 5.926333e-10 1.254243e-09 4.761755e-10 7.797305e-10 3.761677e-10 -3.682252e-10 1.336569e-10
8.765125e-11 6.880219e-10 -1.399285e-10 6.374403e-10 3.658340e-10 5.244843e-10 3.482763e-10 1.519656e-10 5.900476e-10 3.668903e-10
4.343562e-10 3.689577e-10 5.201029e-10 4.457534e-10 7.850705e-10 5.283327e-10 5.134039e-10 8.405137e-10 1.071738e-09 6.925966e-10
1.250729e-09 5.650785e-10 7.036127e-11 2.443823e-10 7.217225e-10 1.886650e-10 2.944790e-10 6.101439e-10 4.283737e-10 2.024761e-10
4.861976e-10 1.227693e-10 5.132813e-10 7.452983e-10 2.444051e-10 1.238311e-09 8.881657e-10 8.104979e-10 4.288699e-10 5.781986e-10
7.124926e-11 5.811786e-10 2.897588e-10 3.912611e-11 3.000285e-10 6.807190e-10 5.292959e-10 4.753061e-10 5.966497e-10 3.636717e-10
8.209988e-10 8.781731e-10 7.328465e-10 3.770213e-10 5.143447e-10 3.799701e-10 2.206060e-10 2.052612e-10 6.581893e-10 5.529305e-10
5.497946e-10 8.124424e-10 2.166967e-10 4.092555e-10 3.602270e-10 3.468551e-10 2.877053e-10 3.316311e-10 9.589692e-10 -3.167318e-10
1.144202e-10 5.696971e-10 -5.001459e-10 2.700657e-10 6.770934e-10 7.464960e-10 -2.604691e-11 1.593520e-11 1.681685e-10 3.461822e-10
8.697478e-10 -1.141413e-10 2.975796e-10 -3.440024e-10 1.323924e-10 2.348752e-10 1.969923e-10 6.322282e-11 2.421635e-11 6.068928e-10
5.120490e-10 -3.115729e-10 5.470159e-10 -4.057218e-10 1.767519e-10 -2.646762e-10 6.678008e-10 2.183512e-10 5.199242e-10 -2.435329e-10
-1.038604e-10 7.679596e-11 4.058450e-10 7.059571e-10 5.208722e-10 -1.761313e-11 -2.873115e-10 1.024426e-10 1.846645e-10 8.676287e-11
-2.573132e-10 1.879771e-10 -2.526744e-10 -3.092802e-10 -6.919398e-10 4.134411e-10 4.954947e-11 -6.286940e-10 4.335131e-11 -3.621087e-10
4.738175e-11 -3.166302e-10 -1.591515e-10 -1.954263e-10 5.436530e-11 -4.455072e-10 5.959050e-10 -1.724926e-10 -1.621123e-10 1.986309e-10
3.445248e-11 -4.415231e-11 -1.008162e-11 -2.789133e-11 -3.867676e-10 -4.265718e-10 -1.441114e-10 -5.433327e-10 1.420851e-10 -6.057266e-12
-1.686884e-10 -3.115049e-10 -2.581238e-10 -3.032674e-10 -2.347740e-11 -6.171289e-10 -2.261027e-10 -4.526440e-10 -4.160558e-10 -4.864866e-10
-1.471200e-10 7.121690e-11 -4.574568e-10 -5.119835e-10 -5.606794e-10 6.170491e-11 -3.347637e-10 -7.546021e-10 1.671401e-11 -3.585829e-10
-5.288849e-10 -4.447176e-10 -2.049910e-10 -3.432029e-10 -5.216242e-10 -6.499059e-10 -5.166261e-10 -4.509622e-10 1.159301e-10 -7.605664e-10
-5.361003e-10 -9.636970e-10 -3.151717e-10 -2.576497e-10 -8.252381e-10 -6.025163e-10 -6.514853e-10 -2.241326e-11 -2.843926e-10 -7.008557e-10
-5.830378e-10 9.159611e-11 -5.406226e-10 -2.331594e-10 -1.126412e-09 7.597989e-11 -5.987880e-10 -5.525289e-10 -3.013931e-10 -2.937056e-10
-5.985112e-11 -5.598026e-10 -9.282241e-10 -8.800023e-10 -7.593857e-10 -4.733907e-10 -8.593839e-10 -6.876332e-10 -3.864230e-10 -7.786664e-10
-3.432601e-10
-1.049096e-10 -3.192118e-10 -3.204970e-10 -6.966174e-10 -7.505526e-10 -3.326676e-10 -3.160932e-10 3.107016e-11 -1.420413e-10 4.899771e-11
8.996385e-11 -8.102092e-10 7.531278e-11 -1.224960e-10 3.367772e-10 -3.677958e-10 3.888453e-10 -3.545839e-10 -3.727104e-10 -3.459870e-11
-3.528147e-10 9.308446e-11 -1.224568e-10 -4.223593e-10 -7.478370e-13 -1.871006e-10 -2.570801e-10 4.841733e-10 -3.349084e-10 3.383053e-10
1.441651e-10 1.205507e-10 -4.884250e-10 -2.890564e-10 6.101895e-10 -6.654800e-11 -2.803132e-10 5.423328e-12 -7.713186e-10 7.250356e-11
-6.478526e-10 -3.553958e-11 4.132543e-10 -7.167957e-10 -3.509927e-10 -2.872703e-11 -1.171353e-10 -6.961726e-11 -1.911921e-11 -1.430556e-10
-6.907049e-12 -3.488303e-10 6.608459e-10 1.929439e-10 -5.169508e-11 -2.293488e-10 -2.121582e-10 1.195401e-10 1.434917e-10 -4.792355e-11
-7.070573e-10 -4.052169e-10 -1.550098e-10 -1.923190e-10 -8.587575e-11 -2.846268e-10 7.583812e-11 -3.706038e-10 1.852801e-10 1.151434e-10
9.126107e-12 -2.869486e-11 1.460623e-10 9.316500e-10 7.306328e-11 -4.816336e-10 -5.655962e-10 -3.256734e-10 2.370904e-10 -6.887020e-10
5.045792e-10 -1.539865e-10 1.586766e-10 4.615466e-10 -1.549151e-11 -2.555990e-10 -1.549586e-10 5.080744e-10 -1.784011e-10 -1.729758e-11
-1.446326e-10 3.672363e-10 -2.678316e-10 -2.863756e-11 -3.020465e-10 -2.979559e-10 -1.138989e-10 1.512422e-10 -1.927539e-10 7.733489e-10
-1.742240e-10 3.437100e-10 6.023091e-11 1.298401e-10 4.852115e-10 -1.994235e-11 -1.232171e-10 1.642761e-10 8.452785e-10 3.973837e-10
-3.955255e-10 1.385897e-10 1.708153e-10 -4.841984e-10 -4.010976e-10 1.248088e-10 3.357298e-10 -2.647341e-10 3.277127e-10 9.544715e-11
1.745625e-10 9.074088e-10 4.441703e-10 6.992421e-11 9.998937e-12 -4.960974e-10 2.837683e-10 2.324191e-10 5.274076e-10 -3.257097e-10
3.082096e-11 -1.958683e-10 -4.024984e-10 -7.782760e-11 -4.175147e-10 2.674218e-10 2.891545e-10 1.112792e-10 1.246590e-10 9.476409e-11
1.760845e-10 2.440241e-10 2.171633e-10 4.935350e-10 4.233630e-10 2.238870e-10 3.083586e-10 3.710670e-10 1.809579e-10 2.027526e-12
4.625336e-10 -8.526557e-11 4.998995e-10 -2.373644e-10 4.734615e-11 7.061897e-10 4.041618e-10 -2.916021e-10 3.674537e-10 3.248875e-10
7.251525e-11 2.803618e-10 8.375102e-10 7.094916e-10 4.847001e-10 3.590656e-10 2.767773e-10 3.883737e-10 4.982672e-10 -3.758613e-10
1.955160e-10 3.849809e-10 3.496897e-10 4.312329e-11 1.610814e-10 6.672062e-10 5.127517e-10 1.108510e-10 -7.916377e-11 2.591782e-10
4.343463e-10 5.599424e-10 3.167818e-10 -1.836085e-11 -1.132965e-10 5.544450e-10 5.261071e-10 9.185774e-11 3.541772e-10 -2.201182e-10
1.563572e-10 2.157210e-10 3.549145e-10 -9.917373e-11 7.142847e-10 2.367385e-10 -7.742295e-11 5.042182e-10 -5.498007e-11 6.642010e-10
3.763455e-10 -5.762468e-10 2.568795e-11 -1.586941e-10 3.426850e-10 3.043980e-10 3.959734e-10 -1.421354e-11 5.449609e-10 6.173299e-10
-1.234309e-10 -2.973442e-11 1.315861e-10 4.595409e-10 3.085524e-10 1.286419e-10 9.710916e-11 -4.913154e-10 4.231558e-10 -5.343326e-10
6.981089e-11 -4.289041e-12 3.749230e-10 -1.075440e-10 3.359362e-10 5.464065e-12 1.499250e-10 2.410319e-10 -7.783322e-11 -2.823634e-10
4.966993e-11 -8.193957e-11 1.597793e-10 7.837840e-10 1.252395e-10 4.711453e-12 -7.563383e-11 -1.438319e-10 3.994719e-10 3.498301e-10
4.381786e-10 2.617646e-10 -1.988310e-10 7.715310e-13 6.354882e-10 -8.089463e-11 -3.380480e-11 3.960172e-10 4.222162e-10 -3.303382e-10
-4.967129e-12 -4.101191e-11 4.223470e-10 -3.504660e-10 1.559922e-10 1.401549e-10 2.208966e-10 8.236042e-10 4.420787e-10 -5.195381e-12
-1.421082e-11 -2.912627e-10 1.291570e-10 -3.039699e-10 -1.881042e-10 1.123586e-09 -2.325077e-10 3.093296e-10 -5.808712e-11 -2.019677e-10
9.944005e-11 -6.758045e-11 1.269588e-10 2.187858e-10 -3.154120e-10 -3.129300e-11 -2.388214e-11 -1.587088e-10 -1.700981e-11 -2.491025e-10
-8.878833e-12 7.419804e-10 -4.430952e-10 -8.624734e-11 -4.956510e-10 -1.678894e-10 5.462514e-11 2.275263e-10 -1.751649e-10 -3.675892e-10
3.172141e-10 -2.736268e-10 -9.031975e-11 2.411066e-10 -9.434429e-11 -2.287416e-10 -6.297787e-10 -4.523606e-10 -1.278114e-10 -1.375200e-10
-3.478161e-10 6.996091e-11 -4.830077e-10 2.980225e-10 -1.458810e-10 -2.909471e-10 -1.843140e-11 -5.044012e-10 -3.867310e-10 3.769376e-10
-2.432537e-10 2.622826e-10 -4.626090e-10 5.842172e-11 -1.293219e-10 -3.942896e-10 -4.727652e-10 -1.388236e-11 -2.330973e-10 -6.357312e-10
8.071270e-10 -3.158289e-10 6.405580e-10 2.893373e-10 -3.787489e-10 -2.996709e-10 2.727488e-10 -5.751763e-10 -4.667471e-10 -4.287819e-10
-9.784940e-11 -2.958193e-10 -1.530604e-11 7.277554e-11 -4.438008e-10 2.769004e-10 -1.167175e-10 3.875133e-10 8.122908e-11 3.843347e-10
-1.807214e-10 -4.407879e-11 2.955598e-10 3.862525e-10 -1.627037e-10 -1.831954e-10 -7.265390e-10 -4.231235e-10 -2.268329e-10 -2.968793e-10
-2.822673e-10 -5.727478e-10 1.906103e-12 1.523915e-10 -2.562807e-10 -2.227344e-10 1.985289e-10 -2.652679e-10 -4.430420e-10 1.133423e-10
-1.049096e-10
4.761210e-11 -7.400857e-11 -7.386702e-11 2.396146e-11 1.336813e-10 1.759640e-10 -1.246413e-10 3.186548e-10 -7.826619e-11 -8.389804e-10
5.964539e-11 -3.943959e-10 4.483340e-11 -1.918775e-10 4.154442e-10 4.556245e-11 -3.137781e-10 -3.496401e-10 2.494705e-11 -6.139664e-10
-1.727846e-10 2.092736e-10 -4.690822e-12 2.166936e-12 3.681059e-10 -5.966750e-11 4.738458e-11 3.078106e-10 -2.943938e-10 1.223211e-10
3.431329e-10 2.271374e-10 -1.684013e-10 -2.493214e-10 -2.161765e-10 -2.354306e-10 9.459316e-11 1.677580e-10 -6.116955e-11 -7.158326e-10
-6.413149e-11 -2.546957e-10 -3.333315e-10 -2.481922e-10 -2.324515e-11 -1.936995e-10 1.162768e-10 -3.661821e-10 2.204069e-10 -6.159656e-12
-1.932264e-10 4.161492e-10 2.408280e-10 4.997333e-10 -1.477063e-10 4.563618e-10 -4.508474e-10 3.948890e-10 -2.802800e-10 3.390534e-10
9.409140e-13 -2.907726e-10 3.953377e-10 -4.880349e-10 -5.469296e-11 -1.333161e-10 2.217742e-10 -1.177916e-10 -4.633938e-11 1.206790e-10
2.446126e-10 2.716549e-10 6.248126e-10 -3.219497e-10 3.664048e-10 -1.908168e-10 3.917560e-10 -1.524832e-10 -1.574757e-10 3.196836e-10
4.951221e-10 -8.860997e-10 -1.368795e-11 -4.365746e-10 -1.487768e-10 -5.332381e-11 5.199225e-12 2.092883e-10 -9.614846e-12 7.476230e-11
-1.395016e-11 -3.993495e-10 1.959601e-10 -5.822525e-10 4.799341e-10 -1.145434e-10 6.002848e-11 4.538092e-12 1.285732e-10 -1.532592e-10
-1.630637e-10 -2.379129e-10 2.498780e-10 1.801403e-10 1.717691e-10 -2.898515e-11 -3.786007e-10 1.149507e-10 -1.087074e-10 -2.059775e-10
-2.313766e-10 1.603624e-10 8.676584e-11 -5.369343e-10 -2.506364e-10 5.255265e-10 -1.066507e-10 -3.461701e-11 -7.455319e-10 -4.418379e-10
3.463249e-10 1.681611e-10 -4.888645e-11 4.379303e-10 1.730738e-11 3.083579e-10 1.119704e-10 -6.044863e-10 3.490193e-10 2.847896e-11
2.497789e-11 3.885484e-10 3.633388e-10 2.567104e-10 -1.579397e-11 3.323447e-10 4.624685e-10 1.317667e-10 2.545970e-10 2.225492e-10
1.510761e-10 2.058315e-11 7.098159e-10 1.084856e-10 -5.699382e-10 -2.315030e-10 -8.883119e-11 3.934482e-10 1.006232e-10 1.755086e-10
4.363178e-11 -2.238815e-10 -5.611190e-10 -1.868109e-10 -8.145154e-10 -1.622781e-11 3.665734e-10 2.312923e-10 6.078495e-11 1.744628e-10
5.056629e-10 -1.709809e-10 -2.743629e-10 -2.157597e-10 5.465359e-11 -2.035980e-10 -9.505052e-11 2.976528e-10 -1.220662e-10 3.791015e-10
3.022167e-11 4.977643e-10 9.578152e-11 1.424738e-10 1.756073e-10 -1.622293e-10 1.618598e-10 -1.886223e-12 1.685490e-10 -2.061420e-10
-6.426404e-11 -2.045103e-10 -1.723042e-10 1.048964e-10 4.548912e-10 1.715199e-10 2.390208e-10 1.072060e-10 3.027397e-10 -4.872666e-10
-3.220223e-10 -3.991352e-10 -1.487576e-10 2.202418e-10 -2.002061e-10 -9.080255e-12 -5.985904e-11 -1.012863e-11 -8.004195e-11 -4.130676e-10
3.059068e-11 -5.555353e-10 7.200219e-11 6.403286e-10 3.163721e-10 -2.810915e-10 -3.433190e-10 4.210918e-11 2.929755e-10 -6.085238e-10
-1.409750e-10 1.136807e-10 5.306573e-11 2.475374e-10 -2.621175e-10 1.088457e-10 -2.822739e-10 2.856613e-10 1.345867e-10 4.717143e-10
1.265288e-11 2.708885e-10 -2.328914e-10 -2.647722e-10 -2.257168e-10 1.983303e-10 -3.650294e-10 1.681679e-10 8.952228e-11 -4.894235e-10
2.467902e-10 3.076286e-10 -9.124409e-11 -3.196899e-10 -5.013148e-11 7.018717e-10 5.167550e-11 2.068870e-10 -8.121668e-11 -8.603220e-11
3.507217e-10 -4.897457e-10 8.699732e-12 4.050707e-10 7.990895e-11 2.855119e-10 -5.868172e-10 -2.510378e-10 3.123920e-11 -2.985348e-10
-9.499920e-11 -2.078896e-10 -2.982032e-10 4.088267e-10 -1.208952e-10 -3.012006e-10 -3.420523e-11 -7.646617e-11 -5.638155e-10 7.213649e-11
1.362924e-11 -4.108106e-10 -1.680079e-10 4.699784e-10 -5.426939e-10 2.567317e-10 -1.275726e-10 -3.804249e-10 -2.341734e-10 3.917396e-11
3.546775e-10 3.872231e-10 1.936465e-11 2.817127e-10 1.579604e-10 -1.179656e-10 5.223124e-10 2.255083e-10 9.833314e-11 -1.530906e-10
1.338461e-10 -4.979490e-11 1.725497e-10 1.183339e-10 -1.708095e-10 4.398385e-10 6.929038e-11 3.585139e-10 -4.020337e-11 9.489282e-11
4.755192e-10 1.111603e-10 -3.247439e-10 3.778932e-10 5.497431e-10 -2.285457e-10 4.902468e-10 5.570985e-10 8.592367e-12 1.151640e-10
6.034792e-10 -2.022443e-10 3.572548e-10 5.330010e-11 2.594135e-10 3.166120e-10 1.175249e-10 5.860069e-10 3.744830e-11 3.487442e-10
-1.209551e-10 3.663791e-10 2.346285e-10 -3.452107e-10 -8.455242e-10 3.222751e-10 2.808048e-10 1.943070e-10 5.259235e-10 -5.335623e-10
-2.939855e-10 -2.681587e-10 1.402762e-10 3.548312e-10 1.793459e-10 1.129961e-10 4.782407e-10 3.288839e-10 1.623359e-10 -7.174785e-12
3.429707e-10 4.274522e-10 1.066452e-10 -1.989452e-10 -1.178903e-10 -2.052782e-10 -9.138617e-11 -3.065644e-10 -1.777798e-11 -5.667781e-10
2.000262e-10 3.757058e-10 -4.528184e-10 -4.510647e-10 2.636921e-10 3.313932e-10 -4.204354e-11 1.421786e-10 -2.999664e-10 -2.790657e-10
-1.379164e-10 -2.084205e-10 5.822443e-10 -6.991441e-10 1.528171e-10 -3.496750e-10 3.002199e-10 -3.416375e-10 2.485661e-10 1.175636e-10
4.761210e-11
-1.280364e-09 7.648510e-11 -1.461451e-09 2.896342e-09 2.167340e-09 -2.754113e-09 6.020086e-10 1.185676e-09 -1.716691e-09 -1.423998e-09
2.242001e-09 -3.741773e-10 4.590889e-10 -1.449871e-09 8.379381e-11 -3.226525e-10 2.072410e-10 2.629326e-09 -1.764266e-09 -3.951411e-10
-6.479895e-10 -5.718475e-10 -9.088718e-10 -1.497306e-09 -4.614862e-11 1.548399e-09 -5.947636e-10 7.522724e-10 -1.670123e-09 1.713780e-09
3.564601e-10 -5.564238e-10 3.353495e-10 1.290832e-09 1.586631e-09 3.987325e-11 6.720288e-10 -1.916016e-10 -1.657564e-09 7.124301e-10
4.825130e-10 1.809005e-10 -4.219232e-11 -8.525103e-10 -2.217088e-09 1.755626e-10 -1.286769e-10 4.805152e-10 2.197166e-09 -8.354366e-10
3.778862e-10 -3.496106e-10 1.719762e-09 1.671125e-10 -6.972670e-10 1.718544e-09 -1.817795e-09 -9.341480e-10 5.717606e-10 -5.670894e-10
-8.477166e-10 4.531284e-10 1.129539e-09 -6.086940e-10 2.839404e-10 -7.730281e-10 9.841342e-10 2.876520e-10 -9.943766e-10 1.010763e-09
7.978205e-10 1.972576e-11 2.554674e-10 3.756166e-10 -1.693433e-09 -6.168037e-10 -2.194563e-10 -8.860334e-11 2.413661e-10 1.563306e-09
-2.545240e-09 1.172886e-09 -1.545714e-10 -3.186680e-10 7.777221e-10 4.023024e-10 -6.483694e-10 -2.699863e-10 -6.772563e-10 -3.102877e-11
1.645721e-09 7.643739e-10 1.158706e-10 -1.108886e-09 9.792812e-10 -5.029077e-10 -2.334285e-10 2.419780e-10 -1.012160e-09 1.423622e-09
-3.779231e-10 -1.636336e-10 1.899165e-09 6.830421e-10 1.811935e-09 1.098890e-09 1.243843e-09 -1.463405e-09 5.649881e-10 -1.408803e-09
2.436120e-10 -1.680211e-10 -7.238694e-10 1.828807e-09 2.325970e-10 1.979408e-09 3.158498e-10 -1.358237e-09 -2.434673e-09 5.325029e-11
1.784843e-09 4.188208e-10 1.456444e-09 -4.193611e-10 -1.535043e-09 1.657966e-09 4.748076e-10 -2.435510e-09 2.283126e-11 -9.687648e-10
-2.164724e-09 1.789498e-09 -8.751857e-11 4.017521e-10 1.045061e-09 5.243014e-10 9.776676e-11 -1.911364e-10 3.527791e-10 -1.657597e-10
-3.592796e-10 -1.579987e-10 7.808224e-11 -2.136679e-09 -3.390807e-10 -2.126023e-10 -1.652285e-09 -5.824906e-10 -1.908218e-10 -3.848232e-10
4.749894e-10 -9.069086e-11 1.537234e-09 2.307919e-09 -5.349228e-10 -5.108982e-10 -1.470622e-09 -1.208575e-09 1.559873e-09 -2.073977e-10
-1.124557e-09 2.260923e-10 6.303096e-10 -6.712037e-10 1.133524e-09 -8.356784e-10 -1.781110e-09 -1.103480e-09 -1.409590e-09 8.838902e-10
1.621985e-09 -8.980008e-10 1.770439e-09 1.620813e-10 -2.999188e-10 9.832952e-11 -3.148484e-10 3.217337e-10 -6.577799e-10 6.521805e-11
-1.440570e-09 3.315951e-10 -2.535860e-10 -4.642590e-10 1.076801e-09 1.404604e-09 -7.751202e-10 7.432963e-10 -4.073346e-10 -1.070922e-09
2.810990e-10 1.071853e-09 -8.276029e-10 -1.407497e-09 -1.853671e-09 -9.067539e-10 1.156527e-09 -8.529574e-10 6.403749e-10 -2.464768e-10
1.627769e-10 -7.011316e-11 2.904277e-11 -6.724413e-10 -6.947951e-10 -1.239635e-09 1.475276e-09 -2.447709e-09 2.795972e-10 3.382862e-10
-1.724725e-09 -9.426898e-10 7.850304e-10 1.664684e-09 2.684601e-11 -5.979801e-10 -1.546475e-09 -5.254269e-10 -3.691035e-10 8.869740e-10
-5.865333e-10 -4.427732e-10 -9.472148e-10 5.078661e-10 -6.194452e-11 4.901634e-10 7.047034e-10 6.039859e-10 -7.401444e-10 4.476906e-10
2.379043e-09 1.550529e-09 -5.877964e-10 6.030416e-10 -8.429560e-10 -1.004959e-09 5.727174e-10 1.099412e-09 -9.515860e-10 1.381103e-09
-1.282437e-09 -6.983699e-10 8.181605e-10 7.262619e-10 -3.615407e-10 7.916490e-10 1.620836e-10 1.267733e-09 3.581573e-10 9.936350e-10
-6.950975e-10 1.987013e-09 -6.677145e-10 4.195978e-10 2.997836e-09 2.554177e-09 2.215221e-09 4.522280e-10 -1.671950e-09 4.275454e-10
1.875817e-09 1.756811e-10 9.380990e-10 -1.535822e-09 1.058993e-09 -4.659826e-10 -2.792504e-09 1.503819e-10 -9.808678e-10 -1.073836e-09
-2.655282e-10 -6.115483e-10 9.004364e-10 -2.167263e-09 -3.961998e-09 1.068914e-09 -1.642290e-09 -2.400631e-09 1.704045e-10 -4.635899e-10
2.572530e-10 -1.833890e-09 1.424127e-09 1.345006e-09 -3.089482e-10 -4.473639e-10 6.877735e-11 4.682928e-10 2.538406e-09 -1.068902e-09
7.897862e-10 -1.963135e-10 3.089138e-10 3.121524e-10 -2.480046e-09 -2.078299e-09 -1.388652e-09 7.880940e-11 3.495690e-10 2.124330e-10
1.960305e-09 -3.590013e-10 -1.291799e-09 1.826817e-10 -5.340416e-10 -7.636660e-10 5.356734e-10 7.563037e-10 6.952766e-10 8.339437e-10
-1.799202e-10 -2.906910e-09 2.406993e-09 -5.659408e-10 1.751247e-09 -2.420040e-09 8.087858e-10 -2.665776e-10 2.069339e-09 -1.448464e-09
1.990767e-11 -1.762108e-09 6.158131e-10 -1.215402e-09 -1.689064e-09 2.204529e-10 -2.212435e-10 -1.220870e-09 1.291610e-09 7.047814e-10
8.654745e-10 5.030888e-10 -6.875836e-10 -7.564242e-10 -9.926965e-11 -1.628926e-09 -1.960843e-09 6.958150e-10 -5.451654e-11 -4.877680e-10
3.057280e-10 -4.844500e-10 -4.902010e-10 -6.402148e-10 2.362546e-10 5.057383e-10 -1.079193e-09 -9.483458e-10 -9.469699e-10 -8.000833e-10
-6.138990e-10 -3.131358e-10 3.812695e-10 -9.498784e-10 -2.055710e-09 9.977867e-10 -5.092242e-10 4.798554e-11 2.170848e-09 -4.545453e-10
-1.280364e-09
